P3
# Created by GIMP version 3.2.6 PNM plug-in
236 295
255
8
0
0
8
0
0
10
0
0
10
0
0
11
2
0
12
3
0
14
3
0
14
3
0
14
3
0
14
3
0
17
4
0
18
5
0
20
5
0
22
7
0
23
8
1
22
9
1
24
14
4
23
15
4
22
14
3
22
14
3
25
12
3
25
12
3
25
11
0
25
11
0
31
13
3
31
13
3
33
13
6
33
12
7
37
11
12
38
11
16
39
12
19
41
10
25
41
8
29
49
14
38
54
16
41
52
14
35
52
13
32
49
11
26
53
12
28
60
19
33
63
22
40
65
23
43
73
33
59
85
44
74
90
50
87
96
55
97
89
50
94
74
36
85
63
27
88
62
27
91
64
32
95
50
19
78
40
12
61
42
16
53
37
13
35
40
19
28
37
17
16
36
17
11
36
15
10
36
15
10
38
14
10
39
16
10
42
17
12
45
18
11
48
19
11
50
17
8
56
17
10
68
25
16
83
36
26
94
46
32
100
51
36
101
52
35
105
52
34
105
52
34
108
51
34
106
49
32
98
40
26
90
34
19
91
38
24
96
47
33
97
49
39
88
43
40
102
54
68
149
103
129
184
136
178
183
137
186
183
136
190
181
136
191
180
137
190
180
137
190
180
140
192
182
142
194
186
143
196
188
145
198
189
146
199
188
147
203
184
144
207
182
143
210
175
138
207
153
116
185
122
86
156
105
72
141
100
66
140
92
62
134
97
66
142
93
67
141
91
64
143
88
65
143
92
69
151
95
73
155
94
75
157
95
73
156
98
74
158
99
74
158
99
74
158
99
74
158
98
74
158
98
74
158
98
74
158
98
74
158
99
75
161
100
76
162
101
78
168
102
79
169
103
79
173
103
79
173
103
79
175
102
78
174
105
77
179
105
77
179
106
78
178
106
78
178
106
78
178
107
79
179
107
79
179
107
79
179
110
83
180
110
83
180
110
83
180
110
83
180
110
83
178
110
83
178
110
83
178
110
83
178
110
84
183
110
84
183
111
85
184
111
85
184
113
85
187
114
86
188
117
86
190
117
86
190
119
86
193
117
84
189
121
86
190
124
89
189
121
87
181
122
89
178
141
107
191
165
130
210
198
155
237
203
158
239
207
162
243
208
163
244
208
161
241
205
158
238
205
156
235
204
156
232
199
148
225
198
147
222
198
146
220
197
145
219
197
145
217
198
146
218
200
147
219
201
148
220
203
152
221
203
152
221
204
153
222
205
154
223
207
156
223
209
158
225
210
159
226
211
160
227
211
160
227
214
163
230
216
165
232
216
165
232
215
164
231
213
162
229
213
162
229
214
163
230
219
164
232
220
165
232
220
165
232
220
165
230
216
164
226
214
162
226
211
159
225
209
156
224
205
152
224
207
154
224
212
157
222
212
159
215
190
139
182
144
95
125
111
62
84
110
60
72
103
52
59
108
58
61
110
61
64
100
56
57
76
38
37
51
17
15
36
8
4
34
11
5
27
6
1
24
7
0
23
6
0
20
5
0
19
4
0
20
5
0
21
6
0
22
7
2
56
42
42
84
68
71
96
76
78
99
72
77
102
70
75
104
65
70
94
47
55
67
16
21
76
19
26
83
24
28
90
29
34
97
37
39
8
0
0
9
1
0
10
0
0
11
1
0
12
3
0
13
4
0
14
3
0
14
3
0
14
3
0
15
4
0
18
5
0
19
6
0
21
6
0
22
7
0
23
8
1
22
9
1
24
14
4
22
14
3
22
14
3
23
13
3
25
12
3
25
12
3
26
12
1
28
11
1
30
12
2
31
12
5
32
11
6
35
11
9
37
11
14
38
11
18
38
11
20
41
10
26
44
9
33
57
21
49
63
24
51
57
19
44
53
14
35
50
11
30
56
15
33
64
23
41
70
28
48
76
34
58
91
48
76
102
61
95
108
66
106
112
71
115
107
65
111
90
52
103
73
37
98
66
31
95
66
31
95
56
25
84
51
21
71
49
23
60
41
17
39
42
21
30
37
17
16
37
16
11
37
16
11
38
14
10
38
14
10
41
16
11
42
17
10
45
18
11
49
19
11
50
17
8
57
18
11
68
25
16
83
36
26
95
47
33
100
51
36
101
52
35
105
52
34
107
51
34
109
52
35
106
49
32
98
40
26
91
35
20
92
39
25
97
48
34
98
50
40
91
43
43
103
55
69
152
104
130
184
136
178
184
136
186
184
137
191
182
137
192
182
139
192
182
139
192
182
142
194
184
144
196
188
145
198
190
147
200
191
148
201
190
149
205
185
145
208
185
146
213
184
144
214
166
129
198
142
105
175
126
90
160
116
83
154
106
74
147
103
73
147
99
71
146
95
68
147
92
68
146
93
70
152
95
73
155
97
75
158
96
74
157
102
77
161
102
77
161
104
76
161
101
76
160
101
76
160
100
76
160
101
76
160
99
75
159
99
73
160
100
76
162
103
78
169
104
81
171
106
81
175
104
80
174
104
78
175
103
77
174
106
78
178
106
78
180
107
79
179
107
79
179
107
79
179
108
80
180
108
80
180
108
80
180
111
84
181
111
84
181
111
84
181
111
84
181
111
84
179
111
84
179
111
84
179
111
84
181
112
84
184
111
85
184
113
85
185
113
85
185
114
86
188
117
86
189
117
86
190
119
86
191
122
89
194
122
86
192
125
90
192
129
93
191
127
92
186
128
94
181
145
111
195
169
132
212
198
155
235
202
157
238
206
161
242
206
162
241
205
158
238
202
155
233
201
152
231
200
152
228
198
147
222
198
147
222
198
146
220
197
145
219
197
145
217
198
146
218
201
148
220
202
149
221
204
153
222
204
153
222
205
154
223
207
156
225
208
157
226
210
159
226
211
160
227
212
161
228
213
162
229
216
165
232
218
167
234
217
166
233
215
164
231
213
162
229
213
162
229
214
163
230
216
163
231
219
164
232
219
164
231
218
163
228
215
163
227
212
160
224
210
157
225
208
155
223
205
152
222
208
155
223
206
152
214
190
137
189
160
110
148
123
74
103
107
58
77
116
66
77
110
59
64
109
59
62
104
55
58
91
47
48
68
30
29
46
12
10
34
6
2
32
9
3
27
6
1
25
6
0
23
6
0
20
5
0
20
5
0
20
5
0
22
7
0
22
7
2
58
42
43
85
69
72
99
79
81
101
74
79
103
71
76
107
68
73
100
53
59
75
24
29
80
23
30
86
27
31
93
32
37
99
39
41
10
0
0
10
0
0
11
1
0
12
2
0
13
4
0
13
4
0
15
4
0
15
4
0
17
4
0
18
5
0
18
5
0
20
7
0
22
7
0
23
8
1
24
9
2
23
10
2
23
13
3
22
14
1
23
13
3
23
13
3
25
12
3
25
12
3
26
12
3
28
11
3
30
11
4
30
11
5
32
11
8
35
10
13
37
10
17
37
9
21
40
9
24
40
8
29
45
9
37
67
27
61
75
34
66
65
24
54
58
15
43
54
11
38
59
15
42
70
26
53
84
39
68
95
52
82
113
69
104
125
83
123
130
87
132
131
89
137
126
84
134
114
73
129
94
55
118
76
39
106
70
33
100
68
34
95
68
36
86
58
30
68
45
20
42
44
21
31
39
18
17
40
16
12
39
15
11
39
15
11
40
15
11
43
15
11
45
18
11
46
19
10
50
20
12
52
18
9
57
18
11
69
26
17
84
37
27
95
47
33
101
52
37
102
53
36
105
52
34
108
52
35
109
52
35
108
49
33
99
41
27
92
36
21
93
40
26
98
49
35
99
50
43
92
44
44
104
56
70
153
105
131
185
137
179
185
137
187
185
138
192
183
138
193
184
141
194
184
141
194
186
143
196
188
145
198
190
147
200
192
149
202
193
150
203
192
151
207
188
148
210
190
149
215
192
151
219
184
145
212
166
129
198
154
118
188
141
108
179
127
95
168
110
80
154
104
76
151
99
72
151
96
72
150
98
73
156
99
76
158
101
77
161
102
78
162
106
78
165
106
78
165
107
77
163
106
78
163
105
77
162
103
78
162
104
76
161
102
77
161
103
75
162
103
77
164
106
80
171
108
83
174
110
83
178
109
84
178
108
81
178
107
80
177
108
80
180
108
80
180
108
80
180
109
81
181
109
81
181
110
82
182
110
83
180
110
83
180
112
85
182
112
85
182
112
85
182
112
85
182
112
85
182
112
85
182
112
85
182
112
85
182
113
85
185
114
86
188
116
85
188
117
86
189
118
87
191
120
87
192
120
87
192
123
87
193
124
88
194
123
86
191
125
89
189
130
93
189
130
93
186
134
98
185
151
116
198
172
133
214
197
154
234
201
157
236
205
158
238
204
157
237
201
154
234
197
150
228
196
147
226
196
148
224
198
147
222
198
147
222
198
146
220
197
145
219
198
146
220
199
147
221
201
148
220
203
150
222
205
153
225
206
154
226
207
155
227
209
157
229
211
159
231
212
161
230
213
162
231
213
162
231
216
165
234
218
167
236
220
169
238
219
168
237
216
165
234
214
163
232
213
162
231
213
162
231
215
162
232
215
162
232
215
162
232
214
161
229
212
159
227
210
157
225
210
155
223
209
154
222
209
154
221
204
150
212
186
131
188
155
102
148
127
76
109
110
61
83
110
59
74
118
69
75
113
62
67
104
55
58
91
45
47
76
34
35
59
21
20
42
8
6
32
4
0
30
7
1
27
6
1
25
6
0
23
6
0
22
5
0
22
5
0
23
6
0
25
8
1
23
8
3
58
42
43
89
70
74
103
81
84
105
78
83
106
74
79
111
72
77
109
62
68
88
37
42
80
25
31
86
27
31
92
31
36
97
37
39
11
1
0
12
2
0
12
2
0
13
3
1
14
5
0
15
6
1
16
5
1
16
5
1
18
5
0
19
6
0
20
7
0
21
8
0
23
8
1
24
9
2
25
10
3
25
12
3
23
13
1
22
14
1
23
13
3
24
14
4
26
13
4
27
13
4
29
12
4
29
12
5
30
11
5
32
11
8
34
9
12
35
10
16
37
9
21
38
10
25
40
8
29
41
7
32
49
9
44
72
32
69
79
37
75
68
26
62
62
18
54
59
15
50
65
19
55
79
33
69
104
58
95
118
72
111
134
87
131
142
96
143
144
97
149
143
99
152
139
94
149
132
88
147
114
73
139
90
51
118
79
40
107
82
46
108
81
47
98
63
33
71
45
17
40
43
17
28
42
18
18
42
17
13
41
16
12
40
15
11
43
15
12
44
16
12
47
18
12
48
19
11
50
20
12
53
19
10
58
19
12
70
27
18
85
38
28
96
48
34
102
53
38
105
54
37
106
53
35
108
52
35
110
53
36
109
50
34
101
43
29
94
38
23
95
42
28
100
51
37
101
52
45
94
46
46
107
56
71
155
105
134
189
138
181
187
139
189
187
138
193
186
139
194
186
141
196
186
143
196
187
144
197
189
146
199
191
148
201
193
150
203
194
151
204
195
152
208
191
149
212
191
150
216
196
154
220
194
153
221
186
147
214
178
141
210
166
130
200
149
116
187
124
92
167
116
85
161
108
80
157
107
78
158
108
81
162
109
81
165
110
85
169
115
87
172
111
81
167
113
80
167
112
79
166
111
78
165
108
78
164
107
77
163
106
76
162
106
76
162
112
82
170
112
82
170
111
82
172
112
83
175
113
84
177
114
84
180
114
84
180
115
85
183
112
82
182
110
82
182
113
83
183
111
83
183
113
83
183
112
84
184
114
84
182
112
85
182
117
87
185
115
88
185
117
87
185
115
88
185
117
87
185
115
88
185
117
87
185
117
87
185
118
88
188
119
86
190
120
87
191
120
87
191
121
88
193
124
88
194
125
89
195
126
89
194
126
89
194
125
87
188
127
90
186
133
94
187
137
98
189
146
108
195
164
125
208
181
142
223
194
151
230
198
154
231
201
154
234
201
154
232
198
151
229
195
149
224
194
146
222
194
146
222
198
147
222
197
146
221
198
146
220
197
145
219
198
146
220
200
148
222
202
149
221
204
151
223
206
154
226
207
155
227
209
157
229
211
159
231
213
161
233
214
162
234
214
162
234
214
163
232
218
167
236
220
169
238
221
170
239
220
169
238
217
166
235
214
163
232
213
162
231
213
162
231
214
161
233
214
161
233
213
160
232
212
159
229
210
157
227
208
155
225
209
153
224
208
153
221
211
156
221
192
138
196
157
103
152
124
72
110
113
63
90
115
67
83
115
65
74
109
60
64
104
55
58
92
43
46
76
32
33
64
22
23
54
16
15
42
8
6
33
5
1
30
7
1
27
6
1
26
7
1
24
7
0
23
6
0
23
6
0
24
7
0
26
9
2
27
9
5
61
42
44
92
73
75
107
85
88
108
82
85
111
76
80
116
77
82
117
70
76
99
48
53
76
21
26
80
24
27
86
27
31
91
31
33
13
3
1
13
3
1
13
4
0
14
5
0
16
5
1
17
6
2
17
6
0
18
7
1
19
6
0
20
7
1
21
8
0
22
9
1
24
9
2
25
10
3
26
12
3
26
13
4
23
13
1
23
13
1
25
12
3
26
13
4
27
12
5
28
13
6
30
13
6
32
13
7
33
12
9
33
12
11
35
10
14
37
9
21
40
9
25
41
9
32
42
8
35
43
8
40
58
17
59
77
34
79
79
33
79
69
23
69
71
24
70
73
26
72
82
33
80
99
50
97
124
74
123
135
87
137
144
96
148
145
98
153
146
98
156
143
98
157
141
95
157
138
94
157
131
89
155
107
66
134
93
52
120
98
58
121
91
52
105
62
27
67
44
12
36
40
12
24
43
17
18
45
17
14
44
16
13
44
14
12
45
15
13
46
17
13
48
17
12
49
19
11
53
20
13
53
19
10
60
19
13
71
27
18
86
39
29
97
49
35
103
54
39
106
55
38
106
53
35
109
53
36
111
54
37
110
51
35
102
44
30
95
39
24
97
44
30
102
53
39
102
53
46
95
47
47
109
58
73
157
107
136
191
140
183
189
141
191
189
140
196
188
141
196
187
142
197
188
143
198
189
145
198
191
147
200
193
148
203
195
150
205
197
152
207
196
153
209
196
152
213
193
151
215
199
154
219
198
156
222
195
152
221
193
152
222
183
143
214
167
129
202
140
103
180
129
95
172
119
86
165
118
85
166
116
84
167
115
83
166
116
87
171
123
91
176
118
84
170
118
84
170
119
85
171
120
86
172
122
88
174
123
89
175
123
91
176
124
92
177
129
96
183
125
92
181
120
87
178
115
81
175
111
80
173
113
82
176
116
84
181
119
87
184
116
84
183
115
85
183
116
84
183
116
86
184
117
85
184
116
86
184
118
86
185
117
87
185
120
88
187
119
89
187
120
88
187
119
89
187
120
88
187
119
89
187
120
88
187
120
88
187
121
89
188
123
88
190
124
89
193
125
90
194
126
91
195
127
90
195
128
91
196
129
91
194
130
92
193
130
90
189
131
91
187
137
96
188
146
106
195
159
119
207
179
137
221
194
152
234
192
148
227
197
151
226
199
150
229
199
151
227
197
149
225
195
147
221
197
146
221
198
147
222
198
147
222
197
146
221
198
146
221
198
146
221
199
147
221
200
148
222
203
149
224
205
151
226
206
154
228
208
156
230
210
158
232
213
161
235
215
163
237
215
163
237
215
163
237
214
162
234
218
166
238
220
168
240
221
169
241
220
168
240
217
165
237
214
162
234
213
161
233
213
161
233
213
161
233
212
160
232
211
159
231
209
157
229
208
155
227
207
154
226
208
152
223
208
153
220
212
156
217
182
128
180
143
88
130
116
62
94
114
62
84
121
71
83
113
62
67
95
46
49
87
38
41
75
29
31
64
20
21
57
17
17
51
16
14
42
11
8
36
8
4
31
8
2
28
7
2
26
7
1
24
7
0
24
7
0
24
7
0
26
9
2
28
9
3
28
10
6
63
45
45
95
75
77
110
88
91
111
85
88
115
80
84
120
81
86
121
74
80
104
53
58
75
20
25
78
22
25
83
24
28
86
27
29
14
4
2
14
4
2
15
6
1
15
6
1
17
6
2
18
7
3
19
8
2
19
8
2
21
8
2
21
8
2
22
9
1
23
10
2
25
10
3
27
12
5
27
13
4
28
14
5
25
13
1
23
13
1
25
12
3
26
13
4
28
13
6
31
14
7
32
13
7
34
13
10
35
14
13
37
12
15
38
11
18
39
11
25
42
10
31
43
10
37
44
9
41
46
8
47
71
28
74
83
36
88
80
33
85
82
33
88
97
48
103
103
52
108
107
56
112
122
71
128
136
85
144
144
93
152
147
95
157
144
94
157
144
93
159
144
95
160
143
94
160
141
95
160
141
96
165
125
80
149
112
67
136
113
71
135
95
55
108
57
20
61
43
9
34
43
13
25
47
17
19
46
16
14
45
15
13
46
15
13
46
15
13
48
17
14
49
18
13
52
19
12
54
21
14
54
20
11
61
20
14
72
28
19
86
39
29
98
50
36
103
54
39
106
55
38
107
54
36
111
54
37
113
54
38
111
52
36
104
45
31
97
41
26
98
45
31
105
53
40
105
55
48
98
48
51
111
60
77
158
108
137
192
141
184
191
141
192
190
141
197
190
142
200
192
145
200
191
146
201
192
148
201
194
150
203
196
151
206
198
153
208
199
154
209
200
155
212
201
155
217
198
154
217
202
156
220
202
157
222
200
155
222
198
155
224
190
149
219
176
136
207
145
107
182
131
94
171
121
84
162
118
83
163
117
82
164
115
80
164
118
84
170
125
91
177
125
87
172
128
90
175
135
97
182
143
105
190
151
113
198
159
121
206
164
129
213
167
132
216
157
121
208
149
113
200
136
100
190
125
89
179
117
82
174
116
81
175
118
82
178
121
85
181
120
86
183
118
86
185
118
86
185
119
87
186
119
87
186
120
88
187
120
88
187
120
88
187
123
91
190
123
91
190
123
91
190
123
91
190
123
91
190
123
91
190
123
91
190
125
90
190
125
90
190
127
91
191
127
90
193
128
91
194
129
92
195
131
93
196
131
93
196
134
93
195
130
90
187
132
91
187
135
94
186
145
102
192
157
114
203
171
129
215
185
143
229
196
153
235
195
148
226
198
150
224
199
151
225
199
151
225
197
149
223
196
148
222
199
148
223
201
150
225
198
147
222
197
146
221
198
146
221
198
146
221
199
147
221
201
149
223
204
150
225
206
152
227
205
153
227
207
155
229
211
159
234
214
162
236
215
163
237
215
163
237
214
162
236
213
161
235
216
164
238
218
166
238
220
168
240
219
167
239
216
164
236
214
162
234
213
161
233
213
161
233
214
162
234
213
161
233
211
159
231
208
156
230
208
154
229
209
153
226
209
154
222
210
154
219
206
151
208
177
121
168
142
88
124
121
68
94
114
63
80
111
61
70
101
50
55
85
37
37
71
25
27
62
18
19
54
12
13
54
14
14
51
16
14
43
12
9
36
8
4
31
8
2
28
7
2
26
7
1
24
7
0
24
7
0
25
8
1
27
10
3
29
10
4
31
12
8
67
47
48
97
77
79
113
88
91
115
86
90
118
83
87
123
84
89
120
75
80
101
50
55
79
24
29
81
24
30
85
26
30
86
27
29
15
6
1
15
6
1
15
6
1
16
7
2
18
7
3
19
8
4
19
8
2
20
9
3
22
9
1
22
9
1
24
9
2
25
10
3
26
12
3
27
13
4
30
13
5
29
15
6
24
11
2
25
12
3
26
12
3
27
13
4
30
13
6
31
14
7
33
14
10
34
13
10
39
15
15
40
13
18
41
14
23
43
12
28
45
11
35
46
11
41
48
11
45
50
9
51
77
30
84
86
36
95
91
41
100
115
63
125
146
94
158
147
92
157
134
79
146
138
83
150
139
84
152
147
92
160
147
92
160
142
89
159
146
93
163
147
96
165
146
95
164
146
96
167
146
96
167
138
91
163
129
82
152
127
82
147
99
56
110
55
17
58
45
9
35
49
17
30
49
17
20
48
17
15
47
16
14
49
15
14
49
15
14
50
16
14
52
19
12
54
20
11
56
21
15
57
20
12
61
20
14
73
29
20
88
40
30
99
50
36
106
54
40
107
56
39
107
54
36
111
54
37
113
54
38
112
53
37
105
46
32
99
41
27
102
46
33
107
55
42
106
56
49
99
49
52
112
61
78
160
110
139
193
142
185
192
142
195
192
143
199
191
143
201
196
149
204
197
150
205
197
152
207
198
153
208
203
155
213
204
156
214
206
158
216
207
159
217
207
159
219
204
158
220
209
161
223
208
162
226
205
159
224
202
157
224
195
149
221
180
137
209
147
105
179
133
92
168
125
84
163
125
86
167
128
89
172
128
90
173
135
97
182
145
107
192
153
111
195
157
115
199
163
124
207
174
135
218
185
146
227
195
156
237
204
165
246
208
169
250
193
154
237
183
144
227
165
127
214
148
110
197
134
95
184
127
88
179
125
86
179
123
86
181
123
87
183
122
88
185
122
88
185
123
89
186
123
89
186
123
89
186
124
90
187
124
90
187
126
91
191
126
91
191
126
91
191
126
91
191
126
91
193
126
91
193
126
91
193
126
91
191
128
92
190
130
92
191
130
92
191
131
93
194
132
94
195
134
93
195
135
95
194
136
94
192
134
93
187
141
98
190
149
106
195
161
117
204
174
130
217
185
141
228
193
149
236
197
152
235
200
152
228
203
153
226
203
153
226
202
152
225
200
150
223
198
148
221
199
149
222
201
151
224
198
146
220
198
146
220
198
146
221
198
146
221
201
147
223
203
149
225
205
151
227
206
152
228
204
152
227
206
154
229
210
157
235
214
162
237
215
163
238
215
163
238
213
161
236
212
160
234
213
161
235
216
164
238
218
166
240
217
165
239
215
163
235
213
161
233
213
161
233
214
162
234
214
164
233
213
163
232
211
159
231
208
156
228
208
154
229
209
153
226
211
154
223
213
155
216
199
142
195
169
112
153
142
87
118
127
73
96
111
59
72
97
46
55
89
38
43
83
34
37
65
21
22
57
15
16
51
11
11
51
13
12
47
13
11
39
10
6
31
6
1
28
5
0
28
7
2
26
7
1
26
7
1
26
7
1
27
8
2
29
10
4
31
10
5
33
12
9
70
49
48
98
76
78
114
88
91
117
86
91
121
86
90
124
85
90
118
73
78
94
45
49
80
28
32
82
27
32
84
28
31
85
29
32
15
6
1
15
6
1
16
7
2
17
8
3
19
8
4
19
8
4
20
9
3
20
9
3
22
9
1
22
9
1
24
9
2
26
11
4
27
13
4
28
14
5
31
14
6
31
14
6
25
11
2
26
12
3
26
12
3
29
12
4
31
14
7
33
14
8
34
13
10
37
13
11
41
15
16
43
14
19
44
14
26
46
13
32
47
13
38
48
11
44
49
11
48
51
9
55
74
24
83
87
35
99
104
52
118
145
93
159
188
132
203
179
123
194
148
92
165
141
85
158
137
79
155
144
88
163
144
88
163
144
88
163
151
95
170
152
99
171
150
97
169
150
98
170
147
95
169
146
96
169
141
91
162
135
89
154
101
56
113
55
14
56
50
11
38
56
22
36
51
16
20
50
16
15
49
15
14
49
15
14
49
15
14
52
17
15
53
18
12
54
20
11
56
21
15
57
20
12
61
20
14
73
29
20
88
40
30
99
50
36
106
54
40
108
55
39
110
54
37
111
54
37
114
55
39
114
52
37
106
47
33
99
41
27
102
46
33
108
54
42
109
56
52
101
49
53
113
60
78
162
108
140
195
142
188
195
142
196
193
142
199
192
142
201
201
151
210
201
154
209
202
155
210
204
157
212
206
158
216
208
160
218
209
161
219
210
162
220
209
161
221
210
162
222
215
167
229
215
167
229
210
161
226
205
159
224
197
150
220
182
136
208
152
109
181
139
97
171
134
91
170
141
98
178
147
105
187
152
110
192
164
122
206
177
135
219
189
146
226
192
147
228
196
153
233
202
159
239
209
166
245
215
172
251
220
177
255
223
180
255
222
179
255
210
169
248
192
150
234
171
129
213
153
110
199
140
97
186
133
90
180
129
88
180
125
88
183
123
89
184
124
88
186
124
90
187
125
89
187
124
90
187
126
90
188
125
91
188
128
92
192
127
92
192
128
92
192
127
92
192
128
91
194
127
92
194
128
91
194
128
91
194
130
92
191
130
92
191
131
93
192
132
94
193
135
95
194
135
95
194
137
95
193
137
96
190
147
104
194
155
113
199
168
124
209
182
139
221
194
151
233
202
159
241
204
159
242
204
157
237
203
156
228
206
156
225
206
156
225
203
153
222
200
150
219
198
148
219
199
149
220
200
150
223
198
146
220
198
146
220
198
146
221
198
146
221
201
147
223
203
149
225
205
151
227
207
153
231
203
150
228
206
153
231
210
157
235
213
160
238
215
162
240
214
162
237
213
161
236
211
159
234
211
159
233
214
162
236
216
164
238
216
164
238
215
163
235
213
161
233
213
161
233
214
162
234
215
165
234
213
163
232
211
159
231
210
157
229
210
154
227
211
154
225
213
154
220
214
156
214
192
134
182
159
103
140
136
82
106
126
73
89
108
56
68
90
39
46
85
34
39
85
36
39
66
22
23
57
17
17
51
13
12
48
13
11
43
12
9
35
6
2
27
2
0
23
3
0
27
8
2
26
7
1
26
7
1
26
7
1
27
8
2
29
10
4
32
11
6
33
12
9
71
50
49
101
76
79
115
86
90
118
87
92
122
87
91
124
85
90
116
71
78
89
40
46
80
27
33
82
27
32
84
27
33
84
28
31
15
6
1
16
7
2
17
6
2
18
7
3
19
8
2
20
9
3
22
9
3
23
10
4
21
6
0
22
7
0
23
9
0
24
10
1
27
10
2
28
11
3
29
12
4
30
13
5
30
13
5
29
12
4
29
12
4
30
11
4
32
13
7
35
14
9
37
16
11
40
16
14
43
17
18
45
16
21
48
16
29
53
18
38
58
22
48
66
26
60
71
30
70
74
30
79
89
37
99
114
59
127
134
78
149
164
108
179
199
141
217
192
134
210
160
102
179
146
87
167
156
94
177
149
90
172
145
86
166
148
91
170
150
93
170
148
92
167
149
93
168
148
94
169
150
96
171
143
89
164
178
124
199
152
101
168
78
30
88
58
15
60
61
21
48
55
19
33
58
22
26
56
20
20
54
19
17
52
17
15
52
17
15
54
16
13
55
18
12
56
19
11
58
23
17
64
27
19
72
29
23
79
32
24
90
40
31
104
52
39
111
58
44
111
58
42
110
54
37
111
54
37
111
52
36
112
50
35
110
48
35
107
48
34
107
49
37
105
51
39
104
51
47
102
50
54
121
68
86
175
121
153
209
156
202
208
155
211
206
155
214
206
156
215
208
158
217
208
158
217
209
159
218
210
160
219
211
161
220
212
162
221
212
162
221
213
163
222
215
165
226
215
165
226
215
165
226
214
164
227
213
162
228
210
161
227
207
157
226
204
157
227
169
122
194
167
121
194
167
121
196
168
124
201
175
131
210
185
140
221
193
150
232
200
155
236
213
166
244
214
168
243
215
169
244
216
170
245
216
172
247
217
173
248
218
174
249
218
174
249
226
182
255
221
177
254
213
168
249
200
157
237
181
137
222
161
117
202
145
101
188
136
93
182
132
93
186
129
94
188
131
94
190
132
96
192
136
99
195
135
99
195
133
95
194
130
94
192
133
95
196
132
96
196
133
95
198
132
95
198
133
95
198
132
95
198
132
93
199
132
94
197
135
97
198
137
99
200
140
99
201
137
97
196
135
95
194
139
99
196
149
108
202
158
118
207
180
138
222
188
146
228
202
159
238
214
172
248
222
178
255
224
180
255
221
177
254
221
175
250
231
181
250
229
178
244
224
173
240
217
166
233
209
158
225
204
153
222
202
151
220
202
150
222
203
151
225
201
149
223
203
149
225
206
152
228
206
152
230
202
148
226
202
148
226
206
151
232
204
151
231
206
153
233
211
158
238
214
161
239
216
163
241
215
162
240
214
162
237
212
160
235
213
161
236
213
161
236
213
161
235
214
162
236
214
162
234
214
162
234
215
163
235
215
163
235
219
168
237
212
161
230
215
162
234
216
163
235
212
156
229
211
154
223
212
153
217
206
147
201
158
100
141
141
84
116
118
63
84
103
49
62
96
45
52
92
41
46
86
36
39
80
31
34
56
14
15
53
15
14
49
14
12
45
11
9
39
10
6
35
7
3
30
7
1
27
7
0
26
7
1
26
7
1
27
8
2
27
8
2
29
8
3
30
9
4
33
9
5
33
9
7
70
46
46
109
83
86
119
90
94
117
85
90
127
90
97
129
88
94
112
67
74
86
37
43
74
23
30
77
24
30
81
26
32
84
29
34
15
6
1
16
7
2
17
6
2
18
7
3
19
8
2
20
9
3
22
9
3
23
10
4
21
6
0
22
7
0
23
9
0
24
10
1
27
10
2
28
11
3
29
12
4
30
13
5
30
13
5
30
13
5
30
11
4
31
12
5
33
12
7
37
13
9
39
15
11
41
15
14
44
15
17
47
16
22
50
16
30
53
18
38
60
21
50
70
30
65
82
39
82
93
46
98
119
67
133
139
83
156
159
103
176
190
132
208
215
157
234
197
136
216
161
99
182
150
88
173
152
88
174
150
88
173
150
88
173
149
90
172
149
90
170
150
93
170
154
98
173
153
97
172
146
90
165
163
107
182
197
141
216
156
103
173
79
29
88
56
10
56
61
18
46
55
17
32
57
21
25
56
20
20
54
19
17
53
18
16
54
16
15
55
17
14
56
19
13
57
20
12
61
24
18
64
27
19
72
29
23
79
32
24
91
41
32
104
52
39
111
58
44
113
57
42
113
56
39
113
54
38
114
52
37
112
50
35
111
49
36
109
50
36
109
51
39
108
51
42
107
52
49
105
50
56
124
69
90
177
121
156
212
156
205
210
155
212
209
155
215
207
155
217
209
157
219
209
159
218
210
160
219
211
161
220
212
162
221
213
163
222
213
163
222
214
164
223
216
164
226
217
165
227
216
166
227
215
165
228
214
163
229
212
161
227
210
159
226
207
157
226
191
141
212
189
142
214
189
141
215
189
143
218
195
146
225
201
154
232
208
161
241
212
165
243
214
166
240
215
168
240
218
168
241
218
171
243
219
172
244
220
174
246
222
175
247
222
176
248
224
176
250
223
177
252
223
176
254
216
172
249
205
158
239
181
136
217
160
112
196
142
98
185
134
93
185
131
94
189
132
95
190
134
97
192
136
99
195
136
99
195
134
96
195
132
94
193
134
96
197
134
96
197
134
96
199
135
97
200
135
97
200
135
97
200
135
96
202
136
97
203
133
95
198
138
97
201
139
98
200
138
98
197
138
98
195
150
109
203
169
129
218
186
144
228
211
170
249
217
175
251
225
183
255
233
190
255
238
195
255
240
197
255
240
197
255
241
196
255
245
196
255
244
194
255
241
191
254
235
184
250
228
177
243
219
168
235
211
160
227
205
154
223
206
154
226
203
151
225
205
151
227
207
153
229
207
153
231
204
150
228
204
149
230
206
151
232
203
150
230
206
153
233
210
157
237
213
160
240
215
162
240
214
161
239
213
161
236
212
160
235
211
159
234
212
160
234
212
160
234
212
160
232
212
160
232
213
161
233
213
161
233
213
161
233
214
162
234
215
162
234
213
159
234
211
155
228
212
155
226
217
158
224
208
149
207
190
131
179
143
86
121
130
74
99
113
59
73
101
48
56
94
43
48
89
39
42
81
31
34
71
25
27
54
14
14
49
14
12
46
12
10
42
11
8
38
9
5
33
8
3
30
7
1
26
6
0
26
7
1
27
8
2
27
8
2
28
9
3
30
9
4
33
9
5
33
9
5
34
8
7
71
45
46
112
83
87
122
91
96
118
86
91
127
90
97
131
90
98
119
73
83
96
49
57
82
31
40
85
32
40
89
33
42
91
35
44
16
5
1
17
6
2
17
6
0
18
7
1
21
8
2
22
9
3
22
9
1
23
10
2
22
7
0
22
7
0
23
9
0
24
10
1
28
11
3
29
12
4
30
13
3
30
13
5
31
12
5
31
12
6
32
11
6
32
11
6
35
11
7
37
13
9
40
15
11
44
16
15
43
14
16
47
16
24
52
18
34
57
19
42
65
24
56
79
37
77
99
53
100
114
65
121
135
80
148
156
98
174
177
119
196
210
149
229
235
173
255
219
155
241
179
115
202
161
97
184
156
90
178
152
88
175
156
92
178
155
93
176
152
91
171
152
94
171
154
96
172
151
93
169
150
92
169
188
131
208
210
154
229
155
102
172
79
29
88
54
8
54
59
16
44
56
15
31
57
21
25
56
20
20
57
19
18
56
18
17
55
17
16
56
18
15
57
18
11
57
20
12
62
25
19
66
27
20
73
28
23
81
32
25
92
42
33
106
54
41
113
60
46
114
58
43
115
58
41
114
55
39
114
52
37
114
51
36
113
51
38
112
53
39
112
54
42
112
55
46
109
54
51
108
53
59
126
71
92
179
123
158
214
158
207
211
156
213
210
156
218
208
156
218
210
158
220
211
159
221
211
161
220
212
162
221
214
162
224
215
163
225
216
164
226
217
165
227
218
166
228
218
166
228
219
167
231
218
166
230
217
165
231
214
163
229
212
161
228
211
160
229
210
159
228
209
159
230
209
159
230
208
161
233
212
161
236
213
165
239
216
168
244
220
169
244
217
167
240
218
168
239
220
168
240
221
171
242
223
173
242
222
175
243
226
176
247
224
177
247
226
176
249
226
179
251
230
182
255
232
186
255
227
178
255
206
159
237
179
130
211
155
110
193
137
97
186
135
96
189
135
96
189
137
98
191
139
99
195
140
100
196
138
98
195
135
95
194
137
96
198
138
97
199
138
97
201
139
98
202
139
98
204
140
99
205
140
99
205
140
99
205
136
95
201
139
96
203
140
97
202
140
98
198
146
105
201
167
124
214
194
152
238
216
173
253
228
186
255
230
187
255
232
190
255
237
193
255
240
196
255
241
197
255
243
199
255
244
198
255
249
199
255
249
198
255
249
197
255
248
196
255
244
192
255
233
181
247
218
165
233
207
154
224
210
157
229
206
152
227
205
151
227
208
154
230
208
154
232
205
150
231
204
149
232
207
152
235
203
150
230
205
152
232
209
156
236
212
159
239
213
160
238
213
160
238
212
160
235
211
159
234
212
160
234
213
161
235
213
161
235
214
162
234
215
163
235
216
165
234
216
165
234
217
165
237
214
160
235
221
167
242
218
162
237
212
155
226
218
159
227
218
158
218
193
133
184
166
105
146
127
68
98
119
62
81
107
54
64
99
47
51
92
42
43
83
35
33
73
25
23
61
17
16
51
11
11
47
12
10
44
10
8
39
10
6
36
8
4
32
7
2
29
6
0
26
6
0
27
8
2
27
8
2
29
8
3
30
9
4
33
9
5
33
9
5
35
10
6
37
9
8
73
44
48
114
85
90
125
94
100
123
88
95
128
91
99
133
91
101
127
84
94
115
68
78
119
67
79
120
69
78
123
70
80
124
71
81
16
5
1
17
6
2
17
6
0
18
7
1
21
8
2
22
9
3
22
9
1
23
10
2
22
7
0
23
8
1
24
10
1
25
11
2
28
11
3
29
12
4
30
13
3
30
13
3
32
13
6
31
12
6
32
11
6
32
11
6
35
11
7
38
13
9
43
15
12
44
16
15
42
11
16
48
15
24
56
19
37
63
24
51
75
33
69
91
48
93
112
65
117
125
75
136
129
73
144
151
93
170
167
106
186
188
126
209
223
159
245
233
169
255
212
146
236
192
126
216
171
105
195
156
90
180
156
90
178
158
94
180
158
94
178
158
97
177
153
92
170
150
92
168
173
115
192
207
149
226
205
149
224
147
91
162
82
31
90
58
11
57
59
16
44
57
16
32
56
20
24
56
20
20
58
20
19
57
19
18
57
19
18
57
19
16
58
19
12
59
21
12
63
26
20
66
27
20
73
28
23
81
32
25
94
44
35
109
57
44
115
62
48
115
59
44
118
61
44
118
56
41
116
53
38
115
52
37
117
53
41
116
57
43
116
58
46
115
58
49
112
57
54
111
54
63
130
72
96
182
125
160
216
158
208
214
156
214
212
156
219
210
155
220
214
160
222
212
160
222
213
162
221
214
164
223
216
164
226
218
166
228
219
167
229
219
167
229
220
168
230
220
168
230
221
169
233
221
169
233
220
168
234
218
166
232
215
164
231
214
163
230
214
163
232
215
164
233
216
165
234
215
165
236
216
166
237
217
167
238
217
167
240
217
167
238
219
168
237
220
169
238
221
170
239
223
172
239
225
174
241
226
177
243
227
178
244
228
178
247
231
181
250
231
181
252
233
183
254
234
187
255
234
186
255
221
173
249
195
146
225
170
123
204
143
100
190
138
99
192
139
98
192
139
100
193
142
101
197
141
101
197
141
99
197
138
98
195
141
99
201
140
99
201
141
98
203
140
99
203
141
98
205
140
99
205
141
98
205
141
98
205
140
97
204
140
97
204
143
98
201
148
104
202
161
118
210
184
140
227
210
167
247
229
185
255
234
191
255
236
191
255
237
193
254
239
194
253
240
195
254
241
196
253
242
197
254
245
198
253
246
195
252
246
195
252
247
196
253
250
199
255
249
197
255
240
188
252
225
173
239
213
160
228
212
159
229
208
154
229
205
151
227
207
153
231
207
152
233
205
150
231
204
149
232
206
151
234
203
150
230
205
152
232
208
155
235
210
157
235
212
159
237
212
160
235
212
160
235
212
160
234
215
163
237
216
164
236
217
165
237
220
169
238
222
171
240
224
173
242
226
175
244
227
176
245
223
169
244
231
175
250
230
172
246
230
171
239
230
170
232
207
147
199
169
108
150
144
85
117
117
59
81
113
57
70
106
53
59
99
49
50
90
42
40
77
32
27
64
19
16
52
11
7
48
10
7
44
10
8
40
9
6
38
9
5
33
8
3
30
7
1
27
7
0
26
6
0
28
9
3
29
10
4
30
9
4
31
10
5
34
10
6
36
11
7
38
10
7
38
10
9
73
44
48
116
85
91
130
97
106
126
91
98
130
92
103
136
94
104
138
94
107
133
85
97
142
92
104
143
91
103
144
90
104
145
91
104
16
5
0
17
6
0
17
6
0
18
7
1
21
8
2
22
9
3
22
9
1
23
10
2
23
9
0
23
9
0
26
9
1
27
10
2
28
11
1
29
12
2
30
13
3
31
14
4
32
13
6
33
13
6
34
11
5
35
12
6
37
12
8
39
14
10
43
15
14
45
15
17
45
12
19
50
16
30
62
24
47
75
34
66
92
47
88
106
60
109
119
69
128
126
74
140
133
75
151
146
85
165
146
82
166
151
87
173
181
115
202
210
144
232
223
154
245
226
157
248
199
130
221
168
102
192
157
91
179
156
92
178
161
97
181
160
99
179
154
93
171
164
103
181
207
146
224
209
151
228
183
126
203
132
76
147
85
34
93
64
17
63
60
17
45
59
18
34
56
20
24
56
20
20
56
21
19
57
22
20
59
21
18
59
22
16
59
22
14
58
21
12
65
26
21
68
27
21
73
28
23
82
33
26
98
45
37
112
58
46
119
63
50
116
60
45
121
64
47
120
58
43
117
54
39
117
54
39
120
56
44
122
60
47
122
62
51
120
63
54
115
59
58
113
56
65
132
74
98
183
126
161
216
158
208
214
156
215
211
155
218
210
155
220
215
161
223
214
162
224
215
163
225
217
165
227
218
166
228
220
168
230
223
169
231
224
170
232
222
170
234
223
171
235
224
172
236
224
172
236
223
171
237
222
170
236
220
168
234
219
167
233
216
163
231
217
164
232
219
166
234
219
168
237
220
169
238
220
169
238
220
169
238
220
169
238
223
170
238
224
171
239
225
172
240
226
174
240
228
176
242
228
177
243
229
178
244
229
178
245
234
183
250
233
182
251
232
180
252
232
182
255
236
185
255
228
177
252
203
152
229
175
128
208
148
104
193
143
102
194
143
100
192
142
101
193
145
101
196
144
103
199
145
101
199
141
99
197
146
101
204
144
102
204
145
100
205
142
99
204
144
98
206
141
98
205
142
96
205
142
96
204
144
98
206
143
98
203
146
99
201
159
114
209
180
136
225
204
159
242
222
178
255
233
187
255
235
190
255
238
192
254
240
195
254
244
196
254
246
199
254
246
199
253
245
198
252
246
197
252
251
200
255
251
198
254
251
198
254
254
200
255
254
200
255
248
194
255
236
181
248
226
171
239
215
162
232
209
155
230
204
150
226
206
152
230
206
151
232
204
149
232
203
148
232
204
149
232
205
152
232
206
153
233
208
155
233
210
157
235
212
159
237
213
161
236
213
161
236
213
161
235
215
163
237
217
165
237
220
168
240
224
173
242
228
177
246
232
181
248
235
184
251
237
184
254
240
184
255
240
182
255
244
184
254
249
189
251
233
173
227
186
125
169
142
82
116
131
71
96
116
58
73
113
58
64
107
55
57
99
49
48
88
40
36
72
27
22
59
16
10
47
8
3
44
9
5
40
9
6
38
9
5
36
8
4
33
8
3
30
7
1
27
7
0
26
7
0
30
11
5
30
11
5
31
10
5
32
11
6
35
11
7
37
12
8
39
11
8
41
11
11
73
42
48
118
85
94
133
100
111
131
95
105
133
95
108
138
96
108
144
100
115
145
97
111
145
94
109
144
94
106
145
92
108
144
92
105
16
5
0
17
6
0
17
6
0
18
7
1
21
8
2
22
9
3
22
9
1
23
10
2
23
9
0
23
9
0
26
9
1
27
10
2
29
12
2
30
13
3
31
14
4
32
14
4
33
13
6
33
13
6
35
12
6
35
12
6
37
12
8
41
13
10
44
14
14
46
15
20
53
20
29
62
25
42
75
35
61
91
50
84
107
61
108
116
69
124
120
70
133
122
69
139
137
79
156
142
80
163
140
76
162
140
76
162
152
86
174
168
102
190
195
126
217
222
153
244
226
157
248
199
130
221
179
110
199
161
95
182
162
97
181
160
97
178
155
92
173
179
118
196
225
164
242
199
138
216
166
108
185
124
68
139
86
34
96
68
21
67
63
18
47
61
20
36
55
19
23
56
20
20
57
22
20
58
23
21
61
23
20
60
23
17
60
23
15
59
22
13
66
27
22
68
27
21
73
28
23
82
33
26
99
46
38
114
60
48
120
64
51
117
61
46
125
66
50
122
60
45
118
55
40
120
54
40
122
58
46
126
64
51
126
66
55
125
66
58
118
60
59
114
57
66
134
74
99
185
125
163
217
157
209
215
155
215
212
153
217
210
154
219
216
162
224
217
163
225
217
165
227
218
166
228
220
168
230
222
170
232
226
172
234
227
173
235
224
172
236
225
173
237
226
174
238
226
174
238
226
174
240
225
173
239
223
171
237
222
170
236
222
169
237
223
170
238
225
172
240
226
174
240
227
176
243
228
177
243
229
178
245
229
178
245
227
174
242
227
174
242
228
176
242
228
176
242
229
177
243
229
177
243
228
177
243
228
177
243
231
180
247
231
180
247
230
178
250
232
180
252
234
183
255
229
178
253
204
153
230
176
127
208
151
107
196
148
105
197
146
103
195
145
102
194
147
103
198
148
104
199
147
103
201
146
102
200
148
103
206
148
103
206
148
103
208
147
102
207
147
101
209
146
100
208
146
100
209
146
100
208
150
103
209
150
102
204
157
109
208
176
129
221
201
156
241
224
177
255
233
187
255
235
188
255
232
186
250
237
189
249
241
193
251
246
196
255
248
199
255
248
199
254
247
196
252
246
196
249
255
204
255
255
202
255
253
200
255
253
200
255
252
198
255
248
194
254
240
185
250
234
179
247
220
167
237
212
158
233
206
152
228
206
152
230
208
153
236
206
151
234
204
149
233
205
150
233
207
154
234
207
154
234
209
156
234
210
157
235
212
160
235
213
161
236
214
162
236
215
163
237
216
164
236
218
167
236
222
171
240
226
175
242
231
180
247
235
184
251
239
188
255
242
189
255
250
193
255
247
187
255
248
188
252
245
184
241
214
153
197
159
99
133
126
66
91
124
66
81
117
60
69
114
59
62
106
55
54
95
46
42
81
33
29
65
22
16
53
12
6
46
9
3
42
9
4
39
10
6
37
9
5
34
9
4
33
8
3
30
10
3
29
9
2
28
9
2
31
12
6
31
12
6
33
12
7
35
11
7
37
12
8
40
12
9
42
12
10
42
12
12
72
39
48
117
84
95
137
101
113
136
98
111
138
97
111
140
98
112
145
101
116
147
100
116
150
99
116
149
98
113
148
95
113
147
94
110
16
5
0
17
6
0
17
6
0
18
7
1
21
8
2
22
9
3
23
8
1
24
9
2
23
9
0
24
10
1
27
10
2
28
11
3
29
12
2
30
13
3
32
14
4
33
15
5
34
14
7
35
12
6
35
12
6
35
12
6
38
13
9
42
14
11
45
15
15
46
15
20
63
30
41
75
37
58
92
51
81
106
64
102
116
69
121
121
71
132
121
70
137
121
67
142
134
73
153
141
77
163
146
80
167
150
84
172
153
84
175
154
85
176
171
100
194
195
124
218
226
155
247
223
154
245
210
141
230
176
110
197
169
104
188
165
102
183
162
99
180
198
135
216
221
160
238
183
122
200
161
103
180
127
71
142
84
32
94
68
21
67
63
18
47
62
21
37
55
19
23
56
20
20
58
23
21
59
24
22
62
24
21
61
24
18
60
23
15
59
22
13
67
28
23
68
27
21
73
28
23
83
34
27
101
48
40
116
62
50
122
66
53
118
62
47
127
68
52
123
61
46
119
56
41
121
55
41
124
60
48
129
67
54
129
69
58
128
69
61
118
60
59
115
58
67
134
74
99
185
125
163
216
156
208
213
153
213
211
152
216
208
152
217
217
163
225
218
164
226
220
166
228
222
168
230
224
169
234
226
171
236
228
173
238
228
173
238
226
174
240
226
175
241
228
176
242
228
176
242
228
176
242
227
175
241
226
174
240
225
173
239
227
175
241
228
176
242
228
176
242
229
177
241
231
179
245
233
181
245
234
182
248
235
183
249
231
178
246
231
178
246
230
177
245
230
177
245
229
177
243
229
177
243
228
176
242
228
176
242
229
178
245
231
180
247
230
178
250
229
177
249
233
181
255
230
178
253
208
155
233
179
130
211
154
110
197
150
107
197
147
104
196
146
103
195
148
104
199
149
105
200
149
105
203
148
104
202
149
104
207
149
104
207
150
105
210
151
106
211
152
106
214
153
107
216
154
108
217
155
107
216
164
116
218
168
118
217
177
128
220
197
149
235
219
172
252
235
187
255
237
190
255
236
187
252
238
190
252
242
192
253
245
195
254
250
199
255
252
201
255
252
201
255
253
200
255
253
200
254
253
200
254
253
200
252
253
200
254
252
199
255
251
197
255
248
194
254
244
189
254
242
187
254
227
171
242
218
162
237
209
155
231
209
155
233
211
156
239
209
154
237
207
152
236
208
153
236
209
156
236
209
156
234
210
157
235
211
158
236
213
161
236
215
163
238
216
164
238
217
165
239
223
171
243
225
174
243
228
177
246
231
180
247
235
184
251
239
188
254
242
191
255
244
192
255
250
193
255
248
188
252
239
180
238
215
156
204
173
113
149
138
78
104
125
64
80
124
64
74
116
60
63
111
57
57
100
49
46
85
37
33
68
23
20
56
12
9
50
9
5
47
9
6
42
8
6
39
10
6
37
9
5
35
10
5
34
9
4
31
11
4
31
11
4
29
10
3
32
13
7
32
13
7
33
12
7
36
12
8
38
13
9
41
13
10
42
12
10
43
13
13
71
38
47
116
83
94
138
102
116
140
102
117
142
101
117
141
98
115
143
99
116
144
97
115
151
100
119
150
99
116
148
95
115
146
93
111
18
5
0
17
7
0
19
6
0
20
7
1
21
8
2
22
9
3
23
8
1
24
9
2
23
8
1
24
10
1
27
10
3
28
11
3
29
12
4
30
13
5
32
13
6
33
15
5
34
14
5
36
13
5
35
12
6
35
11
7
38
12
11
42
13
17
45
14
22
46
14
29
73
35
58
86
47
76
104
62
102
115
72
118
122
73
129
121
71
134
121
70
139
123
69
144
128
69
149
138
76
161
146
82
169
150
86
173
156
90
180
160
93
186
167
98
191
176
107
198
203
132
224
229
158
250
231
162
251
194
125
214
180
114
201
178
113
197
177
112
194
217
154
235
210
149
229
170
111
191
164
107
186
134
78
151
81
30
89
65
18
64
63
18
47
63
22
36
56
17
22
56
20
20
60
21
22
62
24
23
62
24
23
62
24
21
61
24
18
61
22
15
68
29
24
71
28
22
75
28
22
84
34
27
102
48
38
119
62
51
124
66
52
121
62
46
130
68
53
125
62
47
121
55
41
121
55
43
127
61
49
131
67
57
133
70
61
131
70
65
120
58
59
117
55
66
135
72
99
185
123
164
218
155
210
213
153
215
208
152
217
206
151
216
218
163
228
219
164
229
220
165
230
223
168
233
225
170
237
227
172
239
229
174
241
230
175
242
227
174
242
228
175
243
229
176
244
229
176
244
229
176
244
228
175
243
227
175
241
226
174
240
228
176
242
227
175
241
227
175
239
227
175
239
229
177
241
231
179
243
233
181
245
235
183
247
233
181
247
233
181
247
232
180
246
231
179
245
229
177
243
228
176
242
227
175
241
227
175
241
230
179
246
232
181
248
229
178
247
226
174
246
230
178
252
230
178
253
212
160
235
188
137
216
157
112
197
153
109
198
149
104
195
148
103
196
148
105
197
150
106
201
149
105
202
149
105
203
148
103
204
149
104
207
151
106
209
154
109
214
156
110
218
160
112
221
162
114
223
163
116
220
179
129
224
184
134
223
195
145
230
211
162
243
230
179
254
239
189
255
239
190
255
235
186
251
239
189
252
240
190
251
243
191
253
245
194
253
247
196
255
248
197
254
251
197
255
251
198
254
249
196
250
251
198
250
254
201
255
255
202
255
254
200
255
251
200
255
250
198
255
250
198
255
229
176
246
220
167
239
212
158
234
212
158
236
214
159
240
212
157
240
210
155
238
210
155
238
210
157
237
210
157
237
211
158
236
213
159
237
215
161
237
217
163
239
218
164
239
219
166
238
232
179
249
233
182
249
236
184
250
238
186
252
241
189
253
244
192
255
246
194
255
249
195
255
248
190
251
247
188
244
231
171
222
188
127
168
141
80
111
128
66
87
129
69
81
123
64
70
113
57
58
105
54
51
93
44
40
75
30
25
59
15
12
48
9
4
46
6
4
45
10
8
40
9
6
38
10
6
38
10
7
36
11
6
34
11
5
34
11
5
32
12
5
31
12
5
33
12
7
33
12
7
36
12
8
38
13
9
41
13
10
41
13
10
43
13
11
44
12
13
70
37
44
117
81
91
139
101
114
144
103
117
144
103
119
141
98
115
141
97
114
140
93
111
150
101
120
148
99
118
148
97
116
145
94
113
19
5
0
18
5
0
20
6
0
21
6
0
22
7
0
23
8
1
24
9
4
24
9
4
23
5
1
26
9
2
29
11
7
30
13
6
30
13
6
30
13
6
32
15
8
35
16
9
36
16
5
39
17
6
37
14
8
35
11
9
37
10
15
48
17
32
65
31
55
77
42
74
101
60
102
105
63
111
111
66
121
114
69
128
118
68
131
118
67
133
120
69
136
121
70
139
133
76
153
134
77
158
139
80
164
143
83
171
149
86
177
154
89
181
158
91
184
160
94
184
162
93
184
187
118
207
223
154
245
237
168
255
214
145
234
202
136
223
219
154
238
218
154
238
180
122
207
170
115
199
161
106
187
132
79
151
87
37
96
64
17
61
64
20
47
63
21
33
60
19
23
60
21
22
61
21
22
62
22
23
63
23
24
64
24
24
64
24
22
65
26
21
69
25
22
71
26
21
74
25
18
89
36
28
113
56
45
127
67
56
130
67
52
133
67
51
135
69
53
133
65
52
126
58
45
123
55
44
129
60
53
141
72
67
149
79
77
150
80
80
131
61
63
126
58
69
138
72
100
177
112
155
207
144
201
207
148
214
202
147
214
210
157
225
213
161
227
215
163
229
218
165
233
220
167
235
221
168
238
222
169
241
227
171
242
230
174
247
229
173
248
229
173
248
230
174
249
230
174
247
231
175
248
232
176
247
232
177
245
233
178
245
230
175
242
231
176
241
232
177
242
233
178
243
235
180
245
236
181
246
237
182
247
238
183
248
233
179
241
232
178
240
231
177
239
230
176
238
227
175
237
228
176
240
229
177
241
230
178
244
233
180
248
228
175
243
227
174
244
231
178
250
234
182
254
230
178
252
216
164
238
203
152
229
174
125
207
166
118
204
156
110
198
154
108
198
156
111
204
159
114
209
157
113
210
155
111
209
163
118
219
161
116
217
161
116
217
162
117
220
162
115
219
165
116
221
179
130
235
196
146
243
220
168
251
221
170
245
224
173
248
228
178
251
233
181
253
237
186
253
240
189
255
242
191
255
241
191
254
241
191
252
243
193
254
244
194
253
246
196
255
248
198
255
251
200
255
251
200
255
252
199
253
252
199
253
250
199
255
250
199
255
249
198
255
248
198
255
248
198
255
248
197
255
238
187
254
229
177
249
218
166
240
213
159
235
213
159
237
216
159
240
214
157
238
212
154
238
216
161
244
213
160
242
212
157
238
214
157
236
218
160
237
224
166
242
230
172
246
234
177
248
238
183
250
240
188
252
247
193
255
250
196
255
247
193
253
243
189
249
244
189
247
246
191
248
253
196
247
233
176
221
187
129
169
142
82
116
127
64
91
130
69
87
127
67
79
116
59
65
105
51
51
90
41
37
71
26
21
57
16
10
52
13
8
48
13
7
46
11
7
41
10
7
39
11
8
37
12
8
37
11
10
35
11
7
35
11
7
34
10
6
34
10
6
32
11
6
35
11
7
37
13
9
40
15
11
42
14
11
40
12
8
41
12
8
44
13
10
46
15
13
73
37
41
113
76
83
143
103
112
143
103
114
142
101
115
147
104
121
149
106
125
149
104
124
143
98
118
142
97
117
144
97
115
144
97
115
20
6
0
20
6
0
21
7
0
21
7
0
22
7
0
23
8
1
24
9
4
24
9
4
25
7
3
28
10
6
31
13
9
32
14
10
31
13
9
31
13
9
32
15
8
34
15
8
37
17
8
37
14
8
35
11
9
37
12
16
46
18
32
63
31
54
79
44
77
89
52
95
104
61
114
107
63
122
112
66
130
116
67
133
118
67
134
119
68
135
122
71
138
124
73
142
131
77
152
133
79
157
138
80
164
142
84
171
149
86
177
153
90
181
157
92
184
159
93
183
165
96
187
173
104
195
200
131
222
233
164
255
237
168
255
238
170
255
242
177
255
225
163
246
179
121
208
168
114
200
159
106
188
130
78
152
86
36
97
64
17
61
64
20
47
63
21
33
61
20
24
61
21
21
61
20
24
62
21
25
63
22
26
64
24
25
64
24
24
66
25
23
69
25
22
73
25
21
76
26
19
90
35
28
115
57
46
129
67
56
133
67
53
134
67
51
138
69
54
135
65
53
129
59
49
125
55
47
130
59
55
142
71
69
153
79
80
155
80
84
141
69
72
131
59
71
134
65
94
166
98
145
196
132
193
199
140
208
195
139
210
201
148
218
208
155
223
210
159
226
214
161
231
216
163
235
216
162
237
218
164
239
223
167
242
225
169
244
224
167
246
225
168
247
226
169
248
227
170
247
228
172
247
229
173
246
229
173
244
229
174
242
228
173
240
229
174
239
230
175
240
231
176
241
232
177
242
233
178
243
234
179
244
235
180
245
232
178
240
231
177
237
230
176
236
229
175
237
228
176
238
229
177
239
230
178
242
231
179
245
231
178
246
229
176
244
229
176
246
232
179
249
235
183
255
232
180
252
223
171
243
214
162
236
195
144
223
188
139
221
183
133
218
182
134
220
181
135
225
180
135
226
176
131
224
171
127
222
160
116
213
161
117
214
161
117
215
161
115
213
163
115
215
174
126
225
198
148
247
218
167
255
233
182
255
234
183
252
235
184
253
236
185
254
237
186
253
239
188
255
239
188
254
240
189
255
240
190
253
241
191
254
242
192
253
244
194
255
246
196
255
247
197
255
249
199
255
249
200
255
249
198
254
249
199
252
249
198
254
248
199
255
248
199
255
247
199
255
247
199
255
246
198
255
238
189
254
230
181
247
220
170
239
216
164
236
216
162
237
215
161
237
214
157
234
211
154
233
214
159
240
213
158
239
212
158
236
215
158
235
220
162
238
227
169
243
235
175
247
238
181
249
245
190
255
245
191
251
243
189
247
246
192
250
252
197
255
248
193
250
247
189
247
252
195
248
250
195
237
207
151
188
160
100
134
131
71
99
124
62
85
123
60
77
119
59
69
112
55
61
97
46
45
84
36
32
66
23
17
53
14
7
49
12
6
45
12
7
42
11
8
39
10
6
39
11
10
37
11
10
36
12
10
35
11
9
35
11
7
35
11
7
34
10
6
34
10
6
35
11
7
37
13
9
40
15
11
42
14
11
42
13
9
42
13
9
44
13
10
48
14
13
73
37
39
115
76
81
143
103
112
143
103
114
142
101
117
146
105
123
149
106
126
148
105
125
145
102
122
144
101
120
145
100
120
145
101
118
21
7
0
21
7
0
22
8
0
23
9
0
26
9
2
26
9
2
27
10
3
27
10
3
27
9
5
30
12
8
34
15
9
34
15
9
33
14
8
31
12
6
31
12
6
32
13
7
37
16
13
36
12
12
38
11
18
47
19
33
66
34
57
84
51
82
97
60
101
103
65
114
109
66
122
111
67
128
114
68
133
117
67
136
119
68
137
121
69
141
125
72
144
129
75
150
132
78
154
133
78
159
138
80
164
142
84
171
149
86
177
153
90
181
157
92
184
159
92
185
168
99
192
163
94
187
176
107
200
209
140
231
236
168
255
255
187
255
246
181
255
203
142
222
178
120
205
167
113
199
158
104
188
129
77
151
85
35
96
63
16
60
64
20
47
64
22
36
61
20
24
61
21
21
62
21
25
62
21
25
63
22
26
64
24
25
65
25
25
66
25
23
70
26
25
74
26
24
77
26
23
91
36
31
117
57
49
132
68
59
134
68
56
136
68
55
138
68
56
136
66
54
131
61
51
127
57
49
134
60
57
146
72
71
156
80
82
157
82
86
154
81
88
136
63
80
128
57
91
154
86
135
186
121
185
193
131
204
190
132
208
192
138
213
201
148
220
204
151
223
207
153
228
208
154
230
211
154
231
213
156
233
216
159
236
218
161
238
216
159
238
218
161
240
221
164
243
223
166
243
224
168
243
224
168
241
224
168
239
223
168
236
224
169
236
225
170
237
226
171
238
227
172
239
228
173
240
229
174
241
230
175
242
230
175
240
231
177
239
231
177
239
230
176
238
229
174
239
228
176
240
229
177
241
231
179
245
232
180
246
231
178
246
231
178
246
233
180
248
235
182
250
236
185
254
235
184
253
231
180
249
228
176
248
219
168
243
215
166
245
214
165
246
214
167
248
215
167
251
210
165
250
202
158
245
196
152
241
175
130
221
171
126
217
164
119
212
161
114
206
170
123
217
193
144
236
218
169
255
234
184
255
241
189
255
242
189
255
241
188
255
241
188
255
241
188
255
240
187
255
240
188
254
240
188
254
241
189
253
241
189
253
242
190
252
244
192
254
246
194
255
247
195
255
247
197
255
248
199
255
247
198
253
247
198
253
247
198
254
246
199
254
246
199
254
246
198
255
246
198
255
244
199
255
241
195
255
235
189
251
228
182
246
225
176
242
224
175
241
222
171
240
218
167
236
214
162
234
216
162
238
216
162
238
216
162
237
220
164
237
225
169
240
231
176
244
239
182
250
242
187
252
248
194
255
249
195
255
245
191
249
247
193
251
254
199
255
251
196
253
247
192
249
255
198
249
231
176
216
173
118
150
132
73
103
123
63
89
119
57
78
114
52
67
113
53
63
111
55
58
87
36
35
76
28
24
59
18
12
49
12
4
44
9
3
43
10
5
41
10
7
37
9
5
37
11
10
36
12
10
36
12
10
36
12
10
33
12
7
33
12
7
33
12
7
32
11
6
35
11
7
37
13
9
40
15
11
42
14
11
42
13
9
42
13
9
45
14
11
49
15
14
72
36
38
114
75
80
143
103
112
144
103
117
143
102
120
147
105
125
149
106
126
148
104
127
148
104
127
148
105
125
148
103
123
148
103
123
23
9
0
24
10
1
24
10
1
24
10
1
27
10
3
27
10
3
28
11
4
28
11
4
28
10
6
30
12
8
34
15
9
34
15
9
32
13
7
31
12
8
31
12
8
33
12
11
37
12
16
41
15
26
52
24
39
68
39
61
88
55
86
102
67
107
109
71
120
112
71
127
114
70
131
116
70
135
119
69
138
119
69
140
121
69
141
123
71
145
129
75
150
133
79
155
133
79
157
137
80
161
140
82
167
144
84
172
150
87
178
154
89
181
158
91
184
160
93
186
168
98
194
167
97
193
167
97
193
179
110
201
207
139
226
243
175
255
238
174
250
184
122
199
179
121
206
168
114
200
158
104
188
128
76
151
84
34
97
63
16
62
64
19
48
64
22
36
61
20
26
62
22
23
62
21
25
63
22
26
64
23
27
64
24
25
65
25
25
66
25
23
72
26
26
75
27
27
78
27
26
93
38
35
119
58
53
134
69
63
137
69
60
138
70
59
139
69
59
138
68
58
133
63
55
129
58
52
136
62
61
148
74
75
158
82
86
162
85
91
162
86
96
138
65
84
125
53
90
148
79
133
183
116
185
193
131
208
188
130
207
189
132
209
194
140
216
197
143
218
200
146
224
201
147
225
204
147
228
206
149
228
209
152
231
211
154
233
210
153
234
212
155
236
215
158
239
218
161
240
220
163
240
220
164
239
220
164
237
219
163
234
221
166
234
221
166
233
222
167
234
223
168
235
224
169
236
225
170
237
225
170
237
226
171
238
230
175
240
230
175
240
229
174
239
229
174
239
228
176
242
230
178
244
232
180
246
233
181
247
233
180
248
236
183
251
239
186
254
239
186
254
237
186
255
236
185
254
237
186
255
238
187
255
235
185
255
235
185
255
235
184
255
235
187
255
235
186
255
232
185
255
224
179
255
219
174
255
206
161
244
194
149
234
177
132
217
173
125
211
188
140
226
212
164
250
228
180
255
231
182
255
236
184
255
237
184
254
238
185
255
239
186
255
239
186
254
240
187
255
241
189
255
241
189
255
241
189
253
241
189
253
242
190
252
244
192
254
245
193
255
246
194
255
246
196
255
247
198
254
245
198
252
246
199
253
246
199
253
246
199
253
246
199
254
247
200
255
245
200
255
245
200
255
246
201
255
243
198
255
239
194
253
236
191
250
237
189
251
235
187
249
230
181
246
228
177
243
224
173
242
225
172
242
225
172
242
227
174
242
231
179
243
239
185
247
244
190
252
248
194
254
247
193
253
250
196
254
254
200
255
253
200
255
253
198
255
254
199
254
250
196
248
244
188
235
194
138
173
147
91
118
122
62
88
123
61
84
117
56
72
112
52
64
113
53
61
106
51
54
76
25
24
66
21
16
54
13
7
46
9
3
41
8
3
39
8
5
38
9
5
37
9
6
38
12
11
37
13
11
36
12
10
36
12
10
34
13
8
33
12
7
33
12
7
33
12
7
35
11
7
38
14
10
41
16
12
41
16
12
42
14
10
44
15
11
47
16
13
51
17
16
70
34
38
113
73
81
143
103
114
145
104
118
144
103
121
148
106
128
149
105
128
148
104
127
149
105
128
149
105
128
150
105
126
149
104
124
28
11
4
28
11
4
28
11
4
28
11
4
29
10
3
30
11
4
30
11
4
30
11
4
29
10
4
31
12
6
34
13
10
34
13
10
33
12
9
33
12
11
35
14
13
37
15
18
40
14
27
54
25
47
73
43
69
91
60
92
105
70
112
111
73
122
113
72
130
113
71
134
118
73
138
120
73
141
123
73
144
123
73
146
124
72
146
128
74
150
132
78
154
136
82
160
138
81
160
140
81
163
143
83
169
148
85
174
152
89
180
156
91
183
160
93
188
161
94
189
168
98
196
173
103
201
172
102
200
170
101
194
182
116
203
223
158
238
241
177
251
206
144
219
182
124
208
171
115
202
160
105
189
129
75
153
85
33
99
64
14
63
65
18
50
66
22
39
63
20
29
63
21
25
64
22
26
64
21
28
65
22
29
66
24
28
66
24
26
67
25
26
73
27
29
77
27
30
81
27
27
96
38
37
122
58
56
136
71
67
140
71
64
142
72
64
143
70
63
142
69
62
138
65
59
134
60
57
139
63
63
151
75
77
163
84
89
166
89
97
160
84
96
139
64
87
126
54
94
147
78
135
182
114
187
193
130
211
187
128
210
186
129
210
189
134
215
192
138
216
197
139
223
198
140
224
199
141
225
201
143
227
204
146
230
206
149
230
207
149
233
209
152
233
212
155
236
215
158
237
217
160
237
218
162
237
219
163
236
218
162
233
219
163
234
219
164
232
220
165
233
220
165
233
221
166
234
222
167
235
222
167
235
223
168
236
229
174
241
228
173
240
228
173
240
229
174
241
228
175
243
231
178
246
233
180
248
234
181
249
237
184
252
241
188
255
244
191
255
243
190
255
238
187
254
236
185
252
239
188
255
242
191
255
241
190
255
241
190
255
240
189
255
240
190
255
241
191
255
239
192
255
238
190
255
235
189
255
232
186
255
220
174
249
203
156
234
197
148
227
207
158
237
224
175
254
231
183
255
230
179
254
234
181
253
237
181
252
238
183
251
239
184
252
241
186
254
242
187
255
241
189
255
242
190
255
242
190
254
242
190
254
243
191
253
244
192
254
244
194
253
245
195
254
246
196
255
247
198
254
246
199
253
244
200
251
244
200
251
245
201
252
247
200
254
248
201
255
248
201
255
248
201
255
249
202
255
247
200
255
246
199
254
246
199
254
247
198
254
246
197
253
243
193
252
240
190
251
237
187
250
237
187
250
236
186
247
237
187
246
239
190
246
244
193
249
248
197
253
250
199
255
248
195
251
249
196
252
255
205
255
255
205
255
254
200
252
255
204
254
244
190
239
211
156
198
152
96
125
130
71
93
118
59
79
120
59
75
116
56
68
117
57
65
109
53
56
87
36
35
67
18
14
59
16
10
50
11
6
43
8
2
39
8
3
38
9
5
38
8
6
37
9
8
38
12
11
37
13
11
37
13
11
36
12
10
34
13
8
34
13
8
33
12
7
33
12
7
36
12
8
38
14
10
41
16
12
42
17
13
43
15
11
45
16
12
48
17
14
52
18
17
69
33
37
113
73
82
143
102
116
145
104
120
146
103
123
149
105
128
149
105
130
148
104
129
149
105
130
149
105
128
148
104
127
148
105
125
30
12
8
30
13
6
30
13
6
31
12
6
31
12
5
31
12
5
31
12
5
31
12
5
31
12
6
32
13
7
34
13
10
33
12
11
34
12
14
38
16
19
43
20
26
49
23
34
56
26
50
71
40
71
91
59
96
107
72
114
112
74
125
111
72
129
112
70
133
115
70
137
122
75
145
124
77
149
128
78
151
129
77
151
130
76
152
131
77
153
134
80
158
139
82
161
142
83
165
144
85
169
148
85
174
151
88
177
156
91
183
159
94
188
162
95
190
163
96
193
171
101
200
173
102
204
175
105
204
174
104
202
175
109
197
208
143
225
245
181
255
239
177
252
187
129
213
175
119
206
162
107
191
131
77
155
85
33
99
64
14
65
65
18
52
66
21
42
63
20
30
63
20
27
64
21
30
65
22
31
66
23
32
66
23
30
67
25
27
69
24
27
76
27
31
78
28
31
82
27
30
98
40
39
124
60
60
140
72
69
143
72
68
144
73
67
144
71
64
144
71
65
141
67
64
138
62
62
141
65
67
152
76
80
166
87
93
171
91
102
160
82
98
143
67
95
134
61
106
154
82
145
183
115
192
191
127
213
185
125
211
184
126
213
189
131
216
190
135
219
195
137
222
196
138
225
197
139
226
199
141
226
202
144
229
204
146
230
208
150
234
209
151
235
210
152
236
213
156
237
216
159
238
219
162
239
221
165
240
222
166
239
219
163
236
219
163
234
220
164
235
220
165
233
220
165
233
221
166
234
221
166
234
221
166
234
227
171
242
227
171
242
228
172
243
229
174
242
229
176
246
231
178
246
234
181
249
235
182
250
238
185
253
242
189
255
245
192
255
244
191
255
239
188
255
237
186
253
239
188
255
242
191
255
241
191
254
240
190
253
239
189
252
239
188
254
240
189
255
241
192
255
243
193
255
242
195
255
238
191
255
235
188
255
227
180
250
221
174
244
223
173
246
229
179
250
233
183
254
235
184
253
239
186
255
241
186
254
241
186
254
242
187
254
242
187
254
241
189
255
241
189
255
242
190
254
244
192
255
243
193
254
245
193
255
245
195
254
245
195
254
245
198
253
247
198
254
246
199
254
247
200
252
245
201
252
245
201
252
246
202
253
249
202
254
250
203
255
250
203
255
251
204
255
247
200
252
247
200
252
247
200
252
248
201
253
249
201
253
249
201
253
248
199
254
247
198
253
248
199
255
247
200
255
246
199
253
247
199
251
247
199
249
249
201
251
252
202
253
254
204
255
254
201
255
250
197
251
254
201
255
255
202
255
255
201
251
255
199
246
221
165
210
167
111
148
127
69
93
119
58
74
114
53
68
113
53
65
114
54
62
114
57
63
97
42
45
66
16
15
61
13
9
54
13
7
50
11
6
44
9
5
39
8
5
38
8
6
37
9
8
35
9
8
38
14
12
37
13
11
37
13
11
37
13
11
34
13
8
34
13
8
34
13
8
34
13
8
36
12
8
38
14
10
41
16
12
42
17
13
44
16
12
46
17
13
49
18
15
54
20
19
68
31
38
112
72
83
143
102
118
146
105
123
147
103
126
150
106
131
150
106
133
148
104
131
148
104
131
148
104
129
148
104
129
148
104
127
32
12
11
32
13
9
32
13
7
33
12
7
33
13
6
33
13
4
33
13
4
33
13
6
36
15
10
35
14
11
37
13
13
37
12
15
40
14
23
47
21
32
56
30
43
63
36
55
78
47
79
90
55
95
102
66
110
108
71
122
108
69
124
109
67
130
114
69
136
118
72
144
123
76
148
128
77
152
132
80
155
133
81
156
134
80
156
136
79
156
138
81
158
140
83
162
146
87
171
149
87
173
152
87
177
155
90
182
159
92
187
162
95
190
166
96
194
167
97
196
175
102
207
173
100
207
173
102
208
176
105
207
175
108
201
203
138
222
242
180
255
245
185
255
193
134
218
181
123
210
168
110
195
134
77
156
88
33
101
66
13
69
67
17
55
67
19
45
65
18
34
66
20
31
66
20
31
67
21
32
68
22
33
69
23
33
69
24
29
70
24
27
78
27
32
80
28
32
84
28
31
100
40
40
126
60
61
141
73
70
144
73
69
147
74
68
145
70
65
147
72
67
144
69
66
142
64
64
144
65
70
156
77
83
169
87
99
174
93
108
171
92
113
159
82
114
153
77
126
165
93
159
187
118
199
193
127
217
189
125
219
187
128
220
189
130
220
192
133
223
195
136
226
196
137
227
198
138
228
200
140
230
203
143
231
205
145
231
211
153
238
211
153
237
211
153
237
212
155
236
216
159
238
220
163
240
224
168
243
227
171
244
220
164
237
220
164
235
221
165
236
221
165
236
221
165
236
221
165
236
221
165
236
222
166
237
226
170
243
227
171
244
227
171
244
228
172
243
229
176
248
232
179
249
235
182
252
236
183
253
236
183
253
240
187
255
244
191
255
244
191
255
241
190
255
238
187
254
239
188
254
241
190
255
244
192
255
243
191
253
243
191
253
242
190
254
242
190
254
243
193
255
244
193
255
244
195
255
241
192
255
241
192
255
240
191
255
238
189
254
234
183
250
231
180
246
234
183
249
239
188
254
240
188
254
240
188
254
240
188
254
241
189
253
241
189
253
241
189
251
242
190
252
241
191
250
245
195
254
244
197
252
246
197
253
245
198
252
246
199
253
244
200
253
247
200
254
247
200
252
248
201
253
248
202
251
249
203
252
250
204
253
249
205
254
250
206
255
250
206
255
251
207
255
249
205
254
251
205
254
250
204
253
251
203
253
251
201
252
252
202
253
252
202
251
253
203
254
253
206
255
250
206
255
249
205
254
251
205
252
251
205
251
252
206
252
254
206
254
255
207
255
254
204
255
255
202
254
252
199
253
253
199
249
255
199
246
233
176
219
182
124
164
138
79
111
122
60
81
118
56
69
114
52
63
112
52
60
109
50
56
99
43
46
79
28
27
61
13
11
58
13
10
53
14
9
50
12
9
45
12
7
41
10
7
39
9
7
38
10
9
36
10
11
38
14
12
38
14
12
37
13
11
37
13
11
35
14
9
34
13
8
34
13
8
34
13
8
36
12
8
38
14
10
42
17
13
43
18
14
45
17
13
47
18
14
50
19
16
55
21
20
69
29
37
112
70
82
144
101
118
147
104
123
147
103
126
150
106
131
150
106
133
148
104
131
149
105
132
149
105
130
149
105
130
148
104
129
34
13
12
34
13
12
34
13
10
34
13
8
34
14
7
33
13
4
33
13
4
33
13
6
41
17
13
40
16
16
39
14
18
39
13
22
43
16
31
52
25
44
64
36
59
73
42
73
96
61
101
100
64
110
103
66
117
104
65
120
103
62
122
106
64
128
115
70
139
123
76
148
126
75
150
129
78
153
134
82
157
137
83
159
139
82
159
138
81
158
139
82
159
141
82
162
149
87
172
152
87
177
154
89
181
158
91
184
161
94
189
166
96
194
168
98
197
169
98
202
174
101
209
173
99
210
172
100
210
175
104
210
178
111
208
210
144
231
244
182
255
239
179
253
196
137
221
184
126
211
170
112
197
136
79
160
89
33
104
66
12
70
67
16
59
67
18
48
65
17
39
66
19
35
66
19
35
67
20
36
68
22
35
69
23
34
69
23
33
71
24
30
78
27
32
82
27
32
87
28
32
101
39
40
127
61
62
143
73
71
147
73
70
149
74
69
146
71
66
149
71
69
147
69
69
143
64
67
145
66
72
158
77
86
170
88
102
176
95
112
185
106
128
174
97
131
168
91
145
176
103
174
194
122
208
195
128
223
192
128
225
194
132
229
190
131
225
192
133
227
195
136
230
197
138
232
199
138
233
200
139
232
203
143
233
206
146
234
214
156
243
213
155
240
212
154
238
212
155
236
216
159
240
221
164
241
227
170
247
231
175
250
221
165
238
221
165
238
221
165
236
222
166
237
222
166
237
222
166
237
222
166
237
222
166
239
226
170
245
226
170
245
227
171
246
228
172
245
229
176
248
232
179
251
235
182
254
237
184
254
234
181
251
238
185
255
242
189
255
244
191
255
242
191
255
240
189
255
240
189
255
240
189
255
248
193
255
249
195
255
247
195
255
246
194
255
245
193
255
245
193
255
245
193
255
245
195
255
248
196
255
242
192
255
241
191
254
243
193
255
240
190
253
234
184
247
233
183
246
236
186
249
235
185
246
235
185
246
237
185
247
237
187
248
239
189
248
240
190
249
241
192
248
241
194
249
245
198
252
243
199
252
244
200
251
244
200
251
245
201
250
244
202
250
245
203
251
246
202
251
247
203
252
249
203
252
248
204
253
249
205
254
249
207
255
250
208
255
251
209
255
251
209
255
254
212
255
253
212
255
253
210
255
253
207
253
252
206
252
253
206
252
255
208
254
255
209
255
250
208
254
250
208
254
250
209
253
250
207
250
253
208
251
254
209
252
255
209
253
255
209
255
252
202
251
255
209
255
255
201
251
254
198
247
252
195
238
212
151
192
153
91
128
128
65
94
125
62
79
121
60
68
119
58
66
117
58
64
104
47
53
81
26
29
66
16
17
67
22
19
55
14
12
53
13
11
49
14
10
45
14
11
42
11
9
39
11
10
38
9
11
37
11
12
38
14
12
38
14
12
38
14
12
37
13
11
37
13
9
34
13
8
34
13
8
34
13
8
36
12
8
38
14
10
42
17
13
45
17
14
46
17
13
47
18
14
51
20
17
55
21
20
68
28
36
112
70
82
144
101
118
148
105
125
148
104
127
151
107
132
150
106
133
148
103
132
151
107
134
150
106
133
150
106
131
150
106
131
38
13
16
37
13
13
35
11
9
33
9
5
33
10
4
34
11
5
35
12
6
36
12
8
39
13
12
38
11
16
39
12
21
48
20
35
62
32
56
77
46
77
86
55
89
91
56
96
96
60
108
99
60
113
102
63
118
104
65
122
105
64
124
110
65
130
117
70
138
121
74
146
124
73
148
129
76
154
135
81
159
135
81
159
136
79
156
138
80
157
143
85
161
147
89
166
151
87
174
158
91
184
161
94
187
163
93
189
164
94
192
170
98
197
174
102
204
174
101
208
172
98
209
169
95
208
174
101
216
180
108
218
182
114
213
202
136
226
235
172
251
255
196
255
221
162
244
185
125
211
163
103
189
136
77
159
87
29
105
65
9
74
71
17
67
67
15
53
68
18
47
68
19
41
68
19
41
68
19
40
70
21
40
73
25
41
75
27
39
78
28
37
79
26
32
83
26
32
86
25
30
103
39
40
130
62
63
145
74
72
149
74
71
151
73
71
154
76
74
156
76
75
156
76
79
154
73
79
153
72
81
161
77
90
174
90
106
184
101
121
191
108
134
187
107
144
180
103
159
188
115
188
195
122
211
191
124
221
194
129
229
191
129
230
187
127
225
190
130
226
193
131
228
195
133
230
197
133
230
199
135
231
203
140
231
204
144
232
206
148
235
209
151
236
213
155
239
215
158
239
215
158
239
219
162
239
226
169
246
232
176
251
236
180
253
227
171
244
221
165
236
220
164
235
219
163
236
217
161
234
221
165
238
227
171
244
223
167
242
224
167
244
225
168
245
228
172
247
228
174
249
231
178
250
233
180
252
234
181
253
237
184
255
238
185
255
238
185
255
239
186
255
239
188
255
239
188
255
240
189
255
240
189
255
246
191
255
247
192
255
247
192
255
247
192
255
247
192
255
248
193
255
248
194
255
246
194
255
248
194
255
246
194
255
245
193
255
241
189
251
236
186
247
235
185
246
236
186
247
238
188
249
239
189
248
238
191
246
240
191
247
240
193
248
240
193
247
241
194
248
242
195
247
240
196
247
248
204
253
247
205
253
247
205
251
248
206
252
248
207
251
246
207
251
247
208
252
247
208
252
254
211
255
252
209
255
251
209
255
250
211
255
248
211
255
248
211
255
251
215
255
253
218
255
242
207
249
243
208
248
247
212
254
250
213
254
250
212
253
251
210
252
250
209
251
249
208
250
248
211
252
246
209
250
249
208
248
252
210
250
255
212
253
255
212
253
254
207
251
250
203
249
255
211
255
250
200
249
254
200
249
255
200
245
222
161
202
163
99
136
129
62
95
129
63
90
121
57
71
121
60
67
122
61
68
110
51
57
85
30
35
69
17
21
64
15
18
59
15
14
50
10
10
50
12
11
47
12
10
42
11
9
41
10
8
39
11
10
42
13
15
43
17
18
39
13
12
40
14
13
41
15
14
41
17
15
40
16
12
39
15
11
37
13
9
36
12
8
42
17
13
42
17
13
45
17
14
46
18
15
48
19
15
51
20
17
54
20
18
55
19
19
69
29
37
110
68
80
146
103
120
153
110
129
148
104
127
149
105
130
153
109
136
153
109
136
149
105
132
149
105
132
149
105
130
148
104
127
39
14
17
38
13
16
36
12
12
35
11
9
35
11
7
36
12
8
39
14
10
40
14
13
38
11
16
42
15
24
49
21
36
60
30
54
72
41
73
84
49
89
89
53
97
91
55
103
97
58
113
100
61
118
102
63
120
105
64
124
108
64
127
111
66
131
117
70
140
123
73
146
125
72
150
129
76
154
135
80
161
138
81
160
138
79
159
139
81
158
143
85
161
149
88
168
155
89
179
160
90
186
161
91
189
161
91
189
166
94
193
171
99
199
173
101
203
170
97
204
174
100
213
171
97
212
174
101
218
179
107
219
181
113
214
199
132
225
230
167
248
252
190
255
230
169
249
192
133
215
168
108
194
139
80
164
91
33
110
70
13
82
75
20
77
71
18
62
69
17
53
69
19
48
69
19
48
70
20
47
71
21
46
74
25
46
76
28
44
80
30
42
83
30
38
86
29
35
90
29
34
107
42
46
136
65
69
153
79
80
157
79
79
157
79
79
160
80
81
161
81
82
161
80
86
158
77
84
158
74
87
163
79
94
174
89
108
182
98
121
183
100
128
180
100
139
174
96
154
185
109
184
191
118
208
188
120
219
193
128
230
190
127
231
190
128
229
191
131
229
195
133
232
196
134
233
199
135
232
202
138
234
207
143
237
208
148
238
208
148
236
211
153
238
215
157
241
216
159
240
217
160
241
220
163
240
227
170
247
233
177
252
240
184
255
231
175
248
223
167
238
220
164
235
220
164
237
221
165
238
222
166
239
223
167
240
223
166
243
224
167
244
225
168
245
227
170
247
228
174
249
230
176
251
232
178
253
233
180
252
236
183
255
236
183
255
237
184
255
238
185
255
238
187
255
238
187
254
239
188
255
239
188
255
243
190
255
245
190
255
246
191
255
246
191
255
247
192
255
247
192
255
247
193
255
248
194
255
247
193
255
247
193
255
244
192
254
241
189
251
236
186
247
235
185
246
236
186
247
238
188
247
242
195
249
242
195
247
243
196
248
243
199
250
244
200
251
245
201
250
246
202
251
246
204
250
249
207
253
247
208
252
248
209
253
247
210
251
248
210
251
248
212
250
248
212
250
248
211
252
249
208
250
250
209
253
249
210
254
246
209
252
246
211
253
248
216
255
249
217
255
246
216
254
252
222
255
250
220
255
249
219
255
249
217
255
251
217
254
250
216
253
250
214
252
249
213
251
244
208
246
248
212
250
255
215
252
255
214
252
255
211
250
254
209
250
255
208
252
255
209
255
254
204
253
255
205
253
252
199
245
229
172
215
189
127
166
149
84
118
133
62
94
131
61
85
125
59
73
123
60
68
118
58
66
101
44
51
77
24
30
64
15
19
60
14
17
54
12
14
50
11
12
48
12
12
47
13
14
44
10
11
40
8
9
39
9
9
40
11
13
41
15
16
42
14
13
41
15
14
44
16
15
42
16
15
42
17
13
39
15
11
39
14
10
38
13
9
42
17
13
45
17
14
46
18
15
48
18
16
50
19
16
51
20
17
54
20
18
55
19
19
67
26
32
107
65
75
144
102
116
154
111
128
149
106
126
148
104
129
146
102
127
142
98
123
149
105
130
149
105
130
148
104
127
148
105
125
39
13
16
38
12
15
38
12
13
38
12
13
38
12
11
39
13
14
43
14
16
44
15
20
40
10
22
50
19
37
64
32
56
78
44
77
86
51
91
91
53
100
92
54
105
93
54
109
99
58
118
101
60
120
103
62
122
105
63
126
109
65
128
113
67
132
120
70
141
123
73
146
126
73
151
131
76
157
137
79
163
138
80
164
138
79
161
141
80
160
145
84
162
150
86
170
154
85
178
157
85
184
158
86
186
160
88
188
169
94
195
177
102
205
178
103
208
174
98
206
175
101
212
172
98
211
174
101
216
179
107
217
183
115
216
201
134
227
229
166
247
250
188
255
233
172
250
198
137
217
172
110
195
141
79
164
94
32
115
75
15
89
78
19
83
73
16
69
72
16
61
72
17
56
72
18
54
73
19
53
74
21
51
77
24
52
79
27
49
82
29
47
86
30
43
89
29
39
92
29
38
111
44
51
141
68
75
159
84
89
163
84
89
164
84
87
170
88
92
170
88
94
168
85
93
165
82
92
166
79
95
169
82
99
175
88
107
179
94
117
173
90
118
170
90
129
167
87
146
178
102
177
186
113
205
187
116
218
192
125
230
189
126
230
190
128
229
192
130
231
196
131
231
197
132
232
198
134
231
201
137
233
205
141
235
207
147
237
205
145
233
208
150
235
212
154
238
214
157
238
214
157
238
217
160
237
223
166
243
228
172
247
243
187
255
236
180
253
226
170
241
220
164
235
221
165
236
224
168
239
223
167
238
220
164
237
223
166
243
224
167
246
225
168
245
227
170
247
227
173
249
229
175
250
230
176
251
231
177
252
234
180
255
234
181
253
235
182
254
236
183
255
236
184
255
236
185
254
237
186
255
237
186
255
240
187
255
241
188
255
243
188
255
244
189
255
245
190
255
246
191
255
247
191
254
248
192
255
245
191
251
245
191
251
243
192
251
240
189
248
236
186
245
235
185
244
237
187
246
239
190
246
247
200
252
246
202
251
247
203
252
249
206
252
251
208
254
252
211
255
253
212
255
252
214
255
251
213
254
250
214
252
250
214
252
250
216
253
251
215
253
250
216
251
251
217
252
251
217
252
248
212
248
252
216
252
251
215
251
249
215
250
251
220
254
254
224
255
248
218
254
239
212
247
248
221
255
246
219
254
243
216
251
245
215
251
249
219
255
251
219
255
249
217
255
249
215
252
246
210
246
250
213
247
255
215
250
255
213
249
254
209
248
252
207
248
254
207
251
255
208
254
250
200
249
255
206
255
243
187
234
196
135
179
152
87
127
133
66
101
134
60
93
132
60
84
129
63
77
123
60
69
113
53
63
91
35
44
68
17
24
59
12
18
59
14
21
51
10
16
51
12
17
49
13
17
48
13
17
47
12
16
42
10
13
41
11
13
43
13
15
44
15
17
44
14
14
44
16
15
46
16
16
45
17
16
45
17
14
42
17
13
42
14
11
41
13
10
45
17
14
46
18
15
47
17
15
50
19
17
51
20
17
54
20
18
56
21
19
56
20
20
68
27
33
108
65
74
146
102
115
158
114
129
155
112
131
154
111
131
152
108
131
146
102
125
151
107
130
150
107
127
150
107
127
150
107
126
36
10
13
36
10
13
37
11
14
38
12
15
39
13
16
41
14
19
44
14
24
44
13
28
43
11
32
57
24
51
75
41
74
87
52
92
93
55
102
93
54
107
94
55
112
95
55
115
101
59
122
102
60
123
103
61
125
107
62
127
111
64
132
115
68
138
121
71
144
124
72
147
127
72
153
131
76
159
137
79
164
139
79
165
140
78
164
141
79
164
145
83
166
151
87
174
156
86
184
162
90
192
166
94
196
171
96
199
178
103
206
187
112
215
192
117
222
191
115
223
179
103
212
175
101
212
175
103
215
181
109
217
188
120
219
205
140
230
231
168
247
252
190
255
239
179
253
206
145
222
179
117
200
145
83
168
100
38
123
80
19
97
82
22
92
77
19
78
73
16
67
73
17
62
73
18
60
73
18
58
75
21
57
78
24
56
80
27
53
82
28
51
89
32
51
91
30
46
95
31
47
115
47
60
148
75
86
168
91
101
173
92
101
173
92
99
180
97
105
178
95
103
175
92
102
171
87
100
171
84
101
172
85
104
175
87
109
176
90
115
169
86
114
166
85
126
163
83
142
175
97
173
184
109
204
184
113
217
189
122
227
188
122
228
196
131
235
195
133
234
198
133
233
198
133
233
197
133
230
198
134
230
202
139
230
205
142
231
204
144
230
207
149
233
211
153
237
213
156
237
212
155
234
214
157
234
219
163
238
224
168
241
238
182
255
237
181
252
231
175
246
222
166
237
220
164
235
223
167
238
224
168
239
220
164
237
223
166
243
223
166
245
224
167
244
226
169
246
225
171
247
227
173
249
228
174
249
228
174
249
231
177
252
232
178
253
232
178
253
233
180
252
233
181
253
234
182
254
234
182
254
235
184
253
237
184
254
237
184
254
240
184
255
242
187
255
243
188
255
244
189
254
246
190
253
247
191
252
244
190
250
244
190
250
242
191
250
240
189
248
237
187
246
237
187
246
239
189
248
240
193
248
250
204
253
249
206
252
251
208
254
253
210
255
255
212
255
255
216
255
255
217
255
255
219
255
253
217
255
253
217
255
253
219
254
253
219
254
253
219
254
254
220
255
252
221
253
252
221
253
249
216
247
255
222
254
255
223
255
253
220
251
252
218
251
252
218
251
255
223
255
255
232
255
255
225
255
255
223
255
252
218
253
252
216
252
255
220
255
255
219
255
250
214
252
249
211
248
255
216
250
254
213
245
252
211
245
254
210
245
255
212
251
255
214
255
255
212
255
255
209
255
255
204
253
252
196
245
221
162
210
172
109
154
135
68
109
127
57
93
132
58
91
133
60
87
132
65
82
123
59
73
107
47
59
83
27
38
61
11
22
57
11
21
56
14
24
49
9
18
47
10
18
49
12
20
49
14
20
48
13
19
45
13
16
45
13
16
47
15
18
48
18
20
46
16
16
46
16
16
47
17
17
48
18
18
47
17
15
45
17
14
45
15
13
43
15
12
47
17
15
48
18
16
50
19
17
53
19
18
54
20
18
56
21
19
57
22
20
60
21
22
70
29
33
110
67
74
147
104
114
157
113
126
154
111
128
155
112
131
155
112
132
152
109
129
154
111
131
154
111
130
153
110
129
153
110
127
37
8
12
38
9
13
40
11
16
42
12
20
44
14
24
45
14
29
48
15
34
48
14
38
50
15
45
63
27
63
80
43
86
91
53
100
95
55
108
94
53
111
95
54
114
98
56
119
102
60
123
102
60
124
105
60
127
108
63
132
112
65
137
116
68
142
122
71
148
124
71
151
127
72
156
134
76
163
139
79
167
140
80
170
141
78
169
142
79
168
147
82
172
152
85
178
165
93
195
176
101
206
184
109
214
187
110
216
191
114
220
199
122
228
207
130
234
210
135
240
188
112
220
182
109
216
179
108
214
183
112
214
191
124
219
206
142
228
227
165
242
245
185
255
250
189
255
223
161
236
196
133
214
160
96
182
113
49
136
92
28
112
92
30
105
88
27
94
76
17
75
75
16
70
75
17
67
76
19
64
78
21
62
80
24
61
82
27
58
85
29
56
94
34
60
96
32
56
101
33
56
123
51
71
159
82
100
179
101
117
184
102
116
185
101
114
191
105
116
187
101
114
181
95
108
176
89
105
175
86
104
175
86
106
175
86
108
174
86
111
170
85
114
167
85
125
163
83
142
174
96
172
182
107
202
182
109
214
187
118
225
185
119
225
199
134
238
201
136
238
202
137
237
201
136
236
200
134
232
199
134
228
200
135
225
201
139
225
204
144
230
208
150
234
213
155
239
214
157
238
213
156
235
214
157
234
218
162
237
222
166
239
229
173
246
236
180
251
236
180
251
228
173
241
221
166
234
221
166
234
223
167
238
223
167
240
223
167
242
223
166
243
224
167
244
225
168
245
224
170
246
225
171
247
225
171
247
226
172
248
228
174
250
229
175
250
229
175
250
230
176
251
230
178
252
231
179
253
231
179
253
232
180
252
232
180
252
233
182
251
235
182
252
237
184
252
241
186
253
242
187
252
245
189
252
246
190
251
244
188
249
244
190
248
242
191
248
241
190
247
238
189
245
239
190
246
241
194
249
243
196
250
251
205
254
252
206
253
253
207
253
254
211
255
255
213
255
255
216
255
255
218
255
255
220
255
255
219
255
255
219
255
254
220
255
255
221
255
255
221
254
255
221
254
254
223
255
254
223
255
250
217
248
254
219
249
254
219
249
255
223
254
255
225
255
254
213
247
243
199
234
243
197
233
241
195
231
244
197
233
239
192
228
242
192
229
253
203
240
255
208
245
255
209
246
255
215
250
255
210
242
255
208
240
252
207
240
252
208
243
255
211
250
255
213
254
255
210
255
255
206
255
255
207
255
233
175
226
195
133
182
165
99
145
143
75
116
131
61
98
129
58
92
133
63
91
132
64
85
116
54
69
97
39
54
76
22
36
58
10
24
55
11
24
55
14
28
48
10
23
43
5
16
44
8
18
47
12
19
47
12
18
47
12
16
45
13
16
47
15
16
49
17
18
48
16
17
49
17
18
50
18
19
51
19
20
50
19
17
48
18
16
47
16
14
45
15
13
49
18
16
50
19
17
53
19
18
55
19
19
56
21
19
59
21
20
60
22
21
62
22
22
69
27
29
109
67
69
147
104
111
157
114
124
153
109
124
154
110
127
154
111
128
152
109
128
150
107
126
150
107
124
149
108
122
149
108
122
41
12
16
43
14
19
46
16
24
49
19
29
52
21
36
53
21
42
55
21
46
56
21
53
57
21
59
68
31
75
82
44
93
91
52
105
94
53
109
95
54
114
96
55
115
98
56
119
104
62
126
103
61
127
105
60
129
108
62
134
114
66
140
120
69
146
124
71
153
124
70
154
130
72
159
134
75
165
139
79
169
140
79
172
141
77
173
142
78
174
147
81
178
152
84
183
166
93
198
179
103
211
190
112
222
192
114
223
193
116
222
201
124
230
211
134
238
217
140
244
205
130
233
198
126
228
191
119
221
188
121
218
197
131
221
207
144
225
221
161
233
237
178
246
254
193
255
234
172
245
211
148
229
172
108
195
123
58
148
99
35
122
97
34
115
94
32
105
80
20
84
80
21
79
79
20
76
80
22
73
82
25
70
84
28
67
87
32
64
89
33
62
94
33
66
97
32
64
102
33
62
126
53
80
164
86
110
188
106
128
191
108
126
191
107
123
198
111
127
190
103
119
181
94
110
176
89
106
175
86
106
175
86
108
174
84
109
172
84
109
171
86
115
168
86
126
163
83
142
174
96
172
182
107
200
181
108
213
186
117
224
184
117
223
191
126
230
195
130
232
199
134
234
201
137
234
201
135
232
200
135
229
199
134
224
199
137
223
202
143
227
206
148
232
211
154
235
212
155
234
211
154
231
211
155
230
214
158
231
218
162
233
225
169
240
235
179
250
242
187
255
237
182
250
227
172
240
222
167
235
222
166
237
224
168
241
223
167
242
223
166
243
224
167
244
224
167
244
222
168
244
223
169
245
223
169
245
223
169
245
226
172
248
226
172
248
227
173
248
227
173
248
227
175
249
228
176
250
229
177
251
229
177
251
228
176
248
229
177
249
232
179
249
234
181
249
239
184
251
241
187
249
244
188
249
245
190
248
244
189
247
244
191
247
243
192
248
243
192
248
241
192
247
241
194
248
244
197
252
247
200
254
251
205
254
252
206
253
253
207
253
255
209
255
255
211
255
255
214
255
255
215
255
255
217
255
255
218
255
255
219
255
255
219
255
254
220
255
255
221
254
255
221
254
253
222
254
254
223
255
255
221
254
255
223
255
253
216
250
250
209
243
243
197
233
214
164
201
180
126
162
165
107
145
166
104
141
173
109
146
172
106
142
177
111
147
194
128
164
208
143
177
219
154
188
231
170
203
255
199
228
255
206
236
255
214
246
255
217
253
255
215
254
254
211
254
254
208
254
255
206
255
252
198
250
211
151
203
174
110
160
165
97
144
157
88
132
140
69
109
130
60
96
135
66
95
124
59
81
106
43
62
87
28
48
71
18
36
58
11
29
54
11
28
54
13
29
47
9
24
41
5
19
44
8
20
47
11
21
48
13
20
47
12
18
47
12
16
48
14
15
47
15
16
52
18
19
53
19
20
54
20
21
52
20
21
52
21
19
50
19
17
49
18
16
48
17
15
51
20
18
53
19
18
55
19
19
56
20
20
59
21
20
61
23
22
62
22
22
63
23
23
69
27
28
107
65
66
143
101
105
154
111
118
154
110
123
158
114
129
160
118
132
158
115
132
152
109
126
152
110
124
151
111
122
151
111
122
51
20
25
53
22
28
57
25
36
61
29
44
64
31
50
66
32
57
67
32
65
68
31
72
63
24
69
72
32
82
84
44
97
93
52
108
96
55
113
97
56
116
97
56
116
98
57
117
107
62
127
105
60
127
105
59
131
108
62
135
114
65
144
121
69
151
124
70
156
125
71
157
130
71
161
134
75
167
139
78
171
142
78
174
142
76
174
143
77
177
148
81
184
153
84
190
162
86
195
174
96
206
184
106
218
190
112
222
196
118
227
206
129
233
217
140
242
222
145
247
225
150
251
217
145
244
207
135
234
202
135
228
210
144
231
217
155
232
226
166
236
241
182
248
255
195
255
243
182
252
223
160
241
183
119
206
130
65
157
103
38
128
101
37
121
99
37
114
86
25
95
86
26
90
85
25
85
86
27
83
88
30
80
90
33
76
93
37
72
95
38
71
102
38
75
103
35
74
108
38
74
133
59
92
173
94
123
198
115
141
203
118
141
204
117
136
203
114
132
193
104
122
181
92
110
174
85
103
173
84
104
174
85
107
176
84
109
172
82
108
170
85
114
167
85
125
163
82
140
173
95
171
181
106
199
181
109
211
185
116
222
184
117
223
183
118
222
190
125
227
199
134
234
206
142
239
210
144
241
210
145
237
210
146
233
209
147
232
207
148
232
211
153
237
216
159
240
217
160
239
216
159
236
215
159
234
217
161
234
220
164
235
230
174
245
237
182
250
246
191
255
247
192
255
237
182
250
225
170
238
221
166
234
223
167
238
223
167
242
223
166
243
223
166
243
223
166
243
221
167
243
222
168
244
222
168
244
222
168
244
224
170
246
224
170
246
225
171
247
225
171
247
225
173
248
226
174
249
227
175
250
227
175
249
226
174
246
227
175
247
230
177
247
232
180
246
237
182
247
240
186
248
243
187
248
244
189
247
244
191
247
245
192
246
244
194
247
244
194
247
243
195
247
244
197
249
248
201
255
251
204
255
252
206
255
253
205
253
254
206
254
254
208
255
255
210
255
255
212
255
255
213
255
255
214
255
254
216
255
253
217
255
254
218
254
254
218
254
254
220
253
254
220
253
254
220
253
254
220
255
255
224
255
255
225
255
235
192
235
189
141
183
157
102
144
136
75
117
125
56
100
130
55
96
135
57
97
147
65
103
149
65
101
151
65
100
163
78
111
169
84
115
176
93
121
186
110
138
223
159
186
232
176
205
250
196
228
255
213
247
255
219
255
255
217
255
255
211
255
255
206
255
232
175
230
195
132
187
168
99
153
166
96
146
166
94
140
146
78
119
133
65
102
132
67
99
113
49
75
91
29
50
74
16
38
68
15
35
59
12
32
51
10
28
48
9
27
44
7
24
50
13
30
53
17
31
56
18
29
56
19
27
54
17
24
52
17
21
51
17
18
52
18
19
54
18
20
54
20
21
55
21
22
55
21
22
55
21
20
54
20
19
52
18
17
51
17
16
54
20
19
54
20
19
56
20
20
59
20
21
61
21
21
62
22
22
64
22
23
65
23
24
66
25
23
92
51
49
115
73
75
121
79
83
125
82
92
136
92
105
140
98
112
137
95
109
138
96
110
138
96
108
137
97
108
136
96
105
59
25
39
61
29
42
66
32
49
70
37
58
74
38
66
76
41
74
77
39
80
78
39
86
66
26
78
74
33
89
86
45
103
95
54
114
99
57
120
99
57
120
98
56
119
97
55
118
108
63
132
106
60
132
105
59
132
109
61
137
117
65
147
122
70
153
125
71
157
126
70
159
130
71
163
135
74
169
142
78
175
144
78
178
144
75
181
144
75
182
151
79
189
156
82
193
161
83
195
172
92
203
182
104
213
191
114
220
204
128
228
219
144
239
230
155
246
233
160
249
239
166
255
231
161
249
218
150
237
216
148
233
223
158
238
230
168
241
238
179
245
250
194
255
255
201
255
251
192
255
234
173
250
194
130
214
139
75
162
111
45
135
108
42
129
107
42
124
91
27
103
91
28
99
91
28
98
92
30
95
93
32
91
96
36
88
98
39
83
103
41
82
116
49
93
118
47
91
122
50
90
147
71
109
188
107
140
214
129
160
220
131
159
220
130
156
206
114
137
195
103
124
181
89
110
174
82
103
174
82
105
176
84
107
175
83
106
171
81
106
169
83
110
167
82
121
161
80
138
172
94
169
180
105
196
179
108
210
185
116
222
183
118
222
184
119
221
193
128
228
206
142
239
218
154
250
225
159
255
227
162
254
228
163
253
227
165
250
219
160
244
223
166
247
229
170
252
230
173
252
229
171
248
226
170
243
228
172
245
231
175
246
236
181
249
240
185
253
249
194
255
253
198
255
245
190
255
229
174
242
220
165
233
220
165
233
223
167
238
223
167
240
223
167
242
221
167
242
221
167
242
221
167
243
220
168
243
220
168
243
222
170
245
222
170
245
223
170
248
223
171
246
224
172
247
225
173
248
225
173
248
226
174
248
225
172
244
226
173
243
228
175
243
233
178
245
236
181
246
239
185
247
242
186
247
242
188
246
244
191
247
246
193
247
245
195
248
246
196
247
245
197
249
246
199
251
250
203
255
253
207
255
254
206
254
254
206
254
255
207
255
255
209
255
255
210
255
254
211
255
255
212
255
254
213
255
253
215
254
252
216
254
253
217
255
252
218
253
252
218
253
253
219
252
253
219
254
253
219
255
255
222
255
244
202
248
181
135
184
115
63
112
98
36
85
107
39
86
113
38
81
113
35
74
130
46
80
147
60
92
153
63
91
156
64
89
163
69
93
161
66
88
163
65
88
170
78
99
168
89
111
179
109
133
207
141
168
236
175
206
255
199
234
255
207
246
251
199
245
244
190
240
214
154
208
189
121
178
169
96
151
167
93
144
166
93
139
152
81
125
136
69
110
131
67
102
105
42
71
80
20
46
65
9
36
63
13
38
58
13
36
49
7
29
45
6
27
43
6
24
62
25
43
64
28
42
67
29
42
66
28
39
63
26
34
58
23
29
57
22
26
57
23
24
55
19
21
55
19
21
55
21
22
56
22
21
55
21
20
54
20
19
53
19
18
52
18
16
55
19
19
55
20
18
58
20
19
60
22
21
62
22
22
63
23
21
65
24
22
65
24
22
60
19
17
72
31
29
77
35
36
73
31
33
77
34
41
91
48
57
96
54
64
93
51
61
93
51
61
93
51
61
92
51
59
91
51
59
72
33
62
71
35
63
76
37
68
76
39
73
81
40
80
82
43
88
86
44
94
88
45
99
74
30
89
82
38
99
93
49
112
101
56
121
103
58
125
103
58
127
105
60
129
107
62
131
110
62
138
111
62
141
112
63
142
116
65
144
119
67
149
123
71
154
128
74
160
131
75
164
133
74
168
134
72
169
140
73
176
145
76
182
149
75
186
154
77
191
161
82
199
166
85
203
174
89
206
184
100
211
182
104
206
200
125
218
228
156
240
250
179
255
255
193
255
255
186
255
255
194
255
255
191
255
251
185
255
246
180
252
249
186
255
255
195
255
255
199
255
249
195
255
247
196
253
251
197
255
254
197
255
231
170
247
181
116
198
138
70
155
122
52
138
118
49
132
103
34
117
101
32
115
104
34
120
106
37
120
104
33
109
99
30
97
106
38
97
119
50
104
131
58
111
136
62
113
151
73
121
181
100
143
219
133
172
235
143
180
225
131
167
215
120
152
202
105
136
199
103
131
188
94
120
174
80
106
167
73
99
169
75
99
173
79
103
174
82
105
170
82
107
166
80
117
168
85
141
176
98
173
183
110
200
183
115
216
183
116
221
181
118
222
181
119
218
191
129
226
207
143
240
216
152
248
221
155
252
224
159
253
227
164
255
230
168
254
239
177
255
239
180
255
243
181
255
242
183
255
244
183
255
242
184
255
244
186
255
247
190
255
253
196
255
254
197
255
254
199
255
253
198
255
250
195
255
244
189
255
238
183
250
234
179
246
227
171
236
227
172
239
228
173
241
227
174
244
227
174
246
225
173
247
223
172
247
222
171
248
219
168
245
219
168
245
221
170
249
221
170
247
222
171
248
221
170
247
222
170
245
222
168
243
225
169
240
224
169
237
225
170
238
229
174
241
236
181
246
241
187
249
243
189
251
243
189
249
243
189
247
242
191
247
243
193
246
245
195
248
248
198
249
249
201
251
250
202
252
251
203
253
255
207
255
255
208
254
253
207
253
253
207
253
253
207
253
251
208
253
251
208
251
250
209
251
247
209
250
247
210
251
249
212
253
249
215
252
250
216
253
249
218
252
249
217
254
251
217
254
255
227
255
221
179
227
136
87
143
90
35
93
94
29
85
94
24
74
94
22
60
96
23
52
107
32
53
123
45
61
139
57
71
147
59
71
155
62
73
165
65
77
172
66
80
170
65
79
178
80
95
173
80
98
173
84
102
184
100
123
221
142
171
255
194
231
255
200
244
230
166
216
196
129
183
179
108
164
184
107
163
179
99
152
168
90
140
166
90
137
143
74
118
118
53
93
79
19
55
69
14
46
62
11
42
58
12
41
50
7
35
44
4
30
52
14
39
68
30
53
80
41
60
79
40
58
75
37
52
71
33
44
65
30
37
61
26
32
57
22
26
55
21
22
54
18
20
55
19
19
59
23
23
62
26
26
60
24
24
55
20
18
54
19
17
56
21
17
58
20
19
59
21
18
61
23
20
63
23
21
64
24
22
63
24
19
62
23
18
62
23
18
63
22
20
64
23
21
61
19
20
57
15
16
57
15
17
61
19
23
64
22
26
63
20
27
62
19
26
62
19
26
62
19
26
61
20
26
83
42
82
83
42
82
83
42
84
86
44
90
89
47
97
92
49
102
92
48
107
92
48
109
79
34
99
87
42
109
97
52
121
103
57
129
106
58
132
105
59
132
108
60
134
111
63
139
112
63
144
112
63
145
115
63
146
117
65
148
121
69
152
126
72
156
130
74
161
134
75
167
132
71
166
137
72
172
142
73
179
147
74
182
150
73
187
155
74
192
163
79
200
169
84
203
180
93
208
193
110
216
207
130
226
233
159
244
246
174
248
241
170
236
236
166
226
222
153
210
227
159
216
244
179
237
255
193
255
255
195
255
255
196
255
255
199
255
248
194
254
234
183
240
225
176
232
230
179
238
240
183
251
241
181
253
219
154
234
177
109
192
144
72
156
132
60
146
123
50
139
111
38
128
107
34
126
119
46
136
133
59
144
138
66
142
142
69
138
149
75
138
157
82
141
168
91
147
179
99
152
194
110
159
213
122
166
214
119
161
205
109
147
200
103
138
205
105
139
202
103
134
189
93
121
175
79
107
166
72
98
168
74
100
172
78
102
173
81
104
169
79
104
164
78
113
167
84
140
175
97
172
183
110
202
183
115
216
183
117
223
182
119
224
187
125
226
194
132
229
203
139
236
206
142
239
206
140
238
204
138
235
204
140
234
206
143
232
219
157
243
221
159
242
223
161
244
224
163
243
224
163
241
224
163
241
225
167
243
227
169
243
229
172
243
231
174
243
233
178
246
237
182
249
242
187
254
245
190
255
248
193
255
249
194
255
240
184
247
237
181
244
231
176
241
225
173
239
221
170
237
221
169
241
221
171
244
220
173
245
219
171
245
219
171
245
219
171
245
219
171
245
221
170
245
221
170
245
221
169
243
222
169
241
224
168
239
225
168
236
227
170
238
233
177
242
238
183
248
243
189
251
244
190
252
244
190
250
243
192
249
243
192
249
245
194
250
247
197
250
249
199
252
250
200
251
251
203
253
252
204
254
254
206
254
254
206
254
253
207
254
252
206
253
250
207
253
250
207
253
249
208
252
249
208
252
246
207
251
246
209
252
246
209
252
247
210
253
248
213
253
249
214
254
251
216
255
253
216
255
255
216
255
200
156
209
124
72
134
88
29
93
87
21
82
86
18
69
87
17
54
88
18
44
92
21
37
105
34
42
120
43
49
130
48
52
144
52
57
159
58
64
171
64
72
176
65
74
187
77
88
188
80
93
187
81
95
186
85
103
204
110
134
235
148
180
241
163
203
226
152
201
203
128
184
190
112
170
189
108
166
183
100
156
169
86
140
163
85
135
142
70
118
108
43
86
76
18
58
66
14
52
61
11
48
55
10
43
50
6
39
47
6
36
57
17
44
69
31
54
72
33
54
71
32
50
69
31
46
66
28
39
63
26
34
59
24
30
57
22
26
56
22
23
55
19
19
56
20
20
59
23
23
63
27
27
61
26
24
55
20
18
56
18
15
58
20
17
59
21
18
60
22
19
62
23
18
63
24
19
64
25
20
63
24
19
62
23
16
62
23
18
63
22
20
64
23
21
61
19
20
57
15
16
57
15
16
61
19
20
64
22
24
63
21
23
61
19
23
61
19
23
61
19
23
61
19
23
93
50
96
90
46
95
88
44
95
88
44
97
90
45
102
90
45
104
88
42
107
86
39
107
88
41
111
95
48
120
104
56
130
108
60
136
111
60
139
109
60
139
113
61
143
115
63
146
116
64
149
116
63
151
118
64
152
121
67
155
124
70
158
129
73
162
134
75
167
138
77
172
138
72
170
146
78
179
153
80
187
155
79
188
156
78
190
159
79
194
168
85
201
176
92
206
191
107
218
209
128
230
237
161
252
253
180
255
231
158
227
201
127
188
191
116
172
181
107
160
192
119
172
214
144
196
241
170
226
255
189
246
255
199
255
255
201
255
241
188
244
221
172
227
221
170
226
220
169
228
225
168
236
241
179
254
247
182
255
219
151
234
176
104
188
151
79
165
151
77
166
152
77
168
161
86
179
172
97
190
172
96
184
162
88
167
159
83
155
161
86
151
159
83
147
160
82
142
159
78
134
169
85
137
192
100
147
202
107
149
201
105
143
201
104
139
206
106
140
203
104
135
190
94
122
175
79
107
165
71
97
166
72
98
169
75
99
170
78
101
167
77
102
162
76
111
165
82
138
174
96
172
183
109
204
184
116
219
184
118
226
183
120
227
185
122
226
189
127
228
194
129
231
195
130
230
193
127
227
191
125
223
191
127
223
193
130
221
206
143
232
208
146
231
211
149
234
212
150
235
212
150
233
213
151
234
213
154
234
215
157
234
217
159
235
217
159
233
218
162
235
222
166
237
229
173
244
237
182
250
244
189
255
249
194
255
253
197
255
249
193
255
241
186
251
232
180
244
225
174
240
221
170
236
219
170
236
218
169
235
221
175
240
221
175
240
220
173
241
219
172
240
221
171
240
221
171
240
221
170
239
222
169
239
223
168
236
225
170
237
230
175
242
236
181
246
242
187
252
246
192
254
244
192
254
244
193
252
245
194
251
246
195
252
247
196
252
249
199
252
250
200
253
252
202
255
252
204
254
252
204
254
253
205
255
252
204
255
251
204
255
251
204
255
248
204
253
248
204
253
247
205
253
246
204
252
247
205
253
244
205
252
243
204
249
244
205
250
246
207
252
249
210
255
252
213
255
255
214
255
244
200
251
173
123
182
110
55
122
84
23
92
78
12
76
79
10
65
77
9
48
79
10
38
74
7
24
86
16
26
99
24
31
110
29
35
125
36
40
144
48
52
162
59
63
174
65
71
187
73
83
196
82
92
196
80
93
187
74
92
187
81
104
199
100
129
212
122
160
220
137
183
215
135
186
204
123
179
193
109
168
184
100
159
169
86
142
151
72
127
131
57
108
101
33
82
74
15
59
67
14
56
61
11
49
54
6
44
50
5
38
51
10
40
60
20
47
69
29
55
63
24
45
63
24
42
64
23
39
61
23
34
60
23
31
58
23
29
57
22
26
56
22
23
56
20
20
56
20
20
62
23
24
65
26
27
63
25
24
57
19
18
56
18
17
58
20
19
60
20
18
61
21
19
62
23
18
64
25
20
65
24
20
65
24
20
64
23
19
63
22
18
63
22
20
64
23
21
62
21
19
57
16
14
57
16
14
62
21
19
64
22
23
63
21
22
59
17
19
59
17
19
59
17
19
59
17
19
97
52
107
96
51
108
95
50
109
94
48
110
93
47
111
91
44
112
92
42
115
90
42
116
100
49
126
105
54
133
111
59
141
114
62
145
114
60
144
112
60
145
115
61
147
117
64
152
120
65
156
120
65
158
122
67
160
125
68
162
128
71
165
134
75
169
139
77
174
144
78
178
148
80
183
161
90
194
169
93
201
167
89
199
167
87
200
171
88
202
179
96
212
188
106
217
207
126
229
230
153
247
255
182
255
242
168
243
187
113
176
155
78
134
163
84
132
173
91
139
180
101
148
187
110
156
204
128
177
228
155
208
252
185
239
255
199
253
242
189
241
221
173
225
228
177
233
224
170
230
224
164
234
231
169
244
246
179
255
243
174
255
208
136
220
167
95
181
162
88
177
163
88
181
169
94
189
172
97
190
161
85
175
141
66
148
134
58
132
136
61
128
135
58
126
135
56
121
137
56
115
157
70
125
187
95
144
205
110
154
204
108
146
203
106
141
207
107
141
204
105
134
190
94
122
174
78
105
164
70
96
164
70
94
167
73
97
167
75
98
165
75
100
161
75
110
164
80
139
173
95
171
182
108
203
184
115
221
184
118
228
184
120
230
181
118
225
183
120
224
188
123
227
189
124
226
189
122
225
190
124
224
192
128
225
195
131
227
204
141
232
207
144
233
209
146
235
210
147
236
211
149
235
212
150
236
212
152
238
215
156
240
218
159
241
217
158
238
216
159
238
217
160
237
220
164
239
226
170
243
231
175
246
235
180
248
248
191
255
249
192
255
249
194
255
248
193
255
243
191
255
236
186
247
230
182
242
227
179
239
229
184
243
229
184
243
227
182
241
225
179
241
225
177
239
223
174
239
223
172
238
222
171
237
223
171
237
226
174
238
234
179
244
239
187
249
246
192
254
247
196
255
247
196
255
246
195
254
248
197
254
249
198
255
249
198
254
251
200
255
252
202
255
253
203
255
252
204
255
253
205
255
251
202
255
251
202
255
249
202
255
249
202
255
246
202
255
245
201
254
244
201
254
243
201
251
244
201
254
243
201
251
242
200
250
242
198
249
245
201
252
249
205
254
253
209
255
255
211
255
236
189
244
154
102
166
102
45
116
83
21
94
75
8
77
74
6
63
71
4
47
70
6
33
67
3
20
73
7
17
82
11
19
91
15
19
105
20
23
125
33
36
148
49
52
164
57
63
178
65
71
195
75
85
199
77
90
195
74
89
190
74
95
186
78
104
194
94
128
212
120
161
230
142
190
223
139
191
197
112
171
181
95
156
166
82
142
136
55
114
114
39
96
101
32
86
72
12
63
68
12
59
60
7
51
52
4
44
51
5
42
56
12
45
64
21
51
66
26
52
59
20
41
59
20
38
61
20
34
61
21
32
60
20
28
58
22
26
58
22
24
58
22
24
57
21
21
60
21
22
63
24
25
66
27
28
64
26
25
58
20
19
56
18
17
59
21
20
60
20
18
61
21
19
63
24
19
64
25
20
65
24
20
65
24
20
64
23
19
63
22
18
63
22
18
64
23
19
62
21
19
57
16
14
57
16
14
62
21
19
64
22
23
63
21
22
58
16
17
58
16
18
58
16
18
58
16
18
102
53
119
105
56
122
107
57
126
106
56
127
105
55
128
104
53
130
107
54
134
109
57
140
111
57
143
115
61
149
118
64
152
118
63
154
117
61
152
115
60
153
118
61
155
120
65
158
124
67
161
125
68
163
126
69
164
130
70
168
134
72
171
140
75
177
145
78
183
150
79
185
157
84
192
176
100
209
183
105
215
178
98
211
175
95
208
179
96
210
188
105
221
200
118
228
218
142
240
246
172
255
255
192
255
221
148
217
156
78
136
140
61
109
169
82
125
188
100
140
192
104
144
194
107
149
193
110
154
200
123
169
228
159
206
255
196
245
253
201
249
232
182
233
231
178
234
226
170
231
226
166
236
219
157
234
221
153
236
242
172
255
235
163
247
190
116
203
174
100
189
154
79
172
138
61
157
134
57
153
135
56
148
130
52
136
129
51
127
132
55
127
138
58
131
141
60
129
147
62
127
163
75
135
189
96
149
203
107
153
205
107
148
207
107
143
207
108
139
203
104
133
190
94
121
174
79
103
163
69
93
163
70
91
165
73
94
166
74
95
164
74
99
160
74
109
163
79
138
172
94
170
181
107
204
183
114
221
181
117
229
182
120
231
182
120
229
184
121
228
187
121
229
187
121
227
187
121
227
189
124
228
192
127
227
194
130
227
199
135
231
202
138
232
205
141
235
206
142
236
205
144
237
206
145
238
209
148
241
211
151
241
214
154
242
214
154
240
216
157
241
219
160
242
221
164
243
224
167
244
227
171
246
229
173
246
230
173
244
236
179
248
244
189
255
253
198
255
255
204
255
255
205
255
251
204
255
249
202
255
250
203
255
249
202
255
246
199
253
242
195
249
237
190
245
231
183
241
226
178
236
224
174
235
225
175
236
230
180
241
237
185
247
242
192
251
247
196
255
247
197
255
248
198
255
248
199
255
249
200
255
250
201
255
251
200
255
252
201
255
252
201
255
253
203
255
253
203
255
253
203
255
249
200
255
249
200
255
247
199
255
246
199
254
243
198
253
242
197
252
241
198
252
240
197
250
243
198
253
241
197
250
240
196
249
241
194
248
244
195
250
248
200
252
253
202
255
255
205
255
235
183
245
157
102
170
108
47
124
91
27
105
79
13
85
75
9
71
70
5
48
68
5
36
68
7
25
69
7
18
73
8
14
79
8
12
92
12
13
110
21
23
131
37
38
151
48
51
168
55
59
185
64
71
197
71
82
203
77
89
204
82
97
195
78
97
189
82
108
197
97
131
229
136
180
242
154
204
212
122
183
177
88
152
158
71
139
126
44
110
103
27
89
100
31
88
73
10
65
67
10
61
60
6
55
56
4
50
56
8
48
59
15
50
63
20
50
65
22
49
63
21
43
63
22
40
63
21
35
62
22
31
61
22
27
59
23
25
58
22
24
58
22
22
61
22
23
62
22
23
65
25
26
68
28
29
65
25
25
59
19
19
57
17
17
60
20
20
62
21
19
63
22
20
64
23
21
65
24
22
66
25
21
65
24
20
64
23
19
64
23
19
64
23
19
65
24
18
62
21
17
58
17
13
58
17
13
62
21
17
65
24
22
64
23
21
58
17
15
58
16
17
58
16
17
58
16
17
103
53
126
104
53
128
106
55
132
108
55
135
109
56
138
110
56
140
112
58
144
114
60
148
123
67
158
125
68
162
127
70
165
124
67
162
122
62
158
119
62
157
124
64
160
127
67
163
129
69
165
130
70
168
131
71
169
134
72
173
139
74
178
144
77
183
151
79
189
154
80
191
160
83
197
184
105
220
191
111
226
182
102
215
178
98
213
180
100
215
189
109
224
203
125
234
227
154
246
253
184
255
255
191
255
202
130
193
143
65
117
145
59
104
172
80
119
189
94
128
206
111
145
224
130
166
218
128
166
199
114
156
211
135
181
251
185
231
255
208
254
244
194
243
235
180
237
225
166
230
224
163
233
206
142
220
190
121
204
222
150
236
249
175
255
229
155
242
220
146
235
204
129
222
186
109
205
169
92
188
151
72
164
134
54
143
129
50
131
136
55
132
143
62
139
142
60
134
144
59
127
161
73
134
191
98
151
208
112
158
209
111
150
208
108
142
206
107
136
202
103
131
189
94
118
173
78
100
162
69
90
162
69
88
165
74
92
164
75
95
164
76
100
160
74
109
163
80
136
172
94
170
180
106
203
181
112
221
179
115
229
180
117
232
180
118
229
180
118
227
185
119
229
186
120
228
187
121
229
189
123
229
191
126
228
192
127
227
195
131
228
198
134
231
201
137
234
202
138
235
201
139
236
203
141
238
206
144
241
208
147
242
209
148
241
211
151
241
215
155
243
219
159
245
222
165
246
224
167
246
225
168
245
226
169
246
222
164
240
228
170
244
235
179
250
245
190
255
250
198
255
255
204
255
255
207
255
255
209
255
255
215
255
255
216
255
255
214
255
255
210
255
249
202
254
240
193
245
231
184
238
226
179
233
231
183
241
235
185
244
241
191
250
245
196
252
247
197
255
248
199
255
249
200
255
250
201
255
251
202
255
251
202
255
252
201
255
252
201
255
252
201
255
252
201
255
252
201
255
252
201
255
247
198
254
247
197
255
246
196
255
244
196
254
243
195
253
240
195
252
239
194
249
237
194
248
240
195
250
239
194
249
240
193
248
241
192
248
243
192
248
246
195
251
250
197
253
252
198
255
240
185
252
176
118
194
123
61
144
100
37
118
90
23
100
80
15
79
70
8
55
66
7
39
70
13
32
69
11
23
70
9
16
75
9
11
85
9
11
98
14
14
117
27
27
138
38
40
158
48
51
174
55
59
189
64
70
201
74
83
209
83
94
205
84
99
193
82
101
185
81
108
212
116
153
247
155
202
231
140
199
183
92
159
150
63
134
122
40
112
102
25
93
95
24
90
76
12
73
69
10
68
64
7
62
64
10
60
64
15
60
64
18
55
64
19
52
63
20
47
66
22
45
66
23
40
65
23
35
64
23
31
64
23
29
62
23
24
62
23
24
62
23
24
63
23
24
63
23
24
67
25
27
69
29
30
67
25
26
60
20
20
59
17
18
61
19
20
62
21
19
63
22
20
65
24
22
66
25
23
66
25
21
66
25
21
65
24
20
64
23
19
64
23
17
65
24
18
63
22
16
58
17
11
58
17
13
63
22
18
65
24
22
64
23
21
58
17
15
58
17
15
58
16
17
58
16
17
104
51
131
102
49
129
103
50
132
110
55
139
120
64
151
127
71
160
128
72
163
126
69
163
136
76
172
137
77
173
137
77
175
133
73
171
128
66
165
126
66
164
129
67
166
133
71
170
133
71
170
133
71
172
134
71
175
138
72
178
143
75
184
148
78
190
154
80
195
158
81
197
162
83
200
189
108
226
197
116
234
185
105
220
180
99
217
181
102
219
191
112
229
206
130
238
231
161
249
255
191
255
255
188
255
189
118
176
138
56
105
143
55
97
168
71
106
188
84
117
214
111
141
242
138
171
239
142
177
208
118
156
201
120
161
231
162
206
255
199
242
255
204
252
245
190
247
226
167
231
222
161
231
204
140
218
173
104
187
188
116
202
236
162
247
255
184
255
252
178
255
240
165
255
228
151
247
213
136
232
190
110
205
160
79
171
142
60
145
137
54
136
145
62
142
145
61
138
150
63
132
172
82
144
206
112
165
221
123
170
214
116
155
208
109
140
204
105
133
201
103
126
187
92
112
172
78
96
162
69
87
163
70
88
165
74
91
164
75
93
165
77
99
161
75
110
163
80
136
172
94
170
179
105
202
180
111
220
177
113
227
178
115
230
177
114
228
178
116
227
183
116
229
186
120
230
189
123
231
191
125
231
190
127
231
190
128
229
193
131
232
196
134
235
199
137
238
200
138
239
201
139
238
203
141
240
206
144
243
209
147
244
211
150
245
212
151
244
215
155
245
217
157
245
219
159
245
220
161
245
220
161
243
219
160
240
222
163
243
224
166
243
227
171
246
231
175
246
233
181
247
237
185
247
238
189
245
239
190
245
251
202
255
254
206
255
255
211
255
255
212
255
255
209
255
247
201
250
237
194
240
231
187
236
235
191
244
240
193
248
243
196
251
245
198
252
245
198
253
246
199
253
249
202
255
251
204
255
251
202
255
251
202
255
251
202
255
250
201
255
251
200
255
251
200
255
250
199
255
250
199
255
247
196
255
246
196
255
245
195
254
242
194
252
241
193
251
238
193
250
237
192
247
236
191
246
238
193
248
238
193
248
240
193
248
241
192
248
242
191
248
245
191
249
246
191
248
247
191
252
245
188
255
201
142
222
141
79
165
109
45
131
99
36
115
85
23
90
70
10
61
65
8
41
69
14
35
68
12
25
70
11
17
76
12
13
82
10
11
92
12
11
108
22
21
127
33
33
148
44
43
162
50
49
176
57
59
189
66
69
201
76
82
212
91
100
207
95
107
193
87
107
192
93
124
229
134
178
246
152
212
206
115
184
152
64
140
120
37
115
102
26
101
93
23
96
83
16
87
73
11
76
70
10
72
76
19
74
77
25
74
71
23
65
66
19
53
64
20
47
66
21
44
66
22
39
66
22
35
66
23
30
66
24
28
65
25
26
65
25
26
65
25
26
65
23
25
65
23
27
70
25
28
71
29
31
69
24
27
61
19
21
61
17
18
63
19
20
64
20
19
65
21
20
67
23
22
68
24
23
69
25
22
68
24
21
67
23
20
66
22
19
64
23
17
65
25
17
63
23
15
59
19
11
59
18
12
63
22
16
65
24
20
64
23
19
59
18
14
59
18
14
59
18
16
59
18
16
107
54
136
103
50
132
106
51
135
121
65
152
143
87
176
158
102
193
162
103
197
158
98
194
143
83
181
144
84
182
143
81
182
138
76
177
132
70
171
130
68
169
135
70
170
139
74
174
136
71
173
136
71
175
137
71
177
141
73
182
145
75
189
151
78
195
155
80
198
160
82
201
164
85
202
193
112
230
201
121
236
188
108
223
182
103
218
183
106
220
193
116
230
208
136
238
232
164
249
255
193
255
253
187
251
185
112
168
133
51
99
142
50
89
171
70
104
202
93
124
218
108
137
240
131
160
242
137
170
215
119
156
197
112
153
213
140
183
243
184
228
255
210
255
252
194
252
230
170
234
226
163
234
219
152
231
178
109
192
165
93
177
211
137
222
255
188
255
232
158
245
200
125
216
180
103
199
195
118
214
223
141
239
225
141
235
200
116
204
176
92
177
170
87
169
174
90
167
179
92
163
190
100
162
209
115
168
218
120
167
221
121
159
222
123
154
203
105
130
199
102
122
187
92
112
172
78
96
162
70
85
163
71
86
165
74
89
165
77
93
166
78
100
161
77
111
162
81
137
172
94
170
179
105
202
179
110
219
176
112
226
176
113
228
180
117
231
181
119
230
184
120
232
189
123
233
191
125
235
192
126
234
189
126
231
188
125
229
192
129
234
195
132
237
198
135
240
200
137
241
201
138
242
203
141
242
206
144
243
209
147
244
212
151
246
213
152
245
213
153
243
213
153
241
214
154
242
214
154
240
215
156
240
215
156
238
217
158
242
219
160
242
220
163
240
222
166
241
224
168
239
223
171
237
223
171
235
222
172
231
231
181
240
237
188
244
245
198
252
252
205
255
254
208
255
248
205
251
242
199
244
238
195
240
239
195
244
241
197
248
243
199
250
244
200
251
245
198
250
246
199
253
249
202
255
252
205
255
251
202
255
251
202
255
250
201
255
250
201
255
250
199
255
250
199
255
250
199
255
249
198
255
247
196
255
246
195
254
245
193
255
243
193
252
241
191
252
239
191
249
238
190
248
235
190
245
239
191
249
239
192
247
241
191
250
242
191
248
244
190
248
243
189
247
243
188
246
243
187
250
248
190
255
218
159
241
152
89
178
113
51
137
105
44
124
86
27
95
71
13
63
63
9
43
66
12
35
64
10
23
68
11
18
75
13
16
82
12
12
89
13
13
106
22
22
122
32
31
142
44
41
153
48
45
169
55
55
178
60
60
191
71
72
216
97
101
225
112
118
209
103
117
183
80
107
206
108
149
252
154
213
231
138
209
160
72
150
115
33
115
98
23
105
94
23
103
88
20
97
78
12
84
75
13
80
84
24
86
85
31
83
76
24
70
69
19
56
67
21
50
64
19
42
64
20
37
67
21
32
65
22
29
66
24
28
67
25
27
67
25
26
67
25
26
68
23
28
68
23
28
71
26
29
73
28
31
70
25
28
63
18
21
61
17
18
63
19
20
65
21
22
66
22
21
67
23
22
68
24
23
69
25
22
68
24
21
67
23
20
67
24
18
67
24
18
66
26
18
63
23
15
59
19
11
59
18
12
63
22
16
66
25
21
65
24
20
60
19
15
60
19
15
60
19
17
60
19
17
103
48
131
108
53
136
116
61
145
137
81
168
170
111
201
193
134
226
204
145
239
210
150
246
204
142
241
205
143
242
184
119
219
144
79
179
138
73
173
143
78
178
137
71
171
147
80
183
138
71
176
151
84
190
143
75
186
140
72
185
147
77
193
155
82
199
166
91
209
169
92
208
184
105
220
216
136
249
211
131
242
197
117
228
189
111
220
188
112
220
205
132
239
222
152
250
246
181
255
254
189
255
255
189
251
166
93
148
121
38
84
143
48
88
160
55
88
192
79
109
215
98
125
246
131
160
247
136
169
219
117
154
197
106
147
202
125
169
235
172
217
255
202
252
252
193
251
241
181
245
227
164
235
206
139
218
172
103
184
159
90
173
200
128
212
253
181
255
239
165
250
190
116
205
153
76
170
160
83
179
186
104
202
198
114
210
204
119
210
211
125
212
216
131
214
213
127
202
206
116
186
206
114
177
219
122
176
222
125
170
219
119
157
219
118
150
203
103
129
197
100
120
186
91
111
175
81
99
165
73
88
162
70
85
164
73
88
166
78
94
165
77
99
160
76
110
162
81
137
171
95
170
177
106
202
176
108
217
172
108
222
169
106
221
176
113
227
177
115
226
180
116
228
182
118
228
187
121
231
190
124
232
189
126
231
191
128
233
195
132
239
197
134
241
199
136
243
199
136
241
199
136
240
199
137
238
201
139
238
203
141
238
206
145
240
208
147
240
210
150
240
213
153
241
215
155
243
216
156
242
216
156
242
216
157
241
216
156
242
218
159
243
220
161
243
220
163
242
220
164
239
220
164
237
223
167
238
223
170
238
226
175
242
229
179
242
229
181
241
233
186
241
241
197
248
253
210
255
255
213
255
251
210
252
251
209
255
250
208
255
248
206
254
246
204
252
246
202
251
245
201
252
246
202
253
246
202
253
247
200
254
247
200
254
246
197
253
245
196
252
243
193
252
242
192
251
241
190
249
241
189
251
247
193
255
244
192
254
243
191
255
242
192
253
241
191
254
239
189
250
238
188
249
238
190
248
236
186
247
236
186
245
235
185
246
237
186
245
241
187
247
241
187
247
241
185
246
241
185
250
246
188
255
220
161
243
161
101
189
110
50
138
91
32
114
93
36
104
67
11
60
65
14
47
66
14
36
67
15
27
70
15
21
73
13
15
78
10
9
84
10
9
100
20
19
117
31
30
139
45
43
141
42
37
156
48
46
173
59
58
190
74
74
217
101
101
233
123
124
231
124
134
209
105
128
192
92
130
214
115
172
241
145
216
171
80
160
111
29
114
100
26
113
93
23
109
86
17
100
84
15
95
85
21
95
116
55
122
110
52
110
75
21
70
75
25
63
71
22
52
72
24
48
72
25
43
73
25
37
72
27
34
72
27
32
72
27
30
72
28
29
71
27
28
69
24
29
72
25
31
74
27
33
73
26
32
70
24
27
67
21
24
65
19
22
65
19
21
69
23
25
69
23
25
69
23
23
69
23
23
70
24
24
70
24
24
70
25
22
69
26
20
68
25
19
69
26
19
62
19
12
58
15
8
65
22
16
70
27
21
68
25
19
67
24
18
67
23
20
66
22
19
66
22
21
66
22
21
112
57
140
126
71
154
136
81
165
138
82
169
143
84
174
147
88
180
159
100
192
175
116
210
198
136
233
212
150
249
217
152
252
191
126
226
163
97
197
151
85
185
149
83
183
154
87
190
152
83
189
158
89
198
152
84
195
151
83
196
158
88
204
164
94
210
179
106
221
193
116
228
204
126
235
225
146
253
224
146
248
222
144
245
215
139
239
201
127
224
209
138
234
225
156
245
245
178
255
253
188
254
251
183
244
159
86
139
117
34
80
138
44
81
159
51
85
192
77
106
214
95
123
241
122
150
242
127
158
222
114
150
198
101
142
198
115
161
231
162
209
255
197
250
251
190
247
244
184
246
234
171
242
213
146
223
178
109
190
165
96
177
205
133
215
255
184
255
235
163
245
190
116
203
154
79
170
156
79
175
167
87
184
166
82
178
165
80
173
170
84
173
179
94
177
179
92
170
180
90
160
190
98
161
212
115
169
222
123
170
221
120
160
220
119
153
203
103
131
197
99
124
188
90
113
175
80
100
166
73
92
164
71
89
166
75
92
168
79
97
164
76
100
160
76
112
162
81
139
171
94
172
177
106
202
176
108
217
173
109
221
171
108
222
176
114
225
177
115
226
179
115
225
182
118
228
186
120
230
189
123
233
189
126
233
190
127
234
194
130
240
196
132
242
198
134
244
199
136
243
198
135
240
199
137
238
201
139
238
203
142
237
205
144
237
207
147
237
209
149
237
212
152
240
213
153
241
214
154
242
214
154
240
214
154
240
218
158
244
220
161
245
222
163
247
223
164
244
222
165
244
222
165
242
225
169
244
227
171
244
224
171
243
226
175
242
227
178
243
230
182
240
236
192
245
248
205
251
252
211
253
251
210
250
252
213
255
250
211
255
248
209
253
248
206
252
247
205
251
246
204
252
247
203
252
248
204
255
247
200
254
247
200
254
246
197
253
245
196
252
243
193
252
242
192
251
241
189
251
241
189
253
242
187
252
242
187
254
241
186
253
238
186
252
237
185
251
237
185
249
241
189
253
244
192
255
239
187
251
239
187
251
239
184
249
236
182
244
235
181
243
237
181
244
241
185
248
245
188
255
242
184
255
221
162
244
157
97
185
112
52
140
105
46
126
100
43
111
75
21
70
64
13
46
65
16
37
65
15
26
69
14
20
72
13
15
77
11
12
83
12
10
94
18
18
108
27
24
131
42
38
141
43
40
153
47
47
165
55
54
182
68
67
207
93
92
226
116
115
231
124
130
212
106
126
195
91
126
209
106
159
232
132
202
182
89
170
125
41
129
106
31
122
97
26
118
102
29
119
94
22
108
107
40
119
124
61
132
106
46
108
79
22
73
73
20
62
75
24
55
74
24
49
74
25
44
74
26
38
74
27
35
73
26
32
72
27
30
72
27
30
73
27
30
71
24
30
73
26
32
77
28
34
74
27
33
73
24
28
68
22
25
69
20
24
67
21
24
69
23
25
69
23
25
70
24
24
70
24
24
70
24
24
70
24
24
70
25
22
70
25
22
68
25
19
69
26
19
62
19
12
58
15
8
65
22
16
70
27
21
68
25
19
67
24
18
67
23
20
66
22
19
66
22
21
66
22
21
115
62
142
124
71
153
127
72
155
124
69
153
124
66
153
123
64
154
129
68
161
139
78
173
142
78
175
159
95
192
191
127
224
214
150
247
209
143
241
202
136
234
202
134
233
189
121
222
164
95
202
159
90
199
157
89
200
160
92
203
165
97
208
172
103
212
186
114
222
209
137
239
236
160
255
245
168
255
246
167
255
248
170
255
244
166
250
226
151
234
228
155
237
240
169
247
244
177
248
255
189
253
243
175
234
151
77
130
112
29
75
131
37
74
156
48
82
191
76
105
213
93
120
234
111
139
233
114
144
220
108
144
198
97
139
190
101
147
223
146
198
255
194
248
254
193
250
250
190
252
242
179
250
217
153
229
181
114
194
169
102
182
207
138
218
255
187
255
232
163
243
190
118
202
157
82
173
158
81
177
165
85
182
159
75
173
150
65
159
151
66
157
151
66
149
153
66
144
158
68
140
176
84
149
207
109
168
222
122
172
222
121
165
220
118
157
204
103
137
197
98
127
188
89
117
176
81
105
168
74
98
166
74
97
169
77
98
170
81
103
164
75
103
160
75
116
162
81
140
171
94
174
177
105
204
177
109
218
173
111
222
172
112
225
173
114
224
176
114
223
179
115
225
181
117
227
183
119
229
186
122
232
187
124
231
188
125
232
191
129
238
193
131
240
196
134
243
197
135
242
198
135
240
199
137
238
201
139
236
203
142
237
204
143
236
206
146
236
208
148
236
210
150
238
213
151
237
214
152
238
213
151
237
213
151
237
214
154
240
217
158
242
219
160
244
220
161
241
220
161
241
221
163
240
223
165
242
224
168
243
224
170
245
227
176
245
229
180
246
230
182
242
233
189
242
243
200
246
252
211
253
254
216
255
254
218
255
252
215
255
250
213
254
248
209
253
246
207
251
246
207
252
248
206
254
248
206
255
245
201
254
245
201
254
245
198
253
244
196
254
243
193
254
242
192
253
241
189
253
241
189
253
239
184
252
242
185
254
242
185
254
239
184
252
237
182
250
237
182
250
240
183
252
242
185
253
239
182
250
237
180
248
236
179
247
235
178
246
233
176
244
236
177
243
237
178
244
237
178
246
238
180
254
225
167
244
165
103
188
117
55
140
109
48
126
87
28
94
72
18
67
64
13
44
66
17
38
64
14
25
65
12
18
72
13
15
75
14
13
81
13
10
87
16
14
97
19
17
122
34
32
138
43
39
152
48
47
160
50
49
176
62
61
196
82
81
217
105
104
232
121
127
215
107
123
199
90
121
202
94
143
217
112
178
199
102
181
148
59
149
119
42
136
107
33
130
104
30
125
105
32
122
129
60
143
119
52
129
92
32
96
85
28
81
77
22
64
80
26
60
78
25
51
78
27
46
77
27
39
77
27
36
76
27
33
74
27
33
74
27
33
74
27
33
75
26
32
77
28
34
80
29
36
77
28
34
76
25
30
72
23
27
72
21
26
72
23
27
72
23
26
72
23
26
72
23
26
72
23
26
72
24
24
72
24
24
72
24
24
70
25
22
69
26
20
69
26
19
62
19
12
59
16
9
66
23
17
71
28
22
69
25
22
67
23
20
67
23
20
66
22
19
66
22
21
66
22
21
108
55
135
109
56
136
106
51
134
109
54
137
120
62
147
124
66
153
124
63
156
126
65
158
133
69
166
130
66
163
143
79
176
179
115
212
200
134
232
210
144
242
223
155
254
215
147
248
174
105
211
159
92
197
163
96
202
168
102
208
176
109
214
183
117
217
199
132
229
231
160
252
247
173
255
254
177
255
255
177
253
255
181
252
255
179
250
249
172
240
244
169
236
242
170
236
249
178
244
255
194
255
237
168
225
144
70
121
110
27
71
127
33
70
152
47
78
190
75
104
212
92
117
226
104
129
224
104
132
219
103
138
200
93
135
185
89
135
217
134
186
255
192
246
255
192
249
255
195
255
251
188
255
226
162
236
190
123
202
174
107
186
202
135
212
243
175
252
234
166
243
190
121
202
157
84
173
157
82
175
168
88
185
163
81
179
153
69
165
151
66
159
152
67
152
152
65
144
156
66
140
174
81
151
207
108
172
223
122
178
222
120
170
218
115
160
204
102
142
197
97
135
188
88
124
176
81
113
171
76
108
169
76
105
172
79
108
173
83
111
168
79
111
164
78
123
165
83
147
173
96
178
177
105
205
177
109
218
174
112
223
174
115
225
173
114
222
173
114
222
178
114
224
180
116
226
182
118
228
184
120
230
186
122
232
187
123
233
189
127
238
191
129
240
194
132
241
195
133
240
197
134
239
198
136
237
201
139
236
204
143
238
204
143
236
205
145
235
207
147
235
210
150
238
213
151
237
213
151
237
213
151
237
213
151
237
214
155
239
216
157
241
219
160
242
220
162
239
220
162
238
221
163
239
224
166
242
226
168
242
231
175
248
233
180
250
235
184
250
235
187
247
235
191
244
242
200
246
253
212
254
255
222
255
255
219
255
253
219
255
250
216
253
248
211
252
246
209
250
245
206
250
245
206
251
247
205
253
245
201
252
245
201
254
245
197
255
244
196
254
243
193
254
242
192
253
241
189
253
241
189
255
242
187
255
243
186
255
241
184
255
238
181
252
241
181
253
245
185
255
246
185
255
244
183
253
245
184
254
242
181
251
244
181
252
247
186
255
247
186
255
247
186
255
243
182
251
236
175
244
242
182
254
232
172
246
176
114
197
115
54
134
102
41
118
78
19
83
73
17
64
71
20
51
66
17
36
62
12
23
62
9
15
69
13
16
75
15
14
77
13
11
80
12
11
86
12
9
108
25
21
135
41
39
150
50
50
159
51
51
173
61
60
190
76
75
210
96
96
230
117
121
220
108
122
203
91
116
196
83
126
202
93
151
212
110
186
174
80
168
139
55
151
122
44
145
110
32
133
133
58
153
147
74
163
108
41
120
84
22
89
93
34
90
85
28
73
79
25
59
80
27
53
81
28
48
80
28
41
80
28
40
79
28
37
77
28
34
77
28
34
76
27
33
79
28
35
80
29
36
81
30
37
80
29
36
77
26
31
75
24
29
75
24
29
76
25
30
75
25
28
74
25
28
73
24
27
73
24
27
73
25
25
73
25
25
72
24
24
70
25
22
70
25
20
70
27
20
63
20
13
59
16
9
66
23
17
71
28
22
69
25
22
68
24
21
67
23
20
66
22
19
66
22
21
66
22
21
103
50
128
108
55
133
107
54
134
107
54
136
114
59
143
116
60
147
120
61
153
126
67
159
139
77
174
137
75
172
132
67
167
145
80
180
160
94
194
170
104
204
203
135
236
230
162
255
188
122
220
169
103
201
168
104
201
172
111
206
182
118
212
195
132
221
216
151
235
249
181
255
246
173
244
233
154
219
226
145
204
231
148
204
234
151
207
237
154
208
243
162
218
251
172
229
252
178
237
255
198
255
228
158
212
136
63
109
109
28
69
123
32
67
149
46
76
185
75
100
210
92
114
222
103
125
222
99
127
218
100
132
200
91
130
182
83
129
215
127
178
255
190
243
251
188
243
255
197
255
255
195
255
235
173
246
201
137
215
182
118
196
196
132
206
223
157
231
251
185
255
216
147
227
182
110
196
170
95
186
169
89
186
161
79
177
154
70
166
152
67
160
157
71
158
157
68
150
158
65
145
176
80
154
207
106
174
222
120
183
222
119
175
219
115
168
207
103
154
199
97
144
190
89
133
179
82
123
175
78
119
175
81
118
178
84
121
178
86
123
173
85
125
171
85
134
171
88
156
177
99
185
178
106
208
176
108
219
173
111
222
174
115
225
172
113
221
173
114
220
177
113
223
179
115
225
181
117
229
183
119
231
183
121
232
184
122
233
186
124
235
189
127
238
192
130
239
194
132
239
195
134
238
197
136
239
201
139
238
204
142
239
205
144
237
207
147
237
211
148
237
214
151
240
216
154
240
217
155
241
217
155
240
217
155
240
222
160
243
225
164
244
228
167
245
229
169
243
229
169
241
231
171
241
234
174
244
234
177
245
235
180
247
236
184
250
238
188
249
238
190
248
236
192
243
240
198
244
252
211
253
255
223
255
255
221
255
251
220
254
248
217
251
247
213
250
244
209
249
243
206
249
243
204
249
245
203
251
245
201
252
245
201
254
245
197
255
244
196
254
243
193
254
242
192
255
241
189
255
241
189
255
242
187
255
243
186
255
240
183
254
241
181
253
245
183
255
249
185
255
246
180
252
237
169
242
240
172
245
236
168
241
240
170
243
239
171
244
234
166
239
237
169
242
243
177
248
240
177
247
238
177
246
239
178
248
196
133
212
110
48
125
84
22
95
79
19
79
75
18
61
72
19
49
67
16
35
61
11
22
60
7
13
66
11
14
72
14
13
72
13
9
73
9
7
77
7
5
94
15
11
125
37
33
148
50
49
159
55
54
174
64
63
190
76
76
207
93
93
226
111
116
225
109
120
209
91
113
197
79
114
194
80
132
218
108
179
195
93
179
163
69
166
144
57
161
140
58
160
165
87
186
151
78
168
106
37
118
93
28
96
94
35
91
88
31
76
83
27
62
83
29
55
84
29
50
83
29
43
81
29
41
80
29
38
78
28
37
78
28
37
77
27
36
81
28
36
82
29
37
82
29
37
81
28
36
78
25
33
77
24
32
78
25
31
79
28
33
76
26
29
76
26
29
76
26
29
75
25
28
74
26
26
73
25
25
73
25
25
71
26
23
70
25
20
70
27
21
63
20
14
59
16
10
66
22
19
71
27
24
69
25
22
68
24
21
67
23
22
66
22
21
66
22
23
66
22
23
107
54
132
112
59
137
111
58
138
109
56
138
113
57
144
112
56
145
116
57
149
123
64
158
121
59
156
135
73
172
138
73
173
142
77
179
151
84
187
154
87
190
184
116
219
230
164
255
222
157
249
202
139
228
192
132
220
194
134
220
199
140
224
215
154
232
235
172
243
255
188
253
229
155
214
188
110
162
174
90
139
185
99
144
193
106
149
202
115
158
224
137
182
249
167
215
249
172
226
255
193
247
213
143
193
124
51
96
109
29
68
121
32
64
145
45
73
179
71
94
207
91
110
222
103
122
220
98
121
215
96
126
199
87
125
183
80
123
216
124
173
255
186
238
255
193
247
255
199
255
253
192
255
233
172
242
208
144
220
195
131
207
205
142
213
220
157
228
255
195
255
245
178
255
219
150
233
191
118
208
168
91
187
155
75
174
153
69
167
155
70
164
154
68
157
155
65
152
158
65
146
175
78
157
205
103
177
222
117
186
222
116
182
220
114
176
212
107
164
204
101
156
195
92
145
185
87
138
183
85
134
184
88
134
186
90
136
186
93
138
182
93
139
178
93
148
179
96
168
181
102
191
179
106
211
175
107
220
172
109
223
173
114
224
171
112
220
172
113
219
175
113
222
178
114
226
180
116
230
181
117
231
181
118
232
182
120
231
184
122
233
187
125
236
190
128
237
192
130
239
194
132
239
196
135
239
201
139
240
204
142
241
207
146
241
209
148
241
215
152
243
218
155
244
221
159
245
223
161
246
224
162
247
224
162
245
227
166
246
230
169
247
233
173
247
234
174
244
235
176
242
236
177
241
239
181
242
240
184
245
240
184
245
238
187
246
240
189
246
240
193
247
237
193
244
238
196
242
245
207
248
254
218
254
255
223
255
253
222
254
249
218
252
245
214
248
244
210
247
242
207
247
242
205
248
243
204
251
244
202
252
245
200
255
245
197
255
244
196
255
243
193
255
242
192
255
241
189
255
241
188
255
238
183
251
243
186
255
245
185
255
241
180
250
237
171
243
228
160
233
209
139
212
190
118
191
172
98
173
172
99
172
179
106
179
178
105
178
171
99
172
184
112
185
209
139
211
219
152
221
224
159
225
250
187
255
231
167
243
132
68
144
74
11
81
73
14
72
73
16
57
68
13
42
65
12
30
60
8
20
57
6
11
62
10
12
67
11
10
68
10
8
68
8
7
72
9
4
83
10
4
110
29
25
138
47
44
157
57
57
175
67
67
192
80
79
209
95
95
222
107
110
229
112
120
214
96
112
201
81
109
195
75
121
212
97
162
208
99
182
181
81
179
165
72
178
172
87
191
170
92
193
133
58
151
104
35
116
102
36
107
92
31
88
89
30
76
89
33
68
86
30
57
86
31
52
85
31
45
84
30
43
83
29
42
81
30
39
80
29
38
79
28
37
81
28
38
84
28
37
82
29
37
80
27
35
78
25
33
78
25
33
80
27
33
82
29
35
78
28
31
77
27
30
77
27
30
76
26
29
74
26
26
74
26
26
73
25
25
73
25
25
71
26
23
71
28
22
64
21
15
60
17
11
67
23
20
72
28
25
70
26
23
69
25
22
67
23
22
66
22
21
66
22
23
66
22
23
105
54
131
107
56
133
106
53
133
106
53
135
112
58
144
114
58
147
116
57
149
121
62
156
128
66
165
137
75
176
142
77
179
143
78
182
152
85
190
152
85
190
167
100
205
206
140
238
246
182
255
236
175
255
227
169
246
229
173
248
234
178
251
243
186
254
255
194
254
255
188
242
183
110
156
144
66
106
150
65
104
176
89
124
187
97
133
190
98
135
201
109
148
219
132
174
236
158
208
253
181
231
194
125
172
110
37
80
104
27
63
117
31
60
141
43
68
172
66
86
201
89
105
223
105
121
220
98
119
209
91
117
197
83
117
185
80
121
218
122
170
255
180
232
255
197
249
255
198
255
250
189
255
235
174
244
220
158
233
215
153
226
221
160
229
227
166
235
248
185
255
254
188
255
242
173
255
210
137
226
178
101
197
163
83
182
161
77
175
160
74
171
157
71
162
162
72
160
167
73
159
183
85
168
208
105
184
221
115
190
220
113
185
220
111
179
220
114
180
212
108
171
202
98
159
193
93
153
192
93
150
194
97
151
196
99
153
196
102
154
192
102
153
187
102
161
186
102
179
185
106
198
179
108
214
173
106
221
170
107
221
171
111
224
171
112
222
172
113
221
175
113
224
176
114
225
179
115
229
180
115
231
180
117
232
181
118
232
182
120
231
185
123
232
189
127
236
191
129
238
193
131
238
196
135
239
201
138
242
204
142
243
210
148
247
213
152
247
219
155
249
223
160
249
227
165
251
230
168
253
231
169
254
232
170
253
231
170
248
233
173
247
237
177
247
238
179
245
239
181
240
241
184
239
244
187
240
245
191
243
246
191
246
241
191
244
243
193
246
244
197
249
242
198
247
240
199
243
244
206
247
250
214
250
255
227
255
255
226
255
251
222
253
248
217
251
246
212
249
244
209
249
243
206
249
244
205
252
244
202
252
245
200
255
245
197
255
244
196
255
243
193
255
242
191
255
241
188
255
241
188
255
241
186
254
243
186
254
233
173
243
210
147
217
189
122
193
170
100
172
150
77
150
133
57
129
131
53
128
131
51
124
136
56
129
131
54
126
116
40
112
119
43
115
131
58
129
134
63
131
171
105
169
210
145
211
213
147
219
151
85
157
84
19
87
72
11
68
74
16
56
67
13
39
63
10
28
58
7
16
56
5
10
59
7
9
61
10
9
62
9
5
64
9
6
71
12
8
74
10
1
96
21
15
125
40
35
150
55
53
169
65
64
193
83
84
212
100
99
221
105
106
233
114
120
221
99
112
209
85
109
199
77
116
201
81
143
215
99
180
198
90
189
183
86
193
201
114
221
161
83
185
115
40
133
103
31
115
103
35
108
94
33
92
92
33
79
92
35
70
88
32
59
88
33
54
89
32
49
85
31
44
84
30
43
82
30
42
81
29
41
80
28
40
81
28
38
84
28
39
83
27
36
81
25
34
79
23
32
79
23
32
80
27
33
82
29
35
80
27
33
79
26
32
78
28
31
77
27
30
76
26
27
75
25
26
74
24
25
73
25
25
71
26
23
71
27
24
64
20
17
60
16
13
67
23
20
72
28
25
70
26
25
69
25
24
67
23
24
66
22
23
66
22
23
66
22
23
95
44
123
103
52
131
105
52
132
105
52
134
107
53
139
110
54
143
116
57
149
125
66
160
126
64
163
128
66
167
137
72
176
140
74
180
151
84
190
156
89
195
164
97
203
195
127
228
232
166
254
234
171
250
235
174
251
244
187
255
250
195
255
255
200
255
255
198
254
238
175
222
149
77
117
128
48
83
153
64
96
187
92
122
198
102
130
200
101
130
195
98
129
199
105
141
231
146
187
248
170
212
185
110
149
102
28
61
103
24
53
115
30
53
137
43
61
168
63
78
198
86
100
223
107
120
218
99
118
206
86
111
194
79
112
188
77
119
221
119
166
255
176
226
255
184
237
255
190
246
255
189
252
251
184
251
245
178
249
239
173
244
231
170
237
225
166
230
244
183
250
255
198
255
255
192
255
228
159
240
199
127
213
186
110
200
179
100
191
171
91
180
168
84
170
174
86
172
178
89
171
192
99
180
211
114
193
216
118
193
213
111
185
209
107
180
222
121
191
213
114
181
204
105
172
196
100
164
196
100
163
199
103
166
201
105
166
201
107
167
197
108
166
191
107
169
188
107
186
186
109
203
180
109
215
172
105
218
169
107
218
170
111
221
171
112
220
171
112
220
174
112
223
176
113
227
178
113
229
179
114
230
179
116
231
180
117
232
181
119
230
184
122
231
188
126
235
191
129
238
193
131
238
196
134
241
201
138
243
204
141
245
212
150
251
215
153
250
221
157
251
226
163
252
231
169
254
234
172
255
236
175
255
237
176
254
238
178
252
240
180
250
244
185
251
245
187
248
246
188
246
246
192
244
249
195
245
251
199
248
249
199
248
246
198
246
246
200
247
248
205
251
247
206
250
243
205
246
244
208
244
249
215
248
255
231
255
255
229
255
253
224
254
249
220
251
246
215
249
245
211
248
245
208
251
244
206
253
244
202
252
244
201
255
245
197
255
244
196
255
243
193
255
242
192
255
241
189
253
241
189
253
250
195
255
240
183
251
211
150
220
163
99
173
129
61
136
116
44
118
113
37
109
109
32
102
120
39
106
116
35
101
124
44
107
127
49
111
114
38
100
107
31
93
100
26
87
83
12
70
92
25
79
117
52
108
128
62
123
126
62
122
86
23
80
68
9
57
66
9
44
54
0
24
61
8
24
57
6
15
55
4
11
57
7
10
58
7
6
58
7
4
63
10
6
71
13
9
72
9
0
86
18
9
114
35
28
140
52
48
162
64
61
191
85
85
214
104
103
219
105
105
234
115
119
223
102
111
215
90
108
204
80
114
194
73
126
215
99
172
204
98
190
192
94
195
225
138
242
164
83
185
117
40
134
105
31
116
104
34
107
105
39
100
101
37
87
89
29
67
91
32
62
90
32
56
89
32
51
88
31
46
86
29
44
83
29
42
82
28
42
81
27
41
83
27
40
83
27
40
83
27
38
81
25
36
79
23
32
79
23
32
82
27
33
83
30
36
80
27
33
80
27
33
79
27
31
77
27
30
76
26
29
75
25
26
74
24
25
73
25
25
71
26
23
71
27
24
64
20
17
60
16
13
67
23
20
72
28
25
70
26
25
69
25
24
67
23
22
66
22
21
66
22
23
66
22
21
99
47
129
101
50
129
103
52
131
106
53
135
107
54
136
111
56
140
118
59
149
122
63
157
125
63
162
134
69
173
140
73
179
146
78
189
153
83
195
155
85
199
166
96
210
187
115
225
211
137
236
205
132
222
203
138
220
211
151
223
229
174
239
255
210
255
255
212
255
190
131
177
124
53
93
131
49
85
146
51
81
173
71
95
201
95
118
212
104
127
212
106
129
214
111
138
197
103
130
227
138
166
160
78
101
99
20
41
110
29
46
115
29
42
129
33
45
161
57
68
185
75
84
208
92
103
210
92
108
206
86
111
200
81
113
199
82
124
218
106
154
227
127
179
210
123
176
209
130
187
217
136
195
246
166
229
255
188
253
255
185
248
247
186
246
244
189
247
255
201
255
245
191
249
254
196
255
255
200
255
254
187
255
240
170
242
220
153
224
202
132
204
200
122
197
189
109
182
185
103
177
194
112
184
205
122
194
207
121
194
208
122
193
213
126
197
220
133
204
215
128
197
207
120
189
202
113
181
199
110
178
202
111
180
205
114
183
207
118
184
201
116
181
195
114
183
187
113
192
181
111
200
179
111
210
178
113
217
177
114
221
176
114
221
173
114
220
174
115
223
177
115
226
177
114
228
179
114
230
179
114
232
180
117
234
179
119
233
182
123
233
183
124
232
184
125
233
186
127
235
189
130
238
193
134
240
198
137
241
201
140
243
207
145
246
211
149
246
217
157
247
223
163
249
229
167
250
235
174
254
241
180
255
245
185
255
250
191
255
251
192
255
251
195
255
254
199
255
255
201
255
255
205
255
255
208
255
255
210
255
255
211
255
255
213
255
255
216
255
255
217
255
252
216
252
251
217
250
250
220
248
251
223
248
254
228
255
255
231
255
254
228
255
251
222
252
250
219
251
251
217
252
250
213
254
245
208
252
250
208
255
248
205
255
247
199
255
244
196
254
243
193
254
244
193
252
248
194
254
249
195
255
253
197
255
239
182
250
188
126
203
132
64
147
113
41
127
113
38
121
107
31
105
101
25
89
107
28
83
108
31
77
109
34
77
109
34
77
106
33
76
104
31
74
100
29
73
96
28
69
81
19
56
75
15
51
69
9
47
64
6
44
63
7
42
61
8
38
58
5
31
55
4
23
50
0
14
51
1
12
53
3
12
56
5
10
59
7
9
61
10
7
63
10
6
67
9
5
89
26
17
97
29
18
106
32
23
116
36
29
134
43
38
161
61
59
195
87
87
217
104
106
219
102
108
214
93
102
205
80
94
200
78
103
192
75
117
200
91
148
224
123
199
229
136
225
205
119
216
152
70
168
125
46
138
119
41
125
113
39
114
109
39
102
102
33
87
100
33
77
98
34
69
97
34
63
96
34
57
92
33
53
91
33
48
90
33
48
90
34
47
91
33
48
85
26
44
86
27
45
86
28
43
83
25
39
80
22
34
78
22
31
81
26
32
83
28
34
83
28
34
81
28
34
80
27
33
79
27
31
77
25
29
76
24
28
74
24
25
73
25
25
71
25
25
70
26
25
67
23
22
64
20
19
65
21
20
69
25
24
69
25
24
65
21
20
66
25
23
66
25
21
66
25
23
66
25
21
100
48
130
102
50
132
104
53
132
105
54
133
108
55
137
112
57
141
119
60
150
123
64
156
129
64
164
136
71
175
141
73
182
145
77
188
152
82
196
155
85
201
168
95
213
186
112
225
205
126
233
201
124
220
203
133
219
210
148
221
226
172
234
255
204
255
255
202
254
178
119
165
123
52
92
133
49
83
147
48
77
170
64
86
199
88
107
213
100
118
215
104
123
216
109
129
194
92
114
198
105
124
136
52
68
97
17
30
106
25
34
109
24
31
129
34
42
158
54
61
187
78
84
209
93
102
209
91
107
205
83
106
196
75
106
191
71
109
200
84
129
204
96
146
182
88
140
198
109
165
210
119
178
227
137
198
245
161
223
253
179
240
255
192
252
250
195
252
247
196
252
218
167
223
215
160
217
237
178
236
251
187
248
254
189
253
249
187
252
243
178
244
226
157
222
212
141
207
201
129
195
199
128
194
204
133
199
207
136
202
214
142
208
220
148
214
224
149
216
222
147
212
221
145
210
221
142
207
220
139
206
219
138
204
219
136
204
218
137
204
216
137
203
207
131
203
195
124
202
187
122
206
188
123
215
188
124
221
184
122
221
180
119
222
182
124
226
181
123
226
182
120
229
182
118
230
183
116
231
182
118
232
182
119
234
181
121
234
183
124
234
184
125
233
184
125
233
186
127
235
189
130
238
193
134
242
198
136
243
200
139
243
203
141
242
207
145
244
214
153
246
220
160
248
228
166
251
234
173
253
240
179
255
245
185
255
249
190
255
249
190
254
249
193
255
251
195
255
252
198
255
252
201
255
253
204
255
253
206
255
254
210
255
255
213
255
255
216
255
255
219
255
254
220
255
254
221
252
255
225
253
255
228
253
252
226
251
254
230
254
255
229
254
253
224
252
251
220
251
251
220
252
249
215
252
245
208
249
249
210
255
248
206
255
246
202
255
244
197
251
244
195
250
245
194
250
246
196
249
249
196
252
252
196
255
232
172
242
174
111
192
125
56
145
113
39
134
110
34
124
101
24
102
99
23
87
97
21
68
99
23
62
100
26
61
101
27
60
99
28
60
98
27
59
95
25
59
92
25
56
82
19
48
75
17
42
70
11
39
65
9
34
61
7
31
58
6
28
55
4
23
52
4
20
51
3
17
51
3
15
55
5
14
57
8
12
60
10
11
62
11
8
63
12
8
67
12
7
86
23
14
95
27
16
104
31
22
111
34
26
127
40
33
148
53
49
177
71
71
198
85
87
206
89
95
206
85
92
201
77
88
197
75
96
188
72
107
195
87
137
225
125
195
235
146
228
186
101
194
140
59
154
122
41
133
121
41
126
115
39
114
110
35
100
100
27
83
95
26
73
99
31
70
97
32
64
94
30
56
91
29
52
89
28
46
88
27
43
87
26
42
87
26
44
92
30
51
92
30
53
90
29
47
84
26
41
81
23
35
81
24
33
84
27
34
86
31
37
82
27
33
81
26
32
80
25
31
77
24
30
76
24
28
75
23
27
74
22
24
72
22
23
68
22
22
67
23
22
66
20
20
63
19
18
65
21
20
70
26
25
71
27
26
67
23
22
66
22
19
64
23
19
64
23
19
64
23
19
99
50
131
101
52
133
106
54
136
107
55
137
110
56
140
114
59
143
121
62
152
125
66
160
132
67
167
137
72
176
141
73
182
146
76
188
154
81
196
159
86
201
171
96
214
188
111
225
202
120
228
200
122
221
207
134
223
215
151
227
230
174
239
255
202
255
247
193
245
167
105
152
122
50
90
133
49
83
144
45
73
162
54
77
191
78
96
209
97
113
214
101
119
213
104
123
184
82
103
162
68
86
110
23
39
95
13
25
105
22
30
107
20
26
134
37
44
158
55
59
185
76
81
204
89
96
203
85
99
200
78
99
192
72
100
183
63
99
180
65
108
173
66
112
168
70
119
203
109
162
217
119
176
212
118
178
223
135
196
247
169
229
255
197
255
255
197
255
240
186
244
200
146
206
192
134
195
214
154
216
228
163
229
233
168
234
248
186
253
255
202
255
253
193
255
246
186
248
240
178
241
236
176
238
236
176
236
237
177
237
238
177
236
239
178
237
239
178
235
242
182
236
248
185
240
252
187
241
254
186
243
253
186
240
251
182
239
248
178
238
253
181
245
244
174
244
232
168
242
226
165
243
222
163
247
213
155
242
199
140
232
185
128
222
186
131
225
186
129
226
186
125
228
187
124
229
189
123
229
190
124
232
190
127
232
189
127
234
187
125
234
187
125
234
188
126
237
189
127
238
192
130
241
195
133
242
198
136
245
199
137
244
198
135
240
203
141
242
209
147
244
216
155
248
222
162
250
228
169
253
235
176
255
239
181
255
244
184
255
245
185
255
244
187
255
246
190
255
247
193
255
248
194
254
247
196
255
247
198
254
246
199
254
246
202
255
249
205
255
250
208
254
249
211
252
251
213
250
253
218
251
254
221
250
251
222
250
253
227
252
255
229
254
255
227
252
254
224
250
254
224
252
251
218
249
247
212
245
250
212
251
249
208
250
246
205
249
244
201
247
244
198
245
245
197
245
246
199
245
248
198
249
254
199
255
227
167
237
166
102
186
122
53
146
119
45
144
114
37
131
98
21
103
95
18
86
87
10
62
88
13
54
89
15
48
90
17
46
89
19
47
90
20
48
89
20
48
86
20
47
81
19
44
78
18
43
74
14
40
68
10
34
60
5
28
56
3
23
53
2
21
54
3
20
53
5
17
54
7
17
57
8
14
58
9
12
59
11
9
62
13
9
64
15
10
68
13
8
82
19
10
92
24
15
101
28
21
109
30
23
119
32
25
134
39
35
155
49
49
171
58
60
191
72
76
196
75
82
196
72
83
193
72
91
184
66
100
187
79
128
223
124
191
249
158
238
183
96
190
143
59
155
129
49
138
129
50
133
122
44
119
113
38
103
103
30
86
101
29
75
102
31
71
100
33
66
101
35
63
100
36
60
99
36
57
95
32
51
92
29
48
90
27
48
97
33
57
96
32
56
93
30
51
88
27
45
85
24
39
83
26
35
85
28
35
88
31
38
88
31
38
87
32
38
86
31
37
85
30
36
83
28
33
80
28
32
79
27
29
78
28
27
76
28
28
75
29
29
75
27
27
71
25
25
74
28
28
80
34
34
81
36
33
78
33
30
74
29
26
73
29
26
73
29
26
73
29
26
102
53
134
104
55
136
108
56
138
110
58
140
112
58
142
115
61
147
123
64
156
128
67
162
133
68
170
138
71
176
143
74
183
150
78
190
157
84
199
167
93
208
178
103
221
190
113
227
204
122
232
207
126
228
217
144
234
229
162
241
242
183
251
255
204
255
245
188
243
159
95
145
121
46
89
132
46
81
140
41
69
154
47
67
182
70
86
204
89
104
210
95
112
207
96
113
178
75
92
146
52
68
97
11
22
95
12
20
107
25
31
108
22
25
136
40
42
161
56
60
188
78
81
204
89
94
200
83
92
196
75
92
190
70
97
180
61
93
169
54
93
155
46
88
172
70
117
218
120
169
232
132
186
215
116
173
211
120
179
235
154
213
255
189
249
255
196
255
237
181
242
196
140
203
188
129
195
208
145
215
208
142
213
201
135
206
221
158
229
249
188
255
250
190
254
253
195
255
255
198
255
255
202
255
255
204
255
255
205
255
255
202
255
255
198
249
255
203
253
255
204
252
255
203
250
255
201
248
255
196
243
255
189
237
249
183
231
246
177
231
250
178
241
248
177
245
245
179
250
245
185
255
246
188
255
241
184
255
230
172
255
219
163
250
206
150
239
205
149
240
207
146
241
209
145
242
210
144
244
210
144
244
205
143
242
202
142
242
191
128
235
190
128
237
191
127
239
190
128
239
192
130
241
194
132
243
197
135
246
198
136
245
196
133
240
200
137
242
206
144
245
211
149
246
216
155
248
221
161
251
226
166
252
230
171
255
237
176
255
237
176
253
237
179
253
238
181
252
239
182
251
240
185
252
241
186
253
240
188
252
236
186
249
237
189
249
240
193
248
242
195
247
241
197
246
243
200
245
245
204
244
246
209
243
245
214
245
250
221
249
254
226
251
255
227
252
255
228
253
255
227
253
254
224
252
250
217
248
250
215
248
249
211
248
245
207
246
244
203
245
243
200
243
246
201
244
248
201
247
250
200
249
255
202
255
233
173
243
174
110
194
132
63
156
130
55
156
122
46
144
100
22
108
89
12
84
85
10
66
85
12
55
87
13
48
85
15
43
86
16
42
86
18
43
87
19
42
86
21
43
85
21
45
83
21
44
79
20
42
72
13
35
63
5
27
57
2
21
55
2
20
56
6
18
56
6
17
56
7
13
56
7
11
57
9
9
58
10
8
60
13
7
63
14
9
67
14
6
79
15
6
89
19
11
98
25
18
106
27
22
115
27
23
124
29
25
137
33
32
149
36
38
177
61
64
190
69
76
193
69
79
189
68
87
177
59
93
178
68
117
217
118
183
255
165
245
202
116
207
163
79
173
149
69
158
146
67
150
136
58
133
127
51
116
119
44
100
118
46
92
112
40
80
111
41
77
112
43
74
113
44
72
114
46
71
115
47
72
114
49
73
115
50
74
112
48
74
111
47
73
110
46
70
108
45
64
106
44
59
104
44
56
104
44
54
102
45
52
101
44
51
101
44
51
100
43
50
98
43
48
97
42
47
96
41
44
95
41
41
92
41
40
91
41
40
90
42
40
89
39
40
86
38
36
89
41
41
94
46
44
95
47
45
90
45
42
86
38
36
84
39
36
84
39
36
84
39
36
104
55
136
106
57
138
110
58
141
112
60
143
115
61
147
118
64
152
126
67
161
130
68
165
133
68
172
138
71
177
145
75
187
155
82
197
165
90
208
179
101
220
190
113
229
196
117
232
207
125
236
213
132
235
227
152
245
241
172
253
251
190
255
255
204
255
243
182
239
151
84
135
119
42
86
130
43
78
138
38
66
151
42
63
178
63
80
197
80
96
201
84
100
197
85
101
173
68
82
149
53
64
98
11
19
94
9
14
110
25
28
111
23
22
134
36
37
159
55
54
193
83
82
207
92
95
199
82
90
193
72
87
189
70
90
179
60
88
164
50
83
144
34
71
171
66
107
220
117
162
240
134
183
221
118
171
208
110
167
221
133
191
248
172
234
255
191
253
235
174
241
197
137
207
189
127
200
208
144
220
208
141
218
201
134
211
217
153
227
242
179
250
245
180
246
248
184
245
251
185
246
248
185
242
242
179
234
232
170
221
219
157
206
210
147
192
212
147
190
212
147
189
215
147
188
217
146
186
219
147
187
222
147
188
224
149
190
225
147
195
227
146
205
227
148
213
227
155
219
231
164
231
237
174
244
241
181
253
243
182
255
240
181
255
234
175
255
233
174
255
233
171
255
233
169
255
231
166
255
226
161
253
218
154
248
210
148
245
196
130
236
193
129
239
195
128
241
193
129
241
193
129
243
195
131
245
197
133
247
198
134
248
197
133
245
200
136
246
204
141
248
207
144
248
208
148
246
210
150
246
214
155
249
218
158
248
227
165
251
227
165
250
229
167
250
228
169
249
230
172
249
232
174
250
233
175
251
233
177
250
232
176
247
233
180
248
236
184
248
236
186
245
237
188
244
238
190
242
241
193
241
240
197
240
239
205
242
243
214
245
248
222
251
251
225
254
254
228
255
255
230
255
255
228
255
253
224
254
249
218
250
249
215
250
246
210
248
244
206
247
245
202
247
247
201
247
250
202
250
252
202
253
255
203
255
243
184
252
195
132
213
147
80
173
134
62
162
125
51
150
101
25
115
81
5
80
88
14
73
86
14
60
86
14
51
83
14
43
83
15
40
83
18
40
85
20
40
85
22
41
87
25
46
87
25
46
82
23
43
76
17
35
67
10
27
60
6
20
60
6
20
60
8
20
57
6
15
57
6
11
56
6
9
56
6
5
57
8
4
59
10
5
61
12
5
66
13
5
76
12
3
86
15
9
96
23
17
104
27
21
110
25
20
118
24
22
127
25
23
135
25
26
169
54
57
185
66
72
186
65
74
184
63
80
172
54
86
168
58
105
211
111
175
255
167
247
216
130
219
178
95
187
166
83
171
163
81
163
152
72
145
142
63
128
135
58
114
135
61
110
131
56
99
130
58
96
130
59
93
130
59
91
128
57
87
125
54
84
122
51
81
119
50
79
124
58
86
125
59
87
125
60
84
124
59
81
123
59
76
119
57
72
116
54
65
112
52
62
113
53
61
113
53
61
112
53
59
109
52
58
108
51
57
106
50
53
106
50
51
104
50
48
98
47
44
98
49
45
96
45
44
92
43
39
94
44
43
98
49
45
98
49
45
93
45
41
88
39
35
87
39
35
87
39
35
87
39
35
106
57
138
108
59
140
113
61
144
114
62
147
117
63
149
121
65
156
128
68
164
133
71
172
135
69
175
141
72
181
152
79
194
163
88
206
176
98
217
191
113
232
200
122
241
200
121
236
206
124
235
214
133
238
231
156
249
245
176
255
254
191
255
255
201
255
236
172
232
140
71
125
116
39
85
126
38
76
135
35
63
150
41
60
175
60
75
190
72
86
189
73
86
185
73
85
167
63
72
151
54
61
100
11
15
89
5
5
106
22
20
110
21
17
129
31
28
152
47
44
187
75
73
199
85
84
193
74
78
188
68
78
187
69
85
181
63
85
165
53
78
143
34
65
171
63
99
216
110
150
241
131
176
227
121
169
207
104
157
205
112
169
233
153
214
255
186
249
227
161
232
199
137
210
197
133
211
212
145
224
211
142
222
212
143
223
231
164
241
250
182
255
255
188
255
248
174
237
227
153
214
207
134
190
187
117
169
170
101
148
161
90
134
156
84
124
164
89
128
167
91
127
173
96
130
182
100
136
191
107
143
201
113
151
207
119
157
213
122
165
229
136
189
230
141
199
231
150
208
234
160
219
237
167
230
235
170
238
232
168
242
229
168
245
232
171
249
230
169
247
228
165
244
227
164
245
227
162
246
223
157
244
214
149
239
206
142
238
198
132
238
198
132
242
196
129
242
196
129
242
196
129
244
195
130
246
196
131
247
197
132
248
198
133
249
200
136
250
202
138
248
202
139
246
201
140
244
202
142
242
204
144
244
207
145
242
215
151
245
216
153
244
218
155
244
220
158
244
221
162
246
223
164
246
225
166
246
226
167
247
226
168
245
227
171
244
230
174
245
230
178
244
230
178
240
232
181
238
235
185
238
235
189
238
236
199
242
239
209
247
246
216
252
250
220
254
252
226
255
255
231
255
255
231
255
254
228
255
249
220
250
248
217
249
246
212
249
244
207
248
244
205
249
246
204
250
250
204
251
252
204
254
253
200
255
250
191
255
217
154
233
166
100
190
133
63
161
120
46
143
101
27
116
79
5
82
84
10
71
81
9
57
78
8
45
76
7
38
74
8
35
76
11
33
78
15
34
80
17
34
89
28
44
88
27
43
84
23
39
77
19
34
71
13
27
66
10
23
65
9
20
64
11
19
59
6
12
57
7
10
57
6
5
55
6
2
57
6
2
58
9
2
62
12
3
67
13
3
76
13
6
85
16
9
92
21
15
102
24
20
108
25
21
114
23
20
123
23
21
129
23
23
159
46
48
174
58
61
174
55
61
173
55
69
165
50
79
160
53
97
204
104
168
255
170
247
217
131
220
179
96
188
169
86
174
168
86
168
158
78
151
149
70
135
141
64
120
141
65
114
139
63
109
138
63
104
138
62
101
136
62
99
137
61
97
137
61
97
138
62
98
137
63
98
134
64
98
131
64
95
129
63
90
127
62
86
125
60
80
121
57
73
114
52
65
111
49
60
112
52
62
112
52
60
111
52
58
110
51
57
107
51
54
106
50
51
105
49
48
104
48
47
96
43
39
94
43
39
91
40
36
88
37
33
89
38
35
93
42
38
93
42
39
88
39
35
88
39
35
88
39
35
88
39
35
88
39
35
108
59
141
110
61
143
115
63
148
116
64
149
119
65
153
123
66
160
130
70
168
134
71
175
140
74
182
146
76
190
159
86
203
172
97
216
184
106
226
200
121
240
207
128
247
202
121
239
203
123
234
211
132
237
232
157
250
246
177
255
255
189
255
255
195
255
229
165
225
130
61
115
114
37
83
122
34
72
133
33
61
153
44
63
176
61
76
182
66
77
177
61
72
173
62
71
166
61
66
147
48
51
97
7
7
89
4
1
105
20
15
110
19
14
130
31
26
146
41
35
170
58
54
185
72
68
183
64
66
181
62
68
183
65
77
179
62
80
163
52
71
140
30
55
168
59
88
213
103
138
238
126
166
229
120
162
203
97
146
193
96
150
224
138
199
255
180
245
234
164
236
214
147
224
210
141
222
216
144
226
218
145
226
228
155
236
240
169
247
242
170
243
236
155
222
212
128
190
180
96
156
159
76
132
147
64
116
141
59
105
144
62
102
151
67
103
169
82
116
175
86
118
184
91
122
191
94
125
197
96
128
200
96
129
202
94
128
201
92
131
219
114
157
222
123
169
231
139
188
242
158
210
248
170
228
246
174
238
236
169
240
227
163
237
221
159
234
216
154
229
212
150
225
212
148
224
213
148
228
213
148
232
209
143
233
204
138
236
201
134
239
200
132
241
199
131
242
198
130
243
197
128
244
196
129
245
197
130
246
198
130
249
196
131
249
198
133
249
199
135
249
199
135
247
196
134
243
196
135
239
197
136
240
200
138
239
205
141
238
207
141
238
209
145
239
212
149
240
215
152
241
218
156
242
221
159
244
220
161
245
221
162
244
224
165
245
227
169
246
229
173
246
231
176
243
233
179
241
237
183
243
237
188
243
238
198
250
242
206
252
246
210
254
247
215
254
251
221
255
254
227
255
255
230
255
252
228
254
249
223
252
246
219
250
245
215
251
242
210
249
243
208
248
244
207
250
248
207
251
252
206
253
255
202
255
254
196
255
235
173
248
185
120
204
132
63
154
112
39
131
104
30
115
89
17
91
81
9
72
78
8
58
75
7
48
73
6
39
74
8
36
77
12
36
81
18
37
84
21
38
90
28
43
86
25
40
81
21
33
77
17
29
75
15
25
70
13
22
68
11
18
65
10
15
64
9
12
60
9
8
60
6
4
57
6
2
60
7
1
60
10
1
65
12
4
68
14
4
78
15
8
85
16
11
90
19
15
97
22
17
103
22
18
112
23
19
119
24
20
127
25
23
144
36
34
159
46
48
156
41
46
161
45
58
160
47
75
156
51
92
201
103
164
255
172
246
225
139
226
184
99
190
169
85
171
166
83
165
158
76
150
151
70
137
144
64
123
144
66
118
140
62
110
138
61
105
138
60
102
139
63
102
147
69
109
158
80
120
170
92
132
176
100
139
153
81
118
146
76
110
138
69
98
132
63
91
125
60
82
121
57
74
116
54
69
112
50
61
107
45
56
106
45
53
104
45
51
103
44
50
102
43
47
101
42
44
98
42
41
98
43
40
92
39
33
93
40
34
90
37
31
88
35
29
90
37
33
94
41
35
94
41
37
89
38
34
92
41
37
92
41
37
92
41
37
92
41
37
109
60
142
111
62
144
115
63
148
118
64
152
121
65
156
126
66
162
132
70
171
137
71
177
144
76
189
150
80
196
164
91
209
177
102
221
190
110
231
205
125
246
210
129
249
201
121
236
203
123
234
211
134
236
232
159
251
249
177
255
255
188
255
255
194
255
227
161
222
127
57
111
113
36
82
120
32
70
131
32
60
154
47
65
175
63
77
178
62
73
170
54
65
168
54
62
169
63
67
141
43
42
94
5
1
91
6
1
108
21
14
113
23
15
134
36
27
144
40
31
162
51
44
179
66
60
177
61
61
175
59
62
179
62
70
172
58
68
154
43
59
127
20
38
158
50
73
203
93
122
230
116
150
223
111
151
196
89
135
186
86
140
221
131
192
255
176
242
255
184
255
231
160
236
216
143
224
218
145
226
234
157
237
252
175
253
245
171
246
221
146
215
172
87
152
157
69
129
144
57
112
144
57
108
143
57
104
135
50
91
130
44
79
131
44
76
132
42
70
143
51
76
163
65
90
178
78
104
193
86
114
198
89
118
200
87
117
198
85
115
194
83
115
199
91
125
209
109
147
226
135
178
241
158
210
246
171
230
239
170
235
230
164
235
230
167
238
222
160
233
215
151
225
211
147
221
213
148
228
215
150
234
213
147
237
211
144
241
203
134
240
201
134
240
200
132
241
198
130
241
197
129
242
197
128
244
197
130
246
198
131
247
197
129
248
196
131
247
197
133
247
197
133
245
194
132
243
193
131
240
195
133
240
197
134
238
200
134
234
202
136
234
204
138
235
207
143
239
211
147
241
215
152
243
218
155
244
219
157
243
223
163
249
227
168
252
231
172
252
235
177
253
236
180
251
240
185
252
244
189
254
246
195
254
243
198
255
245
205
255
248
208
255
247
211
255
249
217
255
253
223
255
253
227
255
252
226
255
249
223
252
247
220
251
245
215
249
243
211
248
243
209
246
245
209
247
247
209
250
253
207
253
255
205
255
255
196
255
249
183
255
202
133
213
137
65
149
107
33
118
109
35
114
106
30
102
92
18
77
89
17
67
87
14
57
84
14
48
87
16
46
91
23
48
97
29
50
101
34
52
90
26
40
86
23
34
80
17
26
76
15
23
76
15
22
74
13
20
71
10
15
67
8
10
69
11
10
66
11
8
63
8
5
62
7
2
62
7
0
65
11
1
68
14
4
72
15
6
80
17
10
85
18
12
88
19
14
94
21
15
100
21
16
108
23
18
116
25
20
124
26
23
131
27
24
143
38
35
141
31
34
150
38
50
155
47
71
154
52
92
198
104
164
255
174
248
240
154
241
194
109
200
171
87
173
164
81
163
154
72
148
149
68
137
146
66
129
148
69
126
145
65
118
150
71
119
160
81
128
168
89
134
173
94
139
174
95
140
174
92
138
169
91
133
161
89
127
151
81
115
138
69
100
125
59
86
119
54
76
114
51
68
110
48
63
108
46
59
102
40
51
101
41
51
100
40
48
99
40
46
97
38
42
94
38
39
93
37
38
93
38
35
94
41
35
95
42
34
93
40
34
91
38
32
94
41
35
99
46
40
100
47
41
97
44
38
92
41
37
92
41
37
92
41
37
92
41
37
118
66
149
121
69
152
121
67
153
116
61
152
119
62
156
130
70
168
139
76
180
144
78
186
140
71
187
151
80
198
163
90
208
170
94
216
182
102
223
194
115
234
204
123
241
206
126
239
207
130
236
211
137
236
222
149
239
252
180
255
255
194
255
255
194
255
193
125
186
105
35
89
108
31
77
113
27
64
126
30
57
160
55
72
178
66
78
175
61
69
176
60
69
174
60
68
165
59
61
145
45
43
104
13
8
96
9
0
111
24
14
115
25
14
128
30
21
141
37
28
162
51
44
168
55
49
176
61
58
174
58
59
178
63
68
171
60
67
140
33
41
121
15
27
158
51
67
203
94
117
229
116
144
218
104
140
196
87
129
188
86
136
216
125
184
255
179
243
255
184
255
246
172
247
239
162
240
239
162
240
247
166
243
241
161
234
202
125
195
158
79
144
138
57
115
137
54
106
130
51
98
121
43
85
112
34
73
107
28
60
103
25
51
102
23
45
111
28
48
111
26
45
117
26
44
126
33
51
146
47
67
167
65
86
188
82
104
199
91
114
206
95
114
201
92
113
198
95
122
197
102
134
208
121
163
237
159
209
255
184
244
249
182
249
236
173
244
226
164
237
215
153
226
210
148
223
212
147
229
215
149
236
218
149
242
216
149
246
211
143
244
207
139
242
203
134
240
199
130
237
197
129
238
198
130
241
198
129
245
197
130
245
200
133
249
198
131
246
194
130
244
196
132
244
198
134
246
199
135
245
197
134
241
194
131
236
197
130
233
199
133
231
204
138
235
209
143
240
213
148
242
216
151
243
216
153
244
216
153
242
217
157
243
225
166
250
229
172
253
229
172
249
231
175
248
239
184
252
244
189
255
243
191
255
243
193
255
243
195
253
244
200
253
245
203
251
246
207
251
249
215
252
253
222
254
255
227
255
254
225
255
255
228
255
255
228
255
255
222
255
255
220
255
255
220
255
255
218
252
254
207
249
255
197
252
255
187
253
254
181
252
226
150
225
170
92
168
136
55
131
135
55
126
141
61
124
126
47
102
118
40
88
108
30
72
100
24
60
101
24
56
104
30
55
108
35
55
111
38
55
106
36
47
100
30
40
94
24
32
89
22
29
83
17
21
75
10
14
73
9
10
73
12
11
73
12
9
78
17
12
76
17
11
71
12
4
70
13
4
75
18
7
74
17
6
69
11
0
77
12
6
84
17
11
90
23
15
93
22
16
99
22
16
107
24
18
115
26
20
120
27
20
130
33
27
137
35
31
141
35
37
141
35
45
150
46
69
143
45
84
188
97
154
255
179
252
236
150
237
194
109
200
166
82
170
163
79
164
156
73
151
155
73
147
155
74
141
149
69
132
154
73
131
189
109
162
201
121
172
178
98
149
156
77
125
145
66
114
143
61
110
141
62
109
135
63
103
131
64
99
128
61
94
124
58
86
120
55
79
115
52
71
112
49
66
109
49
61
104
44
54
104
44
54
103
43
51
99
42
48
98
42
45
96
40
41
95
39
40
94
40
38
91
38
32
92
39
31
92
39
31
93
40
32
94
41
35
94
41
35
95
42
38
95
42
38
93
42
39
93
42
39
92
41
38
91
40
37
118
64
150
122
68
154
124
70
158
123
67
158
127
67
163
135
73
174
143
77
183
145
77
188
146
76
192
152
81
199
165
90
209
177
102
221
193
115
234
205
126
243
208
128
241
205
127
236
201
126
227
209
136
228
227
155
239
249
178
254
255
190
255
244
175
238
162
94
153
101
31
83
110
33
77
117
31
66
134
39
63
169
67
81
189
79
88
183
70
76
180
64
73
175
62
68
165
59
59
144
45
40
103
13
5
97
10
0
111
25
12
116
26
15
128
30
19
141
37
28
158
50
40
164
51
45
170
57
53
170
56
55
176
63
65
169
60
63
138
33
38
121
17
24
157
53
64
201
93
109
221
109
133
210
96
129
195
84
126
189
83
132
210
115
173
254
168
231
255
179
248
252
175
247
255
178
251
255
176
249
233
152
221
196
115
181
161
81
142
137
58
113
126
48
96
120
45
86
112
37
76
101
30
64
93
22
52
87
17
41
82
13
32
80
12
25
84
12
24
86
13
24
91
14
24
97
15
27
109
23
36
127
39
53
150
58
73
169
71
84
202
95
105
208
98
109
207
102
117
200
100
124
197
106
139
213
130
172
237
160
214
246
176
238
243
176
245
237
171
243
228
164
240
220
158
235
216
151
233
212
146
233
212
146
236
216
147
240
213
146
243
210
142
241
206
138
239
204
136
239
202
135
240
201
134
240
199
131
242
197
129
242
198
131
244
196
129
242
195
128
241
195
131
241
197
133
243
198
135
242
197
134
239
197
132
236
200
132
233
202
134
233
206
139
236
209
144
238
212
147
241
214
149
241
214
149
241
214
151
240
218
155
244
220
160
246
221
162
246
217
160
239
219
163
238
227
171
244
235
180
248
238
183
250
238
183
250
242
190
254
244
194
253
238
191
245
233
189
238
237
196
240
248
210
251
255
219
255
255
225
255
255
225
255
255
222
255
255
219
255
255
220
255
255
218
255
255
209
248
249
193
240
214
143
203
207
126
193
201
118
188
186
103
173
158
73
141
144
58
123
146
60
121
149
62
117
145
59
108
137
52
94
127
41
80
117
33
67
115
30
59
116
32
56
117
34
54
116
35
50
118
41
51
113
38
45
111
34
40
108
33
38
102
27
31
91
19
20
86
14
15
85
15
13
82
15
9
84
17
11
80
16
7
77
15
4
82
19
10
87
27
16
83
23
12
72
12
1
85
18
10
88
19
12
90
21
14
91
21
13
101
24
16
110
30
21
118
31
22
120
30
22
128
33
27
135
38
32
140
37
38
138
37
45
145
43
65
141
45
83
192
105
160
255
177
249
226
142
228
188
103
196
170
86
174
172
88
174
160
77
159
154
71
149
156
74
146
150
69
136
172
92
155
189
109
168
177
96
154
153
74
129
148
68
121
141
61
114
134
54
107
141
63
111
131
60
100
127
62
96
124
59
91
121
57
84
118
54
78
113
52
70
111
50
66
107
49
63
103
45
57
102
45
54
101
44
53
99
44
50
98
43
48
96
41
44
95
40
43
95
41
39
96
43
39
96
43
37
96
43
37
97
44
38
98
45
41
99
45
43
99
45
43
98
47
46
95
44
43
95
43
45
94
42
44
93
41
43
117
61
150
122
66
155
126
70
159
128
69
163
130
70
168
136
73
177
142
76
184
144
76
189
146
76
192
150
79
197
166
91
209
186
112
227
205
128
240
211
135
244
209
132
238
205
128
230
196
125
217
209
140
223
235
164
240
250
180
250
255
188
251
218
150
207
128
59
113
103
31
79
109
33
72
119
34
65
135
42
61
172
70
83
193
84
90
186
73
77
181
66
73
176
63
67
166
60
60
142
43
38
103
13
5
99
12
2
111
28
14
115
27
15
128
32
20
140
37
28
153
46
38
157
46
39
162
49
45
165
51
50
172
62
61
165
59
59
135
32
33
120
19
23
157
53
60
198
92
104
214
101
121
202
87
116
195
83
123
188
80
129
203
106
160
245
157
217
255
175
239
255
182
247
255
182
248
240
158
222
195
111
170
155
72
126
133
51
99
119
42
84
110
38
75
99
32
63
87
23
50
77
15
38
70
11
29
65
8
23
60
4
15
56
1
7
57
2
7
61
5
6
66
6
8
66
4
7
70
4
8
85
16
21
108
35
42
132
50
56
187
86
92
205
96
102
210
103
111
203
101
115
192
95
115
189
98
129
209
124
166
234
155
210
252
178
241
248
176
249
241
173
250
231
166
246
221
158
239
215
151
235
213
147
234
212
146
234
213
147
237
211
144
237
209
142
237
209
142
239
208
142
242
206
139
242
203
136
242
199
132
238
198
130
239
197
129
238
197
129
238
197
131
237
200
134
240
202
137
241
202
137
239
201
136
236
204
136
235
206
139
236
208
141
238
211
144
239
213
146
241
213
148
240
214
149
241
213
150
239
214
151
240
217
155
241
218
156
241
214
155
237
216
158
235
223
165
241
229
172
243
231
174
243
235
178
247
238
183
250
240
185
250
238
187
246
244
193
250
253
204
255
255
209
255
255
208
255
254
201
255
251
198
252
249
194
249
251
194
249
254
194
248
247
184
239
227
162
216
211
140
196
181
95
160
168
76
143
159
67
132
155
60
124
145
51
111
146
51
107
152
58
110
152
56
102
154
59
101
149
55
92
143
48
82
136
43
72
135
41
67
135
42
63
136
43
61
136
44
59
134
47
56
131
46
53
132
45
51
131
46
51
126
41
44
114
33
32
106
25
24
104
25
21
99
22
16
95
20
14
89
16
9
87
17
7
94
27
18
100
36
24
93
29
17
80
13
4
94
24
16
95
22
15
90
20
12
91
18
11
102
23
16
115
32
24
120
36
26
121
32
24
128
35
28
136
41
35
140
40
40
139
39
47
138
39
60
139
45
82
200
112
170
253
170
242
209
125
211
187
104
196
173
90
182
165
82
170
156
74
159
151
69
151
152
71
148
148
68
141
185
105
174
171
92
157
147
67
128
131
53
111
134
55
112
133
54
109
128
49
104
128
54
103
124
58
96
122
59
90
120
57
86
118
56
81
116
54
77
111
52
70
110
52
67
108
52
65
103
47
58
103
47
56
102
46
55
99
46
52
98
45
51
97
45
49
96
44
46
95
44
43
94
43
42
95
44
43
95
44
43
96
45
44
97
45
47
98
46
48
98
46
50
98
47
52
93
42
47
93
42
49
92
41
48
91
40
47
122
63
155
126
67
159
129
70
162
131
70
165
133
71
170
138
73
177
143
75
184
145
77
188
152
82
196
158
88
202
175
103
215
196
123
231
210
135
240
210
135
236
210
136
233
212
139
229
211
142
223
229
161
234
248
179
246
255
193
254
255
193
248
194
126
177
107
38
85
108
35
78
109
32
68
118
34
60
133
39
57
167
66
74
189
80
85
183
70
72
179
63
66
176
61
64
167
62
59
140
41
36
102
12
3
101
14
4
113
30
16
117
29
17
129
32
23
140
37
28
150
43
35
150
41
36
154
42
38
159
47
45
168
60
58
159
55
52
129
29
27
121
23
22
154
53
57
198
92
102
209
96
114
197
83
109
197
82
121
190
80
127
200
101
155
244
153
210
255
181
240
255
181
240
236
155
213
185
102
156
147
64
110
142
60
100
138
56
92
114
39
69
98
30
55
84
22
43
70
11
29
60
6
20
57
5
17
53
6
12
48
3
6
44
0
1
43
0
0
48
3
0
51
3
1
49
0
0
49
0
0
59
3
4
76
17
19
98
28
30
154
62
65
179
76
79
197
92
97
206
102
109
201
99
112
185
88
108
189
95
129
210
123
166
247
162
219
252
173
239
250
178
251
239
172
249
229
166
245
227
166
244
223
160
239
215
152
233
212
147
231
210
144
231
210
144
232
212
146
236
214
149
243
214
148
245
210
144
244
206
139
242
201
134
237
201
134
237
201
134
239
202
135
238
204
138
238
205
141
238
208
142
240
209
143
240
207
140
237
210
140
236
209
142
237
211
144
237
213
146
239
215
149
239
216
150
240
215
150
240
212
147
237
214
149
239
216
152
239
219
155
241
223
162
242
231
170
248
237
177
251
241
181
253
240
178
251
242
181
251
242
183
251
243
184
252
251
190
255
255
196
255
249
187
252
239
174
240
221
154
221
214
143
211
204
131
200
201
126
193
203
124
190
198
117
183
185
103
165
176
88
149
173
74
139
164
62
127
157
56
116
150
49
105
144
42
92
146
45
89
154
52
92
154
52
89
153
52
84
154
51
80
152
49
76
150
48
72
150
48
69
151
50
68
153
50
67
152
52
64
145
50
58
143
48
54
144
49
55
146
51
55
141
49
52
133
41
42
127
37
36
126
37
33
119
34
29
115
32
24
105
25
16
100
22
12
105
28
18
111
37
28
103
30
21
90
16
7
106
29
23
107
28
23
101
24
18
96
17
10
100
20
11
114
30
20
121
34
25
121
31
23
129
36
29
137
42
38
141
41
41
139
39
47
134
34
58
142
48
85
208
120
178
246
162
237
197
113
201
178
94
188
161
77
171
148
65
157
148
65
155
141
59
144
146
64
146
153
75
151
170
89
165
134
57
127
119
43
108
121
45
107
116
41
98
115
40
96
117
43
96
108
36
84
108
44
81
105
46
76
104
45
73
102
44
68
101
43
65
99
42
59
98
41
56
96
42
55
92
39
49
91
40
49
90
39
48
89
38
45
88
37
44
87
38
42
86
37
40
86
36
39
85
34
39
86
35
40
87
34
40
87
36
43
88
37
44
89
38
47
89
37
49
89
39
51
85
33
46
84
33
48
84
33
48
83
32
47
127
66
161
128
67
162
130
69
164
133
69
166
135
70
172
139
72
177
145
77
186
151
82
191
165
95
207
171
102
211
186
115
221
198
127
229
205
134
230
209
139
228
221
151
237
235
166
246
244
178
249
255
191
253
255
193
250
255
204
255
255
193
240
174
103
147
100
29
71
107
33
70
112
33
64
123
38
61
138
44
58
175
71
78
198
88
91
189
75
75
181
65
66
178
64
64
170
65
62
139
42
36
102
14
4
103
19
8
116
32
21
120
32
20
130
36
26
141
40
32
146
41
35
147
38
35
149
40
37
154
44
43
162
57
54
150
48
44
122
24
21
120
25
23
152
52
52
196
91
98
207
95
111
198
81
108
198
82
121
191
79
125
202
102
154
246
153
206
255
188
240
237
157
208
186
104
152
139
58
99
127
46
79
143
60
88
138
56
79
108
34
51
85
21
35
72
14
26
59
6
16
53
2
9
50
4
7
48
6
8
45
5
5
41
3
0
35
0
0
36
0
0
38
0
0
38
0
0
40
0
0
46
0
0
53
3
4
65
5
5
111
31
32
137
45
46
167
68
71
200
97
101
215
110
117
202
97
111
188
86
108
191
94
127
220
124
170
242
155
210
255
179
244
251
181
251
240
179
249
237
180
251
232
175
244
224
164
236
214
152
229
211
148
227
210
147
228
213
149
233
219
155
242
222
157
247
219
154
248
216
150
247
209
142
239
209
142
239
209
141
240
209
142
239
211
144
241
212
147
241
216
149
244
218
151
244
209
140
233
209
140
233
210
141
234
211
142
233
212
143
234
214
145
236
215
146
237
214
148
238
219
153
243
216
150
240
215
149
237
216
150
237
221
156
240
226
161
243
232
168
246
238
171
248
242
174
251
240
172
247
234
163
239
222
151
227
215
143
219
210
136
213
206
127
206
200
119
198
196
111
192
191
102
182
185
92
172
182
88
166
183
85
160
182
82
154
177
76
144
176
71
137
171
63
123
167
58
113
164
56
106
158
51
97
151
45
85
152
47
80
159
52
82
159
53
76
158
52
74
159
52
72
158
51
69
157
50
66
155
49
63
153
47
61
154
46
59
153
47
59
150
49
57
147
46
52
147
46
50
150
50
52
150
50
52
147
47
47
146
46
44
148
51
45
145
48
42
140
45
39
130
37
30
118
28
20
116
27
19
120
33
26
114
29
22
105
20
13
126
38
34
129
41
37
122
37
32
110
25
20
108
21
14
115
26
18
120
30
22
121
27
19
131
34
28
137
37
35
141
38
39
140
39
47
138
36
60
150
53
94
215
125
186
244
158
233
190
106
194
154
70
166
138
57
152
132
51
144
135
54
146
132
52
141
151
71
158
158
81
163
132
53
134
102
26
100
99
24
93
107
32
97
98
24
85
95
22
78
97
27
81
90
22
69
83
23
57
81
25
54
80
24
51
79
24
47
78
23
42
76
23
39
75
23
36
74
24
35
72
22
33
72
22
33
71
21
32
68
21
29
68
21
27
67
21
24
67
21
24
66
19
25
71
21
32
72
21
36
73
20
36
73
22
39
74
23
40
75
24
43
75
24
43
74
25
46
74
22
45
72
22
47
72
22
47
71
21
46
129
65
161
128
64
160
131
67
164
135
70
170
139
72
175
143
76
181
151
82
189
158
89
198
169
100
207
176
107
213
188
117
219
197
127
223
206
136
224
221
152
233
243
175
250
255
195
255
255
197
255
255
191
245
252
184
233
255
190
234
242
171
211
155
83
121
98
26
63
99
24
57
116
36
63
133
46
65
153
57
68
190
87
90
215
105
104
203
88
85
190
72
70
183
69
68
173
68
65
139
42
36
103
15
5
107
23
12
120
36
25
122
35
25
133
39
29
143
42
34
147
42
38
147
39
36
149
39
38
152
44
42
159
54
51
139
40
35
113
18
14
121
26
22
153
53
53
192
87
92
203
91
107
196
79
106
197
78
116
190
78
124
203
101
151
240
148
199
250
166
215
189
111
153
141
61
100
129
50
81
136
54
77
131
50
67
114
34
45
92
19
26
73
12
17
63
8
13
53
3
6
47
1
3
46
2
3
44
4
2
40
5
1
38
5
0
35
2
0
33
0
0
33
0
0
35
0
0
40
0
0
42
1
0
43
0
0
47
0
0
72
8
6
96
21
18
135
47
46
178
82
83
213
108
112
216
109
115
204
96
109
195
89
111
191
90
124
220
127
172
248
167
223
255
186
248
251
191
255
246
191
255
241
187
249
235
180
245
227
167
237
222
160
235
216
154
231
216
153
232
222
158
242
227
163
249
226
162
249
224
159
249
217
150
243
217
150
243
217
150
243
216
149
242
215
149
239
217
151
241
221
155
243
227
158
247
212
143
234
211
142
233
210
141
232
210
141
232
210
141
230
211
142
231
212
143
234
213
144
235
221
152
243
219
148
240
220
149
241
225
155
244
230
160
248
233
163
249
236
167
248
241
170
250
233
156
236
214
135
214
192
110
192
177
94
174
173
88
171
175
87
171
176
84
169
176
80
167
177
77
163
177
75
158
178
73
155
182
74
150
180
70
143
172
61
129
168
55
119
167
53
112
165
52
104
163
51
97
161
48
91
157
47
82
156
46
75
159
49
74
159
50
69
155
47
62
157
49
62
158
51
61
160
50
59
159
49
58
156
46
55
155
44
53
155
43
55
154
44
53
154
49
56
149
46
50
149
44
48
152
48
49
155
49
51
155
49
49
159
54
51
164
59
55
161
56
52
162
57
53
154
51
46
140
38
33
132
33
28
134
35
30
131
33
30
125
27
24
145
50
46
151
58
53
147
56
53
133
42
37
129
36
29
133
40
33
137
40
33
132
35
28
136
37
32
138
36
34
142
38
39
143
37
49
143
39
64
157
59
100
213
122
183
235
148
226
176
91
182
142
58
154
136
55
150
124
43
138
128
47
142
150
71
163
174
95
186
145
66
155
102
24
108
92
18
97
87
14
87
87
16
82
85
15
77
78
9
64
78
9
63
80
17
62
70
13
46
69
15
41
68
14
38
66
14
36
66
13
31
65
15
27
64
14
26
61
14
24
61
14
24
60
14
24
60
13
23
59
13
23
59
14
21
56
14
18
58
13
18
58
12
22
61
12
31
62
13
35
64
11
37
63
13
38
64
14
41
65
15
42
65
15
44
66
16
45
66
15
48
65
16
48
65
15
50
65
15
50
138
72
170
139
73
171
146
80
180
155
89
189
162
94
197
166
97
203
173
104
211
181
112
219
185
116
222
191
123
224
202
132
228
213
144
233
228
161
241
245
179
251
255
192
255
255
199
255
233
169
221
204
138
184
207
139
180
216
146
183
202
131
165
142
68
101
101
27
60
98
22
50
118
39
61
138
51
67
157
62
70
197
93
94
223
111
109
208
93
88
194
75
71
187
72
69
176
71
67
140
43
37
104
17
8
110
28
17
123
41
29
125
38
28
136
42
34
143
44
38
147
43
40
148
43
40
151
43
43
151
45
45
154
50
49
131
31
29
107
12
6
120
27
20
155
55
53
185
80
84
195
83
99
190
73
100
192
73
111
188
75
121
200
96
145
228
135
182
186
103
147
140
62
101
120
41
72
131
53
77
134
53
68
112
32
41
91
15
17
80
10
10
67
9
7
59
8
5
53
5
3
47
3
0
43
2
0
41
3
0
37
4
0
34
5
0
37
8
4
34
5
1
34
3
0
36
2
0
41
3
2
43
3
3
42
0
2
43
0
0
47
0
0
69
11
7
108
34
33
148
62
61
187
89
88
215
111
112
226
117
122
217
110
120
193
87
110
199
102
135
220
134
179
247
174
227
255
199
255
254
200
255
246
195
252
245
194
253
248
191
255
239
179
249
226
166
238
220
160
234
224
161
240
228
165
246
229
165
249
228
164
250
222
156
244
222
156
246
223
154
243
221
152
241
220
152
239
221
153
240
226
158
243
229
161
248
224
155
244
221
155
243
220
151
240
217
148
237
214
145
234
213
144
233
214
143
235
215
144
236
214
143
237
208
135
227
205
132
224
210
137
227
218
144
233
224
150
237
232
158
243
242
165
247
211
123
207
184
93
173
157
63
147
152
57
139
163
65
150
169
70
153
173
69
154
173
68
152
181
72
155
179
68
145
178
64
136
178
63
130
174
59
118
168
51
104
164
48
95
166
51
94
159
44
83
159
47
83
159
45
78
152
42
67
154
42
64
158
47
63
158
48
59
155
46
52
155
46
51
157
48
51
159
49
52
159
49
52
157
46
52
158
44
52
160
46
56
161
50
59
157
50
56
152
47
51
152
46
50
156
50
52
160
52
52
162
52
51
169
57
55
175
62
58
171
58
54
176
63
59
173
60
56
162
50
46
157
45
43
156
47
44
152
42
41
144
36
34
156
52
49
164
65
60
166
68
65
160
63
57
161
64
58
169
72
65
172
70
65
163
61
56
157
53
50
149
43
43
152
43
46
147
39
52
148
41
69
160
57
102
199
103
167
217
129
207
169
84
175
149
67
165
146
64
162
128
46
144
148
68
165
176
96
193
180
100
195
125
49
140
99
23
111
99
26
107
93
21
95
85
16
83
84
16
77
79
11
68
75
8
61
75
14
58
71
16
48
70
17
43
69
17
40
65
16
35
66
15
32
63
15
27
62
14
26
61
15
25
61
15
25
59
16
25
61
15
25
59
16
25
59
16
25
57
16
22
58
15
22
58
15
25
61
13
37
62
13
42
63
12
43
63
14
44
64
15
47
65
15
50
65
15
52
65
15
52
66
15
56
64
16
56
64
16
58
64
16
58
155
89
187
158
92
190
169
103
203
183
116
219
192
123
229
195
126
232
203
131
239
211
139
247
217
146
252
222
152
251
230
161
254
242
174
255
255
192
255
255
204
255
255
197
255
248
184
236
193
124
171
150
75
116
166
89
125
181
100
133
177
94
124
143
59
85
112
28
52
108
23
44
124
37
53
140
48
59
156
57
62
190
86
85
216
107
102
204
89
84
190
72
68
186
73
69
177
74
69
138
43
37
105
18
9
113
31
19
125
43
31
127
40
30
137
44
36
145
46
40
148
46
41
150
46
43
150
46
43
150
48
46
149
49
47
124
29
25
100
9
4
118
27
22
158
58
58
181
74
80
188
76
92
183
69
92
185
70
103
185
75
112
195
93
133
216
124
161
127
43
77
114
35
64
118
40
62
126
49
65
117
42
49
98
24
25
87
13
12
78
11
5
65
10
5
60
11
6
55
10
5
51
8
2
44
5
0
39
4
0
37
4
0
34
5
0
37
8
4
35
6
2
33
2
0
34
0
0
36
0
0
39
0
1
41
1
2
42
0
1
39
0
0
60
11
7
94
30
28
126
48
48
161
70
69
208
105
106
238
132
134
239
132
138
210
105
119
186
88
111
191
104
138
233
158
199
255
202
249
255
209
255
252
202
253
250
201
255
255
210
255
251
195
255
235
176
244
225
165
235
226
164
239
229
167
244
229
166
247
228
164
248
223
159
245
223
159
245
223
157
244
220
155
239
218
153
237
219
154
236
224
159
241
228
163
245
236
171
255
233
167
254
229
163
250
226
158
245
222
154
241
219
151
238
219
149
238
220
147
237
216
141
234
195
120
213
171
95
186
160
81
172
158
79
170
167
87
176
182
102
189
199
115
200
191
97
183
172
73
156
157
55
138
159
56
137
165
61
140
165
58
136
166
58
133
172
62
135
171
60
129
168
55
119
169
54
113
170
56
108
169
53
100
161
46
85
157
41
76
157
42
73
152
39
67
158
48
73
161
49
71
152
44
60
151
41
54
154
44
53
159
50
56
162
53
56
156
48
48
158
50
48
160
50
49
159
49
48
159
46
48
159
46
48
162
49
55
165
52
58
161
52
55
156
50
52
158
50
50
162
54
54
165
55
54
168
56
54
173
58
55
178
63
60
174
56
54
181
61
60
182
62
61
177
57
56
174
56
56
174
56
56
168
49
51
155
41
41
158
48
47
170
62
59
176
71
68
178
75
70
189
84
80
205
100
96
207
100
94
195
88
82
179
70
67
165
55
54
164
51
55
153
41
55
151
41
70
157
51
97
184
83
149
201
106
187
176
89
183
161
77
175
151
66
167
146
61
162
187
102
203
186
104
204
162
82
179
121
41
136
111
35
125
107
34
116
105
34
110
96
29
98
87
21
83
87
22
80
83
18
72
70
8
55
72
16
51
68
18
45
67
17
42
66
17
39
64
15
36
63
14
33
61
14
30
60
14
27
62
16
29
60
16
29
62
16
29
60
17
27
59
16
26
59
16
26
59
16
25
59
15
30
66
17
46
66
16
51
68
16
54
67
17
55
69
16
58
70
17
61
70
17
63
71
17
66
70
18
67
70
18
67
70
17
69
70
17
69
157
92
192
154
89
189
156
89
192
162
95
198
167
98
204
172
101
207
181
108
216
193
117
226
202
124
233
212
135
239
220
149
245
240
175
255
255
205
255
255
210
255
255
206
255
210
144
192
143
60
104
158
63
103
177
80
115
200
97
127
209
105
128
198
93
110
158
56
70
116
14
25
122
22
30
135
34
38
159
56
57
185
79
79
197
89
87
195
86
83
189
77
73
182
75
69
173
74
68
127
37
28
103
19
8
112
33
18
129
47
33
144
58
45
152
60
49
147
50
41
143
45
36
139
40
34
136
39
32
141
46
40
134
41
36
99
12
5
90
7
0
121
33
29
152
51
55
167
60
68
176
68
81
168
60
76
159
52
72
166
62
85
165
67
90
148
56
77
115
30
49
117
39
53
117
44
55
107
36
42
92
22
24
78
10
9
76
8
5
75
12
7
59
9
2
54
9
3
53
8
2
49
6
0
44
5
0
40
3
0
37
2
0
35
2
0
38
5
0
38
5
0
37
3
1
38
3
1
40
1
2
42
3
4
44
5
6
46
6
6
43
0
0
56
5
4
66
4
5
91
19
20
143
57
58
184
90
91
216
116
118
245
142
146
213
113
121
186
92
106
182
92
117
213
132
164
252
180
218
255
209
251
255
212
255
247
201
248
240
192
244
240
189
246
251
195
255
239
180
244
230
169
238
237
175
248
232
171
248
224
166
243
226
167
247
225
163
246
222
158
242
219
155
239
218
154
238
217
156
236
219
158
236
220
159
236
228
167
245
228
165
244
233
170
249
243
178
255
241
173
255
228
158
244
223
150
239
226
152
241
232
156
246
232
151
243
203
120
210
169
85
173
158
72
161
150
64
151
158
70
156
183
91
178
160
62
149
159
55
142
154
49
131
150
47
120
152
47
114
153
48
107
154
49
105
156
50
99
163
56
102
164
55
97
162
53
94
160
50
87
159
48
81
157
47
76
158
45
73
155
46
69
156
47
66
156
50
64
157
49
62
154
48
58
152
45
53
152
45
51
154
48
52
157
51
53
156
48
48
157
49
47
158
48
47
159
47
45
158
44
43
159
45
44
162
48
47
165
51
50
159
47
45
161
49
47
161
52
49
163
54
51
167
55
53
171
59
55
179
64
61
185
67
65
185
65
64
184
62
61
181
57
59
179
55
57
179
56
58
180
57
59
180
60
61
180
62
62
178
60
60
173
58
55
175
59
59
182
69
65
196
81
78
208
93
90
216
101
96
223
105
101
208
90
86
209
91
89
190
73
79
174
59
74
170
56
89
164
54
103
186
80
146
231
129
212
211
117
213
185
97
199
182
91
196
177
86
191
204
113
218
188
100
202
145
59
158
129
48
141
124
45
134
119
46
127
117
47
120
111
44
113
101
35
99
87
23
83
83
18
76
83
21
72
74
19
58
72
23
53
73
24
54
71
22
51
68
20
46
66
18
44
67
19
43
68
20
42
65
17
39
65
18
38
66
17
38
65
18
36
65
18
34
65
18
34
65
18
34
66
17
38
69
18
49
72
20
58
68
13
55
67
14
60
85
28
79
94
37
92
88
30
89
81
23
82
89
31
92
87
29
90
86
26
88
84
24
86
151
89
188
149
87
186
153
86
189
158
91
194
163
94
200
169
98
204
178
104
215
191
113
223
192
112
223
202
123
228
206
135
231
223
158
242
251
194
255
255
204
255
240
186
236
178
113
156
143
55
97
161
59
96
188
79
111
213
100
128
225
109
130
213
98
113
175
64
71
134
25
30
128
22
24
139
35
36
162
56
56
184
78
78
196
88
86
192
84
81
184
76
73
177
74
67
158
61
54
118
30
20
100
18
4
112
33
18
128
46
32
142
56
43
152
60
47
148
54
42
138
41
32
132
38
28
129
36
28
134
44
36
126
39
32
98
13
6
94
15
8
129
46
42
152
53
58
166
60
70
171
65
77
161
57
68
150
48
61
150
49
63
144
48
62
129
39
51
117
34
44
117
38
44
111
39
43
100
32
33
88
20
19
77
12
8
75
10
6
73
12
7
62
12
5
57
12
6
55
10
4
52
9
2
47
6
0
44
5
0
41
4
0
38
3
0
40
5
1
38
5
0
38
3
1
38
3
1
40
1
2
42
3
4
43
4
5
45
5
5
43
0
0
53
3
2
60
1
3
82
14
15
127
47
48
168
79
81
203
107
109
232
133
136
222
126
130
200
104
115
193
100
118
204
116
141
227
148
180
255
192
229
255
215
255
251
204
250
242
196
245
238
189
244
244
190
248
233
177
238
226
167
233
232
172
242
228
168
240
222
164
240
225
167
244
224
166
243
225
164
244
224
161
242
220
159
237
219
158
236
218
160
236
219
161
235
219
159
233
226
164
239
235
173
250
241
176
255
240
172
255
232
162
248
230
156
243
231
155
245
230
149
241
222
139
229
197
111
202
169
80
170
154
64
152
154
62
149
164
70
158
176
80
167
154
51
140
152
47
132
149
42
120
145
40
109
146
41
100
145
41
90
144
41
84
145
41
78
146
42
75
149
44
75
152
47
77
156
49
77
158
51
77
159
51
75
158
50
73
158
51
69
157
51
63
158
52
62
158
53
60
157
52
59
156
51
56
158
51
57
161
55
59
166
57
60
165
56
59
163
53
52
160
48
47
157
45
43
158
45
41
159
46
42
161
46
41
162
47
42
161
46
43
163
50
46
168
55
51
171
58
54
173
60
56
175
62
58
179
64
61
183
65
63
187
65
64
186
62
62
185
59
62
185
59
62
187
61
64
188
64
66
188
64
66
187
65
64
182
60
59
185
63
62
187
65
64
188
68
67
195
73
72
205
83
82
214
92
89
220
98
93
222
99
94
218
96
95
196
77
81
179
62
78
176
61
94
173
59
110
197
84
150
238
131
211
213
116
211
196
103
207
197
104
208
196
103
209
217
124
230
193
102
205
146
60
159
137
56
149
133
58
143
129
56
137
125
55
128
118
51
120
108
42
106
97
31
93
89
23
84
85
22
77
78
23
65
77
25
61
78
26
62
76
25
58
72
21
54
71
20
53
71
20
51
72
21
52
72
19
49
72
19
47
72
19
47
72
19
45
72
19
45
72
20
43
72
20
43
72
19
47
69
13
48
76
19
60
72
14
62
78
20
71
93
34
92
99
39
101
102
40
107
105
42
112
101
38
108
100
37
107
102
36
107
101
35
106
147
85
184
146
84
183
150
83
186
154
87
190
159
90
196
165
94
200
175
101
212
187
109
219
186
106
217
194
115
220
194
123
219
210
145
229
245
188
255
255
202
255
219
162
213
142
75
118
138
50
90
158
56
93
190
81
113
220
108
133
233
117
136
222
107
120
187
76
83
150
41
46
129
23
25
139
35
36
161
55
55
183
77
77
195
87
85
191
83
80
183
75
72
176
73
66
154
60
52
116
28
18
99
17
5
113
34
21
129
47
33
141
55
42
147
55
44
141
47
37
134
40
32
130
36
28
126
36
28
129
40
32
119
32
25
94
11
5
98
19
14
135
52
48
179
83
87
192
88
95
190
86
95
178
74
85
163
61
74
147
50
61
131
38
49
121
34
43
118
35
43
111
34
40
102
30
34
91
23
24
83
15
14
77
12
8
76
11
7
74
13
8
64
14
7
59
14
8
58
13
7
54
11
4
50
9
3
47
8
1
44
7
1
41
6
0
40
5
1
39
4
0
37
3
1
37
3
1
38
3
1
39
4
2
41
5
5
44
6
5
41
1
1
48
3
0
50
0
0
67
6
5
105
31
32
146
62
62
184
92
93
215
119
121
230
134
138
216
119
128
207
110
127
195
103
126
198
114
147
238
166
203
255
206
248
254
202
248
249
199
250
239
190
245
239
185
243
231
175
236
226
167
233
228
169
237
225
165
235
223
163
235
228
168
242
231
171
245
234
172
247
232
170
245
226
165
242
223
162
239
220
162
236
221
163
237
226
166
238
223
161
234
222
158
234
231
164
244
244
175
255
249
177
255
236
160
250
220
141
233
216
132
226
193
106
201
171
80
176
157
63
159
155
60
152
168
72
162
173
74
165
161
61
151
150
46
133
150
42
127
147
41
116
145
40
106
143
40
95
141
39
86
138
38
76
137
36
68
144
43
73
148
45
72
151
49
73
154
50
73
154
51
72
154
48
68
150
45
62
149
42
58
153
47
59
155
49
59
157
52
59
158
53
60
160
53
59
164
55
61
169
60
65
173
63
66
173
63
66
169
57
56
162
50
49
159
45
44
161
46
43
164
49
46
165
50
45
165
50
45
165
50
47
168
53
50
172
57
54
174
59
56
175
60
57
180
62
60
183
65
63
187
67
66
192
70
69
192
68
68
193
67
68
197
69
70
200
72
73
200
72
73
197
69
70
193
67
68
189
63
64
196
72
70
199
75
73
192
70
67
190
66
66
198
74
74
208
84
84
213
89
87
219
94
92
214
90
90
195
74
79
183
65
81
182
64
96
179
63
110
194
80
142
223
114
193
211
112
205
214
122
223
221
128
232
212
119
223
224
133
236
199
111
213
151
67
165
144
65
157
143
69
154
140
69
149
133
65
138
125
58
127
116
50
114
109
40
103
100
30
92
91
23
80
86
27
71
85
30
69
86
30
69
84
28
65
81
25
62
78
22
59
78
22
59
79
23
60
79
23
60
79
23
58
80
23
58
80
23
58
80
23
58
80
23
58
80
23
58
80
22
60
76
18
58
84
25
69
81
21
72
91
30
87
103
41
104
112
50
117
134
68
140
145
79
151
130
64
138
128
62
136
124
56
131
120
52
127
145
83
182
147
82
182
150
83
186
152
85
188
157
88
194
165
94
200
175
101
212
184
108
217
191
111
222
193
114
219
192
121
217
212
147
231
253
193
255
255
206
255
203
145
195
122
53
97
134
43
84
157
53
88
190
81
112
221
109
134
234
118
137
223
108
121
192
81
88
158
52
54
130
24
26
140
36
37
161
55
55
182
76
76
194
86
84
190
82
80
183
75
72
177
74
67
155
61
53
115
27
17
97
15
3
115
33
21
135
51
40
148
62
49
152
60
49
143
49
39
135
41
33
130
37
29
126
37
29
126
39
32
111
26
21
88
5
0
94
15
10
130
46
44
186
92
93
196
95
101
190
89
97
178
77
85
164
64
74
140
44
55
121
30
39
115
30
37
117
36
42
107
31
35
93
21
24
83
15
14
78
13
9
77
12
6
78
13
7
75
15
7
68
15
9
63
16
10
61
14
8
57
12
6
53
10
4
49
8
2
46
7
2
44
7
1
41
6
2
40
5
1
38
4
2
37
3
1
38
3
1
39
4
2
40
4
4
41
6
4
43
5
2
44
3
0
46
0
0
55
0
0
84
16
15
123
45
45
167
78
80
199
105
106
231
135
139
228
128
136
217
116
132
195
100
122
189
100
130
217
137
174
246
179
220
253
194
240
255
204
255
246
195
251
240
186
244
233
179
239
229
173
236
227
171
236
228
169
237
228
168
238
234
174
244
238
178
248
243
182
252
240
180
250
234
174
246
228
168
240
224
164
236
224
164
236
232
170
243
236
172
246
239
172
249
235
166
247
229
157
241
226
150
240
228
149
241
234
150
246
228
141
238
201
111
209
173
78
178
158
62
160
162
65
160
181
82
175
182
81
175
163
58
150
147
41
129
147
40
120
145
39
111
143
39
102
142
39
92
136
38
79
131
34
67
127
31
58
129
31
56
132
35
55
138
39
59
142
43
61
147
46
64
148
47
63
149
47
61
149
47
60
144
40
51
147
41
51
150
44
54
152
47
54
155
48
56
161
52
58
167
56
63
171
60
66
173
60
64
169
56
58
165
51
51
161
47
46
162
46
46
165
50
47
169
54
51
171
56
53
176
58
56
177
57
56
176
56
55
175
55
54
176
56
55
181
61
60
190
68
67
195
73
72
201
77
77
202
76
77
205
77
78
209
81
80
213
83
85
212
82
82
207
77
79
202
72
72
199
71
70
206
81
79
206
81
79
195
71
69
192
66
67
201
75
76
209
83
84
209
83
84
207
81
82
205
79
82
197
73
81
194
71
89
192
71
102
185
65
111
188
70
130
201
89
163
210
107
198
231
135
233
237
142
242
210
118
219
212
124
224
199
115
213
156
76
171
149
74
165
148
76
160
148
77
157
142
71
147
131
61
133
121
52
119
113
42
108
105
33
97
97
27
87
95
33
80
94
36
77
95
34
76
93
32
74
89
28
70
86
25
67
86
25
67
86
25
67
86
25
67
86
25
67
87
24
67
87
24
67
87
24
67
87
24
67
87
24
67
87
24
67
85
22
67
88
24
74
88
23
79
96
30
92
104
37
106
132
64
137
177
106
184
185
114
192
151
80
160
152
81
161
156
83
164
159
86
167
148
83
185
150
85
187
152
85
188
153
86
189
158
89
195
168
97
203
177
103
214
185
109
218
194
114
225
192
115
219
194
123
217
219
154
236
255
200
255
255
204
255
185
125
176
113
42
86
132
40
79
153
49
84
185
76
107
216
104
128
224
112
128
215
101
111
188
77
83
161
55
57
134
28
30
142
38
37
163
57
57
183
77
77
193
85
83
190
82
80
181
76
72
176
74
69
146
53
46
109
22
13
96
12
2
114
32
20
133
49
38
147
59
49
153
60
52
146
52
44
131
38
31
126
36
28
124
37
30
120
37
29
105
22
16
83
2
0
92
13
9
122
41
38
163
71
72
171
75
77
166
70
74
158
61
68
148
53
59
129
36
44
115
26
32
113
31
35
113
34
37
101
27
28
86
16
16
78
10
7
76
11
7
79
14
8
79
16
9
76
16
8
68
15
9
64
15
8
61
14
6
57
13
4
53
10
3
49
9
1
46
7
0
44
7
0
41
6
0
40
5
0
38
5
0
37
4
0
37
3
1
38
4
2
39
5
3
40
6
4
43
10
5
41
6
0
41
0
0
47
0
0
65
4
3
103
31
32
152
71
70
185
95
97
229
133
135
232
131
139
221
116
130
203
101
122
195
101
128
198
112
147
220
144
183
248
181
225
255
205
255
255
201
255
247
193
251
242
188
248
238
184
246
234
179
244
234
178
243
235
179
244
239
183
248
243
187
252
249
190
254
248
189
253
242
183
249
235
174
243
230
169
238
228
165
236
222
156
230
223
155
230
217
146
224
193
120
202
161
85
173
152
71
163
179
95
191
215
127
227
234
144
244
233
138
240
221
123
226
205
104
206
199
97
197
200
96
195
184
78
176
159
52
146
140
32
118
138
31
109
134
31
100
133
32
90
131
32
79
125
29
66
119
25
52
114
21
42
113
20
38
115
23
38
121
27
41
126
33
44
134
38
50
140
44
55
144
49
57
148
51
60
142
40
51
146
42
53
149
45
56
152
46
56
154
47
55
160
51
57
166
55
62
170
59
65
175
62
66
177
62
65
176
62
62
170
56
55
165
51
50
163
49
48
167
53
52
173
58
55
181
61
60
183
61
60
184
60
60
183
59
59
183
59
59
187
63
63
194
69
67
198
73
71
205
80
78
207
79
78
211
83
82
218
90
87
225
95
95
228
96
94
222
89
90
215
83
81
208
80
77
213
85
82
210
82
81
199
74
72
201
73
74
211
83
84
216
87
91
212
83
87
209
80
84
205
79
83
204
79
87
206
81
97
203
80
109
194
73
114
192
71
125
192
77
146
206
98
184
231
130
224
239
142
239
216
125
221
213
128
222
204
123
218
163
88
179
161
88
177
155
85
171
154
82
164
147
76
154
137
65
139
125
52
125
115
42
113
111
36
105
106
34
98
105
38
91
104
41
88
103
40
87
100
37
84
95
32
79
92
29
76
91
28
75
92
29
76
93
27
75
93
27
75
93
27
75
93
27
75
93
27
75
93
27
75
93
27
73
93
27
75
100
32
83
98
29
84
102
32
94
106
35
103
118
46
120
171
98
177
224
149
232
220
145
230
225
150
235
224
149
234
222
147
232
220
145
230
150
85
187
153
88
190
155
88
191
155
88
191
160
91
197
169
100
206
180
107
215
187
111
220
189
111
220
193
116
220
202
131
225
225
160
242
255
197
255
255
194
253
169
105
157
107
31
77
130
38
77
149
45
78
178
69
98
205
93
117
211
99
115
199
88
97
181
70
76
161
55
57
141
35
35
149
45
44
167
61
61
185
79
79
193
85
83
188
80
78
178
73
69
173
71
66
139
46
39
106
19
10
97
13
3
113
29
19
125
38
29
131
43
33
135
42
34
128
35
27
123
33
25
117
28
20
114
29
22
112
32
25
98
17
13
82
3
0
93
15
11
121
40
37
153
65
64
156
64
65
152
60
63
143
51
54
135
43
46
123
34
36
116
31
34
116
36
35
107
29
29
96
22
19
84
14
12
78
11
5
78
13
7
80
15
9
79
16
7
76
16
8
70
15
8
66
16
9
63
14
7
60
13
5
56
11
5
52
9
2
49
8
2
47
8
1
44
7
1
41
6
0
38
5
0
37
4
0
37
3
1
37
3
1
38
4
2
37
6
1
42
12
4
39
6
0
41
4
0
43
0
0
52
0
0
89
23
24
143
65
65
177
88
90
223
127
129
234
130
137
222
116
128
208
103
120
202
102
128
192
99
130
202
117
156
234
161
204
255
197
246
255
205
255
254
201
255
248
197
254
246
194
255
239
187
251
240
188
252
241
187
249
243
189
251
245
191
251
249
193
254
250
195
253
250
192
253
245
185
249
238
176
243
235
169
240
214
142
218
199
125
204
178
103
185
157
79
165
134
51
141
120
35
129
133
46
143
159
67
168
203
108
212
215
118
221
225
124
228
224
122
224
229
123
224
224
118
219
191
83
184
149
42
136
136
31
115
134
30
105
131
29
95
128
29
84
125
28
71
119
26
57
113
21
46
109
18
36
117
26
41
118
28
38
120
30
40
122
32
41
125
36
42
129
40
44
132
43
47
135
44
49
143
50
58
147
51
62
149
52
63
149
52
61
152
52
60
154
53
61
160
56
63
164
59
64
172
66
70
179
70
73
184
76
76
180
72
72
172
64
62
166
58
56
168
60
58
174
62
60
181
63
63
188
66
65
193
69
69
196
70
71
196
70
71
198
70
71
199
69
71
200
70
70
205
75
75
205
77
76
211
83
80
221
93
90
232
102
100
235
105
103
232
100
98
226
94
92
216
86
84
214
86
83
209
81
80
205
77
76
209
81
82
219
90
94
222
91
96
218
87
92
216
87
92
210
81
86
207
80
89
206
81
97
201
77
103
197
73
110
195
73
120
195
75
137
198
85
165
217
111
199
240
140
230
247
154
243
246
161
252
229
150
239
185
112
201
184
114
200
178
109
192
169
97
179
157
84
165
148
74
151
137
60
138
125
49
124
119
43
118
117
44
115
114
44
104
114
47
100
114
45
100
109
42
95
105
36
90
100
33
86
100
31
85
101
32
86
101
32
86
101
32
86
102
32
86
101
32
86
102
32
86
101
33
84
102
32
84
102
32
86
109
38
96
106
34
97
115
40
107
119
46
119
148
71
151
209
131
217
239
160
249
222
143
234
222
143
234
213
134
223
200
119
211
186
107
196
150
85
187
155
90
192
157
90
193
157
89
192
160
91
197
170
101
207
182
109
217
187
111
220
188
110
219
204
129
232
220
149
243
234
166
249
254
191
255
251
187
247
161
94
147
104
27
71
132
38
75
146
41
72
172
62
89
195
83
105
198
86
100
188
77
84
175
65
68
161
55
55
151
45
45
157
53
52
173
67
67
187
81
81
193
85
85
185
77
75
174
69
65
165
66
60
135
45
37
101
16
9
97
12
5
120
36
26
140
53
44
148
58
50
143
50
43
128
35
28
122
31
26
111
24
17
105
22
16
102
23
16
89
12
6
80
2
0
95
17
15
120
40
39
148
62
61
148
58
58
142
52
52
130
42
41
117
29
28
113
27
26
113
32
31
112
34
30
99
24
21
91
20
14
83
16
10
79
15
6
80
16
7
82
18
9
81
17
8
76
16
8
75
18
11
71
18
10
69
16
8
65
15
6
61
12
5
58
11
3
53
10
3
50
10
2
44
7
0
41
7
0
39
6
0
37
4
0
35
4
0
35
4
0
36
5
0
36
7
1
40
11
3
34
5
0
38
5
0
38
0
0
43
0
0
79
19
19
134
62
63
170
86
86
210
116
116
230
127
130
228
121
129
214
106
121
206
103
124
198
99
127
197
107
142
209
131
170
250
185
228
255
205
254
255
204
255
253
202
255
248
200
255
242
194
254
243
193
254
241
189
251
243
192
249
243
192
248
246
193
249
250
197
253
254
199
255
254
196
255
248
186
249
247
177
249
251
174
254
227
145
230
189
106
194
158
73
164
139
52
146
137
47
143
153
61
160
173
77
177
181
83
186
175
74
178
175
72
177
184
79
182
203
97
198
230
122
224
219
108
211
170
63
159
142
37
121
138
36
109
134
34
98
130
33
86
127
32
72
120
30
58
115
26
48
111
23
39
111
23
35
112
25
34
114
28
37
116
31
38
117
35
39
117
37
38
118
38
39
118
38
39
124
41
49
124
41
51
126
40
49
124
38
47
123
36
44
125
35
44
127
38
44
131
40
45
137
45
48
149
55
56
161
67
67
167
73
73
168
73
71
166
71
69
169
71
68
173
71
69
183
71
69
193
73
74
201
78
80
205
81
83
208
79
83
207
77
79
207
74
77
207
74
77
208
75
76
206
76
76
210
82
79
220
92
89
231
103
100
235
107
104
231
102
97
225
96
91
219
91
88
214
86
83
209
81
78
208
80
79
214
86
87
220
91
95
224
93
99
222
91
97
219
89
97
210
80
88
205
78
87
202
76
90
195
69
93
192
69
100
198
73
115
196
73
128
199
79
151
202
89
169
226
121
203
250
155
237
255
172
255
252
175
255
219
147
229
224
155
236
215
143
225
191
119
201
171
96
179
165
88
170
156
79
161
141
63
147
132
54
138
133
56
134
124
52
118
123
53
113
123
51
114
118
48
108
113
42
102
108
38
98
108
37
95
108
37
95
112
41
99
112
41
99
114
41
97
112
41
97
114
41
97
112
42
96
114
41
96
114
40
99
113
39
102
115
40
109
124
46
121
132
55
133
180
100
185
223
142
234
206
125
218
180
99
192
157
76
169
153
72
164
149
65
159
141
60
152
150
85
187
155
90
192
159
91
194
156
88
191
160
91
197
171
102
208
182
110
218
185
112
220
190
114
222
218
143
246
238
167
255
242
174
255
255
190
255
253
188
246
162
92
144
106
28
70
132
36
73
144
39
69
168
58
83
188
77
96
192
77
92
181
70
77
172
62
65
164
56
56
159
53
53
164
60
59
177
71
71
190
84
84
193
85
85
181
75
75
169
65
62
160
63
57
130
41
35
94
9
2
94
9
2
136
49
42
176
87
81
192
102
94
183
90
85
160
67
62
126
35
30
109
24
19
99
19
12
94
17
11
82
7
2
76
1
0
92
17
14
119
39
38
143
59
57
138
52
51
133
47
46
120
34
33
106
20
19
109
25
23
115
36
32
113
35
31
94
21
15
88
19
12
84
17
9
82
18
9
82
18
9
83
19
10
81
17
8
78
15
6
78
19
11
76
19
12
73
18
11
69
16
8
65
15
8
61
12
5
59
12
6
55
12
5
47
6
0
44
7
0
40
5
0
37
4
0
35
4
0
34
5
0
35
6
0
35
6
0
37
10
1
32
3
0
35
4
0
35
0
0
36
0
0
71
17
15
130
62
61
164
84
83
197
103
103
226
123
124
236
127
132
221
111
122
210
103
121
208
106
130
202
106
134
190
104
139
241
173
214
255
201
247
255
205
254
254
204
255
249
202
255
241
196
253
244
196
254
239
190
246
241
192
247
241
191
244
242
192
245
248
198
251
255
204
255
255
202
255
255
193
255
253
183
255
255
173
255
237
148
240
203
112
207
173
82
177
161
67
164
160
66
163
165
69
167
168
70
169
182
81
183
158
56
158
152
47
148
152
47
148
170
64
165
221
113
215
238
130
232
198
91
187
145
41
126
140
40
113
135
36
101
129
35
87
126
34
75
122
32
60
117
28
48
114
26
40
103
15
27
104
18
27
105
22
30
105
26
31
103
27
29
98
27
25
94
24
22
91
23
22
85
19
23
85
18
27
84
17
24
83
13
21
79
10
15
78
9
14
80
9
13
82
12
14
85
13
14
99
25
24
119
44
41
139
61
59
151
72
68
156
77
73
159
78
74
165
77
73
184
82
80
193
83
82
200
86
86
204
85
87
209
83
87
211
80
85
213
80
85
214
81
84
213
80
83
209
79
79
211
83
82
217
92
88
226
101
97
228
103
99
222
97
93
215
90
84
217
92
88
212
87
83
209
81
78
210
82
81
215
87
88
219
90
94
222
92
100
224
94
102
221
91
99
209
82
91
206
79
88
202
76
88
193
67
88
192
68
96
198
74
108
196
73
119
205
83
144
194
77
147
202
92
163
220
120
192
234
144
218
255
175
251
250
173
251
255
190
255
243
170
251
209
136
217
181
106
189
177
99
185
172
93
182
156
77
168
143
64
155
142
64
150
132
56
131
130
57
126
131
56
125
126
51
120
121
46
113
117
42
109
115
40
107
115
40
105
122
47
112
123
47
112
123
47
112
123
47
111
123
47
111
123
47
109
123
47
111
123
47
112
129
52
122
136
58
133
142
63
142
154
75
158
214
134
223
236
155
248
178
97
192
148
67
162
145
61
155
143
59
153
141
58
150
140
57
149
152
87
189
155
90
192
159
91
194
161
93
196
166
97
203
173
104
210
181
109
217
186
113
221
209
133
241
232
157
255
247
176
255
240
173
253
255
190
255
250
182
241
153
80
133
119
36
80
135
38
73
148
41
69
168
58
83
185
74
91
184
69
82
170
59
65
165
55
56
161
53
51
160
55
52
162
57
54
177
69
69
188
80
80
186
80
80
180
74
74
169
65
62
154
57
51
122
33
29
95
12
6
103
18
13
136
48
44
162
73
69
186
95
90
191
97
95
168
77
74
147
58
54
131
46
41
108
31
25
88
15
9
73
2
0
73
2
0
93
17
17
113
35
33
129
50
46
128
47
44
120
37
33
110
27
23
111
28
24
115
34
30
111
32
27
98
23
17
87
14
7
82
14
5
80
13
4
82
15
6
85
21
11
88
24
14
90
23
15
87
23
14
86
23
16
85
25
17
84
25
17
81
24
15
80
25
18
76
26
17
67
18
11
54
10
1
53
10
3
48
10
1
45
8
0
39
6
0
35
5
0
33
4
0
32
3
0
31
4
0
32
5
0
32
5
0
31
2
0
33
0
0
39
0
0
58
8
7
108
44
42
163
85
83
187
96
93
222
120
118
237
128
131
227
116
123
213
105
118
207
101
121
203
101
125
198
107
138
213
138
179
252
189
234
255
210
255
254
204
253
255
208
255
246
202
255
234
190
243
244
197
251
242
194
246
243
195
247
247
199
251
246
195
251
243
189
247
251
192
255
245
184
251
229
157
233
208
119
211
211
115
215
207
109
208
196
98
197
180
82
181
166
69
166
159
59
157
156
56
154
171
70
166
152
51
147
134
30
129
155
51
150
165
61
160
167
61
161
203
97
198
225
119
217
173
73
159
153
55
130
131
34
101
123
30
83
124
33
76
120
31
61
113
24
46
113
25
41
109
23
36
104
21
29
98
19
25
91
16
21
85
17
18
77
13
13
67
7
6
58
4
2
48
0
2
46
0
5
45
0
2
43
0
1
42
0
0
41
0
0
41
0
0
41
0
0
61
13
9
63
14
9
68
15
9
85
30
25
111
54
47
122
63
57
128
68
60
145
76
69
159
74
71
181
86
84
199
97
95
202
94
94
203
87
90
207
84
87
212
83
88
212
81
86
216
85
90
221
91
93
217
89
90
220
95
93
224
100
98
224
102
97
222
100
95
210
88
83
215
92
87
213
90
85
212
87
83
212
87
85
215
89
90
221
95
98
227
100
107
231
104
113
229
102
111
218
93
101
205
80
88
194
70
80
190
68
83
191
68
89
193
69
97
192
68
105
194
70
120
194
75
133
197
81
142
197
89
151
195
96
161
209
118
187
245
159
232
255
196
255
252
176
251
221
147
226
193
118
201
183
107
195
184
105
197
182
102
197
170
88
188
154
73
168
141
61
146
139
62
142
141
62
141
134
55
134
122
43
122
121
42
121
131
52
131
137
59
135
137
59
135
141
60
137
142
61
138
143
62
138
142
61
137
141
61
134
139
58
134
138
57
133
142
64
140
138
59
138
164
85
168
222
142
229
255
174
255
224
143
238
174
93
188
151
70
165
139
58
151
136
55
147
133
53
142
131
51
140
155
90
192
159
92
195
161
93
196
162
94
197
165
96
202
175
106
212
189
117
225
198
127
233
220
147
254
231
159
255
234
165
255
234
167
247
255
190
255
245
176
233
152
75
127
123
36
79
140
40
74
151
44
70
170
61
84
185
74
91
182
71
80
173
62
68
168
60
60
166
58
56
153
48
45
162
57
54
182
74
74
192
84
84
183
77
77
171
67
66
159
57
53
146
48
45
124
36
32
100
17
13
108
23
20
138
50
46
161
72
68
179
88
85
179
88
85
157
66
63
140
52
48
130
47
43
113
35
31
92
21
15
75
6
1
72
2
0
89
15
14
108
32
32
119
41
39
115
36
32
106
27
23
102
23
18
110
29
25
117
38
33
112
35
29
100
25
19
87
14
7
84
14
6
83
15
6
85
18
9
90
23
14
93
26
17
94
27
19
93
26
18
89
24
18
90
25
19
88
25
18
85
25
17
84
25
19
80
25
18
70
17
11
57
8
1
57
10
4
52
9
2
46
7
0
41
7
0
36
6
0
34
5
0
33
6
0
33
6
0
33
6
0
33
5
1
31
1
0
31
0
0
34
0
0
50
5
2
95
36
32
147
73
70
181
92
88
217
115
113
236
128
128
231
121
124
219
109
118
208
100
115
203
97
117
200
104
131
208
123
164
238
166
212
255
195
240
255
200
247
251
201
250
246
200
249
238
194
243
238
194
243
244
198
247
242
194
244
239
190
245
236
185
242
228
169
235
203
142
212
178
112
186
172
94
178
177
83
180
189
86
191
195
93
195
191
89
189
179
77
176
165
64
160
155
54
148
151
50
144
168
67
159
154
53
145
135
31
126
141
37
132
154
50
147
158
54
153
186
82
181
222
118
215
191
93
180
158
64
142
138
43
111
128
35
92
128
37
81
125
36
68
115
25
50
110
23
40
104
17
33
98
16
28
92
15
23
85
16
21
77
15
18
68
12
13
57
8
4
46
5
3
36
2
3
32
1
6
31
2
4
28
2
3
27
1
0
26
0
0
25
0
0
27
0
0
35
8
1
46
16
8
54
20
11
62
23
16
77
37
29
98
53
47
114
67
59
128
73
66
132
63
58
153
74
70
172
87
84
186
92
92
197
93
94
206
93
97
209
90
94
208
85
90
212
87
91
213
87
90
212
88
90
213
89
89
213
91
90
214
92
89
214
95
91
209
90
86
213
91
88
213
90
85
211
88
83
211
88
83
215
89
90
221
95
98
227
100
107
230
105
113
232
107
115
222
98
106
210
86
94
200
76
86
193
71
82
193
70
88
194
71
92
195
70
100
201
76
116
197
75
122
194
73
124
189
75
127
189
80
138
203
102
162
236
141
207
255
176
244
255
182
254
246
168
243
231
157
236
224
149
234
213
134
226
194
114
211
174
92
194
158
73
174
144
60
154
141
61
150
145
62
152
140
57
145
131
48
138
133
50
138
144
61
149
150
67
155
149
65
151
151
67
153
151
67
153
148
64
149
148
64
149
150
66
151
151
66
151
147
64
146
142
63
144
180
101
184
222
142
229
248
167
255
245
164
255
212
131
226
173
92
187
153
72
167
137
56
148
133
54
143
131
51
136
128
51
133
161
94
197
158
91
194
159
91
194
165
97
200
177
108
214
192
123
229
207
135
243
216
145
251
222
149
255
222
150
250
218
149
238
231
162
242
255
192
255
235
161
220
147
67
120
126
37
81
141
40
74
153
45
71
170
61
82
182
71
87
180
69
76
174
64
67
171
63
61
166
61
57
156
51
48
172
67
64
197
89
89
204
96
96
189
83
83
172
68
67
159
57
53
144
49
45
122
34
32
102
18
16
111
25
24
139
51
49
159
69
68
171
81
80
167
77
76
146
56
55
125
37
35
119
38
35
110
35
30
92
21
17
72
4
1
68
0
0
87
15
16
108
34
35
119
44
41
108
30
26
96
18
14
98
20
16
111
32
27
117
40
34
109
32
24
96
22
13
87
14
5
85
15
5
86
18
9
90
22
13
96
27
20
99
30
23
101
32
27
101
32
27
97
28
21
98
29
22
96
29
21
92
28
19
90
27
20
87
27
19
76
19
12
63
10
2
59
10
3
54
10
1
49
9
1
44
7
0
40
7
0
36
8
0
35
8
0
35
8
0
35
6
2
35
5
3
32
2
0
32
1
0
33
0
0
43
0
0
79
24
19
128
57
53
172
84
80
205
106
101
232
124
122
238
126
125
224
113
119
208
98
107
203
93
106
202
98
121
200
103
144
211
125
172
236
160
206
255
189
235
255
202
247
255
208
254
252
211
255
249
210
255
247
205
253
253
206
255
249
198
255
244
188
253
234
170
244
202
131
211
170
94
182
168
83
177
168
70
173
172
67
172
173
68
171
177
72
173
180
76
173
175
71
166
164
61
153
154
51
142
164
64
152
158
58
146
141
41
131
129
29
119
139
38
130
146
45
139
166
65
161
215
116
209
208
112
201
164
71
152
142
49
120
130
39
100
126
37
83
125
38
73
114
25
53
106
19
38
97
13
29
94
14
27
88
15
26
80
15
23
71
15
18
59
11
11
46
6
4
35
4
2
23
1
3
20
1
3
18
2
3
16
2
2
15
1
0
13
2
0
12
1
0
12
1
0
14
1
0
27
10
2
40
20
11
45
20
13
52
23
15
75
42
33
102
68
59
119
79
71
109
56
50
116
55
50
129
60
55
152
74
72
182
94
93
202
106
108
206
101
105
201
90
96
210
93
99
207
88
92
211
91
93
213
90
92
205
85
86
206
86
85
209
89
88
209
89
88
211
91
90
212
90
87
211
89
84
211
89
84
215
91
91
220
96
98
225
100
104
229
104
110
235
110
118
229
105
113
219
96
101
206
85
92
198
77
86
195
73
86
198
73
91
198
75
96
199
76
107
197
76
111
197
75
114
195
74
117
195
74
125
199
85
137
213
105
163
224
126
187
240
151
215
250
169
236
255
186
255
255
181
255
232
153
242
211
130
225
191
106
207
169
82
186
160
73
177
156
71
172
156
70
171
150
64
163
141
55
156
142
56
155
152
66
163
156
70
167
160
73
168
159
72
167
159
72
166
160
73
167
161
74
168
160
74
165
163
74
166
161
77
165
163
83
168
216
138
222
246
167
255
223
144
236
190
110
205
169
89
184
153
73
168
140
61
152
133
55
141
128
53
135
127
50
128
123
49
124
170
103
206
161
94
197
160
92
195
175
107
210
196
127
233
210
141
247
216
144
252
214
143
249
205
132
237
207
135
235
206
137
226
232
163
243
255
187
254
210
135
194
137
54
106
130
39
82
139
38
70
154
46
70
173
62
81
180
70
83
177
66
73
173
65
65
171
63
61
163
58
54
165
60
57
183
78
75
209
101
101
214
106
106
198
92
92
182
78
77
169
67
63
153
58
54
113
25
23
99
13
12
113
25
24
140
52
51
158
68
68
167
77
76
162
72
71
143
55
53
114
28
27
114
33
30
106
31
28
87
18
13
69
4
0
72
7
5
99
29
31
124
52
53
135
61
60
113
38
35
97
19
17
100
22
18
111
34
28
112
35
29
99
25
16
87
13
4
88
15
6
88
18
8
92
22
14
96
28
19
101
32
25
106
35
29
108
37
33
111
37
34
107
34
28
108
35
29
105
34
28
103
34
27
101
34
28
97
32
26
84
23
18
71
14
7
65
12
6
59
12
4
54
11
4
47
10
1
42
9
0
39
9
0
37
9
0
36
9
0
36
7
3
35
5
3
33
3
1
33
3
1
34
0
0
38
0
0
69
16
10
113
44
37
160
75
70
192
93
88
224
116
113
238
126
124
225
115
116
207
97
100
202
88
96
205
94
113
196
90
128
187
89
136
203
116
161
239
164
207
255
200
243
255
214
255
255
218
255
255
220
255
255
213
255
255
209
255
236
181
246
208
144
218
192
120
202
183
104
195
175
89
186
173
81
182
171
68
173
164
57
161
155
48
152
155
49
149
161
57
152
165
62
153
160
57
146
152
52
138
158
58
144
158
58
144
157
57
143
135
37
124
131
32
122
136
37
128
152
53
146
204
107
200
215
119
209
165
71
157
142
50
125
130
40
102
120
32
82
121
33
71
110
24
53
102
17
40
100
17
35
96
18
32
90
18
32
80
19
27
67
16
21
52
10
12
39
5
4
26
2
0
15
0
0
11
1
2
9
0
1
7
1
1
6
0
0
6
1
0
4
1
0
5
0
0
9
2
0
11
2
0
27
12
5
38
19
12
38
15
7
52
25
16
81
52
44
105
70
64
106
65
59
98
51
45
94
39
36
111
50
47
149
78
76
186
106
107
206
116
118
211
115
117
204
99
103
200
90
93
206
91
94
207
91
94
205
86
88
206
87
89
206
87
89
207
87
88
211
91
92
210
90
89
211
89
86
212
90
87
215
91
89
220
96
96
224
99
103
226
103
108
234
110
118
231
108
113
222
101
106
212
91
96
201
80
87
198
74
84
198
74
85
200
75
93
192
70
93
195
72
100
201
76
108
204
78
115
204
77
118
199
78
123
197
81
130
193
86
138
198
101
155
222
134
194
255
177
243
255
191
255
246
167
248
221
141
230
205
119
216
186
100
201
172
85
190
166
81
185
164
79
183
160
75
179
154
69
172
158
73
176
169
83
184
173
87
186
176
90
189
168
82
179
167
81
178
174
89
183
178
91
186
177
90
184
183
96
190
192
107
200
214
134
221
238
160
246
228
149
240
180
100
195
149
69
164
147
67
162
143
64
156
132
56
144
127
52
134
124
50
125
120
47
118
119
47
113
173
106
209
166
99
202
170
102
205
189
118
222
204
135
241
207
138
244
200
131
238
195
124
230
191
118
223
200
128
227
205
136
225
232
163
243
238
167
235
171
96
155
124
40
92
134
41
85
144
41
71
161
53
76
181
70
89
186
74
88
181
70
77
178
70
70
172
64
62
159
54
50
163
58
55
178
73
70
200
92
92
205
97
97
193
87
87
182
78
77
168
69
64
152
57
53
107
19
18
98
12
13
114
25
27
140
52
51
155
67
66
162
74
73
156
68
67
140
52
51
124
38
37
121
40
37
108
33
30
86
16
14
71
6
4
81
17
15
115
47
48
143
73
73
149
75
74
121
47
44
101
26
23
104
29
24
114
37
31
108
31
25
92
17
11
85
10
4
89
16
9
91
21
13
96
26
18
102
32
24
107
36
30
112
38
35
115
41
40
117
42
39
117
39
35
120
43
37
119
44
39
118
45
39
116
45
39
110
43
35
97
32
26
82
22
14
70
15
8
65
17
7
58
14
5
51
13
2
45
11
1
40
10
0
38
10
0
37
10
1
35
5
3
35
5
5
33
5
4
35
5
3
35
4
1
38
0
0
64
14
7
104
37
29
150
65
60
176
79
73
208
103
99
227
118
115
222
110
108
206
94
93
203
87
90
206
88
104
201
83
118
187
76
119
186
85
129
212
125
168
251
178
221
255
209
253
255
212
255
253
206
255
250
200
255
240
185
252
214
152
227
178
106
188
158
75
167
164
74
172
172
77
181
166
67
173
155
50
153
154
48
148
148
44
143
141
37
132
135
32
124
133
30
119
135
35
121
139
40
123
147
48
131
148
50
133
168
70
153
154
56
141
131
32
122
127
31
121
143
47
137
185
88
181
214
117
212
167
71
161
142
49
129
132
41
108
121
32
86
117
30
72
111
26
57
105
23
46
105
26
45
101
27
42
94
26
41
80
23
32
64
17
23
46
10
12
33
5
4
22
2
3
9
0
0
7
0
1
7
0
1
5
0
0
5
0
0
3
0
0
3
0
0
4
0
0
11
4
0
11
1
0
22
7
0
30
11
4
28
5
0
37
10
3
57
28
22
71
40
35
93
58
54
92
53
48
90
46
43
96
47
43
114
59
56
145
84
83
185
113
114
214
134
135
199
110
112
198
102
104
197
92
96
198
89
94
203
90
94
205
90
93
206
90
93
207
88
90
210
92
92
211
91
90
212
90
87
213
91
88
216
92
90
220
96
96
223
100
103
225
102
105
230
107
112
227
106
111
222
101
106
213
93
95
205
82
87
199
76
81
198
73
81
199
73
85
192
69
87
193
70
91
197
71
95
201
72
102
205
75
109
205
79
116
203
81
120
197
82
125
187
81
127
196
98
149
230
139
198
255
170
235
245
163
235
228
147
226
218
136
221
205
124
217
184
102
202
177
95
197
173
91
193
169
87
189
165
83
183
170
88
186
181
97
195
183
99
195
187
103
199
187
103
197
189
106
198
195
112
202
202
119
209
210
127
217
219
134
225
224
141
231
242
162
251
228
149
238
192
113
205
155
75
170
144
67
161
145
69
160
137
61
151
125
50
133
122
48
125
118
47
117
115
45
107
113
43
103
162
95
198
164
97
200
178
107
211
195
124
228
199
130
236
192
123
229
185
116
223
184
115
221
189
118
222
205
133
232
211
142
231
232
163
243
215
144
212
138
60
118
118
31
84
136
41
85
152
49
79
174
65
88
195
84
101
199
87
99
191
80
86
186
78
78
175
67
65
156
51
47
148
43
40
161
56
53
179
71
71
184
76
76
177
71
71
172
68
67
159
60
55
139
46
41
109
19
19
102
16
17
117
28
30
140
51
53
153
65
64
156
68
67
149
61
60
136
48
47
135
49
48
127
46
45
107
31
31
82
12
10
68
4
2
81
20
17
115
49
50
140
72
73
142
70
71
117
43
42
103
28
25
112
37
34
120
42
38
107
30
24
91
16
10
89
14
8
91
18
11
96
23
16
100
30
22
106
35
29
112
38
35
115
41
38
118
42
42
122
44
42
125
46
42
130
51
46
135
56
52
137
59
55
134
61
55
127
56
50
111
44
38
94
31
24
78
21
14
70
20
11
64
17
9
55
15
5
49
12
3
41
11
0
38
10
0
36
9
0
35
5
3
33
4
6
32
4
3
34
6
3
35
6
2
38
1
0
62
12
5
97
32
26
140
57
51
162
65
59
191
86
80
212
103
98
212
100
96
206
90
90
206
86
87
207
85
96
202
79
108
199
80
120
188
79
120
191
94
137
227
144
188
255
192
239
255
198
250
235
180
238
216
157
225
201
137
213
192
118
203
178
97
190
163
73
173
161
66
170
164
65
173
159
58
164
147
42
143
148
44
141
147
43
138
142
39
131
134
31
120
127
27
113
125
26
108
125
26
108
134
37
118
138
41
122
169
71
154
174
76
161
139
43
130
124
28
117
138
42
132
161
64
157
212
115
210
171
74
167
141
48
129
136
45
114
127
40
95
116
33
75
114
33
65
110
30
55
110
33
53
105
32
49
94
30
44
79
23
34
58
15
22
40
8
11
29
3
6
20
1
3
9
0
1
7
0
3
5
0
1
5
0
1
5
0
0
5
0
0
5
0
0
5
0
0
11
2
0
16
5
0
22
7
0
23
4
0
26
3
0
38
13
8
51
22
16
53
24
18
57
23
21
75
41
39
96
58
57
99
59
57
93
49
46
101
52
48
135
77
75
168
103
101
204
128
128
212
128
128
199
104
108
195
94
98
206
100
104
208
98
101
211
96
101
208
92
95
210
91
93
211
91
92
213
91
90
214
92
89
217
93
91
220
96
96
222
99
101
224
101
104
222
101
106
221
100
105
218
98
100
213
93
95
208
85
88
203
78
82
200
73
80
199
72
83
198
72
86
197
72
90
198
71
92
198
70
93
203
75
100
209
80
110
208
83
115
203
82
117
196
81
120
193
83
128
198
98
150
204
111
168
207
121
186
230
148
220
243
165
241
228
153
236
199
123
213
190
113
207
184
107
201
179
103
194
176
100
191
181
105
195
189
113
203
191
112
203
210
131
220
226
147
236
238
160
246
240
162
246
247
169
253
255
179
255
254
176
255
244
166
250
225
146
235
198
119
210
163
84
176
145
65
160
143
66
160
137
61
152
124
48
136
117
42
124
117
45
118
114
44
107
111
42
97
109
41
92
157
90
193
162
95
198
178
107
211
192
121
225
192
123
229
183
114
220
181
112
219
186
117
223
192
121
225
209
139
237
219
150
239
237
168
248
206
134
200
123
45
103
120
31
85
135
38
81
157
52
83
183
74
97
207
96
113
209
97
109
199
88
94
191
83
81
174
66
63
149
44
38
139
34
30
153
48
45
172
64
64
177
69
69
171
65
65
166
64
62
155
55
53
134
40
38
110
20
22
105
19
22
120
31
33
140
51
53
148
62
61
150
64
63
143
57
56
134
48
47
136
50
51
126
45
44
103
27
27
78
8
6
69
5
3
82
21
20
108
42
44
125
57
58
123
51
52
102
31
29
100
26
23
119
44
41
125
47
43
105
27
23
89
14
8
91
16
10
92
19
12
98
25
18
105
32
26
111
38
32
115
40
37
117
42
39
121
43
43
123
45
43
131
50
47
139
58
54
147
66
62
152
73
68
150
75
70
143
70
64
123
54
49
105
40
34
84
25
19
77
24
16
68
21
13
57
17
7
50
13
4
43
11
0
38
8
0
36
7
0
35
7
6
32
3
5
30
2
1
33
5
2
34
5
1
35
0
0
57
8
1
92
27
21
135
52
46
149
54
48
174
71
64
195
86
79
202
89
83
206
88
86
212
88
88
209
84
92
202
78
102
201
80
113
195
81
117
185
80
121
196
103
150
229
146
200
237
163
224
213
143
213
205
132
211
192
113
202
186
100
197
188
97
200
180
84
191
164
67
174
154
56
165
154
55
161
144
43
139
140
39
131
136
36
126
134
34
122
135
35
121
135
36
119
132
33
115
129
32
111
130
33
112
135
38
119
164
66
149
187
89
174
159
63
150
131
35
122
139
43
132
144
48
138
212
112
210
175
78
171
135
42
123
136
47
115
134
49
104
118
37
78
117
38
70
109
33
59
107
34
54
101
32
50
90
28
43
72
18
31
51
10
18
34
3
8
25
0
4
17
1
2
9
0
2
8
0
4
8
0
2
8
0
2
8
0
0
8
0
0
9
1
0
10
1
0
11
0
0
19
6
0
21
4
0
22
1
0
31
8
2
43
18
13
53
24
18
57
28
24
51
17
16
62
28
27
78
44
43
87
53
51
84
49
47
80
40
38
87
42
39
101
47
45
176
112
112
207
133
134
192
107
110
193
101
104
214
113
117
214
108
112
218
107
113
215
100
105
210
91
95
211
91
93
213
91
90
214
92
89
217
93
91
220
96
96
222
98
100
223
100
103
217
96
101
216
95
100
214
94
96
212
92
93
211
88
90
208
83
87
205
76
81
201
71
81
202
71
85
202
73
91
200
73
90
199
72
91
202
75
96
206
80
102
206
80
104
201
77
105
202
78
112
197
78
116
191
79
125
175
72
125
174
83
142
218
136
200
254
182
248
252
182
254
222
151
227
211
143
220
206
138
215
206
138
215
208
140
217
218
150
227
228
160
237
232
161
239
244
173
251
253
182
255
255
187
255
255
185
255
254
183
255
252
181
255
244
173
249
235
162
243
210
135
220
196
117
208
172
93
185
157
77
172
146
70
161
131
55
145
119
44
129
119
45
122
114
43
111
111
41
101
107
39
90
106
39
83
168
101
204
168
100
203
177
106
212
189
118
224
189
120
227
182
113
220
180
111
218
188
116
224
190
119
223
209
139
237
225
155
244
246
175
255
209
136
205
125
45
104
126
38
89
132
35
78
157
52
82
186
77
98
212
100
116
213
102
111
202
92
95
191
83
81
169
64
60
141
36
30
140
35
31
157
52
48
177
72
69
182
76
76
175
71
70
171
68
69
159
59
59
140
44
45
108
18
20
107
18
20
119
30
32
139
51
50
150
62
61
151
62
64
146
57
59
137
51
54
135
49
52
124
42
44
103
27
29
80
12
13
75
11
12
87
25
26
106
42
43
117
49
50
107
35
36
93
19
18
99
25
24
124
49
46
128
50
46
103
25
21
88
11
5
90
15
9
93
20
13
99
26
19
107
34
28
113
38
33
118
40
36
119
41
37
122
43
39
125
44
41
136
53
49
145
62
56
156
73
67
160
81
74
161
84
78
152
77
71
131
60
54
113
46
40
88
28
20
80
25
18
71
22
15
60
17
8
50
13
4
42
9
0
36
8
0
34
7
0
35
7
6
31
2
4
26
0
1
29
3
2
32
4
0
33
0
0
53
6
0
85
25
17
129
50
45
140
49
44
163
61
56
183
76
68
195
82
76
205
87
83
213
89
87
209
83
87
205
80
98
195
72
100
196
78
110
186
74
112
170
67
112
189
95
148
206
117
181
188
105
177
191
106
189
188
99
191
186
91
191
191
94
199
190
93
200
164
67
174
140
43
150
137
40
143
130
33
126
129
31
118
124
26
111
118
20
103
116
18
101
122
25
106
131
37
115
140
46
122
130
36
112
137
43
121
158
63
144
193
98
182
177
81
168
140
46
134
143
47
136
138
41
134
209
112
207
176
79
172
128
34
118
133
43
115
138
53
112
119
37
83
115
38
74
104
29
59
100
31
52
94
30
47
82
24
38
65
15
26
46
5
13
31
0
4
23
0
1
18
0
0
13
0
1
10
0
1
11
0
1
11
0
1
11
0
0
12
0
0
12
1
0
14
0
0
17
2
0
19
1
0
16
0
0
20
0
0
32
8
4
36
11
6
43
15
11
59
29
27
84
52
53
63
31
34
49
17
18
60
29
27
78
47
45
84
49
47
74
34
32
65
20
15
122
71
68
175
114
113
169
97
98
183
101
103
215
123
126
217
116
120
225
118
124
222
111
117
208
91
97
210
91
93
212
92
93
213
93
92
217
95
92
219
97
96
221
99
98
222
99
101
217
94
97
215
92
95
214
91
94
214
91
93
215
91
93
213
87
90
208
79
84
203
73
81
200
70
82
200
72
85
197
71
83
194
68
82
198
72
86
206
79
96
210
83
102
208
80
103
206
77
105
198
73
105
203
83
121
197
86
129
182
82
132
205
116
170
249
172
228
255
198
255
255
194
255
247
185
250
242
180
245
240
180
244
243
183
247
254
193
255
255
203
255
255
203
255
254
188
255
237
169
246
223
152
230
214
143
223
203
130
212
191
118
200
190
117
199
200
126
211
209
130
222
208
128
223
196
116
211
176
97
189
155
76
167
131
56
141
117
43
122
117
44
117
112
42
104
109
40
94
106
39
83
104
37
78
170
101
207
176
107
213
185
113
221
187
115
225
185
113
225
185
113
225
188
116
228
193
119
230
200
127
234
213
141
241
235
162
254
246
175
255
180
107
176
115
35
94
127
39
89
135
38
79
157
50
78
189
78
95
211
99
111
205
91
99
187
77
78
180
72
70
163
58
54
137
34
29
126
23
18
157
54
49
184
81
76
188
84
81
182
78
79
178
75
78
169
68
74
156
59
66
110
18
19
106
16
15
132
42
41
151
61
60
151
61
63
151
60
65
146
55
64
139
49
58
132
45
53
122
41
47
107
32
37
83
14
19
69
4
10
82
17
21
98
33
37
102
33
36
101
29
32
95
19
21
115
39
39
129
51
49
116
37
33
99
20
16
91
13
9
93
18
13
105
32
25
107
34
27
111
36
30
114
37
31
115
36
29
121
38
32
128
43
36
136
49
42
140
53
46
151
66
59
161
78
70
160
80
71
153
74
67
137
63
54
115
42
35
94
26
17
83
19
10
74
15
7
63
10
2
53
8
2
46
9
1
38
8
0
31
6
0
27
4
0
22
0
0
27
0
0
24
0
0
25
0
0
29
1
0
33
0
0
47
4
0
68
13
8
106
35
31
126
43
37
142
47
41
155
50
44
178
66
62
204
86
84
212
90
87
204
80
82
199
75
86
196
75
94
189
69
94
177
59
91
166
54
94
163
55
104
161
57
116
159
58
126
157
59
136
164
66
153
186
87
180
185
87
186
190
94
194
180
85
187
136
41
145
124
30
127
123
29
117
122
29
110
114
21
101
106
14
91
103
11
88
102
10
85
108
16
89
121
29
102
139
47
120
150
58
133
161
68
148
169
75
159
199
105
191
158
66
153
135
40
132
143
48
140
203
108
202
180
85
175
138
44
128
135
45
119
128
42
107
119
39
92
113
36
80
100
29
63
94
28
55
81
20
38
61
7
20
50
3
11
43
4
7
38
4
5
29
0
0
19
0
0
18
0
0
14
0
0
16
0
0
16
0
0
16
0
0
17
0
0
18
0
0
20
1
0
19
0
0
19
0
0
21
0
0
23
2
0
27
6
3
32
8
4
36
12
8
39
13
12
66
35
40
77
44
51
74
42
47
55
20
24
45
11
10
63
28
26
73
35
32
63
24
17
79
38
32
123
76
70
134
76
72
134
66
63
177
95
97
216
124
127
223
122
128
224
115
121
220
107
113
213
98
101
209
93
94
212
96
96
216
98
96
214
96
94
213
93
92
217
94
96
229
106
108
220
95
99
209
84
88
208
83
87
212
87
91
213
88
92
207
81
84
198
73
77
198
75
78
196
75
80
197
74
79
198
73
81
200
73
84
203
75
88
205
77
90
207
79
94
210
78
99
217
87
111
224
97
127
221
101
136
208
98
137
196
95
137
215
124
168
249
170
217
255
196
250
255
203
255
255
203
255
255
209
255
255
218
255
250
201
255
231
179
241
233
178
246
225
163
238
211
142
225
194
120
209
189
109
204
185
103
203
177
95
195
170
88
188
168
86
188
160
77
181
166
83
187
165
83
181
151
72
163
135
57
141
122
48
125
117
44
115
114
44
107
111
42
97
108
40
87
105
39
77
104
39
73
175
106
213
179
110
217
186
114
226
188
115
230
188
115
232
187
114
229
191
117
230
193
119
230
205
129
237
216
142
241
240
167
255
240
167
248
167
95
161
110
33
89
125
37
85
136
40
77
162
55
81
193
82
98
214
102
114
207
94
100
187
77
78
179
71
69
161
56
52
134
32
27
123
21
16
154
52
47
182
79
74
185
81
78
179
76
79
175
74
80
169
69
79
159
62
71
115
20
26
111
19
20
134
44
44
150
60
60
150
59
64
150
59
66
144
51
62
138
46
59
129
42
51
119
38
47
103
27
37
80
10
18
68
1
10
79
14
22
94
29
33
96
30
32
102
30
33
97
21
23
120
41
44
131
51
50
117
36
35
102
21
18
95
16
12
98
20
16
108
33
27
109
36
29
111
36
30
113
36
28
116
36
29
123
39
29
133
44
36
140
50
41
146
57
49
153
66
57
156
72
62
153
71
60
144
64
53
133
55
45
117
40
30
102
28
19
90
20
12
80
16
7
68
9
3
57
7
0
49
6
0
41
8
0
36
9
0
33
8
3
26
0
0
28
0
1
25
0
0
25
0
0
30
2
1
32
1
0
45
4
0
65
14
10
100
35
29
123
44
39
138
48
40
149
47
42
170
58
54
193
78
75
205
86
82
203
80
82
197
76
85
197
76
91
190
71
90
179
61
87
172
54
89
169
53
98
166
55
108
162
53
118
151
45
119
151
48
129
161
61
149
165
69
159
186
91
185
191
97
194
149
57
156
116
25
120
123
31
116
119
28
107
112
21
98
110
20
94
113
23
97
111
21
93
110
20
90
116
26
96
131
41
113
153
63
137
169
78
157
173
81
164
200
108
193
166
73
162
139
46
137
138
44
138
192
97
189
174
79
169
127
35
120
132
44
122
139
54
122
125
44
103
110
34
83
95
24
64
89
24
56
76
18
40
61
10
25
52
6
16
46
7
12
41
7
8
34
3
1
28
0
0
26
2
2
23
2
1
22
1
0
21
0
0
21
0
0
22
1
0
25
1
1
24
3
2
24
0
0
24
0
0
25
1
1
26
2
2
28
4
4
32
8
8
34
10
10
36
11
14
46
17
22
53
22
28
59
26
33
58
23
29
53
19
20
59
25
24
66
32
30
63
28
22
63
28
22
98
57
51
108
59
54
110
51
47
148
74
75
191
105
108
212
115
122
221
116
123
223
112
118
218
103
106
211
96
99
212
96
96
212
96
96
211
93
91
212
92
91
216
94
93
223
99
101
221
97
99
221
95
99
220
94
98
216
91
95
210
86
88
206
82
84
204
81
83
198
80
80
198
80
80
199
76
79
200
75
81
203
76
85
208
78
88
212
82
94
215
83
96
218
85
102
222
89
110
226
94
118
224
97
126
213
94
126
200
90
125
207
105
142
224
136
176
239
166
212
255
197
247
255
206
255
251
197
247
244
194
245
233
182
239
212
160
224
202
145
216
205
140
222
202
129
219
198
120
219
199
116
220
196
109
216
184
96
206
173
85
195
167
79
189
156
70
179
159
74
178
155
73
171
145
65
154
133
56
136
124
51
124
118
46
112
112
42
102
110
42
93
107
40
83
104
39
73
103
38
68
183
114
223
184
115
224
189
117
229
190
117
232
191
118
235
191
118
233
193
119
232
193
120
228
209
134
239
218
144
241
246
173
255
228
156
232
147
75
138
104
28
77
121
34
76
137
42
74
163
59
82
196
85
101
216
104
116
206
95
101
186
76
77
176
68
66
155
52
47
127
25
20
122
20
16
152
50
46
179
75
72
182
78
77
177
74
78
175
74
82
172
72
84
165
67
80
123
27
38
120
27
35
140
49
54
153
62
67
151
60
67
150
59
68
143
50
61
136
44
57
130
42
54
119
38
47
99
26
35
77
10
19
68
2
12
77
14
22
89
27
32
94
28
32
101
29
33
101
25
27
123
44
47
131
51
50
115
34
33
103
22
19
98
19
15
102
24
20
113
38
32
112
37
31
111
36
30
112
35
27
116
36
29
125
41
31
136
47
39
142
52
43
147
59
49
150
63
53
153
66
56
148
64
53
142
60
48
135
53
42
125
43
32
115
35
26
102
24
14
92
19
10
78
11
3
64
5
0
53
3
0
46
3
0
40
3
0
35
5
0
31
1
0
31
2
4
27
1
2
26
0
0
30
2
1
33
0
0
43
2
0
62
11
7
94
31
24
119
42
36
137
48
42
143
44
38
157
48
43
178
65
61
194
76
74
197
77
78
195
76
82
197
77
89
191
73
89
181
63
87
173
55
87
169
54
95
166
54
104
161
52
110
158
51
119
148
45
118
145
44
124
157
59
144
190
96
184
212
119
210
176
85
178
121
32
122
120
31
113
121
33
111
119
31
107
118
30
104
118
30
104
111
24
95
110
20
92
117
27
99
128
38
112
150
59
136
162
71
150
167
75
158
202
110
197
185
92
181
154
61
152
138
44
138
169
74
168
186
91
183
141
49
136
130
41
123
131
45
118
116
35
101
105
30
86
89
20
65
81
17
54
71
15
44
63
11
33
54
10
25
50
10
19
46
11
17
41
9
12
37
7
9
34
7
12
32
7
11
30
5
9
29
4
8
28
3
7
29
4
8
31
4
9
31
6
10
28
1
6
28
1
6
28
1
6
28
1
6
29
2
7
31
4
9
33
6
11
34
7
12
31
4
9
30
1
6
41
10
16
52
20
25
51
19
24
49
17
20
56
24
25
62
31
28
52
18
16
73
35
32
83
38
35
87
31
30
115
45
47
159
77
81
196
103
111
216
115
123
221
110
116
217
102
105
211
95
98
210
92
92
209
89
90
208
88
87
212
90
89
215
93
92
222
98
100
225
99
102
231
102
107
226
100
104
212
88
90
200
76
78
199
76
78
205
85
86
202
82
83
204
81
84
205
80
86
207
80
87
210
80
90
212
82
92
215
83
94
216
84
97
218
83
98
220
84
104
218
84
108
218
88
114
216
91
121
207
89
121
202
93
125
201
103
141
204
117
162
235
157
207
255
182
235
250
183
237
240
176
236
226
166
230
207
145
218
195
130
212
203
130
222
204
126
225
208
125
231
210
122
232
200
112
222
183
95
205
168
81
188
160
74
181
150
64
171
148
63
166
141
60
155
134
54
141
130
53
131
126
53
124
119
47
111
110
41
98
108
40
89
105
38
79
102
37
69
101
37
64
190
121
230
189
120
229
191
119
231
193
120
235
194
121
236
195
122
237
195
121
232
194
121
228
214
139
242
221
147
242
249
177
255
209
137
210
125
54
112
98
22
68
116
30
67
136
42
69
168
65
86
198
90
105
220
109
118
209
98
104
188
78
79
176
68
66
153
49
46
124
22
18
122
23
18
151
51
49
177
75
73
180
77
80
178
74
81
179
77
88
178
77
93
170
73
90
133
36
53
131
37
51
149
57
68
157
66
75
154
62
73
153
61
72
143
49
63
136
44
57
132
44
56
120
38
50
98
25
36
78
10
21
73
7
19
80
17
26
89
26
35
94
27
34
100
28
32
103
27
29
128
48
51
130
50
49
112
31
30
102
21
18
102
21
18
106
27
23
119
42
36
113
38
32
110
35
29
111
34
26
117
37
30
127
43
33
138
49
41
143
53
44
145
55
46
148
60
50
151
63
53
152
65
55
151
64
54
148
61
51
143
56
47
137
53
43
131
46
39
121
41
32
106
31
25
89
22
14
71
12
4
55
5
0
44
0
0
36
0
0
31
0
0
29
0
1
25
0
0
24
0
0
28
0
0
30
0
0
40
0
0
58
7
3
85
25
17
112
39
32
135
48
41
141
44
38
147
42
38
162
53
48
178
65
61
184
68
68
189
73
76
192
75
83
190
74
87
182
66
85
174
59
88
171
57
93
166
54
100
161
53
105
161
56
115
151
49
114
139
39
111
145
48
125
168
75
156
193
104
188
196
106
194
163
75
161
143
54
134
140
52
130
129
41
117
120
32
108
118
30
104
113
26
97
112
22
96
115
25
99
120
30
104
131
40
117
132
41
121
136
44
127
176
84
171
188
95
184
189
96
187
192
98
192
194
99
193
203
109
203
142
52
140
132
44
128
131
47
125
103
23
94
91
17
80
84
15
69
74
11
56
68
12
49
63
13
42
58
13
34
55
14
32
51
13
26
49
13
23
46
13
22
44
14
22
40
13
20
39
9
19
35
8
15
35
5
15
34
7
14
37
7
17
36
9
16
34
4
14
33
3
11
32
2
12
31
1
9
31
1
11
32
2
10
33
3
13
34
4
12
33
6
13
25
0
3
31
2
7
41
12
17
39
8
14
37
6
11
48
18
20
59
29
29
49
18
16
58
23
21
68
27
25
76
25
24
91
27
28
128
53
57
173
88
95
200
103
110
208
101
107
210
95
100
208
89
93
205
85
87
205
82
84
206
82
82
210
86
86
214
90
90
221
95
98
223
97
100
227
98
103
221
95
98
206
80
83
193
70
72
196
76
75
210
90
89
213
90
93
212
89
92
212
87
93
212
85
92
210
83
92
210
83
92
211
81
91
211
81
91
216
81
95
215
80
95
214
78
98
214
80
104
216
86
114
213
90
119
205
87
119
195
87
121
192
93
137
207
115
164
233
146
199
254
175
232
255
182
245
236
164
237
217
145
227
212
137
228
210
130
229
208
125
231
207
119
231
202
112
225
191
102
212
176
87
195
162
75
180
153
68
171
148
63
166
142
58
156
131
50
142
126
47
130
127
51
126
127
54
123
118
48
110
107
38
92
106
38
85
103
37
75
100
35
65
99
35
61
194
125
234
193
124
233
194
122
234
195
123
235
196
124
236
197
125
237
198
125
233
197
124
229
217
142
243
227
154
246
248
176
255
188
117
187
106
35
91
95
20
61
112
27
60
133
39
63
169
66
85
200
92
105
222
111
120
211
100
106
189
81
81
176
71
68
154
50
47
125
23
21
127
27
25
152
52
50
176
73
74
181
78
82
183
79
88
186
84
98
184
82
103
174
76
99
138
40
65
138
43
65
153
60
78
156
64
79
155
61
75
153
59
73
141
47
63
133
41
56
130
44
57
116
36
49
93
21
33
76
10
24
73
9
25
80
18
31
86
24
37
93
28
36
98
25
32
106
30
32
132
52
55
129
49
48
108
27
26
101
20
17
105
24
21
110
31
27
120
43
37
113
38
32
110
33
27
112
33
26
119
39
32
130
46
36
137
50
41
142
52
43
144
54
43
144
54
43
147
57
46
150
62
50
153
65
53
155
67
55
158
70
60
159
71
61
166
77
69
159
74
67
148
68
59
130
57
48
108
44
34
88
30
19
72
20
9
59
15
6
40
5
3
34
4
6
29
0
1
27
0
0
29
0
0
29
0
0
35
0
0
52
3
0
78
19
13
105
34
28
127
47
40
134
44
36
138
39
34
149
44
40
161
52
49
167
58
55
179
67
66
184
71
75
186
72
82
181
69
85
178
64
89
176
62
95
170
60
99
166
56
101
164
57
109
159
56
112
145
45
107
138
41
108
133
42
112
153
65
141
200
111
191
215
128
209
192
105
184
173
86
164
139
52
130
115
29
104
116
30
105
120
34
107
116
28
104
110
22
98
111
23
99
121
33
111
124
35
115
124
35
119
147
55
142
161
68
157
189
96
187
220
126
220
245
151
245
218
124
218
142
52
142
146
60
147
150
67
149
104
26
102
81
8
77
80
12
73
72
9
62
67
11
56
62
12
49
58
13
44
57
15
39
55
16
37
54
17
34
52
18
32
51
19
32
47
17
27
44
12
25
39
9
19
38
6
19
37
7
17
39
7
20
40
10
20
37
5
18
36
4
15
34
2
15
33
1
12
32
0
13
32
0
11
33
1
14
32
2
12
33
8
14
29
4
10
30
5
11
32
5
12
30
0
8
32
5
10
43
16
21
51
25
28
49
20
22
49
17
18
61
22
23
69
23
25
74
18
19
101
35
37
141
65
69
168
79
83
196
93
97
204
91
95
207
88
92
206
83
86
203
79
81
205
79
80
208
83
81
212
87
85
214
88
89
217
91
92
222
93
97
217
91
94
208
82
85
200
78
77
203
85
83
214
96
94
217
97
99
217
94
97
212
89
94
209
86
91
208
85
90
210
87
92
213
90
95
216
91
97
218
88
98
215
83
96
214
79
94
213
77
97
214
80
104
214
86
111
209
86
114
200
82
114
198
87
129
195
92
139
213
115
166
241
150
209
255
171
238
249
166
244
231
148
236
215
131
229
211
124
231
206
116
229
198
105
220
189
96
211
180
87
201
169
80
188
157
70
174
148
63
164
149
65
163
141
57
151
128
48
135
122
43
122
124
48
120
124
52
116
115
46
103
105
37
88
103
38
81
100
36
71
97
34
61
96
34
57
195
126
235
195
126
235
197
125
237
197
125
237
197
125
237
197
125
235
200
127
234
202
130
232
218
144
243
232
159
249
241
170
250
167
96
164
95
25
77
96
21
60
109
24
53
128
35
54
157
54
71
189
81
94
212
102
111
203
94
99
183
75
75
171
66
63
150
46
45
119
19
17
131
31
31
153
53
53
174
71
74
181
77
84
186
84
97
191
90
108
185
85
111
173
74
103
138
41
72
142
46
74
154
60
84
154
61
80
153
59
77
151
57
75
137
43
61
130
37
55
124
37
53
107
29
43
85
12
29
71
4
22
72
9
28
79
16
35
83
20
37
90
24
36
97
24
31
111
35
37
137
57
60
130
50
49
108
24
24
105
21
19
109
28
25
115
36
32
120
43
37
112
37
31
109
32
26
111
32
25
120
40
33
130
48
37
137
50
41
138
50
40
142
52
41
137
47
36
134
44
33
135
47
35
138
52
39
143
56
46
151
64
54
159
72
63
167
78
70
165
80
73
161
81
72
151
77
68
136
69
60
120
60
50
106
52
40
97
50
42
72
34
33
63
31
34
51
21
23
44
14
14
41
11
9
36
2
0
37
0
0
49
2
0
76
19
12
99
32
24
119
42
34
129
42
35
133
38
34
139
40
35
147
43
40
151
46
43
164
56
54
172
64
64
179
70
76
180
70
83
181
69
91
180
70
97
177
68
100
173
64
103
174
69
112
161
59
106
140
41
95
130
37
94
120
30
92
129
42
111
171
85
158
199
112
190
207
120
198
201
114
192
169
82
161
129
42
120
115
28
106
119
32
110
121
33
111
118
30
108
121
32
112
126
37
117
130
41
123
132
43
127
139
47
134
138
45
134
154
61
152
181
88
179
223
129
223
235
144
237
193
104
194
174
88
175
146
64
148
111
34
114
98
26
100
83
18
86
73
12
72
67
10
63
61
9
55
57
11
48
58
14
47
58
18
45
58
18
42
56
18
39
55
21
37
50
18
31
45
13
28
40
8
21
37
5
20
37
5
18
38
6
21
40
8
21
38
6
21
37
5
18
35
3
18
33
1
14
32
0
15
32
0
13
32
0
15
32
2
14
27
1
10
29
6
14
33
10
18
31
5
14
27
1
10
36
11
17
46
21
27
45
20
24
45
20
23
40
14
15
50
18
19
61
21
21
63
13
14
80
21
23
108
42
44
128
48
51
179
83
87
195
86
91
204
89
94
205
85
87
204
78
81
206
78
79
206
81
79
207
82
80
213
87
88
223
97
98
229
103
106
224
98
101
210
86
86
202
80
79
203
85
83
209
91
89
209
89
90
208
88
90
207
86
91
208
89
93
212
96
99
222
106
109
232
116
119
240
121
125
221
98
103
215
90
96
212
82
94
210
79
93
210
78
99
213
86
107
215
89
113
207
87
115
197
81
118
194
85
127
199
95
144
212
114
171
234
143
210
255
170
248
249
163
252
218
132
231
211
119
228
206
113
227
199
104
220
188
94
208
179
87
198
169
80
186
156
69
173
144
60
158
148
64
158
141
58
148
128
49
132
119
43
117
118
43
110
118
47
107
112
43
98
104
36
85
103
38
78
100
36
70
97
35
60
96
34
55
194
125
232
196
127
234
199
127
237
198
126
236
196
124
234
197
125
233
202
129
234
206
134
234
218
144
241
238
165
255
233
162
242
150
79
145
89
19
69
98
24
61
107
23
49
123
30
48
145
43
57
179
72
82
204
95
101
197
88
93
179
71
71
167
63
62
147
44
45
117
17
17
133
33
35
151
52
55
169
68
74
178
76
87
189
86
103
196
94
116
185
84
114
168
68
104
143
45
83
147
51
88
158
64
91
156
62
86
155
60
80
154
59
79
139
44
64
131
40
58
119
34
53
103
26
44
80
8
30
67
2
24
73
11
36
79
17
42
82
20
43
89
25
42
100
27
36
116
40
42
144
64
67
133
53
52
109
25
25
108
24
22
117
33
31
123
42
39
119
40
35
112
35
29
107
30
24
112
33
26
122
42
35
131
49
38
135
48
39
134
46
36
134
44
35
126
36
27
118
30
20
115
28
18
113
29
18
113
31
20
120
38
27
127
47
38
126
43
35
128
48
41
130
53
47
125
54
48
118
54
45
110
51
43
105
51
41
99
52
46
86
48
47
75
43
44
63
33
33
55
25
25
52
21
19
45
11
9
44
6
3
54
9
4
78
25
17
94
31
22
110
37
30
118
38
29
125
36
30
132
39
34
137
39
36
139
40
35
149
47
43
161
57
56
172
67
72
177
71
83
181
74
92
185
77
101
184
75
104
179
74
105
177
76
110
153
55
93
123
28
72
112
20
69
112
23
79
111
25
86
121
39
105
134
51
123
162
78
155
195
111
189
196
111
192
156
72
150
123
39
117
118
34
112
124
37
116
125
38
117
129
42
123
126
38
122
123
34
118
128
38
125
131
41
129
131
41
129
135
45
133
147
57
147
159
66
157
218
128
218
234
145
235
211
127
215
149
69
154
115
40
123
112
41
119
94
30
104
76
15
82
67
11
72
57
7
60
54
7
53
57
12
51
59
18
52
58
17
47
55
17
42
55
20
40
51
17
33
45
11
28
39
5
21
35
1
18
35
1
17
36
3
20
37
5
20
38
5
22
37
5
20
35
2
19
33
1
16
32
0
16
32
0
15
33
0
17
32
1
16
22
0
11
28
6
18
34
12
24
31
7
20
27
4
14
38
15
25
46
23
31
41
20
25
39
19
21
33
12
11
42
14
13
51
17
16
57
13
14
67
17
16
85
27
26
97
27
29
148
62
65
172
71
75
192
82
85
200
81
85
202
77
81
205
77
78
207
79
78
204
79
77
216
91
89
235
111
109
244
120
120
227
103
103
202
78
78
191
69
68
195
75
74
202
84
82
197
79
79
201
85
85
210
96
96
221
109
108
230
122
122
237
131
131
243
138
135
248
140
138
226
114
113
214
99
102
209
90
96
207
86
95
204
82
97
206
83
101
208
87
106
203
85
109
193
79
112
184
75
114
180
77
122
181
84
135
194
104
165
224
138
209
235
150
233
216
131
224
198
107
210
200
108
217
198
104
216
189
95
205
179
87
194
169
81
185
157
71
172
147
61
158
144
61
153
140
58
143
129
50
129
117
41
113
112
37
102
110
39
95
108
40
91
104
37
81
103
39
76
101
38
69
97
35
58
97
36
54
192
123
230
196
127
234
200
128
238
198
126
234
195
123
231
196
125
231
203
131
233
209
137
236
217
143
240
241
168
255
228
157
235
140
70
133
87
18
65
100
26
61
107
23
47
118
27
42
145
43
56
178
73
80
203
96
102
200
91
94
181
75
77
172
68
69
153
50
51
124
24
26
133
34
37
149
50
55
166
65
73
177
75
89
190
87
108
197
94
123
184
82
119
162
64
103
148
51
94
154
57
98
164
69
103
161
67
94
160
65
89
159
64
86
145
50
74
136
44
69
120
34
59
104
26
50
79
9
37
68
3
33
75
14
45
81
20
51
83
23
51
93
28
50
102
29
40
123
44
47
148
68
71
137
56
55
111
27
27
111
27
25
121
37
35
127
46
43
118
39
34
111
34
28
107
30
24
111
34
26
123
43
36
132
50
39
132
48
38
131
44
34
123
35
25
115
26
18
104
20
10
100
18
7
93
15
5
86
12
1
86
13
4
91
18
11
84
11
4
86
15
9
87
20
14
84
21
16
78
19
13
72
19
13
69
20
13
66
23
17
69
31
30
60
28
29
51
21
21
48
18
18
51
20
18
50
16
14
53
15
12
64
21
15
81
31
22
91
32
24
102
34
25
109
35
26
119
36
30
126
39
32
130
39
36
131
38
33
139
41
38
152
52
52
166
65
69
174
72
83
182
77
92
185
82
103
186
82
105
183
80
107
181
82
110
156
61
91
120
29
64
101
13
55
102
16
65
99
16
70
100
20
79
112
31
98
112
30
106
172
89
169
203
118
199
174
89
170
140
55
136
129
44
127
126
38
122
120
32
116
125
37
121
128
40
126
129
39
126
132
42
129
129
39
127
125
35
123
122
32
120
128
38
126
135
45
135
168
78
168
211
125
214
243
159
247
186
106
193
119
44
129
102
33
114
103
39
117
79
19
91
67
12
77
55
4
63
53
5
57
58
11
57
61
16
57
60
16
52
55
14
46
55
20
44
50
15
37
44
9
31
37
2
24
34
0
21
32
0
20
34
1
22
35
2
23
38
5
26
37
4
25
35
2
23
33
0
21
33
0
21
32
0
21
33
0
21
31
2
22
25
0
19
29
8
25
35
12
30
29
6
24
26
2
18
37
13
27
45
24
33
41
22
28
36
17
19
30
10
11
35
11
11
45
15
13
54
16
15
63
19
18
73
23
22
80
20
20
117
41
43
146
56
58
175
72
76
189
76
80
196
76
78
203
77
80
207
79
80
204
79
77
212
88
86
239
115
113
250
126
126
223
101
100
189
65
65
179
57
56
193
71
70
206
86
85
199
81
81
208
94
93
224
114
113
238
133
130
246
144
142
243
145
142
238
140
137
234
135
130
234
132
130
217
113
112
208
99
102
204
93
99
196
85
94
193
81
95
192
80
96
184
75
94
182
75
103
154
53
85
144
48
85
143
54
98
140
56
108
152
72
133
174
94
167
181
99
183
172
87
180
181
94
191
186
95
198
179
88
191
171
80
183
164
76
178
158
70
170
151
65
162
140
57
147
136
57
140
128
50
126
115
40
109
106
35
95
105
35
89
106
38
87
105
38
81
104
40
75
101
38
67
98
36
59
97
36
54
200
131
238
198
129
236
199
127
235
198
126
234
198
127
233
200
129
233
205
133
233
207
136
232
225
151
246
242
170
255
206
135
211
111
41
103
87
18
63
97
24
54
104
21
41
118
28
40
152
50
61
187
82
87
209
103
107
205
99
101
199
93
95
191
87
88
164
61
64
130
29
33
130
31
36
154
54
62
168
66
79
181
78
97
190
87
114
179
78
112
172
71
113
173
74
120
173
75
122
169
72
117
149
51
89
146
49
80
157
58
86
151
52
80
143
47
75
135
42
73
122
37
68
99
22
54
71
1
37
87
23
60
104
44
82
82
22
58
71
10
44
81
15
42
94
21
32
131
52
55
152
72
75
130
49
48
104
20
20
118
32
31
137
51
50
130
46
44
118
37
33
109
30
25
102
25
19
108
31
23
125
45
38
136
54
43
136
52
42
132
45
35
134
47
38
119
34
27
101
21
12
88
14
5
83
13
5
78
14
4
73
10
1
66
6
0
65
6
0
63
5
1
61
6
3
57
6
3
54
6
2
52
7
4
48
7
3
46
8
5
39
5
4
37
5
6
36
6
6
36
6
6
36
6
4
37
6
3
40
5
1
43
4
0
57
10
2
83
29
19
102
39
30
107
37
29
114
37
31
115
35
28
112
27
24
113
24
20
119
28
25
130
36
36
143
48
52
157
62
70
170
72
85
174
75
93
176
77
97
179
82
102
177
84
105
151
59
84
119
30
60
101
15
50
95
12
54
93
14
61
94
17
69
97
19
79
120
40
113
137
56
135
190
107
189
214
131
213
198
115
197
198
114
199
183
98
183
127
42
127
114
29
114
128
42
129
145
57
144
135
47
134
130
40
128
129
39
127
120
30
118
125
35
123
124
34
122
128
40
127
164
78
167
226
143
231
210
131
220
119
45
130
105
36
119
106
41
121
88
28
102
70
15
83
62
10
74
62
13
69
59
11
63
56
10
57
56
11
54
49
7
45
50
13
46
43
8
38
36
1
31
34
0
29
35
0
30
35
0
30
32
0
27
28
0
24
30
0
26
33
0
29
33
0
29
31
0
27
33
0
29
35
5
33
39
6
35
35
5
33
40
14
43
34
9
38
29
3
30
26
0
25
25
0
22
26
1
20
28
6
19
29
9
18
29
10
14
29
10
12
32
12
11
39
14
10
47
16
13
57
19
16
63
22
20
72
22
21
86
20
21
111
33
33
128
38
40
158
55
58
202
87
90
202
79
81
201
75
76
206
81
79
207
83
81
214
92
89
223
101
100
200
80
79
173
51
50
189
67
66
209
87
86
193
73
72
208
90
88
221
107
106
237
129
127
240
138
134
234
139
135
238
147
142
241
152
146
235
146
140
227
136
133
216
125
122
212
118
118
218
122
124
200
103
110
171
76
84
165
69
81
161
67
83
134
42
63
124
38
63
112
32
61
105
28
62
103
31
71
106
37
84
112
43
100
117
46
112
152
76
151
148
69
152
144
61
149
146
61
154
154
67
162
159
72
169
155
67
167
148
62
159
147
64
154
136
57
140
123
45
120
110
35
102
102
31
91
103
33
87
105
37
86
107
42
84
101
37
72
101
38
65
101
39
60
100
39
55
199
130
237
199
130
237
201
129
237
201
130
236
200
129
233
200
129
231
205
133
232
210
139
233
223
150
240
239
167
251
195
125
198
102
32
92
87
19
60
99
26
53
104
21
37
115
25
34
148
48
56
180
75
80
200
94
98
195
89
91
190
84
86
184
79
83
162
59
63
130
31
36
130
30
38
152
52
64
168
65
82
182
80
102
186
83
113
176
74
113
181
79
126
190
90
142
176
78
129
158
60
107
141
43
84
142
45
80
148
49
80
146
47
78
139
42
77
127
33
70
120
34
73
99
23
62
81
12
56
89
26
69
87
28
72
75
17
58
77
17
55
78
14
41
93
21
33
131
52
55
152
72
75
132
48
48
106
20
21
119
33
32
137
51
50
129
45
43
112
31
27
107
28
23
106
27
22
113
34
27
125
45
38
133
53
42
135
51
41
131
47
37
131
46
39
116
36
29
96
22
13
82
14
5
71
11
1
66
9
0
55
5
0
49
0
0
52
4
0
49
4
0
47
3
2
43
2
0
41
1
1
40
2
1
37
3
1
35
4
1
34
3
1
33
3
3
33
3
3
33
3
3
33
3
1
33
4
0
36
3
0
39
2
0
53
9
0
78
28
19
97
38
30
101
37
28
109
36
30
112
35
29
109
28
24
109
26
22
111
26
23
117
29
27
127
38
40
139
48
55
150
58
69
162
70
83
170
78
93
170
79
96
164
75
93
142
54
76
116
32
56
100
20
49
95
18
52
96
20
59
97
24
69
102
27
83
105
28
96
111
30
107
143
62
139
172
91
170
180
97
179
195
111
196
210
125
210
202
116
203
142
56
143
119
33
120
127
39
126
150
62
149
142
52
140
123
33
121
120
30
118
118
28
116
125
37
124
129
43
132
152
68
156
204
121
209
208
129
218
130
56
143
94
24
110
109
44
126
85
24
101
74
16
90
66
11
79
58
6
70
56
5
64
60
11
66
61
13
65
51
7
56
44
5
50
44
7
50
45
6
50
43
6
49
41
4
47
41
4
47
45
8
51
47
12
54
43
8
50
43
8
50
40
5
47
35
0
42
36
1
43
40
8
49
45
13
54
46
13
56
36
5
47
33
5
46
36
5
46
37
7
43
34
5
36
26
0
27
24
1
21
26
5
20
27
7
18
28
9
13
30
10
11
34
13
12
43
15
14
49
18
16
56
21
19
64
20
19
72
18
18
92
26
27
105
25
28
133
41
42
183
77
79
193
77
78
199
77
76
201
77
75
201
79
76
206
87
83
210
90
89
190
72
70
172
54
52
190
72
70
206
86
85
193
73
72
209
91
89
225
111
110
234
129
126
239
139
137
241
150
145
235
150
145
226
143
139
221
140
136
218
137
133
196
115
112
174
93
92
166
84
86
145
65
68
120
39
46
109
29
38
98
20
33
93
19
34
92
21
39
92
24
47
92
28
54
93
32
63
95
35
71
95
37
78
98
36
87
104
39
97
107
36
102
115
41
116
132
53
136
149
66
156
155
70
164
153
65
165
148
62
159
147
64
154
137
58
141
123
47
121
112
37
104
104
33
93
102
33
87
104
38
86
107
42
84
104
40
75
104
41
68
104
42
63
103
42
58
200
131
237
196
127
233
197
126
232
199
128
232
199
128
230
198
128
227
204
133
229
212
141
233
225
152
241
239
168
248
180
110
180
94
25
80
88
20
57
102
30
52
102
21
30
111
22
26
141
42
45
171
66
70
188
82
84
183
77
79
178
73
77
175
72
75
156
55
61
131
31
39
127
27
37
146
48
61
167
66
84
185
83
107
185
81
116
178
75
118
191
88
141
197
96
152
151
52
107
145
47
96
164
65
109
178
80
118
169
69
105
154
54
92
140
42
83
133
38
82
124
38
85
111
33
81
93
25
76
85
23
74
75
17
67
69
12
57
77
16
57
78
13
43
92
20
32
131
52
55
152
70
74
130
46
46
107
21
22
123
35
34
138
50
49
128
42
41
108
25
21
105
26
21
109
30
25
118
39
32
128
48
41
133
53
42
134
50
40
129
47
36
120
40
33
106
29
23
86
18
9
70
10
0
60
7
0
53
6
0
42
2
0
36
0
0
39
4
0
38
3
0
34
0
0
32
0
0
30
0
0
29
0
0
29
1
0
30
2
1
29
0
0
29
0
0
29
0
0
28
0
0
28
0
0
29
0
0
32
0
0
35
0
0
46
6
0
73
25
15
90
36
26
95
35
25
104
35
28
107
34
28
107
29
25
106
27
23
107
26
23
105
24
21
111
29
31
119
34
39
128
42
51
148
62
73
160
74
87
153
69
84
140
58
72
129
48
65
116
39
59
109
34
57
104
31
60
100
29
63
101
31
68
105
33
81
105
31
92
106
29
99
113
36
108
121
43
118
121
40
117
127
46
125
164
80
165
207
123
209
210
124
211
171
85
174
129
43
132
134
48
137
142
53
143
124
35
125
124
34
122
126
36
124
128
39
129
127
41
132
133
48
139
174
91
181
214
135
226
176
100
188
102
30
116
102
34
117
88
25
106
82
21
99
73
15
89
64
8
79
56
3
71
57
6
72
55
5
68
45
0
59
44
0
61
52
10
73
65
21
84
66
24
87
66
24
87
71
29
92
83
41
104
94
54
116
96
56
118
97
57
119
92
52
114
81
43
104
71
33
94
64
26
87
55
17
78
47
9
70
39
3
64
44
9
67
47
12
68
41
7
57
33
0
45
28
0
36
29
0
31
29
3
28
27
4
22
27
5
17
28
7
14
31
9
12
36
11
14
42
13
15
46
16
16
52
16
16
66
20
22
81
25
26
88
20
21
110
28
30
159
63
64
180
72
72
194
78
78
197
77
76
202
82
81
214
94
93
210
94
94
189
73
73
176
62
61
188
74
73
197
81
81
191
73
73
205
89
89
219
107
105
229
125
122
226
131
127
215
127
125
201
120
117
190
112
110
182
107
104
161
87
86
135
64
62
109
39
39
103
35
36
99
33
35
97
32
38
100
37
45
92
30
41
77
16
31
77
20
35
81
27
43
85
32
50
87
36
55
86
37
59
86
36
65
86
34
70
73
18
60
79
19
70
99
33
95
129
57
130
152
74
158
159
76
168
158
72
171
157
71
170
148
65
157
139
60
143
126
50
125
115
40
109
106
35
95
104
35
89
105
39
87
108
43
85
105
44
78
105
45
71
105
46
66
105
47
62
208
140
241
196
128
229
192
122
221
196
126
224
202
132
230
204
135
228
209
138
230
214
144
232
235
163
247
245
174
252
172
103
170
91
22
76
90
23
58
101
29
49
100
19
26
110
22
21
135
37
38
162
59
60
178
74
75
177
71
73
172
67
71
170
67
71
152
51
57
127
30
39
122
25
36
142
44
59
163
61
82
181
78
107
178
76
115
181
79
126
193
92
150
180
79
139
131
32
89
143
44
98
186
87
133
206
108
149
193
91
131
164
63
105
145
43
91
143
46
97
145
58
111
127
50
106
95
27
84
75
14
71
72
13
67
66
10
57
66
8
48
78
13
43
91
19
31
132
53
56
151
69
73
129
43
44
110
21
23
125
37
36
138
50
49
125
39
38
104
21
17
104
23
19
111
32
27
123
44
37
134
54
47
136
56
45
130
48
37
120
40
29
101
24
16
88
17
11
73
9
0
61
4
0
52
5
0
46
6
0
39
4
0
33
2
0
35
6
2
34
4
2
31
1
0
29
0
0
27
0
0
28
0
1
27
1
2
28
2
1
26
0
0
26
0
0
26
0
0
26
0
0
26
0
0
26
0
0
28
0
0
31
0
0
42
4
0
66
22
13
85
32
24
90
31
23
97
32
26
101
32
25
103
28
25
104
26
24
107
29
27
101
23
21
104
26
26
106
27
30
109
30
35
131
52
58
143
63
72
129
52
62
107
31
43
106
32
45
108
35
52
108
39
58
105
35
59
96
27
55
90
23
54
91
23
62
88
18
70
93
19
80
99
23
87
107
30
98
111
31
104
106
25
101
120
37
117
148
64
149
196
110
197
217
131
220
172
86
175
136
50
139
151
62
152
141
52
142
119
29
119
121
32
122
127
40
134
125
40
133
126
43
135
146
63
155
201
120
213
225
149
239
148
74
163
111
41
129
96
28
113
82
18
102
75
14
94
71
13
90
64
7
84
53
0
74
50
0
71
52
0
75
71
20
99
79
30
111
89
40
121
91
42
123
87
38
119
90
43
123
102
55
135
114
67
147
111
67
146
118
74
153
123
79
158
118
74
153
106
63
142
90
47
126
69
26
105
53
10
89
56
13
92
64
22
98
62
20
92
46
5
71
33
0
54
33
0
48
35
2
45
34
4
40
28
2
29
27
4
24
27
5
18
28
5
15
32
7
13
35
8
13
39
10
14
43
11
12
59
20
21
73
27
29
78
22
23
91
21
21
127
43
41
153
55
54
184
74
73
195
79
79
199
81
81
218
100
98
212
98
97
188
76
74
175
66
63
181
72
69
188
76
75
189
77
76
197
87
86
203
98
95
211
113
112
191
101
100
151
70
67
140
65
62
141
69
70
128
58
58
98
32
33
90
26
26
78
18
20
82
26
27
90
35
40
95
44
49
105
54
61
96
46
55
79
31
43
88
40
54
98
52
65
104
58
71
98
54
67
86
44
58
74
31
50
67
22
45
66
20
49
70
20
58
88
31
82
119
54
118
139
68
146
144
68
158
148
66
164
154
69
170
146
65
157
141
61
146
130
53
131
118
45
116
109
37
100
106
37
92
106
39
90
109
44
86
107
46
80
107
47
73
106
47
67
106
48
63
226
159
252
210
143
236
200
131
222
204
135
224
216
147
236
223
155
242
226
156
242
227
158
241
247
176
255
250
179
255
164
95
160
94
25
79
92
25
60
98
26
46
99
18
25
111
23
22
131
33
32
158
56
54
176
72
71
176
72
73
172
67
71
167
64
68
147
47
55
123
26
35
121
23
36
137
38
56
150
48
70
161
58
88
161
59
99
180
78
128
191
89
152
148
48
112
129
29
89
153
54
109
193
93
143
209
110
156
204
101
146
174
72
120
146
43
98
146
48
107
173
85
146
134
56
118
90
21
84
69
9
69
70
13
68
65
9
56
61
3
43
72
9
36
90
18
30
132
53
56
150
68
72
127
41
42
112
23
25
129
39
39
138
48
48
124
36
35
105
20
17
104
23
19
112
33
28
127
48
41
140
61
54
139
59
48
126
44
33
108
30
18
86
13
6
74
10
1
62
3
0
52
2
0
46
3
0
43
6
0
37
7
0
34
5
0
34
6
2
33
5
2
32
2
0
30
0
0
29
0
0
28
0
0
29
1
0
28
3
0
28
0
0
26
1
0
26
0
0
26
0
0
26
1
0
28
0
0
29
0
0
32
0
0
38
1
0
60
20
10
78
30
20
83
29
19
92
29
22
97
30
24
99
25
24
98
24
23
103
29
28
95
24
22
97
25
26
95
23
24
93
21
24
108
36
40
115
42
49
98
27
35
77
7
17
80
12
23
88
22
34
91
27
41
86
22
39
76
13
34
71
9
32
72
9
38
76
7
51
85
15
65
96
23
78
101
27
86
104
28
92
106
29
99
111
30
106
111
30
109
120
36
121
191
107
193
203
117
206
159
73
162
158
69
161
155
66
156
127
38
128
126
37
129
128
41
138
131
45
144
138
54
152
128
44
142
163
82
177
241
161
255
207
130
224
149
76
166
116
46
135
89
20
109
70
6
93
71
9
95
63
5
90
50
0
81
60
4
91
86
30
121
111
54
151
112
54
156
108
50
152
97
41
142
85
29
130
79
23
124
80
25
126
84
29
130
78
26
126
82
30
130
85
33
133
84
32
132
83
33
132
85
35
134
84
34
133
80
30
127
71
21
118
74
25
117
74
25
116
65
17
101
51
7
84
42
0
68
37
0
57
36
0
50
32
1
42
29
2
33
28
2
27
27
2
21
29
3
16
30
4
13
33
6
13
36
7
11
44
9
13
60
21
22
69
23
23
72
14
12
91
20
16
119
31
29
168
66
64
194
82
80
188
72
72
204
88
88
193
81
80
170
60
59
167
62
59
175
71
68
182
76
76
186
82
81
186
86
86
186
92
90
179
91
90
141
61
60
99
28
26
97
29
28
103
39
40
89
27
28
88
28
30
86
30
31
80
28
32
82
33
36
81
36
41
88
45
52
104
61
70
100
58
68
101
59
71
110
68
80
121
77
90
121
79
91
108
66
78
86
46
57
66
25
39
53
12
30
61
19
41
57
14
44
65
16
61
84
29
86
100
36
110
110
38
124
121
43
142
135
53
153
147
66
161
144
64
153
135
58
140
122
49
122
113
41
105
107
38
95
107
40
91
109
44
87
106
44
81
106
46
74
106
47
69
105
46
64
235
170
254
229
164
246
224
156
239
225
158
238
233
166
246
241
174
253
246
177
255
245
177
254
255
184
255
245
175
248
150
81
146
94
25
79
93
25
62
95
23
45
101
20
29
113
24
26
132
34
33
158
56
54
177
73
72
178
74
73
174
69
73
165
62
66
143
43
51
120
23
34
122
26
38
132
35
52
136
36
60
144
40
73
143
40
85
174
71
126
191
89
154
130
29
95
142
42
106
180
81
138
213
113
165
218
116
164
207
103
152
186
83
136
172
71
129
178
82
145
185
98
166
122
45
113
82
15
82
70
10
72
66
9
64
63
10
56
63
7
44
66
4
29
89
17
28
133
54
57
148
66
70
125
39
40
113
24
26
131
41
41
138
48
48
121
33
32
106
21
18
106
25
21
117
36
32
133
54
47
145
66
59
138
60
48
119
37
26
96
18
6
80
12
3
69
9
0
58
3
0
50
2
0
44
4
0
40
6
0
35
6
0
32
5
0
34
5
1
34
5
1
35
4
2
34
3
1
33
2
0
32
1
0
30
0
0
29
1
0
28
3
0
28
3
0
28
2
1
28
2
1
28
3
0
28
3
0
30
2
0
32
2
0
35
1
0
58
20
9
75
28
20
78
25
17
86
26
18
93
26
20
93
22
20
93
22
20
93
23
21
89
21
18
90
22
21
88
20
19
83
15
16
87
21
22
87
21
23
73
8
12
67
5
10
69
6
14
73
12
20
75
13
24
70
9
24
62
4
19
64
5
23
71
9
32
78
13
47
97
29
70
116
44
90
118
45
98
114
39
96
119
43
107
119
39
110
107
26
103
100
17
99
142
58
143
195
109
196
191
105
194
176
87
179
182
93
185
162
73
163
129
42
136
133
47
148
134
47
152
140
55
158
124
39
142
140
58
158
223
141
239
233
153
250
175
98
194
148
74
169
115
44
138
82
15
110
71
7
101
63
2
97
58
0
94
79
22
119
116
58
160
128
64
176
120
55
171
107
42
160
94
29
145
82
19
136
75
12
127
70
9
126
69
9
123
69
10
126
69
11
124
65
6
122
60
2
115
60
3
118
67
10
123
71
14
129
72
15
128
75
19
130
69
16
124
77
22
126
85
33
133
79
28
120
56
8
92
39
0
70
36
0
59
36
1
55
34
3
45
32
2
36
28
2
27
29
2
21
29
3
16
30
2
14
31
4
11
31
0
5
48
14
15
60
22
21
60
12
8
69
8
3
95
18
12
157
62
58
194
86
84
191
77
77
195
79
79
175
63
62
155
47
45
162
60
58
174
74
72
173
73
71
169
74
72
163
75
73
161
80
77
133
59
56
95
27
26
82
21
20
86
28
27
86
27
29
80
24
27
88
33
38
85
33
37
76
30
33
76
34
38
77
38
43
89
52
59
115
78
86
122
84
95
115
74
88
122
81
95
129
87
101
125
83
95
110
68
78
88
48
57
68
30
41
57
19
32
55
18
36
49
11
36
48
6
44
59
9
62
74
14
84
90
22
107
113
37
135
132
51
153
148
66
164
146
65
157
139
61
145
127
53
128
116
43
112
109
39
99
108
41
94
110
44
90
106
44
81
106
46
74
105
46
68
105
46
64
222
158
232
236
173
244
246
180
252
241
175
247
236
170
242
241
175
247
250
182
255
254
186
255
254
184
255
228
158
230
127
58
123
89
20
74
92
24
61
95
23
47
104
22
34
114
25
29
134
38
39
160
58
56
177
73
72
178
74
73
171
68
71
160
59
63
139
39
47
117
20
31
123
27
41
132
35
54
138
38
64
146
45
79
141
38
85
174
71
127
199
97
163
134
33
101
163
62
128
207
107
167
233
133
187
224
121
174
202
98
151
196
93
149
209
107
170
215
118
185
171
84
155
111
34
106
78
11
82
67
8
72
62
7
64
65
12
58
64
8
43
67
5
28
88
16
27
134
54
57
148
66
70
123
37
38
114
25
27
133
43
43
137
47
47
119
31
30
106
21
18
110
29
25
124
43
39
139
60
53
146
67
60
135
57
45
112
30
19
87
11
0
77
10
1
67
9
0
58
5
0
51
4
0
44
6
0
40
7
0
37
7
0
35
6
0
38
7
2
41
8
3
44
9
7
44
9
7
44
9
7
41
6
2
38
5
0
34
3
0
29
4
0
28
4
0
28
4
0
28
4
0
28
4
0
29
4
0
31
3
0
32
3
0
34
1
0
57
19
8
73
26
18
76
23
15
83
22
17
87
22
18
89
19
19
88
18
18
86
18
15
84
19
15
84
19
15
82
19
14
79
15
13
75
14
13
71
9
10
65
5
7
71
12
16
69
10
16
69
9
17
68
11
20
66
9
18
63
7
18
68
12
25
77
18
36
82
18
44
87
20
53
89
21
60
91
22
66
102
29
82
115
41
100
122
46
111
125
45
118
113
30
110
119
35
120
164
78
165
191
105
194
192
103
195
210
121
213
198
109
201
138
51
146
142
55
160
136
50
159
133
47
154
128
42
149
134
49
153
172
90
192
212
132
231
186
108
207
163
87
185
148
74
173
116
46
145
88
22
122
79
14
116
82
21
125
99
40
146
124
62
173
119
51
174
111
40
168
99
28
158
92
21
149
90
21
150
93
24
151
94
27
156
95
29
155
94
29
157
98
33
159
95
33
160
89
27
152
82
20
147
75
13
138
65
4
131
56
0
120
72
12
134
66
8
128
71
12
128
83
27
138
87
32
136
73
22
117
56
8
94
44
0
75
42
3
66
38
4
55
34
3
45
32
3
34
30
2
25
29
2
19
29
3
16
30
3
12
31
0
6
39
7
10
49
15
14
51
10
6
57
4
0
79
10
3
144
55
51
183
79
76
190
76
76
190
74
75
172
59
61
155
49
49
161
61
61
164
69
67
150
56
54
132
44
42
118
43
38
115
47
44
87
26
23
67
11
10
75
24
23
78
28
29
71
21
24
74
24
27
77
26
31
74
25
31
70
25
30
79
38
44
83
46
53
89
54
61
102
66
76
100
64
76
92
51
67
104
61
78
118
74
89
120
76
89
110
67
77
91
49
59
74
34
43
62
26
36
52
18
34
48
13
37
47
7
44
53
6
58
68
13
81
92
28
112
122
51
147
144
66
167
147
67
164
148
67
160
142
64
150
130
56
133
119
46
117
111
41
103
109
42
96
111
45
93
107
45
84
107
46
77
106
47
69
106
47
65
203
137
208
234
168
239
255
190
255
247
182
250
230
165
233
230
165
233
242
177
245
251
185
255
247
181
253
212
145
216
107
40
107
83
14
71
93
22
64
96
21
51
107
24
40
114
24
33
140
41
44
162
59
60
176
73
74
175
72
73
167
67
69
156
57
60
135
38
45
115
19
31
122
25
42
134
37
57
148
48
76
161
59
96
149
47
95
179
75
134
207
106
176
145
45
118
168
68
138
210
109
175
236
135
195
229
125
184
206
100
162
204
100
163
216
113
182
200
102
175
152
62
136
108
28
101
78
8
80
63
3
67
65
10
65
67
14
58
59
5
37
71
12
32
88
17
25
135
55
58
149
64
67
123
37
38
114
26
25
134
44
43
137
47
46
118
30
28
106
21
16
115
32
26
130
50
43
145
65
58
147
67
58
132
52
41
106
27
14
81
7
0
73
9
0
65
8
0
58
6
0
53
5
0
49
6
0
46
8
0
45
8
0
45
8
0
48
11
5
51
12
7
55
14
10
56
15
11
55
16
11
51
12
7
46
9
3
41
8
1
32
3
0
29
4
0
29
4
0
29
4
0
29
4
0
29
4
0
31
3
0
32
3
0
35
1
0
57
19
10
70
26
17
73
23
16
79
22
15
84
21
16
83
18
14
83
18
14
79
18
15
80
21
15
80
21
17
79
20
16
78
19
15
71
13
11
66
10
9
67
11
12
67
12
15
65
10
13
65
10
15
67
12
18
66
11
17
66
10
19
71
15
24
79
21
33
85
22
39
92
27
51
92
26
54
90
23
56
92
21
63
91
19
67
104
29
88
127
51
116
125
44
120
124
41
123
124
38
125
135
49
138
159
70
162
206
117
209
227
138
230
183
96
191
148
61
165
143
57
164
130
44
151
131
46
150
122
37
141
115
32
136
180
99
202
207
126
228
155
77
179
163
88
189
144
72
174
109
40
146
101
33
142
112
45
158
118
54
168
122
54
175
112
39
172
105
29
164
96
20
154
93
17
151
98
25
158
108
35
168
116
43
176
119
48
178
125
54
182
124
54
179
116
47
172
107
38
163
101
32
159
100
31
158
99
30
159
94
27
156
73
6
135
73
8
136
69
5
128
66
5
124
77
19
132
87
31
138
76
24
124
56
7
98
45
2
82
42
2
72
37
1
62
33
1
48
31
1
37
29
1
26
29
2
21
28
2
15
31
1
11
30
1
5
36
6
6
39
4
0
43
0
0
63
3
0
125
44
40
163
65
64
171
61
62
179
64
67
171
61
62
160
56
57
156
62
62
145
59
58
120
39
36
94
20
17
74
15
11
64
13
9
55
7
5
53
9
8
60
20
21
59
18
22
56
14
18
62
17
24
70
25
32
61
18
25
58
17
25
72
32
40
78
41
49
75
40
47
73
37
47
60
24
36
65
26
44
77
36
52
91
49
63
97
53
66
95
49
60
85
42
51
77
35
45
73
33
44
48
11
28
48
10
35
47
7
44
52
5
57
68
12
83
97
33
119
129
58
154
150
73
175
148
67
169
149
67
165
145
65
154
134
57
137
120
47
118
111
41
104
110
41
98
111
45
93
110
45
85
108
47
78
108
48
73
107
48
68
206
138
213
227
161
235
248
182
254
245
179
250
229
167
234
230
170
234
242
182
246
245
186
252
248
188
255
193
132
202
98
32
103
88
18
80
100
26
75
99
22
58
119
35
58
113
23
35
141
39
52
166
61
68
174
71
74
167
67
69
163
67
68
156
62
63
134
41
49
115
21
35
132
38
56
140
45
67
153
54
83
157
57
95
157
57
107
204
104
166
191
90
166
152
53
133
170
72
147
214
114
187
231
129
202
219
113
187
222
114
189
232
124
200
213
106
184
178
77
155
158
66
143
111
29
103
72
1
69
67
3
63
70
14
63
62
10
49
54
5
35
59
4
25
93
22
28
138
58
57
146
62
60
121
36
33
121
33
29
136
49
42
132
45
36
117
33
23
107
23
13
114
30
20
142
57
50
168
83
76
159
77
66
125
45
34
96
18
5
76
4
0
76
12
2
68
8
0
62
5
0
60
6
0
60
10
1
61
13
3
61
12
5
59
10
3
62
13
6
66
17
10
71
22
17
74
27
21
71
26
20
66
23
16
58
18
10
51
14
6
41
8
1
37
6
1
34
5
0
32
3
0
29
1
0
29
1
0
30
1
0
31
0
0
40
2
0
51
10
6
67
19
15
74
23
19
74
21
15
74
17
10
74
15
9
74
17
10
68
13
8
69
16
10
71
18
14
68
17
13
65
14
10
62
11
8
61
12
8
61
11
10
61
11
12
62
12
13
65
13
15
69
14
19
72
17
22
74
19
25
77
20
27
80
20
28
111
50
58
112
49
60
110
43
60
100
32
53
89
20
48
89
19
55
99
26
72
110
35
92
126
46
117
140
59
138
150
66
152
150
65
156
158
72
163
184
98
189
218
132
221
241
155
244
210
125
218
221
136
230
178
94
192
154
69
170
160
77
181
151
68
174
165
83
191
207
125
233
167
88
193
148
71
177
161
86
191
172
99
207
168
95
210
168
95
213
147
76
198
122
47
176
113
35
173
104
26
164
116
39
169
121
44
172
133
54
182
163
84
212
185
105
236
200
121
248
191
113
233
195
118
232
180
103
215
161
84
196
136
58
177
116
38
158
122
44
166
127
48
175
126
49
179
110
34
166
84
12
140
66
0
122
70
5
125
87
26
143
101
44
157
103
49
160
88
39
144
62
18
113
44
4
90
38
2
72
32
0
52
26
0
38
28
2
29
31
4
23
28
2
13
26
0
4
26
0
1
32
2
0
39
0
0
58
3
0
102
28
27
145
55
55
159
55
56
162
53
56
156
50
52
153
55
56
143
57
60
112
38
39
77
13
14
61
7
7
45
5
3
39
8
5
38
7
5
35
5
5
34
4
6
39
7
12
45
12
19
52
16
26
51
15
25
53
17
27
63
26
34
66
29
37
67
30
38
82
45
53
91
54
62
81
45
55
74
37
54
68
32
46
79
39
50
89
48
56
82
37
44
69
24
31
68
22
32
69
26
36
60
17
34
60
16
43
50
3
45
56
5
62
87
29
105
142
76
166
150
78
178
153
76
182
158
75
181
155
70
173
147
63
157
130
51
134
115
39
113
114
42
106
117
48
105
111
45
93
110
45
87
110
46
80
110
47
74
110
48
71
226
158
235
241
173
248
255
192
255
255
194
255
247
185
252
245
185
249
248
189
253
245
189
254
240
183
252
179
119
191
107
41
113
92
21
87
104
27
83
98
17
58
108
23
52
115
24
42
143
40
57
166
60
72
171
70
76
165
66
69
160
66
67
151
59
62
130
37
47
112
18
34
117
22
44
136
40
67
148
48
82
147
49
90
169
71
122
218
119
184
179
81
158
147
48
131
162
65
144
218
120
197
255
153
232
251
144
224
239
130
211
231
122
203
212
105
185
188
87
165
164
72
147
117
34
104
76
4
68
68
5
60
70
13
58
60
10
47
54
5
35
60
5
26
92
21
27
139
58
55
148
64
62
123
38
33
121
34
27
137
50
41
135
48
38
117
33
22
109
25
14
116
32
21
146
59
50
171
84
75
159
75
65
123
43
32
95
19
5
82
10
0
77
10
1
72
9
2
68
8
0
69
10
2
74
17
8
79
22
13
81
24
17
81
24
17
86
29
22
87
30
23
85
30
25
83
30
24
78
28
21
72
25
17
65
20
14
59
19
11
43
4
0
39
4
0
38
3
0
33
2
0
33
2
0
32
3
0
34
3
0
36
3
0
40
0
0
52
8
5
65
17
13
72
21
17
73
20
16
71
18
12
71
16
9
71
18
10
67
14
8
67
16
12
68
19
14
67
18
13
63
15
11
60
12
8
59
11
9
59
11
9
60
12
12
62
12
13
64
12
14
66
14
16
70
15
20
72
17
22
74
17
23
77
18
24
86
25
32
93
30
38
101
35
45
101
35
49
97
29
50
94
25
54
98
26
66
101
27
78
121
42
107
133
52
128
151
67
152
162
78
164
164
78
167
166
80
167
182
96
183
200
115
200
226
142
228
230
146
234
222
137
231
197
113
211
191
106
210
187
104
210
181
99
207
203
121
229
195
116
223
153
76
182
144
67
173
172
96
205
202
128
243
202
127
246
167
91
217
139
62
194
124
43
182
119
38
175
138
59
186
159
81
201
184
104
227
208
128
251
217
137
255
222
142
255
223
143
255
230
151
255
226
147
252
213
134
241
190
108
219
157
74
190
145
62
180
152
68
190
144
62
190
138
57
188
127
50
178
110
38
163
86
16
140
73
9
131
95
33
156
124
69
189
119
65
185
72
24
136
39
0
95
36
0
82
40
5
71
34
2
51
29
0
35
30
2
25
30
4
17
28
3
7
28
3
6
30
2
1
33
0
0
52
2
1
98
30
29
143
59
59
160
62
63
157
54
55
147
47
49
135
45
45
117
41
43
89
25
26
61
9
11
46
6
7
36
8
7
29
9
8
29
7
9
30
5
8
30
5
9
34
7
14
40
13
22
47
17
29
53
21
34
54
22
35
65
29
41
67
31
43
69
31
42
82
44
55
91
54
62
80
44
56
64
30
46
67
33
49
79
41
52
81
40
48
70
25
32
63
16
24
63
16
26
62
14
28
58
11
29
53
4
33
57
5
51
72
16
79
98
35
116
149
79
175
162
87
192
160
81
190
164
78
189
159
72
177
150
66
162
135
53
138
119
41
117
117
42
109
117
46
104
111
43
94
115
48
91
114
50
85
114
51
80
114
51
78
219
151
226
230
162
237
247
181
253
255
192
255
255
193
255
255
196
255
255
198
255
253
194
255
211
151
223
162
100
175
137
69
146
102
29
100
101
21
82
101
17
66
108
22
57
123
31
56
146
44
65
166
61
75
170
69
77
164
65
70
158
63
67
149
54
62
129
33
47
114
17
36
115
17
42
144
45
74
156
56
92
156
57
101
189
90
144
231
132
197
183
85
162
167
69
152
201
102
184
235
134
214
255
152
231
246
139
219
227
118
197
214
106
182
206
100
175
199
99
172
171
80
150
124
42
108
81
10
70
70
8
59
69
12
55
58
9
41
53
4
33
61
6
25
92
21
27
139
58
55
153
67
66
130
42
38
122
33
27
138
51
42
139
52
42
119
32
22
113
26
16
121
34
24
150
61
53
173
86
77
156
72
61
120
38
26
97
19
6
91
17
4
88
20
11
87
20
12
85
21
12
86
23
14
88
28
20
91
31
23
93
33
25
93
33
25
94
33
28
95
34
29
94
35
31
92
34
30
85
30
25
76
26
19
68
19
14
61
16
10
48
4
1
44
5
0
43
4
0
38
3
0
38
3
0
37
4
0
38
5
0
39
4
0
41
0
0
50
6
3
62
14
10
69
18
14
71
18
14
70
15
10
70
15
8
70
17
9
67
14
8
67
17
10
67
18
13
66
17
12
63
14
10
60
11
7
59
11
9
59
11
9
58
8
9
59
9
10
61
9
13
62
10
14
65
10
16
68
11
18
71
11
19
71
11
19
71
10
18
76
13
22
82
19
28
86
22
36
89
21
42
92
23
51
96
24
62
98
25
71
107
29
87
116
37
103
129
47
123
135
52
132
130
45
128
124
39
122
132
47
130
144
59
142
167
81
168
180
95
186
210
124
221
213
128
229
208
123
227
210
127
233
201
119
227
195
113
221
222
143
248
184
107
211
144
67
171
142
66
174
184
110
221
199
125
240
162
86
208
139
62
190
139
58
195
142
62
195
168
90
210
200
123
237
224
146
255
229
150
255
215
135
255
206
126
247
204
124
239
220
140
251
234
155
255
236
157
255
219
137
248
175
92
208
148
65
183
162
78
199
168
87
208
160
80
203
152
74
196
136
62
183
104
33
155
74
8
131
79
14
140
98
39
165
136
80
205
98
47
165
66
18
127
54
11
103
48
8
81
39
4
60
34
2
43
29
0
28
30
3
18
29
6
12
29
7
10
27
1
2
27
0
0
47
2
0
93
32
29
139
61
57
155
65
64
147
53
51
133
43
42
114
33
32
87
19
20
63
7
8
47
1
3
34
0
1
30
5
8
26
7
9
26
5
10
25
4
9
26
3
11
32
6
17
40
12
26
47
16
31
47
14
31
59
26
43
81
44
61
83
46
63
73
35
50
73
35
50
76
35
51
62
23
41
54
16
37
66
29
47
75
37
52
69
27
39
57
14
23
59
12
22
61
13
25
58
7
24
55
6
27
55
4
35
83
27
76
111
50
117
128
60
145
164
90
189
175
97
206
172
89
203
169
81
194
163
76
183
154
70
168
140
57
147
123
44
125
118
43
112
117
46
106
112
43
97
114
47
91
114
48
86
114
49
83
114
49
79
203
135
210
214
146
221
233
167
239
244
182
249
246
184
251
249
189
253
253
194
255
253
194
255
186
126
200
142
78
156
156
87
167
110
34
108
94
13
79
111
26
81
118
30
72
124
31
62
149
49
73
164
61
78
167
67
77
162
65
74
159
62
71
148
52
64
131
32
52
119
21
46
132
33
62
165
65
101
179
78
118
185
86
132
200
101
156
231
134
201
213
116
193
210
112
195
228
129
211
225
123
206
217
113
192
212
103
182
209
98
175
205
97
172
203
97
169
200
101
168
173
83
147
127
46
105
87
14
69
73
10
57
68
12
49
56
7
37
50
5
28
61
7
23
94
23
27
138
57
54
159
73
72
137
49
45
122
33
27
139
50
42
143
55
45
120
33
23
115
27
17
123
35
25
152
63
55
176
87
79
156
69
59
115
33
21
98
20
7
101
27
14
104
31
22
104
35
28
105
38
30
107
40
32
104
40
31
101
36
30
100
35
29
99
34
28
95
30
26
95
30
26
94
30
28
91
30
27
88
29
25
81
26
21
76
23
19
70
21
16
64
19
16
61
17
14
56
15
11
52
13
8
49
11
8
45
10
6
45
10
6
47
9
6
43
2
0
50
6
3
60
12
8
65
16
11
68
15
9
69
14
9
69
14
7
69
16
8
66
13
7
66
16
9
67
16
12
65
16
11
62
13
9
60
11
7
58
10
8
58
10
8
58
8
9
59
7
9
60
8
12
62
7
12
64
7
14
65
8
15
68
8
16
69
8
16
73
10
19
73
10
19
74
11
22
76
12
26
83
16
34
88
20
45
93
22
56
95
22
65
93
16
68
105
27
87
114
33
100
110
28
100
105
21
98
107
23
100
113
29
107
117
32
113
123
37
124
141
54
148
163
77
174
188
102
203
192
105
210
198
112
219
211
128
236
199
118
223
217
139
241
226
148
249
181
104
206
134
59
162
169
96
203
206
132
243
177
103
218
149
73
195
152
72
203
171
92
219
204
127
239
231
156
255
237
160
255
214
136
245
185
106
221
173
94
209
174
94
207
199
120
229
233
154
255
250
171
255
239
157
255
188
105
219
152
69
185
174
91
207
205
122
240
195
114
232
180
101
218
164
86
205
142
69
187
116
46
168
88
22
148
68
6
133
103
44
172
99
45
169
102
49
163
83
35
135
50
7
87
39
0
64
41
4
55
33
2
36
29
2
19
30
7
15
29
7
10
23
0
0
22
0
0
45
2
0
90
32
28
130
59
53
137
56
52
129
44
41
118
37
34
97
26
22
66
6
5
47
0
0
37
0
0
24
0
0
24
5
7
22
6
9
21
4
10
22
2
11
24
3
12
30
6
19
38
11
28
45
16
36
47
15
36
66
33
54
88
53
75
82
44
67
56
17
38
50
11
32
59
17
39
54
14
38
47
9
34
60
22
45
66
27
45
60
19
33
55
11
24
60
14
27
63
15
31
61
10
29
62
8
34
70
14
51
111
51
103
147
81
152
163
90
180
179
100
205
183
100
214
184
97
214
171
82
198
165
76
186
158
72
173
146
63
155
131
49
133
124
46
121
123
48
113
117
46
102
115
45
95
114
47
90
114
48
86
114
49
83
205
137
214
218
150
225
235
169
241
239
177
244
236
174
241
239
179
243
247
186
253
248
187
255
176
114
191
127
60
139
172
99
180
140
62
138
104
21
89
109
21
81
119
27
76
131
37
74
152
53
81
163
62
80
164
66
81
163
65
78
160
62
77
149
50
70
136
33
60
128
27
59
153
51
88
188
87
127
198
97
141
203
105
154
195
97
156
232
135
204
249
155
233
230
135
217
201
102
185
192
89
172
190
83
163
199
91
167
209
99
172
209
100
168
203
97
163
197
97
159
166
75
132
123
43
94
87
15
61
74
12
51
67
12
44
54
6
30
47
2
22
58
6
18
97
26
30
136
55
52
162
76
75
147
58
54
126
35
30
140
50
42
147
57
48
123
35
25
117
27
18
123
33
24
155
65
57
179
90
82
156
69
59
113
31
19
101
22
7
112
36
22
116
42
31
120
47
40
123
53
45
123
53
45
118
48
40
111
40
34
107
36
30
105
34
30
104
34
32
104
34
32
102
34
33
99
34
32
95
34
31
94
35
31
93
35
33
90
37
33
80
32
30
75
31
28
69
28
24
63
24
19
57
20
14
54
17
11
53
16
10
52
15
9
47
6
2
52
8
5
59
11
7
63
14
9
64
14
7
67
14
8
67
14
6
68
15
7
65
12
6
65
14
10
67
16
12
66
15
11
62
13
9
59
10
6
58
8
7
58
8
7
63
11
13
64
12
14
66
11
16
68
11
17
69
12
18
72
13
19
73
12
20
74
13
21
73
10
21
76
13
24
84
18
32
91
25
39
96
29
47
97
29
52
95
24
54
92
20
57
98
23
66
105
28
80
108
28
87
101
21
84
99
16
84
106
23
93
117
34
106
123
39
117
128
42
129
135
48
143
137
49
149
151
64
168
161
74
181
165
79
188
181
98
204
188
107
210
181
103
204
224
146
245
206
131
226
154
80
177
173
101
201
207
134
239
183
110
218
157
83
198
161
83
205
200
122
241
235
160
255
248
174
255
231
156
251
191
115
215
164
87
193
161
83
192
166
87
194
192
113
220
226
147
254
244
165
255
238
156
255
194
111
225
165
82
196
192
109
223
228
144
255
231
147
255
224
142
253
207
129
241
191
113
232
168
94
215
132
62
187
97
30
161
80
17
148
83
24
152
113
55
176
118
65
173
78
29
120
46
2
77
43
1
64
38
1
45
29
0
23
29
6
16
28
5
11
21
0
0
24
0
0
49
8
2
89
34
29
119
55
46
114
41
34
109
34
28
102
31
25
84
23
18
55
6
2
39
0
0
30
0
0
17
0
0
19
5
5
17
5
7
19
4
9
20
3
11
23
3
15
29
6
22
37
12
33
45
17
40
46
13
40
61
26
56
76
39
70
66
27
58
41
0
32
43
0
32
59
14
47
61
17
50
54
13
45
57
18
47
58
18
42
59
18
36
60
16
33
62
15
33
63
14
35
66
12
36
72
15
47
82
19
62
115
47
106
148
76
152
177
97
194
185
101
212
184
96
216
189
99
222
172
81
198
166
77
187
162
74
178
153
68
162
138
56
141
129
51
127
127
52
121
123
52
112
120
50
104
120
50
100
120
51
96
120
52
93
202
133
213
215
148
225
231
165
237
233
170
240
232
171
238
242
181
248
250
189
255
247
184
255
174
110
188
116
47
127
167
92
174
178
97
174
149
63
134
128
38
100
120
27
80
133
38
80
156
57
86
162
63
84
162
63
83
163
64
84
163
61
83
150
47
74
137
33
66
135
30
70
162
59
102
200
98
145
198
98
148
205
106
160
197
98
162
240
144
215
255
167
245
215
120
202
182
80
164
183
78
160
191
84
162
200
89
165
195
84
153
189
81
143
191
86
145
192
93
147
151
61
112
115
33
79
83
12
52
74
13
46
68
14
40
52
5
25
45
1
16
55
4
13
96
25
29
129
48
47
163
77
76
156
67
63
130
39
34
142
49
42
154
61
53
131
41
32
120
30
21
124
34
25
157
67
59
185
95
87
162
75
65
118
34
23
107
28
13
123
45
32
135
58
48
139
62
54
140
66
57
135
60
54
125
50
44
115
40
34
110
35
30
109
36
30
116
42
39
117
46
44
118
48
48
118
50
49
112
48
46
103
44
40
96
38
36
88
35
31
74
26
22
68
24
21
62
21
17
57
18
13
52
15
9
49
12
6
47
10
4
46
9
3
52
11
7
55
12
6
58
13
7
61
14
8
62
13
6
63
13
6
66
13
7
66
13
7
64
11
7
66
13
9
66
15
11
65
14
10
62
11
8
58
9
5
57
7
6
59
8
7
69
17
19
72
17
20
74
17
23
77
18
24
78
19
25
80
19
26
81
20
27
83
20
29
80
17
26
87
21
33
95
29
43
104
36
51
108
39
57
108
39
60
106
33
60
102
29
59
117
41
79
113
36
80
110
30
81
108
27
83
103
21
83
103
18
85
112
26
97
124
37
115
135
46
136
132
45
140
133
45
145
136
48
152
156
69
176
169
82
189
173
87
194
200
118
220
194
114
213
228
151
245
230
155
246
191
118
210
176
102
199
174
102
202
162
89
194
161
88
195
177
100
212
224
148
255
249
175
255
244
171
255
214
139
230
171
96
189
154
78
178
160
83
185
165
87
189
174
96
198
185
106
211
193
114
221
195
112
226
177
94
208
175
92
206
206
122
234
237
151
255
240
154
255
240
156
255
235
153
255
226
147
255
211
133
253
187
113
238
165
94
224
139
72
204
114
51
182
126
64
189
149
92
205
129
75
173
78
28
113
47
0
72
37
0
50
31
0
27
31
4
19
28
2
13
24
0
2
34
3
1
61
20
16
91
38
32
110
47
40
98
29
22
96
27
20
89
26
19
70
17
11
49
5
2
34
3
0
24
3
2
15
0
0
16
4
6
16
5
9
19
3
13
19
3
14
24
3
20
30
6
28
39
13
40
46
17
48
44
10
47
49
12
53
59
18
60
55
12
57
46
0
46
58
11
57
71
24
70
69
22
66
61
19
59
58
18
53
55
14
44
58
16
40
62
18
41
61
13
37
59
9
34
67
12
43
85
23
60
86
18
67
107
35
99
136
57
140
174
89
192
185
96
212
184
92
217
192
97
223
177
83
203
170
77
191
167
75
182
159
72
169
145
61
149
135
54
133
132
55
127
129
54
119
125
51
112
123
53
107
123
53
105
123
53
103
196
129
209
207
140
219
218
152
226
222
159
230
233
172
241
251
190
255
253
190
255
235
171
245
154
86
163
108
35
116
132
53
134
162
78
155
172
82
152
167
75
138
145
50
106
137
40
85
158
61
94
161
62
90
161
61
87
162
62
88
161
58
88
147
41
77
135
28
70
134
28
74
162
58
107
200
97
150
196
95
151
210
112
171
220
124
188
252
156
227
242
148
226
194
97
178
182
79
162
189
82
162
196
88
163
188
79
147
168
58
121
161
54
110
171
67
118
178
81
126
135
44
87
103
23
60
78
9
40
74
14
40
68
15
35
51
4
20
41
0
9
51
2
8
92
23
26
119
39
38
160
74
73
163
74
70
136
43
38
145
50
44
161
67
59
143
50
42
125
32
24
129
36
28
162
69
61
193
103
94
172
84
74
127
40
30
116
34
20
133
54
41
151
73
61
153
75
65
151
73
63
141
62
55
126
49
41
118
41
33
117
40
34
119
44
39
126
52
49
124
53
49
122
52
50
114
49
45
101
40
37
88
29
25
72
17
14
62
11
7
52
7
2
48
7
1
46
5
1
43
4
0
41
4
0
40
3
0
40
3
0
41
4
0
58
17
11
59
16
10
59
14
8
61
14
8
62
13
8
62
13
6
63
13
6
63
13
6
64
11
7
66
12
10
67
13
11
64
13
10
61
10
9
59
8
7
58
7
6
60
6
6
70
16
16
71
17
17
74
18
21
77
18
22
80
19
24
83
21
26
85
23
28
87
22
30
91
23
34
94
26
37
99
31
44
105
34
50
107
36
54
108
36
56
109
35
58
109
35
60
117
40
72
118
41
77
125
44
87
129
47
96
125
42
98
116
30
93
113
26
94
116
28
106
123
33
123
128
38
136
130
39
142
130
42
146
157
70
177
176
89
196
179
94
198
203
121
221
225
145
242
241
165
255
255
186
255
241
168
255
207
134
224
186
115
209
176
104
203
175
103
203
197
122
223
241
167
255
250
177
255
235
163
249
213
139
228
184
109
200
179
104
199
190
115
210
193
116
210
185
108
204
168
90
191
165
86
193
172
89
203
174
91
207
185
102
216
203
119
231
224
136
249
220
132
244
215
129
240
217
133
244
223
140
254
224
145
255
217
141
255
208
136
255
206
135
255
176
109
238
144
78
204
143
82
199
154
96
199
120
65
158
66
14
96
43
0
61
34
0
32
33
4
22
30
2
16
32
1
9
50
14
16
78
34
33
98
45
39
102
42
34
95
28
22
93
28
22
77
19
15
54
6
2
40
2
1
28
2
3
20
1
3
14
2
6
16
3
10
16
5
13
19
3
16
20
3
21
25
2
28
32
7
37
40
12
50
49
16
61
54
16
67
53
13
66
59
14
71
60
12
72
58
8
69
72
20
82
81
29
91
72
21
80
59
12
64
57
14
59
55
10
49
55
11
44
58
13
44
58
9
39
60
6
38
70
12
50
92
27
70
98
28
82
137
57
128
162
78
166
186
97
203
190
96
216
191
94
223
192
95
224
182
87
207
173
80
194
171
79
186
164
76
176
149
64
155
137
55
139
132
54
130
129
54
123
129
54
119
129
55
116
129
55
114
129
55
114
206
138
221
211
144
224
214
150
226
218
154
228
235
174
244
255
194
255
245
182
253
214
148
222
105
34
112
105
31
110
115
34
111
120
34
107
136
45
114
168
72
135
172
73
128
168
69
115
161
63
101
162
63
94
160
59
89
162
58
91
159
53
91
143
36
78
131
23
72
132
25
79
160
55
112
198
94
153
196
96
158
223
124
188
250
153
220
255
164
236
217
123
199
184
87
166
170
66
145
180
72
148
189
79
150
180
70
133
158
49
104
152
46
94
159
56
99
160
64
101
124
35
67
95
15
44
75
5
31
73
14
34
69
16
32
51
5
16
40
0
7
48
0
3
86
20
22
111
33
31
156
72
70
166
76
75
139
45
43
147
52
46
166
71
65
152
58
50
129
36
28
131
38
30
165
72
64
200
107
99
179
89
80
133
47
34
123
40
26
142
60
46
156
77
64
156
76
65
152
72
61
140
60
51
128
48
39
123
44
37
129
50
43
136
59
53
138
65
59
127
56
52
110
42
39
89
26
21
71
12
8
56
1
0
46
0
0
40
0
0
41
0
0
38
0
0
37
0
0
38
0
0
39
0
0
41
2
0
43
4
0
46
5
0
64
21
15
63
18
13
63
16
10
61
14
8
62
13
8
62
11
7
64
11
5
64
11
7
63
9
7
65
11
11
67
13
13
66
12
12
63
8
11
60
5
8
59
4
7
60
6
6
65
10
13
67
11
14
71
12
16
74
13
18
78
16
21
82
17
23
84
19
25
86
19
26
93
23
33
98
26
38
103
31
45
105
33
47
105
30
50
103
28
48
104
26
48
105
27
51
106
26
55
116
35
68
126
41
82
127
41
90
127
40
95
129
41
102
128
37
106
123
32
109
131
38
129
153
61
160
151
58
162
160
69
174
181
92
198
182
95
200
181
96
199
179
97
197
194
113
208
207
131
221
250
175
255
255
190
255
247
174
255
233
163
252
206
135
229
170
99
193
209
136
226
248
176
255
248
176
255
236
164
248
232
158
247
224
149
240
231
156
249
242
167
255
236
160
250
221
145
235
193
116
212
185
106
211
189
106
220
185
102
218
185
102
218
178
94
208
188
99
217
184
93
210
175
87
200
173
87
198
184
100
211
201
121
232
212
133
250
210
135
254
214
140
255
208
138
255
146
78
201
108
43
161
143
81
188
145
88
185
90
34
123
53
3
74
37
0
38
36
4
25
33
2
18
37
4
15
61
22
27
90
44
46
103
48
45
100
39
36
97
32
28
92
31
28
69
15
13
41
0
0
29
0
0
21
0
4
15
0
6
15
2
12
16
2
17
19
2
21
21
1
26
21
0
31
27
1
40
34
5
51
43
10
63
52
14
75
54
11
80
62
16
88
80
29
104
85
32
110
80
26
104
83
26
105
78
19
99
57
1
76
50
0
63
55
8
62
54
8
55
51
4
48
54
6
46
56
6
44
62
7
47
75
14
58
95
27
78
117
41
103
180
96
173
208
119
213
210
116
226
200
102
225
200
101
230
194
95
224
185
89
212
177
82
198
173
81
190
167
79
181
153
66
161
139
55
141
133
51
133
129
51
126
138
61
131
137
62
129
137
62
129
137
62
127
205
137
222
218
150
233
208
144
222
230
166
242
247
186
255
248
187
255
231
167
241
159
91
166
96
24
100
106
28
104
116
32
107
123
34
102
129
34
98
141
43
100
161
61
113
175
76
120
174
76
115
171
71
107
169
67
104
164
59
99
148
41
85
129
21
70
126
19
73
133
28
87
159
55
118
192
91
157
199
100
165
235
138
205
255
160
231
223
127
199
197
100
177
177
76
154
176
69
147
190
80
153
184
73
139
160
48
106
146
36
85
153
47
87
161
57
92
155
59
87
120
32
56
92
13
34
82
13
31
83
22
37
65
14
23
50
5
12
46
7
10
49
3
5
70
6
7
95
19
19
135
54
53
176
88
86
155
61
59
138
43
37
169
74
68
169
75
67
138
44
36
137
43
35
163
69
61
198
105
97
194
104
93
156
68
56
136
50
37
143
60
46
160
78
64
155
73
61
142
60
48
134
52
41
127
45
34
134
54
45
153
74
67
149
72
66
128
55
49
99
32
26
77
14
9
68
11
4
58
5
0
50
1
0
48
3
0
48
5
0
41
0
0
39
0
0
37
0
0
35
0
0
35
0
0
39
0
0
54
9
3
73
26
20
80
33
27
77
28
23
73
22
18
70
19
15
73
20
16
74
21
17
77
22
19
77
21
20
73
17
20
71
14
20
68
11
17
65
8
14
63
6
12
64
7
13
65
8
14
67
11
14
71
14
20
71
12
16
71
10
15
74
12
17
80
15
21
86
19
26
89
22
29
93
23
31
102
29
40
104
30
43
108
31
47
110
33
49
109
32
52
108
31
51
107
28
50
106
26
53
107
24
54
107
23
57
118
31
73
127
39
87
127
36
93
133
41
104
141
48
118
140
45
126
141
48
139
152
60
159
164
72
173
164
73
178
154
65
171
145
58
163
137
52
155
131
49
147
157
76
169
178
102
190
233
158
241
254
181
255
255
186
255
252
179
255
214
143
235
196
126
215
232
160
242
239
168
246
229
158
238
227
155
239
234
159
250
243
168
255
239
164
255
246
171
255
240
165
250
249
174
255
220
144
235
191
113
214
188
105
219
199
116
234
190
107
225
190
105
226
186
96
220
175
83
207
164
75
193
153
66
179
144
61
169
163
81
189
198
119
228
221
144
255
225
150
255
209
136
254
148
79
196
90
23
138
129
67
174
153
95
195
119
62
156
53
2
77
38
0
43
31
0
23
33
0
19
51
15
29
78
35
44
98
49
52
106
47
49
104
43
42
93
29
29
80
20
20
59
8
13
41
0
8
30
0
11
22
0
15
19
2
20
17
2
25
21
0
31
26
1
40
29
2
47
28
0
51
33
0
59
40
3
72
49
8
84
54
9
92
51
2
93
91
37
131
113
57
154
99
42
139
87
25
124
90
28
127
93
29
126
82
22
112
92
38
114
50
0
65
64
14
73
61
12
67
54
4
55
62
8
58
73
15
65
83
18
72
89
15
74
130
51
117
219
132
213
235
141
238
211
114
227
204
104
228
203
102
232
196
97
226
186
90
215
182
87
205
181
88
202
179
90
196
154
66
166
135
50
141
140
58
143
133
54
133
139
61
136
143
66
138
146
70
142
146
70
142
215
147
232
219
154
236
221
157
235
234
170
246
247
185
255
237
174
245
187
121
195
125
54
130
101
27
102
114
34
107
122
36
107
126
36
100
135
40
98
155
56
110
174
72
120
182
81
125
189
88
128
181
80
120
174
69
110
163
58
101
147
39
88
131
22
77
126
18
78
128
23
89
165
64
132
184
84
154
192
95
166
236
140
211
248
152
224
208
110
183
198
97
173
198
96
170
175
68
140
190
79
147
185
73
132
160
49
100
148
39
80
156
51
84
159
56
83
148
53
73
115
28
45
95
17
31
94
23
37
94
34
44
73
22
29
52
7
10
44
5
6
46
2
1
65
5
4
95
24
22
126
48
46
165
80
77
170
79
76
152
57
51
160
65
59
173
79
71
154
60
52
148
54
46
168
74
66
206
112
104
213
121
110
179
89
78
148
60
46
140
54
39
157
74
58
154
72
58
143
60
46
132
48
37
133
49
38
146
64
53
148
68
59
132
55
47
105
35
27
80
16
7
63
4
0
56
3
0
50
1
0
44
1
0
43
3
0
40
2
0
45
4
0
40
0
0
41
0
0
50
5
0
63
15
11
74
23
19
83
30
26
91
36
33
92
37
34
89
34
31
88
30
28
87
29
27
88
30
28
90
32
30
92
32
31
92
32
34
83
23
31
78
21
30
74
17
26
70
13
22
68
11
20
67
10
19
68
11
18
69
12
19
70
10
18
70
9
17
71
8
16
75
10
18
81
14
23
88
18
28
93
23
33
97
25
36
105
29
42
107
29
45
110
31
50
117
35
57
122
40
63
125
42
68
127
42
71
127
42
75
129
42
77
121
33
73
121
29
76
123
30
83
123
29
89
125
28
97
129
31
106
131
33
116
133
38
130
140
46
143
142
47
149
140
47
151
149
57
164
161
72
178
156
70
171
140
56
154
173
92
184
186
108
194
206
131
214
207
134
216
218
146
230
222
149
238
199
129
218
203
133
221
243
172
250
240
170
243
233
162
240
235
163
247
210
135
228
178
103
198
178
103
198
219
144
235
241
166
249
254
179
255
237
161
251
208
130
229
190
108
219
195
112
230
194
110
232
196
110
233
191
100
229
194
102
227
177
88
206
163
76
189
182
96
203
209
128
231
227
146
251
232
155
255
218
141
253
183
111
223
125
55
169
76
10
120
110
47
152
130
70
170
110
53
148
64
13
88
41
2
47
35
3
27
37
4
23
55
17
32
79
36
45
97
46
51
102
43
47
98
38
40
90
30
32
80
23
30
63
13
25
44
3
21
29
0
20
22
0
26
21
0
33
24
1
43
27
0
49
33
0
60
40
3
70
47
9
82
56
14
96
66
22
111
76
26
125
81
28
132
103
45
157
135
75
189
156
93
208
146
81
197
133
66
182
133
64
180
133
65
178
126
61
165
110
52
139
124
70
146
123
70
140
73
21
85
59
5
67
65
7
66
71
10
70
85
16
79
92
17
82
135
53
127
203
113
200
228
133
233
227
129
242
213
113
237
205
104
232
194
95
222
184
88
214
184
88
211
181
88
205
169
80
190
148
60
164
140
54
151
146
63
151
141
62
145
145
66
145
143
65
141
139
62
140
138
61
139
229
164
246
230
165
245
241
177
255
239
177
252
250
186
255
222
158
232
141
73
150
101
29
105
108
32
107
121
39
113
131
42
110
132
37
101
144
46
103
166
66
116
185
82
129
190
87
130
188
85
128
179
76
119
170
64
110
160
52
101
151
42
97
143
35
93
138
32
98
136
33
104
168
70
143
175
79
153
199
105
179
250
156
230
241
145
217
197
97
170
200
98
172
206
100
172
181
72
139
196
84
143
190
79
132
168
57
100
160
51
83
167
60
86
161
60
78
142
48
62
110
22
34
100
23
31
108
38
46
108
47
54
81
31
34
54
10
11
41
3
2
41
0
0
58
3
0
89
24
20
113
39
36
150
69
65
185
96
92
171
78
71
157
62
56
175
81
73
166
72
64
156
62
54
167
73
65
201
107
99
219
125
115
199
107
96
161
72
58
138
51
34
149
66
48
147
64
48
137
51
36
125
39
26
141
54
44
156
72
62
137
57
48
110
33
25
86
16
8
70
6
0
59
2
0
53
3
0
47
3
0
44
4
0
43
5
0
37
0
0
45
4
0
40
0
0
46
0
0
69
18
14
95
40
37
110
50
49
113
49
49
109
44
42
99
34
32
98
33
31
96
32
32
97
33
33
100
36
36
101
37
37
101
37
38
98
36
41
85
23
34
81
20
35
77
16
31
73
12
27
69
11
25
68
10
24
71
10
25
72
11
26
73
11
24
74
12
25
77
13
27
81
15
29
85
17
32
90
19
35
94
21
38
97
23
40
106
27
46
108
26
48
111
29
52
118
33
62
125
40
71
130
44
79
131
43
81
130
42
84
136
45
89
139
47
96
140
46
99
142
46
107
147
50
117
150
50
123
144
43
123
139
39
125
129
32
125
135
41
137
138
43
143
139
46
150
156
65
170
178
90
194
183
97
198
174
90
186
178
97
189
194
116
202
204
129
212
200
127
209
215
143
227
210
137
226
179
108
200
186
116
204
243
172
250
250
180
253
240
169
247
223
151
235
185
110
205
155
79
179
157
81
181
194
119
212
240
165
248
255
182
255
255
179
255
229
152
248
193
111
222
193
109
230
200
116
240
203
117
244
204
115
243
200
110
234
188
99
217
193
107
218
226
141
245
247
166
255
244
163
255
231
154
255
193
117
225
148
75
183
101
29
139
68
0
109
93
28
132
102
42
140
96
39
133
67
17
90
41
4
47
36
4
27
38
5
22
53
15
28
72
29
36
87
36
41
89
33
36
86
27
31
87
27
35
79
22
37
63
14
36
46
3
33
31
0
33
25
0
38
26
0
49
33
1
64
42
0
78
49
0
89
58
9
101
70
20
117
84
31
137
96
39
152
102
43
161
106
44
169
117
52
180
131
64
195
137
67
199
123
54
183
108
37
167
104
32
160
107
35
161
108
39
156
111
49
148
127
69
156
132
75
156
116
58
134
110
52
126
91
30
100
85
19
90
94
24
96
95
19
93
135
52
132
174
85
175
201
109
210
226
129
242
214
116
235
203
105
228
191
92
218
183
86
215
186
90
216
183
89
213
162
71
188
145
56
166
142
56
157
143
60
152
142
62
147
148
69
150
151
74
152
158
81
161
164
87
167
239
175
253
243
179
255
253
191
255
246
184
255
248
184
255
206
140
214
119
51
128
105
31
110
115
37
113
126
42
117
136
45
114
139
43
106
147
48
103
167
65
115
187
81
129
197
92
135
183
77
123
178
72
118
173
65
114
168
60
112
169
60
118
171
62
127
167
64
133
163
63
136
171
77
153
184
92
169
226
135
212
255
173
248
233
137
211
197
97
170
206
100
174
191
82
150
186
74
133
197
84
136
192
80
126
173
63
100
166
58
84
171
66
83
159
59
71
135
42
50
107
20
26
106
27
32
115
46
51
113
52
57
82
32
33
50
8
9
38
0
0
39
0
0
52
1
0
74
13
8
100
31
26
136
59
53
181
96
91
186
96
88
166
73
66
174
80
72
171
77
69
160
66
58
162
68
60
184
90
82
205
111
101
201
107
95
177
85
70
154
65
49
156
70
53
149
63
46
137
51
36
129
41
27
151
63
51
161
74
64
123
39
29
88
10
0
79
9
0
73
9
0
69
12
3
63
13
2
54
10
1
49
11
0
47
10
1
41
3
0
43
0
0
44
0
0
60
9
5
92
34
32
118
54
54
130
62
61
127
55
56
119
45
46
107
33
34
105
33
34
107
35
38
109
39
41
111
43
44
109
43
44
106
40
42
102
37
43
94
32
47
89
28
46
83
22
40
77
16
34
70
11
29
68
9
27
69
8
26
68
7
25
78
15
34
82
17
37
86
18
39
87
18
39
87
15
37
87
13
36
89
14
37
93
15
39
102
19
45
104
19
48
110
25
56
120
34
69
132
44
84
139
50
94
142
50
99
140
48
99
146
51
107
159
63
124
161
62
127
157
57
127
164
64
137
169
68
148
165
61
146
161
58
147
150
54
144
153
58
152
155
59
159
153
58
160
156
63
167
173
82
185
193
105
205
207
121
218
202
119
211
216
137
226
231
153
239
232
158
243
242
168
255
227
154
243
192
121
215
189
119
208
243
172
252
255
186
255
233
162
242
195
123
209
169
93
191
168
91
193
166
90
190
174
99
194
242
167
252
255
181
255
255
183
255
236
159
255
195
113
224
193
109
230
201
116
243
201
115
242
203
115
238
198
110
230
205
117
230
222
136
243
241
159
255
251
171
255
234
156
255
201
124
226
161
85
193
122
49
157
91
19
129
67
0
106
88
23
123
91
32
126
85
29
116
56
6
75
46
8
47
40
9
27
40
6
22
49
12
20
66
21
26
76
26
29
80
23
29
78
18
26
81
23
37
74
19
42
62
11
44
50
3
47
42
0
53
43
1
65
49
7
79
55
10
93
74
18
117
80
21
129
89
30
140
103
43
157
117
53
173
121
56
182
117
50
181
114
44
179
113
41
179
115
43
181
115
41
180
107
33
170
97
21
156
88
12
146
84
8
140
81
9
134
99
31
140
102
37
137
133
69
163
156
94
180
140
76
160
99
34
116
91
24
104
85
12
93
102
25
105
139
55
141
172
85
179
189
97
198
210
116
226
209
114
230
203
105
224
192
96
219
183
87
213
184
89
217
185
91
215
164
73
192
149
61
173
145
60
163
137
56
149
144
66
152
147
70
152
165
88
170
190
112
196
208
130
214
231
167
241
248
184
255
255
195
255
251
190
255
239
175
249
178
111
188
112
41
121
113
38
120
122
41
120
128
42
117
138
45
115
146
47
111
147
46
104
157
53
106
179
73
122
201
94
140
198
90
139
197
89
138
197
86
139
194
85
142
196
86
149
196
89
157
193
91
164
187
91
165
188
97
174
219
132
210
249
161
239
250
159
236
219
123
197
203
101
174
206
99
171
180
67
133
184
71
125
191
78
122
185
73
111
169
59
88
163
56
76
163
59
70
149
48
54
125
30
34
109
20
22
109
30
33
115
46
49
108
48
50
77
27
28
46
5
3
36
0
0
38
0
0
48
0
0
57
0
0
89
24
20
123
48
43
159
76
70
186
97
89
181
88
81
171
78
70
173
79
71
166
72
64
162
65
58
167
70
63
181
84
75
188
94
82
186
93
78
178
86
71
173
86
67
162
77
57
156
69
52
156
67
53
175
86
72
171
83
71
122
35
26
83
3
0
79
6
0
76
9
0
76
17
9
70
20
9
60
16
7
55
15
5
53
15
6
47
9
0
49
4
0
60
9
6
89
34
31
121
57
57
135
65
65
139
63
65
138
58
61
131
49
51
126
46
47
128
48
49
128
52
54
131
56
60
129
59
61
125
56
59
117
51
55
111
46
54
107
44
61
103
41
64
97
35
58
91
29
52
87
25
50
84
22
47
84
20
46
84
20
46
81
15
42
85
19
46
90
19
49
90
17
47
89
14
47
91
14
48
97
20
54
106
24
60
106
22
56
112
26
63
122
36
75
137
50
93
154
64
115
166
76
130
173
79
139
174
79
143
186
89
158
190
93
164
182
81
157
169
68
146
166
63
146
163
59
146
165
61
150
174
71
162
178
79
170
187
92
184
198
102
200
202
107
207
200
107
211
202
111
214
205
117
217
207
121
218
196
113
205
196
117
206
207
129
215
210
136
221
210
136
225
205
132
222
191
120
216
187
116
208
248
176
255
249
178
255
219
147
231
188
115
205
167
91
191
163
86
190
161
84
186
173
98
193
248
172
255
253
178
255
247
171
255
226
148
249
191
108
222
190
106
228
192
108
232
188
104
226
186
102
216
205
122
230
228
142
249
231
149
251
233
151
251
234
154
253
209
131
233
168
91
195
147
71
180
116
44
154
88
19
128
65
0
104
89
27
124
94
36
123
81
26
107
49
1
63
53
13
47
46
12
28
44
6
19
49
8
16
59
14
17
69
19
22
74
17
23
75
15
27
78
19
39
73
14
46
66
10
55
65
11
71
73
19
94
84
30
116
97
40
135
105
44
148
124
56
169
134
63
181
145
74
194
156
85
207
164
92
218
158
85
216
138
65
198
119
43
178
127
50
188
127
49
185
125
47
183
120
42
177
114
36
171
106
29
161
97
20
152
89
15
140
96
26
142
129
61
170
156
89
192
145
79
177
111
44
139
80
11
102
86
16
105
79
5
92
106
28
114
153
70
160
214
129
223
213
125
225
207
115
224
206
113
227
201
107
221
197
104
221
185
91
215
182
87
213
185
91
215
173
82
201
164
76
188
161
76
179
160
79
174
175
96
185
216
138
222
222
147
230
233
157
245
239
163
253
216
153
223
245
182
252
255
194
255
255
194
255
223
160
231
150
83
160
106
35
115
114
36
120
127
44
126
131
43
121
142
46
118
149
48
114
148
44
103
152
45
101
174
66
118
202
91
142
223
113
162
222
111
162
221
109
165
218
106
165
209
100
165
200
95
164
194
96
169
193
101
176
220
133
212
255
173
251
247
163
241
212
124
202
200
104
178
201
98
171
200
88
160
184
70
132
186
72
121
186
74
112
178
67
99
166
57
80
158
52
66
154
50
57
139
39
41
121
27
27
112
24
23
110
32
32
110
40
42
98
38
38
71
21
20
44
3
1
34
0
0
39
1
0
45
2
0
45
0
0
79
16
11
108
35
29
131
51
44
169
82
75
182
92
84
174
81
73
172
78
70
168
74
66
161
64
57
152
55
46
153
57
45
164
68
56
175
79
65
177
85
70
171
84
65
168
81
62
172
83
67
184
92
77
200
108
95
194
102
91
153
65
55
119
35
25
87
10
2
77
9
0
75
15
5
75
23
12
69
22
14
64
21
12
60
20
12
54
14
6
59
11
7
78
24
22
115
55
54
144
78
79
150
74
76
148
66
70
150
64
67
145
59
62
144
58
61
146
61
64
147
67
70
147
71
73
143
71
75
133
64
67
121
55
59
110
47
56
98
35
56
97
34
61
98
35
62
101
38
65
105
42
71
112
49
78
119
54
86
122
57
89
112
45
78
116
46
82
116
44
81
110
35
74
101
23
65
98
20
62
105
24
67
112
29
73
110
25
67
116
29
72
126
38
86
138
50
101
152
61
120
165
73
136
177
81
152
183
87
161
188
90
167
187
88
170
194
92
176
200
97
186
198
93
185
187
82
175
190
85
178
205
102
194
229
130
221
232
135
228
227
131
228
214
119
219
207
112
214
198
107
210
176
86
186
148
62
159
146
63
155
141
62
151
162
83
172
174
100
187
168
93
184
166
93
185
166
94
193
158
87
181
227
155
241
236
164
248
224
151
240
208
134
229
184
107
209
172
95
199
177
101
201
207
132
227
246
170
255
249
173
255
229
152
248
204
125
230
182
99
217
182
98
222
178
94
216
180
97
213
190
107
213
223
141
241
241
159
255
235
154
249
222
142
239
202
122
221
177
98
203
162
84
193
151
74
188
122
49
164
85
15
127
64
0
103
103
42
137
101
46
129
78
26
101
53
6
61
51
10
40
47
9
22
45
5
14
47
5
9
56
7
10
62
10
12
67
10
17
69
8
23
79
16
43
75
15
53
75
16
72
86
26
98
107
44
133
131
64
169
149
79
195
160
86
207
172
94
216
184
106
228
196
116
239
201
122
247
207
128
255
202
123
251
174
94
225
141
61
192
143
62
193
148
67
198
146
65
196
135
55
186
125
46
174
116
37
165
102
23
151
85
9
135
84
13
133
134
64
180
145
75
187
135
64
170
134
63
165
101
29
128
88
14
111
92
17
110
101
22
114
158
77
169
246
162
255
245
159
255
216
127
233
205
116
224
200
108
217
199
106
220
192
98
218
185
94
215
187
96
217
186
97
213
182
96
205
186
104
206
202
123
215
222
143
232
242
167
252
225
149
237
202
126
217
187
110
204
214
152
215
242
180
243
255
198
255
255
198
255
212
149
219
137
71
145
109
37
119
120
42
126
132
47
132
138
47
127
146
48
123
150
47
116
150
44
106
156
48
106
177
68
125
201
90
143
230
117
169
230
117
169
231
118
174
226
114
173
211
102
169
196
93
164
196
100
174
204
113
190
253
168
249
255
181
255
229
146
226
189
101
179
186
90
164
192
86
160
193
79
149
188
72
133
189
73
118
182
68
102
173
60
88
162
53
72
153
47
57
143
40
43
131
31
31
119
25
23
115
27
25
110
32
30
104
34
34
90
30
30
68
18
17
47
6
4
35
0
0
36
1
0
44
3
0
44
0
0
65
6
0
89
20
13
112
33
28
142
57
50
167
78
70
182
92
83
175
82
74
173
79
71
165
68
59
150
53
44
142
44
33
144
48
36
151
55
41
154
61
46
149
60
42
156
69
49
167
76
58
182
89
74
198
104
92
209
115
105
200
110
101
174
87
78
111
32
25
89
19
11
80
17
8
85
28
19
84
34
27
78
34
25
70
27
20
61
18
11
60
11
7
79
25
23
120
59
58
152
84
85
156
77
80
154
69
74
157
68
72
153
62
67
149
60
64
148
63
66
149
69
72
147
73
74
140
69
73
126
60
62
108
46
49
96
35
43
81
18
39
83
18
48
87
22
52
93
28
58
102
37
69
112
47
81
121
55
91
126
60
96
133
65
104
141
70
112
146
73
118
139
63
109
124
45
93
110
31
79
106
23
75
107
23
73
113
27
76
118
30
80
124
35
89
131
41
102
144
52
119
160
67
138
181
84
163
195
97
180
198
98
186
204
104
194
223
120
212
239
135
230
241
137
234
239
135
232
244
138
236
249
145
240
228
129
220
216
120
210
189
94
188
158
64
161
147
52
154
147
56
159
141
51
151
124
38
135
120
36
130
119
40
129
143
64
153
158
84
173
150
75
168
147
73
168
152
80
180
147
76
172
178
105
194
215
143
229
229
156
248
223
149
246
206
129
233
204
127
231
211
135
235
234
159
252
231
155
243
238
162
252
209
131
232
182
102
213
173
89
211
174
90
214
172
88
209
189
107
217
221
141
236
242
163
252
251
172
255
236
157
248
205
126
218
172
92
191
158
79
186
167
89
201
155
77
196
122
49
167
78
10
123
74
11
116
132
73
165
111
56
137
68
17
86
55
7
57
52
8
33
53
10
20
55
10
17
58
12
15
63
13
14
67
12
15
70
10
18
69
8
24
77
14
45
77
14
59
84
19
83
98
33
115
124
52
154
152
74
193
176
93
223
192
106
239
196
112
234
206
123
241
209
124
243
206
122
243
217
133
254
227
143
255
209
125
247
177
93
215
151
70
191
176
95
216
191
110
231
181
101
222
168
88
211
157
77
200
136
56
179
112
34
156
93
19
142
124
50
171
138
65
182
153
81
193
174
101
209
133
58
163
96
21
124
99
23
123
103
23
118
151
70
165
227
146
241
245
160
255
230
143
248
215
128
233
211
122
228
207
118
226
202
112
226
200
109
226
201
110
227
202
114
226
197
111
218
206
124
224
233
154
246
245
166
255
219
143
231
196
120
210
168
91
187
154
76
175
219
161
220
242
184
243
255
205
255
255
202
255
208
145
216
138
71
148
121
48
130
134
54
141
134
48
135
143
49
135
148
49
131
149
45
122
151
44
114
163
54
121
183
72
138
200
87
151
226
111
176
227
112
177
230
117
181
227
116
184
212
105
175
200
98
171
206
112
186
223
135
211
255
188
255
251
168
248
217
130
211
192
99
180
184
82
158
186
76
149
190
75
144
186
68
126
185
70
111
175
62
90
164
52
76
154
46
62
143
39
48
129
29
31
120
22
21
115
21
19
118
30
28
112
31
28
101
30
28
90
26
24
72
18
16
52
7
2
40
1
0
38
1
0
46
5
1
47
2
0
55
0
0
74
11
4
101
28
21
120
40
33
151
64
55
191
101
93
184
91
84
183
89
81
175
78
71
159
62
53
144
48
36
138
42
30
137
41
27
133
42
24
132
43
25
145
56
38
153
62
44
163
70
55
179
86
71
209
115
103
226
136
125
208
121
111
138
58
47
108
34
25
92
25
16
97
37
29
101
46
39
95
45
38
82
33
26
68
21
15
53
4
0
70
16
14
112
51
50
147
77
79
153
74
77
154
69
72
158
67
72
151
61
63
147
58
60
147
63
63
147
67
68
144
70
71
135
65
67
117
53
53
98
36
37
84
25
31
83
20
39
81
19
44
80
16
43
79
16
45
82
17
49
85
20
54
89
24
58
91
25
61
100
29
69
120
47
92
143
67
116
153
75
127
146
65
121
136
52
111
128
42
103
128
40
101
131
43
103
136
46
107
144
54
118
153
62
131
170
76
152
196
101
182
228
130
215
249
150
240
242
141
235
241
140
236
241
137
236
227
123
222
215
111
210
224
118
218
230
124
224
220
114
212
187
84
176
187
86
178
180
81
174
164
67
162
147
51
148
136
45
141
134
45
139
133
48
141
119
36
126
110
32
118
113
38
123
118
44
131
108
35
127
114
40
135
136
64
163
145
73
172
141
67
162
192
118
215
219
144
245
221
146
251
215
137
247
222
144
254
221
144
250
228
151
253
212
136
234
227
151
251
195
117
227
166
87
204
165
83
207
169
87
213
172
91
211
202
123
232
248
169
255
255
183
255
255
186
255
232
153
244
181
101
196
156
78
180
158
80
190
161
84
198
149
74
192
115
42
159
75
7
116
93
28
128
162
102
188
120
64
137
57
5
67
53
1
47
64
12
35
69
16
26
75
19
28
80
23
29
84
24
26
84
22
25
81
18
27
79
14
34
74
9
43
79
12
65
87
19
92
101
30
122
123
45
155
149
67
191
179
89
223
196
104
237
201
112
232
205
118
233
196
109
224
186
99
214
203
116
231
229
145
255
226
142
255
201
117
231
157
74
188
197
114
228
225
142
255
218
138
253
209
129
244
207
128
243
196
118
230
175
96
211
142
67
186
160
84
206
170
97
214
156
82
195
138
64
175
114
38
146
106
31
136
102
27
128
112
37
132
140
65
158
189
113
204
222
145
239
238
158
255
228
146
244
228
146
244
220
138
236
208
126
226
211
129
231
212
130
232
210
129
231
201
121
218
211
134
228
239
163
253
238
162
252
194
118
209
182
105
199
168
90
191
162
84
186
244
193
250
245
194
253
255
209
255
255
199
255
229
165
239
201
132
212
171
96
181
152
69
159
154
65
157
160
65
157
164
64
154
163
59
146
163
55
140
167
58
141
179
67
149
189
76
158
217
104
186
223
110
192
226
114
196
222
115
193
211
109
183
196
100
172
203
116
187
232
149
221
255
180
255
235
150
231
207
112
196
194
89
174
192
76
157
189
71
145
188
72
135
189
75
126
174
58
93
160
46
71
152
43
64
150
45
60
135
35
45
120
25
29
116
24
25
118
27
26
138
48
47
137
52
49
139
60
56
137
63
60
115
52
45
84
27
20
55
6
0
42
0
0
43
2
0
46
5
3
46
0
0
63
8
1
88
24
15
109
36
27
131
51
42
137
50
43
191
98
93
182
87
83
175
77
74
172
75
68
165
68
59
148
55
40
132
41
23
123
35
15
128
39
23
126
37
21
137
45
30
151
59
44
166
74
59
194
102
87
219
130
114
229
143
128
173
91
77
128
50
37
102
30
18
109
42
33
112
49
40
97
40
31
75
20
13
53
3
0
48
1
0
61
12
8
87
27
26
126
56
56
159
81
81
156
70
71
140
52
51
139
49
49
146
58
57
152
68
66
154
73
72
143
65
63
122
51
49
102
37
33
85
26
22
73
17
18
76
16
26
74
16
31
75
13
34
73
13
38
76
13
40
78
15
44
81
16
46
83
18
50
96
26
62
105
32
75
106
30
79
116
37
94
129
47
109
147
62
129
175
88
157
188
98
170
190
100
172
194
104
178
211
120
197
208
117
196
213
119
203
234
138
227
227
128
219
207
108
201
202
100
199
203
101
200
198
93
194
176
70
171
170
64
165
206
98
200
219
111
213
192
81
183
185
75
172
178
68
163
170
64
156
169
66
157
164
66
153
152
58
144
138
51
132
128
45
125
106
27
108
92
15
95
90
17
99
104
32
116
113
40
130
111
40
132
117
46
142
130
58
158
134
59
164
146
68
178
166
87
202
196
117
234
204
126
245
194
116
236
200
122
244
210
132
254
190
112
232
178
100
222
155
76
201
149
70
195
157
81
207
160
84
208
183
107
229
229
152
255
234
157
251
252
177
255
243
167
255
186
109
203
155
77
179
158
79
188
150
72
184
150
73
187
135
63
175
86
17
124
66
0
97
106
42
128
136
76
148
105
47
108
66
9
62
64
6
46
81
18
39
93
25
38
107
37
48
114
41
50
113
38
43
111
36
41
102
29
40
86
14
36
77
6
46
81
11
71
90
21
102
97
25
125
135
57
169
174
90
211
202
112
235
202
113
233
217
129
241
183
95
205
161
73
185
159
73
184
193
106
219
213
126
239
222
138
250
216
132
244
169
85
197
220
138
249
240
158
255
224
145
254
224
145
252
229
150
255
228
150
252
229
152
255
230
152
255
190
113
227
147
73
186
165
91
202
160
86
197
107
35
143
94
23
127
103
35
134
121
52
145
162
94
181
206
138
223
233
165
248
250
181
255
251
182
255
240
171
252
233
164
245
218
149
229
224
156
233
217
148
228
206
137
218
216
147
228
241
169
253
243
170
255
227
154
246
192
118
215
184
107
209
171
94
200
162
84
193
236
186
245
239
189
248
255
205
255
252
195
255
227
163
237
218
149
229
217
142
227
221
138
228
185
96
190
175
81
175
165
65
161
163
62
154
174
69
161
183
77
165
185
76
165
182
72
161
207
96
188
219
110
201
219
113
201
223
121
204
211
117
193
203
113
185
225
142
212
248
166
238
225
143
219
211
120
200
198
94
181
195
81
168
198
77
157
195
73
146
188
73
132
186
73
119
175
60
91
157
43
66
147
40
58
145
43
57
130
35
43
117
25
28
125
33
34
137
47
46
156
67
63
165
77
73
165
80
77
147
68
63
117
46
40
90
27
18
67
10
1
50
1
0
41
0
0
41
0
0
42
0
0
55
5
0
78
18
10
97
28
21
114
37
31
122
39
33
157
66
63
178
84
82
187
92
88
177
82
76
169
75
65
168
75
60
158
67
48
142
54
34
129
40
24
120
31
17
124
32
17
138
46
31
154
62
47
181
90
72
208
119
101
223
137
120
191
108
92
146
67
52
112
36
23
105
35
25
104
37
28
90
27
18
72
11
6
56
1
0
45
0
0
55
7
3
76
18
16
111
43
42
148
70
70
150
66
64
137
49
48
134
46
44
140
55
52
149
66
62
152
71
68
139
61
57
116
45
41
95
30
26
78
19
15
67
11
10
71
14
20
71
13
25
71
12
30
72
13
33
74
14
39
77
17
42
83
19
46
85
21
48
91
21
55
99
27
67
109
33
82
118
39
96
124
39
104
136
50
121
158
68
142
164
73
152
165
74
154
212
121
201
238
144
228
225
131
217
207
111
200
201
102
193
189
88
182
170
69
163
169
65
162
186
80
178
183
75
174
168
60
159
184
74
173
208
98
197
203
91
191
181
67
163
185
70
163
182
68
156
181
69
155
181
74
156
176
73
152
160
64
138
141
51
123
129
43
114
105
23
95
91
13
88
90
16
93
107
34
115
117
45
129
115
42
131
115
42
134
122
48
147
145
67
177
151
72
189
144
65
184
144
64
185
152
74
196
164
85
210
172
93
221
164
84
215
153
73
206
141
64
194
140
60
191
141
64
192
147
71
197
167
91
217
197
121
245
214
140
253
223
148
243
250
174
255
212
136
227
156
78
177
146
67
172
152
74
184
150
73
185
145
71
182
95
23
131
81
13
112
94
28
118
125
61
139
122
60
127
85
22
79
70
8
57
93
27
65
100
27
47
116
38
51
137
55
69
145
59
72
140
53
62
132
46
55
119
37
51
101
23
47
91
15
61
87
12
77
93
19
108
101
24
128
142
62
177
186
103
221
215
128
243
220
132
244
207
120
227
172
85
190
167
80
187
168
82
189
177
91
198
181
95
204
191
108
216
195
111
222
185
101
213
210
126
237
220
138
248
213
132
237
212
131
233
214
136
235
222
145
239
231
154
250
229
150
255
192
114
223
162
86
195
177
104
212
169
96
204
120
49
155
103
35
136
109
44
138
156
92
179
193
132
212
230
170
244
247
187
255
254
195
255
250
191
255
241
182
250
236
177
243
231
173
234
236
178
239
238
179
243
240
179
246
244
183
252
243
179
255
229
161
244
209
140
229
203
132
228
194
119
220
180
105
210
169
91
200
206
154
216
228
174
236
253
198
255
229
169
239
175
111
187
159
90
171
182
108
195
215
134
226
239
154
247
225
136
228
204
110
204
186
90
180
179
80
170
178
78
164
181
79
165
182
80
166
198
95
184
220
120
208
214
116
201
206
113
193
203
115
191
218
135
207
247
167
238
240
158
232
194
106
184
191
93
176
192
82
169
199
81
167
205
82
162
200
79
148
190
72
130
183
67
112
174
59
90
155
41
64
143
36
54
142
40
53
132
35
44
127
35
38
145
53
54
166
75
74
179
88
85
188
99
95
176
88
84
137
57
50
109
34
28
96
29
20
80
20
10
58
5
0
49
1
0
47
1
1
50
0
0
53
0
0
66
7
3
81
16
12
97
23
20
114
35
31
128
40
39
159
68
67
182
88
86
182
87
81
175
81
71
176
83
68
175
82
65
167
76
58
143
54
38
123
34
20
117
25
12
128
36
21
144
52
37
165
73
58
192
103
87
212
125
108
197
111
96
162
80
66
124
46
33
107
35
23
102
34
25
85
21
12
67
4
0
57
0
0
48
1
0
53
5
1
63
8
5
92
27
25
131
57
56
142
63
59
131
47
45
126
41
38
136
53
49
147
64
60
150
69
66
136
58
54
111
40
36
89
24
20
74
15
11
67
9
8
68
11
17
69
11
23
69
11
26
71
12
32
74
15
37
78
19
41
84
20
46
86
22
48
90
21
52
92
20
58
108
32
79
116
37
94
119
34
99
126
40
111
137
46
123
143
50
130
188
93
175
216
118
201
203
105
190
180
82
167
170
70
158
168
65
156
175
70
162
173
68
160
171
65
157
185
76
169
191
80
174
199
88
182
215
102
194
208
95
187
191
76
167
187
70
158
192
75
156
187
70
148
184
69
144
183
71
143
177
70
138
163
62
128
150
54
118
141
51
113
112
26
89
99
17
83
96
16
85
105
29
103
111
37
114
106
33
115
102
28
115
103
28
123
131
53
162
150
71
186
151
72
189
139
60
179
125
45
168
127
47
172
141
60
189
140
59
188
134
53
184
129
49
180
138
57
188
139
60
188
144
65
192
179
100
227
210
131
255
207
130
244
213
139
236
237
162
253
183
108
203
143
67
167
147
70
174
148
72
180
149
73
182
128
55
162
81
10
112
101
31
127
127
59
146
130
62
139
103
36
103
81
13
72
87
17
71
108
33
74
118
34
58
136
48
64
161
69
84
171
77
91
166
70
82
155
61
75
143
52
70
126
40
69
109
25
75
95
14
83
101
20
112
113
31
139
161
78
192
205
122
238
227
143
255
235
149
255
215
129
236
199
114
218
206
121
224
200
115
216
190
105
206
174
92
194
175
92
198
189
105
216
190
106
220
189
105
219
192
108
219
189
108
213
180
99
201
189
109
206
215
136
228
231
154
248
237
159
255
194
116
225
169
91
200
174
98
206
164
91
196
139
68
170
135
68
163
148
84
171
197
136
214
228
171
240
253
199
255
255
206
255
255
205
255
250
201
255
243
196
250
242
195
247
255
207
255
255
211
255
255
212
255
255
211
255
255
205
255
245
189
254
218
158
230
194
129
209
207
139
226
198
127
221
186
112
211
174
99
200
211
155
220
234
178
243
255
199
255
219
159
231
150
86
164
122
53
134
136
62
149
159
83
173
219
138
230
227
142
233
230
141
233
219
129
217
204
112
199
195
101
185
199
104
188
206
111
195
217
123
209
241
149
234
231
142
224
204
120
197
209
129
202
247
170
240
255
179
249
212
130
204
189
96
176
192
88
173
201
84
173
208
86
171
210
88
165
202
81
148
187
70
125
175
60
103
173
58
87
156
43
63
144
37
53
142
40
53
142
45
54
154
59
63
176
82
83
191
97
97
196
102
100
189
98
95
159
70
66
119
34
29
108
29
24
116
46
38
104
40
31
73
14
8
61
7
5
53
3
2
57
6
5
55
1
1
61
1
1
75
11
11
90
20
22
113
37
39
119
37
39
132
44
43
154
63
60
175
82
75
178
86
75
171
77
65
172
79
62
179
88
70
166
77
63
141
52
38
127
35
22
132
40
27
143
51
36
157
65
50
177
88
72
198
109
93
187
101
86
175
92
78
153
74
61
140
63
53
132
59
52
107
38
31
77
10
4
58
0
0
53
6
0
53
6
0
55
0
0
78
15
10
119
48
46
137
59
57
128
47
44
120
39
35
133
50
46
142
61
58
146
67
63
131
56
53
107
37
35
88
23
21
75
15
14
70
11
13
68
11
18
69
11
23
69
11
26
71
12
30
74
15
35
80
18
41
84
20
44
86
22
48
92
23
54
89
17
55
103
27
74
112
33
90
118
36
102
122
36
107
127
39
115
151
58
138
217
119
202
197
95
179
164
62
146
160
58
144
169
65
152
168
62
150
171
66
151
178
70
156
187
77
164
194
82
168
210
96
181
225
111
196
222
106
189
201
85
166
192
75
156
196
78
154
194
75
143
188
69
133
182
66
129
180
66
126
173
64
122
163
58
114
156
56
110
152
58
110
118
28
82
106
19
74
97
13
73
96
15
81
96
19
89
95
19
94
96
21
103
100
24
115
105
28
132
130
52
162
155
77
189
166
87
204
146
67
186
125
45
168
132
52
177
139
58
186
130
49
178
136
55
184
143
62
190
142
61
189
148
67
195
177
97
222
198
118
241
192
113
228
222
147
248
215
141
236
163
87
185
142
66
166
142
67
170
137
62
167
137
62
167
111
39
141
125
53
152
126
55
147
126
54
138
110
38
114
92
20
86
98
22
84
112
35
91
117
34
78
129
36
63
143
46
63
165
64
80
179
77
91
178
76
89
176
73
90
168
68
92
157
59
97
130
37
92
110
20
94
117
27
123
133
45
155
184
97
212
223
139
253
237
151
255
235
152
255
237
151
255
245
162
255
252
168
255
234
153
246
226
145
238
205
124
219
182
99
203
194
110
221
194
110
224
186
102
216
189
105
217
181
98
204
167
85
185
187
108
200
229
148
240
246
167
255
233
155
255
192
113
218
175
98
202
176
101
204
175
100
201
174
104
200
184
115
204
198
135
214
223
163
233
245
191
253
255
209
255
255
212
255
254
211
255
252
211
255
249
210
254
250
211
255
255
218
255
255
216
255
250
204
253
238
190
242
239
188
245
247
193
255
242
183
251
227
165
240
227
159
242
222
152
240
214
141
233
206
133
225
214
155
223
239
180
248
255
198
255
213
151
226
141
76
156
114
45
128
121
49
135
135
61
150
145
69
159
176
96
185
214
131
221
240
154
241
249
161
247
250
161
243
251
162
244
254
165
245
252
167
248
255
174
254
255
178
255
237
159
234
240
169
239
255
197
255
242
169
240
196
114
188
195
96
178
202
90
176
204
84
173
209
83
167
205
83
156
197
77
139
183
65
117
171
55
94
174
57
86
161
48
68
149
41
57
147
43
54
159
59
67
185
89
93
201
105
107
198
102
103
195
100
98
173
78
74
137
44
39
116
27
23
131
48
44
150
73
67
131
60
54
94
29
23
71
13
11
54
0
0
59
5
5
63
7
10
67
8
12
78
16
21
84
17
24
94
21
28
116
37
42
117
32
35
131
43
41
159
68
63
178
85
77
177
85
72
174
82
67
176
84
69
181
92
78
159
69
58
142
50
37
139
47
34
146
54
39
154
62
47
168
76
61
182
93
77
184
95
81
195
109
96
198
114
103
194
114
105
183
106
98
146
73
67
96
25
21
62
0
0
53
2
0
48
1
0
48
0
0
72
9
4
115
44
42
135
60
57
128
49
45
120
41
37
124
43
40
132
53
49
134
56
54
120
46
45
100
30
32
84
20
21
76
16
16
73
14
18
71
14
21
71
13
27
71
13
28
72
13
31
77
15
36
79
17
38
83
20
41
85
21
45
92
23
52
94
22
59
104
28
75
111
32
89
118
36
102
119
33
106
134
46
124
185
92
173
211
112
194
171
68
151
157
54
137
165
60
144
165
60
144
159
52
134
155
46
127
166
55
134
173
60
138
189
74
151
201
85
160
198
82
153
193
76
146
189
72
140
189
70
136
188
68
130
187
66
120
185
64
115
182
64
114
181
65
114
175
61
110
166
56
103
160
55
98
159
58
100
144
47
92
132
41
85
117
29
79
104
19
76
97
15
79
101
21
92
112
34
110
124
46
132
116
40
138
121
46
151
137
61
169
165
89
198
176
99
213
169
91
210
152
72
193
124
44
167
129
49
174
132
52
177
138
58
183
138
58
181
139
59
182
152
72
193
162
82
203
158
79
194
189
114
217
168
94
193
135
58
160
137
60
162
150
73
177
144
67
171
141
64
166
140
66
163
157
84
176
123
49
136
99
25
104
98
21
93
103
24
90
115
33
95
129
44
101
138
46
93
142
43
72
147
44
63
161
56
73
176
69
85
184
76
91
189
80
99
189
81
107
181
74
116
158
54
117
136
34
117
136
38
139
154
57
170
202
109
226
235
145
255
238
151
255
228
143
246
227
144
250
236
155
255
243
162
255
246
166
253
251
171
255
233
152
244
198
116
218
194
110
221
195
110
227
193
108
225
194
110
221
185
102
206
181
100
195
215
134
226
251
168
255
249
168
255
205
128
222
188
112
210
201
125
223
215
141
236
223
150
242
227
159
246
226
159
239
228
166
239
242
183
247
255
203
255
255
213
255
254
212
252
255
214
254
255
219
255
255
221
255
255
219
255
255
218
255
247
200
254
221
172
228
202
153
209
207
156
215
229
175
237
245
186
254
248
186
255
248
181
255
248
179
255
248
176
255
247
173
255
212
149
220
238
177
247
251
187
255
191
127
205
115
48
128
91
23
106
101
31
117
114
41
130
125
51
140
155
76
165
192
112
199
218
134
220
229
144
227
239
152
233
252
165
244
255
176
254
254
171
249
240
162
238
254
176
252
255
184
255
255
195
255
255
193
255
214
144
214
191
109
183
195
93
176
203
86
174
202
78
166
200
72
155
197
73
145
193
74
132
187
67
115
178
59
97
177
60
87
166
53
73
153
45
61
150
46
57
170
70
78
203
107
109
210
114
115
193
95
94
174
76
73
148
50
47
127
32
28
135
44
39
161
73
69
167
86
82
145
67
63
114
43
39
91
30
25
61
3
1
61
2
4
71
12
18
72
12
20
82
20
31
86
23
32
81
11
21
103
28
35
112
32
35
124
38
37
142
55
48
168
80
70
187
97
86
184
95
81
170
81
67
181
91
80
170
80
69
153
61
50
139
47
34
141
49
36
150
58
43
158
66
51
165
73
58
178
86
73
203
113
102
225
138
128
230
146
136
216
136
129
178
99
94
121
43
39
72
3
0
55
0
0
48
0
0
49
0
0
74
11
6
117
48
43
136
61
58
127
49
45
121
42
38
117
38
34
121
43
41
118
42
42
104
32
33
90
21
24
81
16
20
76
16
18
73
14
20
73
15
27
73
15
29
73
14
32
74
15
35
78
16
37
81
19
40
84
21
42
86
22
46
89
20
49
100
30
67
109
33
80
110
30
89
113
30
98
118
32
107
151
62
142
210
117
198
179
80
162
148
47
127
147
44
125
148
44
123
142
38
115
145
39
114
147
40
112
161
51
122
161
50
118
174
61
125
171
57
119
165
50
109
173
55
113
175
58
111
173
55
107
177
59
107
183
64
106
183
62
103
182
63
103
180
64
103
175
60
99
168
56
94
169
59
96
171
65
101
180
78
115
170
72
110
149
57
98
123
34
82
106
18
76
104
19
84
114
31
101
122
41
120
163
87
177
170
96
193
161
85
185
138
63
164
135
57
166
166
88
198
198
119
234
191
112
229
154
75
194
141
62
181
138
59
178
138
59
178
130
51
170
132
53
170
137
58
175
132
54
166
149
72
178
153
76
178
151
72
177
165
86
191
183
104
209
159
81
183
131
53
152
143
63
158
131
52
143
111
34
116
104
23
100
114
31
101
128
42
105
138
49
107
141
51
105
144
49
93
157
54
83
156
49
67
164
56
72
180
69
85
190
78
92
198
85
103
201
86
115
198
82
127
186
72
141
167
57
144
158
51
157
171
68
183
215
116
233
238
144
255
237
149
253
215
129
230
184
101
205
176
96
195
189
110
199
234
157
239
255
176
255
248
168
255
219
137
237
197
113
224
194
109
226
194
110
224
193
110
218
194
112
212
214
130
224
246
163
255
252
168
255
229
148
241
183
107
198
197
124
213
236
161
252
255
183
255
255
190
255
255
192
255
243
179
255
236
175
242
255
198
255
255
212
255
255
215
255
252
210
250
252
211
251
253
217
255
251
216
255
252
215
255
255
205
255
233
178
245
209
154
221
200
143
211
201
141
211
202
141
211
206
142
216
213
146
225
224
152
234
228
154
239
232
157
242
233
158
243
227
161
235
246
182
255
248
181
255
179
112
191
107
40
120
92
24
107
95
25
111
93
21
107
126
52
139
149
71
157
172
90
175
175
91
176
170
83
164
174
85
165
195
104
181
213
125
201
221
137
212
214
132
206
222
141
217
232
159
232
251
185
255
252
189
255
213
146
217
192
111
187
198
95
178
205
87
173
203
76
163
198
69
149
197
74
141
201
79
136
202
80
127
197
77
113
182
65
91
169
56
76
156
45
62
154
48
60
175
74
80
204
105
108
204
106
107
180
82
81
154
54
52
136
37
32
142
43
38
171
76
72
183
92
89
166
78
74
148
65
61
144
66
62
119
52
46
75
14
11
64
4
6
71
12
18
64
4
16
86
25
40
124
62
77
126
60
72
90
18
29
100
25
29
112
32
31
127
44
38
147
63
53
169
83
70
178
92
79
176
90
77
180
90
79
181
91
80
160
70
59
133
44
30
132
40
27
143
51
38
148
55
40
146
54
39
162
70
57
190
100
89
222
134
124
234
147
138
225
140
135
201
118
114
153
72
69
102
28
25
72
11
8
64
6
2
64
3
0
90
25
21
129
58
54
138
63
60
124
46
42
119
41
37
116
38
36
116
38
38
108
34
35
93
23
25
82
16
20
77
15
20
76
15
22
74
14
22
75
14
29
75
14
32
76
14
35
77
15
38
80
18
41
84
22
45
88
24
48
90
26
52
93
24
55
102
31
71
108
31
83
107
27
88
106
23
93
126
39
117
167
78
158
200
109
189
143
46
125
138
40
115
142
41
117
145
45
118
144
43
113
144
42
108
146
42
105
151
46
105
157
48
105
159
48
101
157
45
93
159
46
90
164
49
92
162
47
88
164
48
85
171
55
90
182
64
98
182
64
96
184
66
100
185
67
101
180
65
98
176
61
92
180
67
97
185
75
104
192
85
115
186
83
113
169
69
105
143
46
89
121
29
80
113
22
81
114
23
90
110
24
97
121
42
123
166
92
177
196
120
210
180
105
196
155
77
176
175
97
198
216
137
242
221
142
251
188
110
220
176
98
210
163
85
197
163
85
197
167
89
201
158
80
192
145
67
179
141
63
172
149
70
177
181
102
207
194
113
218
196
113
219
193
110
214
159
74
177
121
37
135
119
34
128
121
37
125
131
46
129
139
51
125
143
54
120
149
58
117
152
58
111
148
51
102
146
48
89
159
55
80
159
52
70
170
62
77
188
78
91
199
84
99
205
88
107
208
89
119
205
85
131
203
83
154
195
76
166
179
66
172
191
82
197
229
126
241
241
145
255
235
144
247
198
112
213
154
71
175
141
63
162
153
78
163
219
145
224
253
176
255
254
176
255
229
147
249
192
108
219
190
106
220
191
107
219
194
109
212
213
129
225
249
164
255
255
174
255
233
147
246
204
122
220
183
109
196
214
145
226
251
179
255
255
186
255
250
181
255
243
176
253
233
170
241
233
173
237
255
197
255
255
210
255
255
211
255
247
200
246
242
196
242
239
197
243
236
197
244
241
193
251
231
171
245
216
148
233
203
135
220
205
135
221
203
134
217
192
120
204
183
109
196
183
107
195
181
105
195
186
107
198
190
109
201
191
111
200
206
139
216
241
174
251
250
183
255
179
112
192
102
35
115
88
20
103
96
27
110
95
23
107
107
32
115
132
53
136
157
74
156
166
79
160
161
70
149
158
66
143
168
74
148
179
86
157
201
110
180
210
123
194
203
117
190
201
124
196
237
170
241
255
204
255
241
174
245
201
120
196
204
102
185
210
94
179
209
83
167
202
75
152
203
80
145
212
91
145
217
94
138
215
94
129
187
69
95
169
56
74
155
44
60
155
49
61
175
71
78
198
98
100
194
94
94
172
72
70
152
50
46
143
41
37
166
64
60
203
104
99
198
103
99
162
68
66
153
63
62
174
91
87
135
62
56
85
20
16
68
4
5
67
6
13
52
0
4
92
34
49
174
113
129
199
137
150
86
21
29
83
14
17
94
20
17
116
39
31
128
48
39
136
54
42
158
76
64
186
102
91
183
95
85
191
101
92
168
78
69
131
41
30
124
32
19
136
44
31
140
47
32
134
41
26
150
58
45
177
85
72
210
120
111
226
137
129
226
137
131
219
131
127
187
102
99
142
63
59
95
27
24
85
22
17
86
18
15
109
40
35
141
67
64
139
64
61
121
43
39
115
37
35
121
43
43
116
40
42
104
32
35
90
21
24
82
15
22
79
16
24
78
18
26
76
16
28
73
12
28
74
12
33
75
13
36
78
16
41
82
20
45
86
24
49
91
27
53
94
30
57
98
31
66
100
29
73
100
26
79
101
22
87
103
20
92
135
51
129
176
89
168
176
85
164
131
39
112
141
48
118
134
39
107
136
40
104
136
37
101
125
25
85
132
32
86
143
41
91
141
35
81
143
37
77
158
50
86
158
49
81
147
36
68
157
44
72
169
55
81
160
46
71
173
59
84
179
65
90
189
75
101
198
81
108
194
77
104
187
70
97
186
69
95
188
74
99
191
79
103
194
84
109
188
81
111
172
68
103
157
58
102
152
54
105
146
48
107
135
43
108
115
32
102
117
36
112
135
54
133
170
88
170
203
120
208
229
148
240
237
156
251
211
129
229
155
73
175
162
81
184
148
67
172
155
74
179
183
102
207
162
81
186
121
40
145
117
36
139
136
53
157
180
95
198
193
108
211
185
98
202
174
86
190
166
75
178
164
72
171
155
64
157
160
68
155
166
73
153
164
71
142
162
68
130
161
64
118
151
53
100
148
49
93
162
61
95
155
49
72
158
51
67
177
67
80
196
84
96
205
90
103
207
90
108
210
90
118
209
88
133
209
86
153
207
87
174
194
77
181
206
96
208
240
136
247
244
146
255
233
141
242
184
98
197
151
70
173
153
75
174
152
76
164
211
136
218
251
174
255
253
174
255
222
140
242
175
91
202
175
91
203
176
93
201
184
100
198
218
134
228
255
173
255
244
158
255
201
114
221
178
95
199
189
115
204
226
157
238
249
180
255
237
168
249
220
151
231
211
144
221
214
148
220
225
163
230
244
186
245
255
200
255
253
200
252
239
186
238
228
178
231
224
175
231
224
174
233
229
173
244
224
151
240
215
135
234
201
121
220
195
115
212
195
113
211
191
110
205
184
103
198
179
95
191
173
89
183
175
91
185
177
92
185
176
91
184
199
132
211
241
174
253
253
186
255
174
107
187
103
36
116
90
23
103
85
16
97
93
20
101
114
37
117
124
43
122
136
49
127
141
50
127
146
50
124
157
57
129
172
71
141
185
82
151
216
115
183
216
116
186
213
117
189
209
123
196
208
135
206
241
174
245
255
190
255
222
144
220
199
102
183
208
99
182
210
91
171
202
80
155
199
79
141
209
88
141
211
88
132
201
77
111
181
63
87
162
46
65
148
36
52
157
50
60
182
77
82
195
92
95
185
82
83
169
67
65
145
43
39
154
51
46
186
83
78
213
111
107
195
95
93
157
59
56
147
53
51
162
72
71
133
54
49
103
29
26
87
17
19
77
12
18
63
1
14
83
25
39
169
113
126
255
200
212
173
114
120
101
39
40
83
15
12
106
36
28
107
33
24
119
41
29
154
74
63
175
93
82
180
93
84
191
103
93
180
92
82
146
58
46
123
34
20
125
36
22
134
42
27
133
41
26
138
46
33
170
78
65
200
110
101
206
117
109
205
116
110
218
129
125
223
135
133
207
123
121
164
88
88
144
73
71
134
60
59
134
60
57
134
59
56
126
48
44
118
40
38
117
39
37
120
42
42
112
37
41
101
30
34
88
21
28
79
13
23
71
9
20
68
8
20
66
8
23
66
4
25
76
14
37
88
26
51
92
29
56
90
27
56
87
24
53
90
25
57
94
29
63
93
25
66
92
20
68
102
27
84
102
23
89
122
38
113
185
101
179
172
85
164
135
47
123
129
40
108
119
29
91
120
29
88
120
29
86
119
26
79
132
38
88
151
54
99
153
55
96
145
43
80
148
45
75
152
45
73
154
46
69
156
47
68
158
49
68
161
50
67
161
50
66
158
49
68
161
52
71
172
60
82
187
73
96
200
84
107
203
85
109
194
76
98
186
69
88
181
64
83
186
70
91
186
74
98
181
72
101
179
71
107
178
73
116
177
73
124
172
71
127
146
55
116
136
47
111
133
44
112
180
90
160
242
151
228
238
149
229
216
127
211
226
138
225
229
140
232
230
141
235
203
116
211
190
103
198
195
109
206
187
102
196
159
74
168
125
40
134
146
60
157
160
73
170
181
89
188
195
100
200
198
102
202
196
98
197
196
96
194
196
95
187
175
76
159
172
74
149
165
66
131
152
53
108
142
43
89
139
39
77
138
39
70
141
38
65
152
46
66
161
55
69
182
72
83
198
87
96
210
96
106
219
104
119
221
103
129
212
93
133
212
92
153
209
91
169
208
93
188
210
101
206
228
127
233
249
154
255
234
144
244
192
108
206
151
70
173
150
72
173
179
103
194
225
149
237
255
176
255
247
167
255
205
122
226
159
75
186
154
71
179
169
86
190
213
129
223
250
167
255
244
159
253
214
128
229
195
106
222
189
102
215
199
122
218
223
150
239
221
148
237
205
135
221
200
131
214
183
116
196
186
120
194
216
153
223
239
177
242
245
185
247
244
186
245
237
179
238
232
173
237
230
171
239
222
162
234
216
148
231
212
130
230
210
121
229
198
109
217
185
96
202
175
86
192
170
82
186
169
81
183
170
82
182
172
85
182
168
81
176
162
75
169
159
72
166
201
134
213
240
173
252
254
187
255
173
106
185
98
31
110
87
20
99
86
18
95
97
25
101
112
36
110
119
37
109
126
39
110
135
42
112
146
47
114
159
54
120
171
65
129
182
72
135
218
108
171
222
113
178
219
116
185
216
120
192
204
122
194
218
145
218
248
176
250
250
172
248
211
118
198
203
100
181
209
96
174
213
96
167
205
85
147
205
84
137
210
85
129
201
77
111
173
53
78
158
43
60
153
41
55
170
63
73
198
93
98
208
105
106
190
88
86
168
66
62
148
45
40
159
56
51
194
91
86
218
115
110
195
93
89
159
59
57
157
59
58
171
77
75
156
68
66
135
54
51
125
49
51
114
43
49
86
20
30
73
13
25
105
49
60
146
93
101
131
76
81
82
26
25
67
6
3
87
23
14
99
29
19
108
34
23
133
55
45
157
75
64
179
92
85
189
102
93
184
95
87
154
66
56
127
39
27
122
33
19
127
38
22
129
40
24
137
48
34
167
78
64
195
105
94
195
107
97
189
100
92
200
111
105
214
125
121
210
125
122
202
121
120
181
103
101
162
84
82
151
73
71
139
61
57
123
45
41
112
32
31
109
31
31
117
41
43
110
35
39
98
27
33
86
19
28
78
15
26
76
16
28
78
20
35
81
22
40
94
32
53
100
38
63
106
43
70
105
42
71
96
33
64
87
23
57
83
17
53
82
15
56
88
19
64
103
30
83
103
27
89
118
38
107
162
80
154
191
107
184
150
63
141
122
36
107
122
34
95
113
26
79
117
29
80
120
32
80
119
30
74
132
41
82
149
55
91
149
54
86
149
50
78
150
51
72
153
52
70
155
53
67
158
53
67
160
54
66
162
55
65
161
55
65
157
52
66
158
53
68
164
57
73
175
64
81
184
71
89
188
73
90
186
69
87
183
65
81
185
67
81
189
72
88
190
75
92
185
71
94
182
69
99
181
69
105
180
69
111
175
68
114
164
62
112
167
68
122
175
76
133
206
106
166
232
133
197
208
109
176
176
78
151
182
84
161
216
119
200
209
114
196
188
93
177
180
86
170
185
91
177
186
94
177
182
90
173
167
78
160
173
84
168
176
84
171
183
87
177
192
93
184
203
100
192
207
102
195
206
100
190
203
98
183
176
72
149
166
64
130
152
51
107
144
42
89
137
37
73
133
34
62
135
36
57
138
37
53
140
38
51
147
41
51
162
55
61
178
72
76
198
87
93
219
108
115
234
118
137
230
115
146
215
99
148
207
92
159
200
88
172
208
101
195
233
131
231
249
153
253
238
148
246
217
131
232
182
101
206
186
107
212
205
127
226
238
161
255
255
175
255
223
142
244
177
94
202
155
71
182
153
70
178
189
107
209
242
158
252
255
178
255
228
142
239
185
98
205
171
81
204
176
88
210
204
123
228
230
152
251
233
155
254
221
146
241
219
146
238
203
130
219
191
122
203
206
140
214
247
181
252
249
184
252
242
180
245
230
168
235
223
160
231
221
157
233
215
148
228
208
133
224
200
113
218
204
110
224
198
104
218
185
91
203
168
74
184
158
65
172
158
65
169
162
70
169
161
71
167
156
67
159
151
62
152
147
59
146
211
144
223
240
173
252
253
189
255
171
107
183
93
29
105
88
22
96
85
18
89
95
25
95
107
32
99
109
28
94
116
28
89
126
32
92
142
41
99
156
51
108
169
57
113
174
59
116
216
97
155
226
108
169
226
113
179
221
118
187
207
115
188
200
118
192
230
152
227
255
188
255
230
143
221
207
110
189
211
105
180
224
110
180
210
92
153
203
80
134
207
80
125
199
74
108
171
51
76
159
44
61
160
48
62
185
75
84
214
108
112
220
116
117
195
91
90
167
63
60
150
47
42
165
62
55
206
101
95
222
119
114
192
88
85
165
63
59
173
71
69
184
86
83
175
81
79
165
75
74
160
76
76
147
71
73
115
46
51
81
20
27
66
9
15
61
9
13
76
26
25
58
7
4
50
0
0
69
9
1
94
27
18
104
31
22
119
40
33
142
59
51
169
84
79
182
97
90
186
99
90
165
78
68
136
50
37
121
33
19
121
34
17
126
39
22
130
43
26
160
72
58
190
102
90
193
105
95
180
91
83
177
90
83
184
96
92
187
99
97
188
100
99
169
85
83
152
71
68
142
63
59
131
53
49
121
43
39
117
39
37
119
41
41
116
40
42
107
35
39
96
26
34
86
20
30
81
19
32
82
21
37
84
25
45
87
28
48
98
36
59
98
34
60
96
31
61
91
26
58
85
21
56
84
19
59
88
21
64
92
24
71
90
20
72
99
25
84
119
43
108
165
85
156
192
110
184
168
84
159
122
36
109
118
33
98
113
26
79
108
22
67
115
28
71
120
34
73
120
33
68
129
40
72
139
49
75
139
47
70
140
47
66
141
47
63
144
48
60
146
49
58
149
49
57
149
50
55
151
50
54
151
50
56
151
54
63
150
53
64
154
52
65
157
52
66
162
54
67
169
57
69
175
60
73
178
62
73
189
72
81
194
77
86
196
80
91
193
76
92
190
74
95
189
75
101
189
74
107
186
72
108
185
75
114
191
80
122
197
87
132
206
96
145
204
96
148
184
75
132
170
62
124
180
71
138
193
86
154
184
79
148
172
69
140
174
73
143
169
68
138
160
60
130
166
66
136
163
66
135
164
71
141
164
71
142
170
72
147
179
77
153
189
82
162
194
85
164
195
84
161
193
83
156
171
62
127
154
49
105
141
38
83
139
38
72
137
37
61
130
32
47
124
27
36
122
26
30
120
21
26
120
20
22
129
26
27
140
38
36
158
53
50
180
74
74
196
87
93
192
84
100
193
83
118
191
80
131
192
83
151
205
98
180
226
123
214
237
140
237
241
147
244
239
151
253
222
139
247
227
145
255
236
155
255
243
162
255
232
149
255
192
109
217
158
74
186
153
69
181
164
81
189
213
131
233
255
182
255
255
177
255
204
119
220
155
69
180
149
60
188
164
75
205
192
105
222
209
125
236
208
124
235
203
121
229
213
135
237
212
135
231
204
130
219
211
139
221
246
175
251
247
179
252
243
176
247
231
164
235
225
154
230
219
148
228
206
134
218
194
117
211
190
103
210
194
101
215
188
95
209
175
83
194
158
66
173
147
56
159
146
54
153
149
58
153
154
64
152
150
61
145
144
55
135
141
53
131
226
159
238
247
180
255
255
192
255
172
108
182
94
31
102
85
22
92
81
16
82
87
21
83
98
27
85
101
24
80
106
22
74
119
27
78
135
35
85
151
45
93
161
51
98
169
53
100
207
85
136
225
104
158
225
109
170
222
113
180
218
118
190
202
112
186
211
129
205
250
169
246
246
164
240
223
135
211
218
117
193
219
109
180
210
91
155
205
80
136
203
75
123
194
68
105
176
57
79
165
48
64
167
52
65
191
81
90
220
114
118
223
119
118
194
90
87
163
60
55
150
47
40
170
67
60
213
108
102
222
117
111
186
83
78
170
66
63
185
83
81
195
93
91
187
87
87
179
84
82
171
81
81
158
74
74
133
59
60
109
43
44
86
26
26
64
10
8
52
1
0
48
0
0
48
0
0
63
6
0
88
24
15
101
31
23
114
37
31
130
50
43
152
69
63
168
83
78
181
96
89
173
89
79
147
63
52
122
39
25
118
32
17
123
40
22
135
49
32
158
72
55
181
95
82
185
99
86
176
89
79
167
83
73
168
81
74
169
81
77
160
70
69
148
60
59
134
50
48
125
46
42
119
41
37
113
38
33
116
41
38
121
45
45
111
36
40
104
33
37
94
27
36
86
23
34
84
22
37
82
21
39
81
22
44
81
22
44
86
22
46
85
21
47
82
17
47
80
15
49
79
15
52
81
16
58
86
18
65
89
21
72
95
24
82
110
38
101
168
91
159
186
106
177
151
69
141
131
48
118
118
33
100
109
25
84
106
23
65
106
22
56
112
28
61
118
33
64
116
32
58
119
34
57
122
37
56
120
33
49
118
30
42
121
31
41
122
33
39
124
33
38
125
35
37
127
35
36
128
36
37
129
37
38
131
42
46
132
43
49
133
40
48
134
39
45
138
37
45
144
40
47
154
47
53
162
53
58
176
66
69
184
71
75
189
76
82
190
76
86
191
76
91
195
79
98
196
82
105
195
81
106
203
88
117
201
86
117
200
84
119
195
81
117
187
72
113
180
67
111
186
72
121
195
82
134
189
78
131
178
69
124
179
72
128
191
86
142
179
74
130
156
53
106
158
55
108
158
58
110
156
59
113
158
61
115
160
61
118
159
55
114
161
53
113
168
58
119
183
71
130
194
82
138
182
74
123
153
48
88
128
25
55
120
21
41
121
23
36
119
23
27
120
25
23
124
29
25
130
32
31
139
41
38
160
61
55
180
82
73
193
92
82
197
94
85
187
84
79
169
64
69
166
60
80
165
60
93
174
70
123
192
87
154
205
102
185
217
116
208
229
132
229
233
140
246
228
140
253
225
142
255
229
145
255
216
132
244
184
100
212
162
78
192
158
73
190
157
73
187
194
111
219
231
148
252
255
175
255
231
149
249
174
91
197
138
53
170
143
54
184
161
71
203
184
94
218
179
90
208
161
74
191
161
74
187
183
100
208
201
120
222
213
136
230
232
156
244
241
168
249
247
175
251
248
176
250
241
169
245
234
159
241
224
149
234
207
131
221
191
111
208
189
101
211
183
93
207
174
81
195
162
70
181
152
60
167
147
57
157
147
58
152
149
59
147
153
64
146
148
60
136
143
56
127
140
53
121
234
167
244
255
188
255
255
193
255
171
108
179
90
29
98
77
17
81
73
14
72
84
21
76
90
22
73
95
22
68
104
23
66
113
25
67
127
31
69
141
39
76
154
48
84
164
52
90
193
74
116
221
101
147
223
108
163
215
105
168
221
115
187
210
112
189
204
113
192
224
141
219
255
176
253
243
161
235
222
128
202
204
99
168
205
86
150
208
83
139
201
73
122
189
63
100
175
56
78
167
50
66
170
55
68
194
83
90
222
113
118
222
116
116
191
87
84
159
56
51
149
46
39
174
71
62
213
110
103
212
109
102
177
74
69
171
68
63
191
87
84
196
92
91
189
85
86
181
78
79
168
73
71
153
64
60
139
55
53
131
56
51
116
51
45
98
39
33
64
9
4
55
5
0
56
3
0
65
8
1
77
14
9
92
23
18
106
33
27
117
38
33
131
51
44
148
65
59
168
85
77
174
92
81
155
73
61
129
47
33
121
38
22
125
44
27
139
56
38
152
69
51
168
85
71
177
94
80
179
95
84
173
91
80
165
80
73
160
75
70
154
64
63
146
56
56
133
50
46
125
46
41
119
44
39
116
43
37
118
44
41
119
48
46
103
31
34
96
27
32
86
20
30
80
18
31
78
17
33
77
18
38
77
17
42
76
16
41
84
20
44
82
18
42
80
15
45
79
14
48
82
15
56
87
19
66
94
26
77
99
30
85
117
45
108
130
58
124
180
103
173
159
79
150
115
34
103
118
37
103
114
33
92
97
15
64
106
25
58
105
25
50
109
30
52
113
31
53
109
28
47
107
26
41
105
25
36
100
20
29
100
19
25
101
21
24
101
21
24
103
23
24
104
24
23
106
25
24
107
26
25
106
26
25
103
25
25
105
26
29
108
26
28
110
25
28
114
23
28
119
27
30
129
33
35
139
39
41
148
45
46
157
53
54
166
60
62
173
64
69
178
68
77
186
76
87
192
82
95
193
82
98
204
91
109
203
90
110
205
91
114
198
86
111
185
72
100
180
69
101
185
73
109
186
76
113
182
72
111
168
59
98
169
63
101
188
84
121
179
75
112
157
53
88
158
54
89
159
59
93
151
54
89
154
56
94
154
54
92
147
45
84
142
36
76
147
38
77
163
55
91
178
70
102
168
64
91
142
40
61
121
20
34
121
24
31
132
36
37
143
48
42
154
60
50
164
70
60
186
89
82
188
91
82
199
101
88
210
113
97
220
123
104
234
135
116
237
137
121
227
129
120
182
82
84
153
52
68
149
47
84
170
67
120
185
82
155
200
96
183
210
106
205
203
104
213
190
99
218
184
98
221
186
98
220
172
87
208
150
65
186
146
61
180
161
76
197
172
87
204
227
143
255
241
158
255
232
149
255
190
107
213
143
59
171
126
42
163
140
53
184
158
71
202
194
106
229
167
78
198
139
50
170
141
54
169
165
79
190
184
101
205
210
128
226
240
160
249
247
170
252
253
176
255
252
175
253
243
166
246
234
156
242
226
147
238
214
134
231
202
120
222
192
104
216
183
95
208
169
79
192
154
65
175
145
57
161
143
56
153
147
61
150
153
66
147
148
62
135
144
59
126
139
55
115
136
53
109
235
168
245
255
189
255
242
178
252
156
95
164
81
22
88
66
8
67
68
11
66
81
21
72
81
18
63
89
21
60
99
23
59
109
25
58
119
28
59
132
36
64
149
46
73
162
53
82
180
65
98
210
91
131
217
103
154
209
97
156
215
103
175
212
105
183
204
107
188
219
132
211
255
182
255
249
171
246
220
130
204
193
90
161
201
82
148
211
83
142
199
72
123
187
63
100
174
52
75
167
49
63
172
56
67
194
83
90
219
110
115
217
111
111
187
83
80
157
54
47
150
47
38
179
76
67
209
106
99
198
95
88
167
64
59
169
66
61
186
82
79
185
81
78
176
70
72
169
65
66
163
61
59
152
57
53
142
53
47
139
56
48
132
58
49
119
52
43
83
24
16
64
9
2
59
4
0
63
5
1
65
4
1
79
14
10
99
28
24
109
34
29
117
36
32
130
47
41
150
67
59
164
82
71
157
75
63
136
57
42
128
47
30
128
49
32
140
59
40
148
70
50
159
78
61
167
85
71
174
92
80
170
88
76
156
74
63
147
62
55
145
55
54
139
51
50
130
47
43
124
47
41
121
48
42
118
47
41
116
45
43
114
44
44
94
24
26
86
17
22
74
8
18
68
6
19
70
9
27
74
15
37
78
18
44
82
20
45
82
19
40
82
18
42
82
18
45
82
17
51
86
19
62
96
28
77
109
40
94
118
48
108
114
42
106
148
75
144
171
94
166
128
51
121
114
33
99
114
34
95
103
23
76
105
27
69
106
28
54
105
28
44
107
29
45
106
30
43
102
26
38
98
23
30
95
20
25
92
17
21
93
21
22
93
21
22
93
22
20
92
21
19
92
21
19
91
21
19
90
20
18
90
20
18
84
16
15
87
19
18
92
20
21
95
21
20
101
21
22
105
24
23
116
28
27
122
32
31
126
32
32
136
40
41
146
48
49
153
53
55
162
59
63
172
69
73
178
75
79
180
75
82
180
73
81
184
74
85
187
79
92
181
73
88
169
60
79
170
63
83
183
75
98
190
84
107
175
68
94
160
56
81
154
52
74
168
66
88
161
59
80
138
36
57
132
33
51
133
34
52
128
31
50
129
32
52
128
29
50
126
24
45
124
21
40
128
23
40
135
30
47
139
37
50
154
53
61
148
49
52
150
55
53
168
73
67
186
92
82
196
102
90
201
108
91
207
111
95
210
112
99
206
108
95
208
108
92
211
112
91
219
121
96
238
140
113
251
155
130
253
157
135
233
137
125
175
79
81
138
41
61
146
48
89
169
67
130
186
81
163
189
83
181
178
76
186
156
62
184
150
61
189
147
58
186
150
61
189
152
63
189
146
60
183
159
73
196
187
102
221
231
146
255
228
144
255
198
114
226
150
67
181
120
37
155
118
34
158
135
50
180
152
67
196
186
98
220
156
69
186
137
50
167
147
60
173
162
76
185
170
85
188
190
106
202
218
135
225
248
166
251
254
172
254
251
169
253
236
154
239
225
142
234
220
138
236
219
134
237
213
127
236
201
113
226
196
108
221
184
94
207
164
75
183
144
56
160
136
49
144
140
54
141
146
62
139
148
63
131
144
60
120
139
56
110
137
55
104
236
168
245
245
179
253
205
142
213
125
64
131
74
15
79
64
9
66
67
13
63
75
18
63
76
15
56
84
19
53
93
22
52
103
25
51
111
27
50
126
34
55
142
45
64
155
52
73
173
60
88
188
72
107
202
90
136
204
92
150
212
96
167
211
100
179
210
108
191
226
137
217
255
184
255
237
161
235
210
122
196
195
94
164
202
83
151
208
80
141
199
72
125
191
66
106
181
59
82
173
55
69
173
57
68
189
78
84
208
99
102
207
102
99
183
80
75
158
55
48
153
52
42
184
83
73
204
101
92
183
80
73
157
54
49
163
60
55
175
71
68
168
64
61
165
61
62
158
54
53
158
54
51
157
58
52
152
55
48
144
54
45
138
56
45
129
55
44
105
38
29
77
17
9
61
2
0
60
1
0
61
2
0
70
7
2
88
23
17
106
35
29
112
33
28
116
36
29
129
49
40
145
65
54
149
70
57
141
64
48
135
56
39
134
57
39
142
64
44
153
76
56
158
79
62
158
79
64
161
82
69
159
80
67
149
69
58
144
61
53
140
52
50
135
47
45
126
45
41
120
45
39
116
45
39
112
43
36
103
33
31
94
26
25
84
15
18
75
8
15
64
1
12
62
0
15
66
4
25
72
13
35
79
16
43
81
19
44
79
16
37
85
22
43
91
27
54
93
28
62
93
26
69
96
28
77
104
35
90
110
40
102
119
47
113
176
103
174
167
90
162
106
29
97
105
25
88
102
23
80
103
24
72
112
35
71
103
28
48
103
30
41
104
28
40
101
28
37
98
27
33
97
27
29
94
26
25
94
26
25
92
27
23
90
27
22
88
25
20
83
22
17
80
19
14
76
17
13
74
15
11
72
13
9
71
13
11
73
14
10
77
16
13
81
18
13
88
18
16
93
22
18
102
24
22
106
27
23
113
29
27
124
36
35
132
42
42
136
44
45
143
49
50
150
56
57
154
60
61
156
60
61
151
53
54
152
51
55
152
51
57
147
46
54
142
40
51
147
47
59
164
63
77
174
76
89
165
67
80
156
60
72
145
49
60
150
55
63
144
52
57
123
31
36
116
24
27
117
25
28
119
24
30
116
21
27
116
19
26
122
23
28
133
32
36
145
45
45
154
54
54
160
61
56
192
95
88
193
99
89
200
107
92
208
117
99
216
123
106
218
125
107
219
124
104
220
123
104
221
119
104
220
117
100
219
116
97
217
115
92
218
119
88
234
135
103
250
153
120
252
159
126
255
167
142
222
130
119
166
73
81
136
41
71
148
49
104
170
68
144
179
72
168
178
74
185
152
56
182
144
52
185
140
48
181
146
56
188
152
63
193
147
58
186
152
66
189
174
89
210
197
112
231
186
101
220
153
70
188
122
38
159
115
31
153
124
42
168
136
54
182
148
64
188
147
64
180
132
48
159
130
46
157
148
62
171
155
70
174
153
67
168
163
78
172
181
96
187
221
137
223
235
151
236
242
158
244
234
149
240
222
136
233
215
130
233
212
124
234
208
120
233
205
115
229
204
114
228
199
106
220
181
92
200
161
73
175
148
61
155
144
59
144
146
62
139
148
65
133
145
64
123
140
60
111
137
58
105
239
172
249
233
167
241
168
107
177
96
37
101
69
14
72
70
17
69
70
17
61
66
12
48
73
16
48
81
18
45
88
20
43
97
22
42
109
28
45
123
35
51
138
44
58
151
50
66
170
58
82
170
55
86
188
75
118
205
92
146
215
98
168
212
99
177
213
110
191
235
144
224
255
184
255
222
146
220
200
114
185
201
101
171
202
87
154
201
77
139
197
72
130
193
70
116
193
72
103
181
63
85
174
59
76
182
71
80
197
88
91
197
92
89
179
76
69
161
58
49
157
54
45
189
86
77
201
98
91
173
70
63
153
48
44
159
55
52
166
61
58
156
52
49
169
63
63
158
54
53
159
55
52
165
62
57
160
59
51
150
53
44
146
53
45
142
55
46
128
49
42
95
24
18
70
2
0
63
0
0
62
1
0
61
2
0
75
14
9
99
34
28
108
35
29
109
32
26
117
38
31
131
53
43
142
64
52
143
65
52
140
63
47
139
62
44
132
55
37
155
78
60
171
92
75
172
93
78
171
92
79
164
85
72
152
72
61
147
64
56
140
55
50
135
50
47
127
48
43
122
49
43
119
50
43
112
45
39
97
32
28
84
18
19
75
10
14
68
5
13
62
0
11
62
1
16
66
7
25
72
13
33
74
14
39
75
13
36
80
18
39
86
24
45
93
29
56
93
29
64
92
25
69
95
27
78
105
36
93
114
44
107
194
121
190
187
114
183
122
47
114
85
9
73
109
32
88
100
24
71
104
28
67
94
20
47
102
28
41
102
30
34
100
28
32
98
28
30
99
29
29
99
31
30
98
33
29
99
36
31
89
30
24
83
28
21
79
26
20
71
22
17
64
17
11
59
11
7
55
7
5
51
6
3
54
9
6
56
8
4
57
8
4
60
9
5
69
11
9
74
15
11
82
17
13
86
18
15
99
28
26
109
34
31
116
38
36
117
38
34
120
39
36
126
43
39
129
44
41
128
43
38
135
47
43
133
44
40
131
41
40
129
39
39
126
36
36
122
32
34
123
33
35
126
36
38
126
36
36
124
34
34
110
20
19
113
24
18
118
29
21
110
22
12
112
24
12
121
31
20
128
34
26
136
39
32
149
51
42
165
67
58
184
86
75
201
103
92
213
115
102
219
121
108
220
124
110
221
128
111
222
129
112
219
126
108
216
123
105
216
123
105
217
125
104
220
123
104
218
117
99
222
116
100
225
120
101
223
118
96
223
119
90
236
136
102
251
154
119
253
160
126
251
162
132
255
171
152
205
115
115
134
42
65
129
31
78
157
56
122
178
73
157
192
87
188
163
65
184
151
56
184
147
54
184
145
54
183
136
47
175
136
50
175
142
58
180
143
59
180
157
74
192
141
61
176
114
34
149
103
23
138
119
40
155
138
59
176
144
65
182
146
66
179
118
37
140
115
33
131
126
42
138
143
58
152
145
59
150
141
53
140
148
58
145
158
69
153
189
100
184
214
126
213
238
149
241
241
151
247
229
141
245
217
128
236
205
115
228
195
105
219
199
106
221
200
107
221
199
107
218
195
103
210
184
96
196
173
86
180
162
77
162
156
72
147
147
65
131
143
62
120
138
59
107
135
58
102
246
182
255
220
159
229
128
71
139
85
31
91
67
17
68
55
7
49
63
12
45
72
18
44
71
13
35
78
17
33
87
21
35
95
23
37
104
24
37
116
28
42
130
37
48
144
42
56
155
42
62
173
54
82
181
62
102
192
75
127
212
96
161
217
107
180
214
116
193
218
130
208
255
181
254
241
164
232
206
121
186
195
101
163
199
93
155
198
82
145
203
80
145
199
75
135
193
71
120
181
62
100
176
61
90
183
72
89
194
87
93
200
95
92
185
82
73
162
60
48
152
49
40
196
91
85
212
107
103
179
74
71
150
42
40
148
43
40
162
54
52
165
60
56
171
63
61
171
66
63
172
69
64
171
68
63
169
66
61
167
65
60
168
66
61
168
69
64
146
52
50
112
27
24
85
7
3
76
7
2
70
6
4
60
2
0
65
10
5
85
28
21
101
36
30
109
41
32
118
45
38
124
50
41
129
51
39
130
52
39
132
55
39
133
56
40
136
57
42
152
73
58
168
86
72
171
89
75
172
90
78
172
90
78
160
80
69
147
67
58
133
50
44
134
51
47
128
51
45
122
49
43
119
49
47
111
46
44
93
29
29
73
11
14
68
7
12
67
6
13
67
7
17
68
8
20
68
10
24
72
14
29
75
17
32
78
19
37
87
28
48
91
31
56
92
29
60
94
32
69
96
30
76
92
25
78
101
33
94
179
110
175
174
103
171
109
38
104
100
29
89
103
33
85
95
24
68
97
27
61
91
23
46
94
26
41
100
27
34
100
28
29
100
28
29
99
29
27
99
30
25
99
32
26
97
32
26
94
33
28
85
30
23
69
22
14
53
12
6
42
7
1
34
3
0
30
0
0
30
0
0
33
2
0
31
0
0
31
0
0
35
0
0
38
0
0
45
1
0
50
5
2
58
7
4
63
10
6
78
20
16
83
24
18
93
30
23
101
37
28
110
41
34
115
42
35
116
41
35
116
42
33
110
33
25
109
32
22
106
27
20
98
19
12
90
11
4
87
7
0
90
10
1
96
14
3
92
10
0
95
12
0
98
15
0
106
21
1
118
32
9
135
49
24
154
67
40
168
78
52
190
94
70
199
99
76
209
109
86
219
119
96
225
124
104
225
126
107
222
122
106
217
120
104
225
127
116
222
126
114
216
120
108
217
123
111
225
132
117
220
127
112
215
122
105
223
128
110
219
117
102
222
119
104
222
116
100
221
116
97
224
120
95
225
124
94
235
138
106
247
156
125
253
169
141
247
164
146
247
161
162
155
66
84
124
28
66
150
50
102
160
60
122
188
87
165
166
64
166
158
58
172
150
53
169
142
48
168
134
46
166
130
46
167
127
48
167
126
49
163
125
48
160
125
49
157
126
51
154
129
55
154
132
58
155
131
57
152
123
52
146
121
48
138
103
26
108
117
36
113
129
47
121
141
55
126
148
59
127
148
56
123
155
59
130
169
73
147
195
100
182
215
120
210
227
132
232
230
134
241
234
140
250
233
141
252
214
122
231
194
102
211
196
103
217
177
84
198
176
87
195
170
82
186
155
67
167
153
67
158
150
67
149
148
66
138
143
63
126
141
62
117
139
62
108
136
61
102
241
179
252
226
166
236
127
72
139
74
23
82
66
18
66
63
15
53
64
14
43
66
13
33
70
13
28
77
17
27
86
20
30
94
22
33
103
23
34
114
28
39
129
36
47
142
40
53
147
34
52
165
47
73
177
59
94
192
74
122
211
97
156
215
106
174
207
106
182
206
115
192
242
160
234
255
184
252
238
158
221
206
121
180
201
105
166
200
91
156
202
81
152
201
76
144
192
70
129
180
62
110
178
62
97
185
73
95
197
87
96
200
95
92
187
83
74
163
59
48
159
55
46
201
94
88
210
102
100
181
73
73
161
53
53
164
56
56
172
64
62
176
68
65
178
70
67
178
70
67
175
70
66
173
70
65
173
70
65
175
72
67
179
74
71
181
75
75
159
59
59
136
42
40
112
28
26
94
20
17
73
8
4
59
1
0
63
10
6
76
23
17
92
32
24
100
36
27
111
41
33
119
45
36
123
46
36
125
47
35
126
48
35
126
49
33
134
55
40
147
68
53
160
78
64
161
78
64
159
75
64
158
76
64
152
74
62
148
70
60
131
51
44
130
49
45
126
48
44
121
47
44
116
48
45
108
44
44
90
28
29
72
13
15
68
9
15
67
8
14
68
8
16
67
10
19
69
12
21
71
15
26
75
19
30
76
19
34
81
22
42
85
25
51
87
26
57
84
22
61
93
30
75
91
26
80
103
35
96
188
119
184
143
72
138
90
20
82
86
17
72
93
26
70
90
23
58
98
33
57
98
34
48
103
38
44
99
29
31
100
29
27
100
31
26
100
31
26
100
31
24
98
31
23
95
30
24
92
32
24
79
26
20
62
19
12
44
11
4
35
7
3
28
4
0
22
1
0
24
0
0
27
3
3
25
1
0
25
1
0
29
1
0
32
2
0
38
4
2
45
7
4
51
10
6
56
11
5
61
12
5
65
15
6
73
19
9
79
22
11
87
25
14
89
25
13
92
24
13
93
23
11
89
20
5
90
21
5
93
21
6
90
18
3
89
16
0
92
16
0
100
23
5
106
28
8
118
37
16
128
46
22
145
61
35
163
78
49
178
92
59
193
104
70
205
115
80
213
121
84
217
119
84
220
120
86
223
123
89
225
125
93
225
126
97
225
125
99
226
125
105
226
126
110
228
127
115
232
134
123
232
134
125
227
131
119
224
128
116
219
126
109
217
124
107
221
126
108
218
117
99
221
118
99
221
116
97
220
115
93
223
117
91
223
123
91
229
135
99
242
154
118
241
161
128
239
161
139
250
169
165
215
129
140
141
48
75
137
41
79
156
58
105
176
78
139
174
72
156
162
60
159
146
48
151
135
42
148
130
42
152
127
45
155
122
44
153
116
43
148
120
50
149
118
49
142
115
46
135
112
44
129
107
40
120
101
34
113
94
27
104
92
22
95
89
14
81
108
28
91
126
42
102
139
51
109
149
56
109
151
57
110
157
59
118
169
70
135
200
102
179
219
120
210
223
125
226
219
121
230
224
127
240
226
132
244
216
124
231
208
116
223
191
99
208
179
87
198
173
84
190
155
67
169
138
51
148
140
54
143
143
60
140
146
65
134
142
62
123
141
63
115
138
62
108
136
61
102
239
177
250
233
173
243
133
76
144
70
19
78
66
18
68
65
17
57
63
13
42
64
11
31
69
12
27
76
16
26
85
19
29
92
20
31
99
22
32
112
26
37
126
33
44
139
39
51
143
35
51
160
46
69
169
55
88
183
70
113
205
92
146
209
100
165
202
99
172
200
106
182
231
147
222
255
191
255
255
193
255
236
162
221
217
131
192
200
101
166
198
82
155
202
78
150
192
70
129
184
64
112
183
64
102
189
75
101
199
87
101
203
94
97
189
81
78
167
60
52
168
61
55
202
93
88
202
92
91
177
67
66
174
64
65
182
72
73
184
74
73
187
77
76
182
74
72
181
73
71
178
73
70
179
74
71
181
77
74
184
80
77
187
81
81
187
83
82
176
73
74
161
67
65
147
61
60
120
45
42
81
13
10
58
0
0
59
6
2
67
14
8
88
27
22
96
32
23
108
38
30
116
42
33
121
43
33
121
41
30
121
42
29
121
42
27
130
53
35
140
61
44
150
68
54
148
66
52
142
60
48
138
59
46
140
62
50
143
65
55
132
52
45
131
50
46
126
48
44
119
45
42
112
44
41
103
39
39
86
26
26
72
13
15
69
10
16
67
10
16
67
10
17
68
13
19
70
15
21
72
16
25
74
18
27
76
20
31
78
19
37
81
21
46
84
23
54
72
10
47
89
26
71
87
23
75
107
39
98
191
122
185
125
55
118
87
17
77
86
18
69
87
20
61
82
16
44
89
25
42
89
26
35
91
26
30
97
29
28
99
29
27
101
32
27
100
33
27
99
32
26
95
30
24
91
28
21
86
27
19
69
19
12
55
12
5
39
6
0
32
4
0
24
3
0
21
0
0
21
0
0
23
2
1
20
1
0
20
1
0
25
1
0
30
2
0
35
4
1
42
7
3
48
9
4
51
11
3
51
7
0
55
7
0
60
8
0
63
10
0
69
10
0
73
11
0
78
12
0
79
12
0
77
11
0
84
17
0
94
24
0
102
30
6
110
36
11
121
45
21
135
55
30
147
63
35
169
84
55
181
94
64
199
108
77
213
120
86
220
126
90
220
127
86
220
124
84
220
123
81
222
123
82
225
123
83
224
125
84
222
123
84
220
120
86
220
121
89
225
125
99
228
129
106
219
120
101
208
111
95
198
100
87
190
94
78
196
100
84
211
116
96
218
123
103
214
118
94
218
119
90
221
121
89
221
118
87
221
116
84
222
118
81
220
121
80
226
133
89
236
152
106
236
159
117
239
164
133
255
178
162
255
177
179
175
87
103
122
29
56
141
47
81
165
69
117
182
83
150
175
76
156
158
63
147
136
43
132
116
27
121
103
19
113
98
21
115
101
28
118
96
26
112
95
28
108
91
27
103
87
24
94
81
19
86
77
15
80
75
13
78
79
10
73
95
17
75
118
35
89
137
50
101
146
57
105
153
60
107
157
59
108
158
59
113
164
64
126
201
101
174
220
120
206
219
121
220
208
111
218
211
115
225
215
121
231
216
124
231
222
131
236
185
96
202
174
85
191
167
79
183
150
62
162
137
50
145
138
52
139
138
55
133
144
63
130
140
62
120
139
63
112
137
62
105
135
60
99
242
180
253
227
167
237
130
73
141
76
25
84
66
16
67
59
11
51
61
11
40
66
13
33
68
11
26
75
15
25
84
18
28
89
19
27
97
20
30
107
24
32
122
31
40
133
36
47
146
41
56
160
51
72
164
56
82
174
64
101
192
82
131
200
91
149
202
97
166
208
110
185
242
156
229
242
169
238
255
194
255
255
203
255
243
167
231
205
114
181
192
84
159
195
78
149
193
73
135
188
67
120
188
68
113
195
77
111
201
88
108
205
93
105
193
83
86
172
62
61
172
63
60
197
88
85
189
79
78
168
58
57
179
69
70
192
82
83
191
81
80
192
82
81
182
74
72
181
73
71
179
73
73
181
76
73
184
80
79
188
84
83
189
85
84
190
86
85
192
89
90
183
87
88
177
89
88
150
71
67
96
26
24
59
0
0
54
0
0
60
7
1
83
24
18
93
30
23
106
37
30
116
43
36
121
44
36
123
45
33
123
45
32
123
46
30
122
45
29
126
49
31
131
52
37
134
52
38
128
49
36
127
48
35
131
53
41
138
60
50
137
56
52
133
54
50
127
49
47
116
45
43
108
40
39
96
32
32
81
21
21
68
12
13
68
12
15
67
12
17
68
13
18
69
14
19
71
16
22
70
18
22
72
19
25
72
19
27
78
21
36
79
20
42
80
20
48
70
8
45
84
21
66
82
18
70
116
48
107
178
110
169
106
36
96
83
14
69
85
17
64
84
18
54
79
14
38
86
22
36
88
26
31
88
24
24
94
29
27
98
30
27
101
34
28
100
35
29
98
33
27
92
29
22
85
25
17
80
23
14
61
12
5
47
7
0
35
2
0
27
2
0
23
2
0
19
0
0
18
0
0
19
1
1
16
0
0
18
0
0
21
2
0
27
4
0
33
5
1
39
9
1
45
11
2
49
11
2
53
11
0
54
10
0
59
12
0
64
13
0
72
15
0
77
18
0
84
21
4
89
24
2
97
32
2
106
40
6
119
50
17
133
60
28
143
68
36
158
79
46
174
91
57
185
99
64
192
102
67
200
108
71
212
116
78
218
120
81
219
120
78
217
119
74
216
115
71
215
114
68
222
121
75
225
124
78
226
128
81
225
127
82
223
124
83
223
124
85
226
127
95
230
131
102
185
85
61
143
44
21
109
10
0
110
14
0
146
50
26
195
101
75
220
124
99
214
119
87
219
121
82
225
124
82
224
121
80
222
119
76
223
120
75
220
122
73
224
133
80
233
152
97
242
168
119
241
172
131
250
178
153
253
176
166
215
130
135
127
39
53
117
28
48
150
59
92
165
71
121
177
81
142
179
84
148
162
71
140
135
47
121
106
22
99
86
8
84
82
8
83
76
6
76
75
10
74
73
12
71
71
11
65
69
9
61
72
10
61
77
15
66
85
17
68
108
29
77
135
48
93
151
62
106
156
64
105
159
62
103
157
59
100
156
54
101
155
55
109
192
91
159
218
116
199
220
120
216
207
110
213
208
112
220
207
113
223
209
117
224
221
130
235
201
113
217
183
95
199
169
81
183
153
66
163
144
57
151
142
57
142
138
56
132
144
63
130
138
60
118
137
61
110
135
60
101
133
58
97
245
181
255
202
141
211
109
52
120
76
25
84
67
17
68
54
6
46
59
10
39
65
14
33
65
11
25
72
15
24
80
17
26
87
17
25
94
17
27
103
20
28
118
27
36
128
32
43
144
42
56
159
54
71
161
57
80
164
59
90
179
70
112
188
79
134
200
94
160
215
115
187
252
164
238
219
143
215
230
168
233
255
209
255
255
195
255
218
137
206
190
92
169
190
79
155
195
78
146
194
72
131
194
73
126
199
80
122
204
86
118
208
92
113
199
84
97
180
67
73
175
62
66
194
81
83
178
68
67
160
50
49
176
66
65
193
83
82
191
83
81
193
85
83
188
80
80
185
77
77
179
73
75
177
71
71
179
75
76
185
81
82
192
88
89
195
92
93
203
103
105
195
99
100
194
102
103
176
92
90
121
47
46
70
5
1
52
0
0
56
3
0
71
16
11
82
23
17
97
32
26
110
41
34
120
47
38
126
52
41
132
56
43
134
58
42
121
45
29
120
43
27
120
41
28
121
42
29
122
42
31
126
46
35
134
56
46
141
62
55
141
62
58
135
57
55
126
51
48
114
44
42
100
35
33
85
24
23
73
15
14
66
10
11
68
12
15
68
13
16
69
14
17
68
16
18
69
17
21
69
17
19
70
18
22
70
17
23
75
18
33
74
16
38
74
14
42
75
13
50
82
19
64
85
21
73
130
62
119
155
87
144
91
24
78
81
15
63
84
17
58
83
18
48
79
16
33
86
25
32
91
30
29
90
29
24
92
29
24
95
32
27
99
36
31
98
37
32
95
35
27
88
29
21
80
21
13
71
17
7
55
6
0
43
3
0
33
0
0
27
2
0
23
2
0
18
0
0
15
0
0
15
1
0
12
0
0
14
1
0
18
3
0
25
6
0
31
8
2
38
11
2
44
11
2
46
12
0
56
19
3
61
19
3
66
21
2
73
25
5
85
30
10
94
37
17
105
44
23
112
48
21
131
65
31
141
72
33
153
81
43
162
87
48
170
91
52
179
96
56
190
102
62
199
107
66
199
103
61
204
105
63
210
109
65
214
111
66
215
112
67
219
114
67
222
117
70
222
120
71
223
122
70
223
123
71
225
125
73
224
124
74
220
122
75
220
122
77
223
124
85
224
126
89
191
92
60
146
47
16
117
18
0
132
34
5
172
75
43
211
117
83
228
131
98
220
124
84
222
124
77
226
126
74
226
125
73
224
123
71
225
124
70
221
125
67
224
136
73
233
153
90
247
178
119
243
177
127
242
174
137
237
165
141
240
160
151
163
82
81
103
21
27
123
39
54
149
59
87
166
74
111
180
87
131
183
91
140
173
84
138
145
57
115
110
29
87
93
16
72
86
16
68
84
18
66
79
16
59
74
14
52
72
12
48
76
14
51
86
22
59
96
26
63
127
42
81
152
60
97
165
71
107
166
69
104
165
65
99
161
60
94
156
54
93
156
53
100
181
77
138
208
106
182
219
119
209
213
115
216
211
114
221
202
109
216
197
105
212
205
114
219
218
130
232
203
115
215
186
99
196
156
69
163
135
51
139
136
53
135
139
57
131
144
63
129
137
60
116
135
59
106
133
58
99
131
57
94
243
179
253
182
121
191
87
30
98
69
18
77
68
18
69
57
9
49
60
11
40
61
10
29
64
10
24
71
14
23
78
15
24
83
16
23
90
14
24
99
18
25
114
24
33
123
30
40
134
36
49
152
51
67
158
56
77
160
57
84
171
65
103
181
73
122
197
89
149
214
113
181
245
155
227
212
132
203
208
141
210
241
176
244
255
191
255
239
162
232
201
113
189
192
91
167
197
85
157
195
79
144
196
78
138
199
81
133
203
86
130
208
93
126
202
88
113
186
74
90
179
65
75
191
80
86
178
68
71
159
51
51
172
62
63
188
80
80
193
85
85
196
88
88
202
93
96
196
87
92
185
79
83
177
71
73
175
71
72
183
80
81
196
93
94
207
104
105
209
109
111
203
105
106
201
107
108
192
104
103
150
72
72
93
23
21
58
0
0
55
2
0
55
5
0
65
12
6
80
23
16
96
33
26
110
43
34
121
51
41
130
58
46
136
62
49
137
64
49
136
60
46
131
53
41
125
47
35
127
47
38
134
54
45
143
63
56
147
68
63
140
62
60
131
55
55
120
49
47
108
40
39
90
29
28
75
15
15
65
9
10
63
9
9
66
11
14
67
12
15
66
14
16
67
15
17
68
16
18
68
16
18
66
16
17
67
14
20
67
10
25
68
10
34
71
10
41
80
18
57
85
22
69
101
37
89
138
70
127
131
63
120
87
20
73
84
19
62
84
18
54
82
18
42
80
18
31
83
23
25
87
26
23
87
27
19
89
28
23
93
32
27
98
37
32
99
40
34
95
36
28
85
28
19
74
17
8
64
12
1
52
5
0
42
2
0
31
1
0
28
3
0
24
5
1
17
1
1
14
0
0
12
0
0
8
0
0
11
2
0
18
5
0
25
8
1
31
11
4
37
13
3
43
13
3
47
13
1
58
22
6
63
25
6
73
28
9
82
34
12
95
43
21
108
52
29
117
59
35
127
63
35
146
76
40
156
82
43
167
89
50
173
94
53
177
94
52
182
95
52
191
98
54
198
101
56
208
107
61
211
109
61
215
110
63
216
111
63
217
111
63
217
111
63
219
113
63
220
116
63
217
116
60
215
116
59
214
115
60
213
113
61
212
115
64
215
117
70
217
119
74
218
119
78
225
126
87
206
108
71
199
101
64
211
113
76
224
126
87
228
132
90
226
129
86
220
124
76
222
123
68
227
127
68
226
125
69
225
125
66
226
126
66
222
127
63
224
137
70
232
154
88
247
182
118
243
182
125
234
171
127
239
173
139
244
169
148
208
130
118
125
46
39
106
26
25
134
48
57
155
66
84
171
81
106
182
91
122
184
92
131
162
71
114
130
43
86
115
32
74
109
33
71
102
31
65
96
27
58
91
25
53
92
26
53
99
34
58
111
43
68
124
48
76
162
71
102
179
82
113
187
88
117
183
83
111
179
75
102
170
65
95
165
60
93
167
62
103
170
65
121
193
90
161
211
109
195
213
113
211
208
111
216
196
103
210
188
96
203
187
96
201
198
110
210
203
116
213
205
118
213
169
83
174
130
46
132
131
48
128
139
57
131
140
59
125
135
58
112
134
58
105
132
57
98
130
56
93
241
177
253
190
128
201
91
34
103
66
14
76
68
18
69
59
11
51
59
10
39
59
8
27
63
9
23
70
13
22
76
15
23
81
14
21
88
12
22
97
16
23
109
22
30
119
28
37
134
38
52
149
50
68
156
54
75
159
57
81
171
66
99
181
76
117
195
91
144
214
114
178
232
139
209
212
126
197
205
128
198
208
135
206
231
158
229
250
174
246
227
146
222
199
111
185
198
94
169
197
85
159
196
82
151
198
84
146
201
86
141
206
93
137
205
91
127
193
80
108
186
73
93
197
87
100
187
78
84
166
60
64
170
61
64
184
78
80
196
90
92
201
95
99
214
105
111
210
101
107
202
93
99
190
84
88
184
79
83
188
85
88
203
100
103
213
113
115
211
108
111
208
108
110
204
105
108
198
106
107
174
92
94
120
49
47
71
10
7
56
3
0
44
0
0
50
5
0
61
12
5
74
21
13
86
27
19
98
35
26
109
42
33
116
48
37
133
63
53
140
67
58
140
65
59
134
57
51
132
53
49
139
58
55
143
62
61
143
63
62
131
55
57
121
49
50
111
43
42
98
34
34
81
21
20
64
8
7
59
5
5
59
8
7
63
11
13
64
12
14
66
14
18
67
15
19
67
15
19
66
14
18
65
13
17
64
11
21
64
7
26
66
7
35
74
14
48
82
21
62
91
27
77
122
57
111
129
64
120
106
41
97
80
13
64
79
14
56
77
12
44
77
14
35
80
18
29
82
22
22
85
26
20
88
29
21
88
29
23
92
33
27
98
39
33
99
42
35
95
38
29
82
28
18
68
16
5
58
8
0
51
7
0
42
4
0
35
2
0
31
6
0
26
7
3
18
4
3
12
0
0
10
2
0
8
0
0
10
3
0
17
6
0
25
10
3
32
13
6
38
16
5
44
16
5
47
15
2
59
23
7
64
26
7
73
31
9
84
38
15
98
46
24
111
55
32
119
61
37
129
64
36
143
69
34
154
74
37
165
83
45
172
87
48
176
87
45
181
88
45
187
90
45
193
92
46
197
95
47
202
97
49
206
100
52
208
102
52
208
104
53
209
105
54
211
107
56
212
111
57
213
114
57
211
112
55
210
111
56
212
112
60
215
115
65
215
115
66
212
111
65
208
107
63
218
117
73
219
121
76
219
121
76
219
121
76
220
122
75
216
120
70
218
121
70
222
125
70
220
120
61
224
124
64
224
124
65
224
124
64
225
125
63
221
126
62
221
136
69
229
154
86
249
188
121
250
194
133
234
177
124
242
181
137
237
168
137
223
151
127
176
103
84
116
42
29
109
30
23
135
51
51
158
68
77
175
83
98
185
90
114
168
71
102
141
46
78
129
38
71
134
48
77
124
44
69
116
38
60
111
36
56
117
43
60
130
53
71
143
64
83
154
69
90
181
83
108
192
88
113
193
89
114
190
84
107
182
74
98
171
61
86
167
58
87
174
65
104
167
59
109
179
73
139
196
93
174
202
103
196
195
99
199
189
96
202
183
91
198
174
86
190
172
84
184
182
95
190
207
120
214
189
103
192
139
55
140
126
43
121
135
53
125
138
58
121
134
57
113
133
57
104
129
57
97
127
55
93
242
178
254
211
149
222
111
54
123
69
17
79
66
16
67
59
11
51
57
8
37
59
8
27
63
9
23
69
12
21
75
14
22
79
14
20
85
12
19
95
16
22
107
22
29
117
27
36
138
44
58
151
54
73
156
54
75
159
55
78
173
68
98
186
80
118
200
96
145
220
119
177
225
129
193
213
120
190
211
124
195
195
112
184
205
123
195
252
175
247
249
173
245
210
128
202
195
101
177
194
92
168
193
87
162
193
86
156
197
87
150
205
93
149
205
93
141
196
84
122
191
81
110
202
93
114
195
87
102
173
67
77
168
63
70
184
79
86
201
94
102
208
101
109
218
108
119
220
110
119
217
107
116
206
99
105
197
92
97
196
93
96
205
105
107
216
116
118
209
106
109
213
110
113
205
104
108
201
105
107
190
104
105
142
66
66
85
20
18
58
3
0
43
0
0
44
3
0
50
7
0
58
11
3
64
14
7
73
18
11
83
24
16
90
27
20
100
35
29
119
52
46
132
61
59
132
58
59
129
53
55
135
56
61
138
57
63
133
54
60
121
49
53
113
44
49
102
37
41
90
30
32
73
17
18
59
5
5
54
3
2
58
8
9
62
10
12
63
11
15
65
13
17
66
13
19
66
13
19
67
12
18
65
9
18
64
7
22
65
7
31
69
10
42
80
20
58
82
21
65
95
31
83
137
72
128
116
51
109
90
25
79
80
14
62
78
13
53
73
8
38
74
11
30
77
16
24
76
16
16
79
20
14
83
24
16
87
28
22
92
33
27
98
41
34
100
43
36
93
39
29
80
28
17
64
14
3
54
6
0
52
8
0
44
4
0
37
5
0
35
8
0
28
9
3
19
5
4
12
2
1
8
2
2
6
1
0
11
4
0
18
7
3
26
11
6
33
14
7
39
16
8
44
16
5
48
16
3
59
23
7
65
27
8
74
32
10
85
39
16
98
46
24
109
53
30
117
59
35
126
61
33
141
65
33
154
72
35
163
79
42
171
83
45
175
83
44
178
82
40
182
84
39
186
85
39
187
82
35
189
84
36
192
87
39
194
90
39
196
92
41
197
96
44
201
100
48
203
104
49
207
108
51
205
106
49
205
106
51
208
108
56
209
109
59
203
103
54
190
90
41
179
78
32
203
102
56
217
117
68
217
119
70
215
118
67
220
123
70
222
125
70
220
124
66
224
125
66
219
116
58
223
120
61
222
122
62
222
122
62
224
124
62
220
125
61
220
135
68
227
154
86
255
196
128
255
209
144
239
184
127
234
176
126
231
166
124
218
150
115
221
152
121
140
70
44
100
25
4
115
36
23
131
43
39
156
64
69
189
88
102
188
85
106
165
63
87
152
52
78
161
66
90
151
58
79
137
49
65
132
44
60
136
48
62
146
58
72
158
67
82
165
71
87
167
64
85
174
66
89
176
67
90
175
63
85
168
56
78
158
46
68
159
47
72
169
58
91
167
57
104
171
63
123
183
79
154
190
90
178
185
87
186
183
90
194
183
91
198
172
84
188
173
86
183
167
80
174
199
113
204
199
113
202
147
63
148
119
36
114
127
45
117
139
61
123
133
56
112
132
56
105
128
55
98
126
54
92
245
181
255
228
166
241
119
62
131
59
7
69
65
15
66
61
13
53
63
14
43
52
3
22
59
7
19
65
9
18
72
12
20
77
15
20
86
15
21
96
20
24
111
26
31
120
30
39
144
52
67
162
65
84
176
74
95
179
76
97
190
83
111
210
102
136
221
115
161
222
118
171
218
117
177
223
122
188
221
121
191
209
113
185
206
116
186
219
136
206
241
164
234
255
181
253
217
130
208
202
109
189
192
95
174
196
95
171
196
93
164
200
94
158
205
96
153
197
87
136
205
95
134
202
95
125
200
94
116
191
86
103
177
72
87
182
77
92
202
95
113
214
107
123
219
111
126
219
109
122
218
110
123
221
114
124
217
112
119
209
106
110
204
103
107
206
105
109
207
104
108
208
103
108
208
105
109
209
110
113
202
112
114
167
87
86
111
41
39
65
7
3
46
1
0
39
0
0
41
0
0
45
4
0
50
5
0
55
7
3
62
11
7
72
17
14
85
25
25
95
33
34
99
33
37
117
47
55
120
47
58
113
37
50
122
44
58
116
40
53
97
29
40
98
35
44
79
19
27
59
4
9
60
8
12
59
9
12
50
1
4
50
1
4
55
5
8
61
8
14
66
13
21
68
12
23
66
10
21
64
6
20
64
6
21
66
7
27
59
0
30
82
22
60
76
15
57
75
13
62
110
47
102
126
63
120
104
39
97
84
19
73
78
12
60
76
11
51
74
11
40
73
12
30
76
15
23
79
19
19
83
24
20
85
26
20
91
34
27
96
39
32
99
42
33
96
39
30
84
30
20
72
20
9
63
14
0
60
12
0
53
7
0
47
8
0
53
17
5
52
24
13
32
11
6
12
0
0
6
0
0
4
0
0
4
0
0
14
4
2
25
14
10
34
19
14
40
19
14
42
17
12
44
15
7
47
15
4
53
17
3
54
15
0
57
14
0
66
19
0
79
29
6
94
40
16
108
50
26
121
55
29
135
60
29
147
67
34
155
71
37
156
71
34
161
71
34
171
78
37
177
80
37
177
79
34
177
76
30
179
77
29
182
80
31
184
84
34
188
88
38
190
93
42
194
97
46
196
99
46
196
99
44
194
98
40
194
97
42
197
100
47
203
103
53
206
106
57
206
106
57
204
104
55
210
110
61
213
113
63
217
117
65
218
119
64
219
120
63
219
120
61
220
122
61
222
122
62
220
117
59
223
120
62
220
120
61
221
121
61
226
123
64
222
126
65
221
136
72
226
152
87
251
194
125
255
217
150
243
192
129
229
174
117
234
171
120
220
153
108
214
147
105
214
146
109
119
48
18
106
30
7
120
37
23
141
47
45
151
50
58
177
70
86
191
82
103
172
63
86
170
62
85
168
62
82
169
64
81
171
69
83
175
73
87
180
75
90
179
74
89
179
72
90
178
66
88
185
71
94
191
75
98
190
74
95
186
70
91
182
66
87
175
59
82
165
52
82
162
51
93
154
45
100
163
56
126
180
76
161
184
87
182
185
90
192
179
88
193
169
81
183
166
79
174
169
83
174
177
92
183
207
123
209
186
103
185
136
53
131
131
51
122
133
55
117
128
51
107
128
54
103
129
56
101
128
56
96
240
176
254
220
158
233
122
65
134
65
11
73
65
15
68
59
13
52
59
10
39
52
3
22
59
7
19
63
10
16
70
13
19
77
16
21
87
18
23
98
23
27
112
30
34
121
34
42
142
51
66
158
64
82
174
73
91
182
79
100
198
90
116
217
108
140
227
118
159
225
117
166
224
117
173
221
115
177
220
114
180
217
112
179
209
112
181
211
120
189
224
143
212
243
166
236
254
173
249
237
155
231
221
134
212
221
129
206
218
120
195
213
110
181
207
101
165
191
82
139
203
96
142
203
97
135
206
101
132
201
97
124
190
86
111
195
89
112
210
103
129
220
112
136
223
114
133
222
111
127
220
112
127
222
116
128
219
113
123
211
107
114
206
105
111
210
107
111
213
108
113
211
106
111
208
103
108
203
102
106
191
99
102
167
83
83
123
47
47
79
15
13
51
3
0
42
1
0
40
1
0
42
2
0
44
4
2
46
4
5
53
9
10
62
13
17
74
21
29
81
23
35
85
23
38
93
29
46
97
29
50
95
26
47
97
23
48
87
17
41
95
32
51
80
21
39
67
10
25
59
7
19
54
4
13
47
0
6
46
0
3
48
2
5
59
10
14
63
12
19
68
15
25
71
15
28
71
13
28
69
10
28
70
8
29
70
7
34
74
14
50
68
7
49
75
13
60
116
54
105
153
90
147
134
71
128
96
31
89
86
21
75
77
11
57
75
11
48
73
10
37
72
11
29
75
14
22
78
18
20
81
21
20
83
24
18
89
32
25
93
36
27
96
39
30
92
35
26
81
27
17
70
18
5
64
12
0
60
11
0
57
11
0
53
11
0
58
20
7
56
26
15
37
14
8
15
0
0
6
0
0
4
0
0
4
0
0
11
3
1
21
10
8
35
20
17
48
29
25
56
32
28
62
33
27
62
32
22
57
23
11
57
20
4
57
15
0
60
15
0
67
19
0
78
26
4
89
32
12
99
37
12
119
48
20
132
57
26
143
64
33
146
66
31
152
66
31
159
71
33
165
73
32
168
72
30
174
77
34
175
77
30
177
79
30
178
80
31
180
83
32
182
86
35
183
87
36
184
89
35
192
95
40
191
94
39
191
94
41
194
97
46
200
100
51
203
103
54
203
103
54
202
102
53
205
105
56
208
108
58
212
112
60
214
115
60
214
115
58
214
115
56
216
116
56
218
118
58
220
115
58
221
117
62
220
117
59
218
118
59
223
120
61
219
123
63
220
131
71
223
149
86
253
196
127
255
219
150
243
194
127
231
177
113
237
177
117
228
163
109
225
159
107
226
159
114
183
113
77
116
41
12
98
16
0
128
38
29
147
47
49
164
57
67
183
70
88
184
68
89
184
68
87
180
64
83
176
61
78
179
64
79
185
70
87
189
74
91
188
71
89
185
68
86
193
75
97
204
86
108
211
93
115
207
90
109
198
79
99
190
73
92
186
69
88
181
67
93
176
62
98
168
58
107
171
62
127
177
74
153
181
82
172
181
87
184
176
86
186
164
76
176
158
71
165
157
71
160
159
75
163
184
100
186
193
110
192
181
99
175
168
88
157
143
65
127
130
55
112
128
54
105
126
53
98
123
50
93
231
164
243
204
140
216
127
67
139
72
18
80
65
15
68
59
12
54
54
5
35
54
5
26
58
8
19
63
10
16
69
12
18
77
16
21
89
20
25
101
26
30
114
34
37
123
38
45
140
49
64
152
59
77
168
69
87
183
80
101
203
95
119
222
112
141
229
119
156
228
117
160
226
114
164
223
112
165
222
110
168
218
110
170
211
107
170
205
108
175
213
122
191
221
138
208
255
186
255
250
177
250
235
154
230
236
150
225
242
148
226
240
140
213
237
132
201
222
114
176
224
117
171
226
120
166
229
124
164
226
122
157
217
113
146
217
112
145
223
118
151
229
122
152
227
118
141
226
115
132
224
116
132
224
118
132
222
116
128
216
112
121
213
109
118
214
110
117
218
113
120
213
106
114
207
102
109
194
93
99
177
82
86
165
76
78
137
57
56
96
28
25
62
6
5
49
4
1
41
0
0
39
1
0
37
1
3
37
1
5
42
2
11
50
6
19
58
10
26
69
17
39
77
21
46
73
14
42
77
16
47
88
25
56
88
21
54
88
23
55
65
6
36
58
2
29
52
0
22
48
0
20
47
0
16
44
0
9
46
0
10
55
10
17
65
15
24
68
17
26
72
18
32
75
18
35
75
16
36
78
16
41
81
17
44
82
18
52
70
9
50
95
36
82
137
75
126
164
101
154
151
88
143
107
44
99
80
15
69
82
18
68
73
10
53
73
12
46
74
11
38
73
12
28
74
14
24
76
17
19
81
21
20
83
24
18
91
32
24
94
36
25
96
38
27
90
33
22
80
26
14
70
18
4
66
15
0
63
14
0
65
16
0
61
15
0
66
24
10
63
29
17
43
16
9
19
1
0
8
0
0
6
2
1
6
0
0
7
0
0
14
2
2
30
16
15
50
32
30
63
42
39
71
43
39
70
41
33
65
33
22
63
27
13
58
19
4
55
12
0
56
9
0
62
11
0
68
15
0
76
18
0
95
31
4
108
41
12
121
52
21
127
56
24
136
60
28
145
65
30
154
70
33
160
72
32
171
79
38
173
80
36
176
81
35
177
82
34
178
84
33
178
84
33
179
85
33
179
85
31
185
90
34
185
90
34
185
90
36
188
92
41
192
94
45
195
97
50
195
97
50
195
97
50
199
99
50
202
102
52
206
106
54
208
109
54
209
108
52
210
109
53
211
111
52
213
113
54
218
113
58
219
115
60
217
114
56
215
115
55
220
117
59
214
118
58
215
126
66
218
144
81
252
198
128
255
219
147
240
193
121
228
178
107
240
179
114
234
170
108
235
171
110
237
172
118
237
169
124
159
86
51
98
18
0
104
17
0
137
40
34
150
45
49
164
52
64
185
68
84
193
74
93
189
68
85
184
61
79
185
63
78
191
68
86
194
71
89
191
68
86
187
64
84
178
56
77
184
62
83
185
63
84
173
54
73
164
43
60
160
42
58
162
44
60
162
46
67
174
59
90
171
60
103
173
65
123
176
73
144
176
77
160
176
81
173
169
79
175
160
73
168
159
74
165
155
71
157
150
66
152
150
66
151
159
78
157
177
96
172
185
105
174
175
97
159
143
68
125
136
62
113
128
55
101
124
51
96
219
152
231
182
118
194
125
65
137
77
22
87
65
15
68
60
13
55
53
4
34
58
9
30
59
9
20
62
11
16
67
12
17
75
16
18
87
21
23
99
27
30
112
33
36
121
36
41
133
45
57
145
53
68
160
63
80
178
77
95
198
90
113
214
104
131
225
114
147
229
117
155
224
111
154
227
114
160
225
111
162
217
106
159
212
104
162
212
110
173
211
114
181
203
116
184
248
176
242
241
171
241
211
135
207
202
118
193
213
121
198
227
126
202
248
142
216
251
145
211
244
136
194
244
137
189
244
138
184
238
133
174
229
124
164
224
120
157
224
118
156
227
119
151
227
117
142
228
117
136
225
116
135
225
118
134
225
120
134
222
118
129
220
116
127
219
113
123
218
111
119
211
104
112
204
99
106
187
83
90
165
69
73
161
71
73
147
63
63
111
37
36
74
12
13
58
6
8
45
1
2
37
0
1
31
0
4
29
0
6
32
0
14
39
0
21
40
0
23
79
30
62
107
55
91
90
34
73
76
18
59
80
19
61
74
11
54
80
19
61
82
24
65
87
32
72
67
15
51
48
0
29
50
5
28
46
1
21
43
0
12
56
13
23
64
17
27
70
20
31
75
21
37
77
20
39
78
18
43
84
21
50
95
30
62
102
38
75
119
58
102
140
80
131
156
94
145
133
70
123
97
34
87
83
21
72
85
21
71
81
18
63
75
13
52
75
14
47
78
16
41
77
16
32
77
17
25
79
20
22
83
23
22
86
27
21
94
36
25
96
38
27
97
39
28
92
34
22
83
27
14
74
21
5
73
20
2
73
22
1
72
21
0
67
20
0
71
28
11
69
31
18
46
17
9
21
2
0
9
0
0
5
1
0
6
2
1
4
0
0
7
0
0
22
10
10
47
31
31
67
47
46
73
49
45
72
47
42
66
37
29
66
34
23
62
26
14
56
19
3
54
12
0
56
10
0
61
12
0
65
14
0
72
18
0
83
26
0
95
35
7
104
43
14
116
49
20
128
57
25
142
68
33
154
74
37
160
76
39
162
77
36
167
78
34
171
80
35
174
82
35
175
83
34
175
83
32
177
83
31
178
84
30
179
84
28
180
84
33
182
86
36
185
89
41
188
90
45
189
91
46
189
91
46
196
95
49
199
99
50
203
103
53
205
105
53
207
106
52
208
107
51
209
108
52
213
109
54
217
112
57
219
114
57
216
113
54
214
114
54
217
114
56
214
115
58
212
123
65
214
140
77
252
197
130
255
218
145
236
190
115
223
173
100
238
178
106
235
170
102
239
174
108
243
177
116
243
176
123
220
147
104
142
66
32
94
10
0
113
24
10
135
37
34
144
39
43
170
59
68
190
72
84
189
68
83
190
65
79
192
66
80
194
68
82
194
67
84
191
64
81
187
62
80
180
55
73
180
57
77
177
54
72
169
48
63
165
45
57
165
45
57
161
43
55
158
41
57
159
45
70
159
47
83
165
57
107
174
69
135
175
77
154
171
77
163
165
74
167
159
72
166
155
71
157
153
69
154
157
73
158
144
61
143
131
50
127
141
61
134
158
78
147
174
96
158
152
77
133
142
68
119
131
58
104
125
52
97
211
144
223
160
96
172
116
56
128
79
24
89
65
15
68
62
15
57
54
5
35
62
13
34
61
11
22
62
11
16
66
11
16
73
14
16
84
20
21
96
26
26
108
30
30
114
32
34
127
40
49
137
45
58
152
56
70
166
68
83
183
77
97
196
88
112
211
101
130
222
111
143
224
110
146
226
111
150
224
109
150
217
105
151
216
108
160
217
112
169
212
111
177
199
110
176
239
167
231
246
180
244
216
141
210
194
111
183
194
100
176
197
96
172
220
114
188
231
122
190
239
129
190
236
127
182
229
123
169
223
118
159
219
114
154
215
111
148
215
109
145
218
110
142
224
114
139
227
115
137
226
117
138
227
120
138
228
123
138
228
123
137
225
119
131
222
115
125
211
104
112
205
98
106
198
93
100
181
77
84
158
62
66
158
66
69
151
62
64
121
41
42
86
17
20
68
9
13
47
1
4
37
0
3
29
0
6
24
0
10
28
0
19
33
0
28
53
11
49
141
94
138
207
155
203
197
143
193
178
121
174
172
113
167
167
107
161
176
116
170
177
118
174
149
92
145
93
39
88
52
1
42
44
0
29
43
0
24
45
2
21
59
15
30
62
14
28
70
19
34
77
22
41
78
20
44
78
18
46
86
25
58
105
41
76
117
55
96
140
78
125
127
67
118
115
55
106
95
36
84
79
17
66
82
20
67
87
26
68
76
16
54
78
17
51
80
20
48
84
22
43
84
23
38
82
23
29
83
25
24
87
29
25
91
32
24
97
37
26
99
39
28
97
37
26
91
33
21
84
26
14
78
22
7
77
25
4
80
28
6
78
26
4
75
24
3
77
30
12
74
32
18
50
17
8
22
2
0
8
0
0
3
0
0
3
1
2
1
0
0
4
0
0
19
9
10
44
30
30
63
47
47
71
52
48
71
50
45
57
32
27
61
34
25
63
33
23
63
31
18
63
27
15
63
25
12
67
25
11
70
27
11
62
17
0
64
18
0
71
21
0
78
26
2
90
32
8
104
43
15
120
55
25
134
63
31
142
68
33
147
69
31
153
71
31
158
74
30
162
75
30
163
75
29
165
74
27
164
74
22
169
78
25
172
78
26
174
79
31
176
81
35
177
82
38
180
83
40
182
85
42
183
86
43
192
94
49
196
98
51
202
102
52
205
105
53
207
106
52
207
106
52
209
108
52
213
109
54
216
111
54
218
113
55
215
112
53
213
113
53
216
113
55
212
113
56
211
122
66
213
139
78
255
200
135
255
219
148
235
189
114
223
171
96
238
176
103
236
169
98
240
173
103
244
177
109
238
168
108
249
178
124
202
128
83
123
47
13
94
12
0
109
21
7
133
38
32
152
49
50
171
60
66
180
65
72
190
68
79
194
70
81
192
66
78
188
62
76
185
60
74
184
59
73
201
76
90
207
85
98
214
92
105
215
93
104
211
91
100
205
86
92
194
77
83
185
69
78
162
47
64
149
39
66
149
40
82
165
60
117
179
79
151
175
82
162
164
74
161
158
72
159
155
71
156
148
65
145
154
71
151
142
59
137
127
46
122
131
51
122
137
58
124
151
73
133
151
76
132
142
68
117
129
57
103
123
52
96
210
143
222
144
80
156
104
44
116
77
22
87
64
14
67
62
15
57
57
8
38
62
15
35
61
11
22
62
11
16
63
11
15
70
14
15
84
20
21
95
25
25
105
29
29
111
29
31
123
36
42
129
38
47
140
47
58
156
58
71
166
65
81
176
70
92
192
84
108
208
98
125
219
106
136
215
102
132
215
101
135
218
106
146
217
107
154
212
105
161
208
106
169
205
114
181
238
166
229
255
195
255
230
153
223
198
112
185
187
93
169
182
80
156
206
98
173
224
113
182
230
120
181
225
116
171
215
108
154
209
104
145
212
108
145
214
110
145
216
111
144
222
115
145
221
111
138
223
114
137
225
117
140
228
121
141
231
126
143
232
125
141
226
118
133
220
110
121
204
94
105
199
89
98
189
84
91
174
70
77
156
60
64
156
61
65
149
57
60
127
41
44
96
21
26
73
12
17
51
2
6
38
0
6
29
0
11
23
0
17
27
0
26
34
0
37
52
13
58
172
125
177
246
195
252
251
195
255
245
186
250
244
185
249
250
190
254
252
192
255
209
150
218
145
89
154
89
34
92
59
9
60
43
0
36
44
0
30
52
8
31
51
8
25
59
12
28
66
18
34
74
21
41
74
19
42
76
17
47
85
24
58
101
39
78
115
52
95
95
33
82
86
26
77
93
34
82
96
37
83
83
22
64
75
14
55
78
18
54
76
17
49
81
21
49
85
25
50
90
29
47
89
29
41
87
28
32
88
30
28
91
33
29
95
36
28
100
40
29
102
40
27
100
38
27
92
33
19
85
26
12
82
25
8
84
29
9
87
35
11
84
32
8
81
29
7
82
34
14
78
35
19
52
18
8
24
1
0
8
0
0
3
0
0
2
2
2
0
0
2
3
0
2
9
3
5
27
17
18
40
28
28
47
32
29
49
31
27
38
19
13
48
28
21
62
38
28
71
44
33
74
44
33
75
43
30
78
42
30
80
42
29
64
27
9
58
20
1
56
13
0
59
14
0
69
18
0
80
25
4
91
33
9
104
40
13
124
57
28
132
59
26
139
63
27
146
67
28
152
69
27
154
70
24
156
70
23
157
69
21
163
73
23
166
74
25
170
75
29
172
77
33
172
76
34
174
78
38
177
79
40
179
82
40
189
90
48
193
95
48
199
99
49
202
103
48
204
103
49
205
104
48
207
106
50
211
108
50
213
108
50
215
110
52
212
110
48
210
110
50
216
111
54
211
112
55
211
120
65
212
137
79
255
203
139
255
221
150
235
189
114
223
171
96
238
176
103
237
169
96
239
171
100
242
173
104
243
172
106
242
171
109
237
166
112
184
113
69
106
33
0
91
13
0
124
38
23
136
43
35
148
46
42
164
54
55
180
63
69
188
67
74
186
62
72
179
57
68
178
58
68
180
58
69
194
70
80
207
83
93
217
96
105
216
95
102
207
88
92
200
82
82
193
77
77
189
74
77
177
63
73
154
42
64
138
30
66
150
46
97
175
76
141
180
86
162
166
77
159
155
70
153
155
70
151
147
64
142
147
64
142
131
49
125
123
43
116
137
57
126
145
66
131
150
72
130
149
75
128
142
68
117
134
62
108
130
59
103
215
148
228
136
72
150
93
33
105
75
20
85
62
12
65
61
14
56
58
9
39
59
12
32
61
11
22
61
10
15
63
11
15
71
15
16
86
22
23
98
28
28
108
32
32
114
33
32
121
35
38
123
32
39
132
39
49
149
53
65
157
59
74
161
60
78
172
69
90
187
79
103
201
92
115
205
93
118
211
96
127
212
98
134
205
94
137
199
92
144
203
101
164
207
117
181
216
141
206
255
186
251
230
150
221
199
111
185
190
92
169
179
72
150
201
89
163
218
104
173
233
121
180
227
116
169
211
104
148
204
98
136
210
105
138
213
108
139
213
108
138
218
111
139
218
110
134
224
115
138
227
119
142
228
122
142
231
126
143
231
124
140
224
113
129
212
100
112
198
86
98
192
82
91
179
74
81
164
63
69
157
58
61
153
57
59
145
50
54
130
41
45
101
25
29
77
15
20
53
4
8
37
0
8
29
1
16
26
2
24
30
3
36
35
4
46
96
56
109
207
162
221
247
195
255
246
189
255
246
186
255
244
183
253
247
184
255
225
163
236
158
97
174
106
48
124
82
25
94
75
24
81
58
11
57
52
8
43
54
11
38
42
0
18
59
12
30
63
15
31
70
17
37
73
17
42
76
17
49
80
20
56
87
26
67
92
31
75
77
18
66
72
13
61
74
15
61
73
15
56
67
7
45
70
10
44
79
20
50
80
21
49
83
23
48
87
28
48
93
32
47
93
33
41
90
31
33
89
31
27
93
36
29
98
40
29
110
48
35
111
48
33
107
43
31
99
37
24
91
32
18
90
33
14
94
39
18
99
45
21
92
38
14
88
34
10
90
38
17
84
38
22
58
22
10
28
3
0
12
0
0
4
0
0
1
2
4
0
1
2
0
0
2
3
0
0
6
0
0
12
4
2
16
5
3
19
5
2
17
2
0
34
17
10
57
37
30
74
51
43
83
56
47
83
55
44
82
52
42
83
51
40
73
39
27
62
26
12
51
13
0
52
13
0
62
16
1
67
18
1
73
21
0
79
23
0
101
39
14
110
43
14
120
49
17
132
58
21
143
65
26
150
69
26
154
71
27
156
72
26
158
70
24
162
71
26
166
73
30
167
74
33
167
73
35
168
74
36
173
77
39
177
79
40
183
84
42
187
89
42
194
94
42
197
98
43
199
99
40
200
100
41
202
102
43
206
103
44
208
103
45
210
105
47
208
106
44
207
107
47
213
108
51
209
110
55
209
118
65
211
136
79
255
199
138
255
216
148
231
184
112
219
167
92
235
171
99
234
164
92
236
166
96
237
167
97
246
174
102
238
168
99
244
174
112
225
158
105
158
94
50
104
35
2
101
25
1
118
35
19
131
37
27
147
44
39
163
53
52
173
58
61
174
57
63
173
56
62
173
58
65
176
59
67
179
56
61
188
65
68
191
71
73
185
65
66
176
58
56
173
55
51
171
56
51
171
58
54
174
61
65
161
50
66
143
36
66
141
38
83
164
64
124
175
82
152
165
77
155
151
66
147
144
60
138
146
64
140
147
65
141
129
47
121
117
37
106
132
53
119
143
67
129
147
72
128
144
70
121
142
69
115
139
68
112
138
67
109
221
154
234
132
70
147
87
27
101
73
18
85
61
10
66
60
13
57
58
9
39
56
7
28
61
11
22
61
10
15
63
11
13
72
16
17
86
25
24
100
32
31
110
36
35
116
36
35
120
34
35
119
28
33
127
34
42
144
51
61
156
58
71
155
57
72
160
59
77
172
66
86
184
77
97
202
90
114
212
97
126
203
89
123
189
78
121
190
83
135
200
99
159
205
113
178
223
147
211
255
191
255
229
149
220
191
103
177
181
82
162
172
65
143
198
86
162
219
105
174
234
122
181
224
116
166
206
99
141
196
90
126
200
95
125
200
96
121
198
92
115
199
93
115
220
111
134
225
116
139
228
120
143
230
123
143
232
125
143
230
123
139
219
108
124
206
94
108
195
83
95
188
78
89
172
66
76
161
57
66
156
57
62
153
54
59
144
45
50
132
41
46
105
26
32
80
15
21
56
3
11
41
0
11
33
1
22
31
2
30
35
5
43
41
5
53
139
96
152
236
188
250
245
192
255
239
182
253
248
188
255
243
181
255
236
172
250
190
127
208
141
77
161
113
51
134
92
34
108
77
22
87
55
5
58
52
5
47
60
15
46
58
12
38
60
12
34
61
12
33
66
14
36
70
16
40
75
19
48
75
18
50
72
15
48
69
11
49
77
19
59
66
10
49
61
5
42
63
6
39
64
8
37
72
14
39
75
17
41
71
14
33
83
24
42
89
28
43
94
34
44
95
34
41
92
32
32
91
32
28
94
35
27
99
39
28
119
57
44
119
56
41
115
52
37
108
45
30
102
39
22
101
40
21
105
47
25
111
53
29
98
40
16
94
36
12
97
40
20
89
40
23
60
24
12
30
5
0
12
1
0
3
2
0
0
2
3
0
2
5
0
1
3
0
0
2
1
0
0
3
0
0
4
0
0
8
0
0
7
0
0
21
10
6
50
35
30
72
55
48
81
61
54
83
58
53
82
55
48
81
52
46
77
47
39
61
31
21
50
17
8
52
18
8
60
22
11
64
22
8
65
19
3
67
19
0
73
18
0
84
24
0
98
34
7
116
47
18
131
58
26
142
66
32
150
72
36
156
74
36
153
68
27
158
71
28
162
73
33
165
73
36
165
73
36
166
74
35
170
76
38
175
79
37
177
80
37
181
85
37
187
90
39
190
93
38
193
94
37
195
94
38
198
97
41
200
100
41
203
100
42
205
102
44
203
103
43
204
104
45
209
105
50
207
108
53
207
115
64
210
133
77
251
192
132
255
209
142
226
178
106
215
161
87
231
167
95
229
161
88
230
160
88
233
161
87
238
164
89
251
179
105
240
171
102
235
169
108
214
151
98
134
67
24
79
6
0
106
26
3
121
33
19
135
38
29
149
45
42
160
52
52
164
56
56
167
57
60
170
60
63
173
60
64
175
56
58
179
59
60
178
60
60
172
56
56
168
53
50
166
53
47
163
50
42
157
46
39
154
45
42
161
54
62
153
47
70
140
38
78
151
53
110
165
73
140
163
72
149
150
63
142
144
62
136
143
63
134
141
61
130
124
45
111
110
31
96
115
40
99
131
56
112
138
66
116
135
63
109
136
65
109
138
67
109
137
69
108
225
160
240
142
81
159
79
21
97
74
21
89
66
16
75
53
6
52
59
10
42
57
8
29
58
8
17
61
11
14
65
14
13
73
18
15
86
25
24
104
36
35
122
48
47
135
55
54
121
35
34
131
41
41
141
49
54
151
58
66
162
64
77
170
72
87
180
79
95
186
83
100
196
91
108
213
105
128
223
110
138
212
98
134
203
91
139
210
101
156
218
114
177
216
121
187
236
156
219
255
189
253
235
158
228
196
112
187
181
82
164
177
70
152
201
89
165
221
110
178
228
120
178
230
127
174
216
114
153
192
88
121
180
77
104
190
87
108
201
94
112
198
90
106
207
98
117
220
111
132
230
121
142
235
126
145
235
126
145
218
110
126
198
87
103
189
78
94
181
71
84
180
70
83
174
68
80
164
60
71
154
50
61
142
40
51
138
36
47
130
37
45
110
29
38
90
20
30
74
13
28
43
0
11
43
0
28
41
1
36
45
4
48
59
15
66
189
140
196
238
187
246
247
191
255
236
176
246
241
179
254
240
177
255
229
164
248
210
146
232
197
133
220
140
78
161
102
41
119
78
21
90
64
9
67
64
10
60
62
9
51
59
7
43
56
6
35
62
9
35
68
16
39
71
19
41
72
18
41
71
17
40
71
18
38
70
18
40
68
16
39
67
15
38
65
13
35
65
12
32
64
11
27
66
12
26
69
13
26
69
13
26
78
20
32
81
21
31
83
22
29
83
21
26
83
22
21
89
28
23
102
39
32
111
49
38
121
58
43
125
62
45
119
54
36
108
41
24
107
40
21
108
43
21
110
46
21
117
53
26
104
38
12
99
35
10
105
43
22
90
37
19
56
18
5
28
5
0
4
0
0
0
1
2
0
2
2
0
2
2
0
1
2
0
0
2
1
1
1
1
1
1
1
1
0
2
1
0
2
1
0
5
0
0
38
28
27
81
67
66
94
76
76
89
65
65
91
65
66
101
73
72
82
54
51
65
38
31
61
34
27
67
38
30
65
35
25
69
37
26
74
38
24
71
32
17
65
22
5
64
16
0
70
13
0
85
22
4
99
33
11
112
40
18
127
52
29
144
67
41
150
72
36
154
72
34
156
72
35
157
72
35
158
70
32
159
70
30
164
73
29
167
76
31
173
81
34
173
81
32
176
82
31
179
83
33
183
86
35
190
90
40
194
94
44
197
97
45
197
98
43
200
101
44
195
96
39
196
95
39
202
101
47
200
100
48
205
114
61
224
143
87
255
194
134
239
184
119
225
171
101
221
164
93
224
162
89
227
161
85
232
163
86
237
166
88
240
167
88
241
170
90
240
172
97
240
173
103
236
168
107
188
118
66
121
46
6
102
21
0
105
20
0
116
26
15
137
44
39
152
57
55
153
55
54
154
54
54
160
56
57
163
55
55
170
58
57
173
61
60
173
61
60
164
54
53
152
44
42
144
36
33
143
36
28
143
39
30
138
35
28
141
38
39
134
33
49
131
34
69
154
57
111
170
77
147
167
76
155
154
67
146
143
62
131
140
64
126
133
58
117
114
41
96
100
27
80
107
38
85
125
56
100
131
63
104
126
60
98
126
60
96
126
61
95
126
61
95
228
165
244
162
101
178
91
35
110
71
18
88
66
16
77
56
8
56
58
8
43
58
9
30
59
9
18
61
11
12
67
13
11
72
17
14
84
23
22
99
34
32
116
44
45
129
51
49
131
47
45
134
46
45
139
48
53
152
59
67
172
74
87
187
89
102
199
98
114
202
101
117
209
104
121
217
110
130
220
110
137
213
101
137
211
99
147
215
106
163
218
114
177
212
117
183
222
142
205
255
188
251
253
178
247
226
144
220
200
101
184
172
65
147
185
74
151
211
100
169
225
120
177
230
128
176
222
120
160
199
98
130
186
83
110
187
84
103
195
87
103
196
85
101
196
88
104
206
97
116
214
105
124
218
109
128
220
109
128
206
95
112
189
78
94
182
71
87
181
70
86
177
69
82
171
65
79
161
55
69
149
44
58
139
37
50
135
33
44
130
34
45
111
28
38
97
25
37
80
15
35
51
0
20
43
0
28
42
0
36
45
0
46
102
54
106
225
174
230
240
184
245
241
182
246
234
175
243
230
168
245
227
164
245
231
165
253
232
166
255
195
130
220
133
71
156
100
39
119
86
26
98
70
11
75
63
6
59
61
5
52
62
7
47
60
6
40
64
11
39
69
16
42
71
19
41
70
19
38
69
18
35
68
17
32
69
18
33
65
17
31
64
16
30
65
15
27
64
14
25
64
12
24
66
13
23
69
13
22
69
13
22
74
14
22
77
18
24
82
19
27
82
20
23
85
21
21
91
28
23
104
39
33
114
50
40
124
61
46
128
63
45
120
53
36
111
45
23
113
45
24
115
47
24
114
48
22
118
51
25
107
37
11
102
35
9
110
45
23
94
38
21
58
18
6
26
6
0
3
0
0
0
1
4
0
2
2
0
1
2
0
1
2
0
0
2
0
2
1
0
2
1
0
2
1
0
2
1
4
4
2
2
1
0
31
25
25
74
64
65
98
82
83
100
80
82
99
74
78
99
73
76
83
57
56
65
40
35
64
39
34
75
50
43
81
54
45
84
56
45
85
53
42
75
41
29
69
30
15
61
18
2
59
10
0
69
13
0
80
18
3
89
23
7
100
31
16
113
42
22
129
55
26
136
62
27
146
67
34
153
73
38
157
73
36
158
73
32
159
72
29
160
73
28
162
74
28
162
74
26
165
74
27
167
75
26
172
77
29
177
81
33
182
84
37
184
86
37
187
90
37
190
93
38
187
88
33
188
89
34
195
94
42
196
96
44
206
112
58
225
143
85
255
189
129
240
179
114
226
167
99
221
162
92
224
160
88
228
160
85
231
162
84
237
166
86
240
168
86
241
170
88
239
170
92
235
167
92
235
165
96
216
144
85
163
86
40
115
35
0
99
17
0
103
20
6
119
34
27
134
49
46
137
49
47
140
50
49
154
59
57
162
64
63
161
61
61
162
62
62
161
61
61
154
54
54
143
45
44
136
38
35
134
37
30
135
38
29
132
35
26
135
40
38
128
34
48
130
35
67
150
57
110
169
78
147
167
76
155
154
67
145
142
63
128
139
64
121
132
59
114
113
41
91
97
28
75
107
38
82
123
57
95
129
63
99
122
58
92
122
58
92
123
58
90
123
58
90
234
172
249
193
132
209
114
56
132
69
16
84
67
17
78
60
12
60
57
7
42
60
11
33
59
9
20
61
11
14
67
13
13
71
16
13
81
20
19
94
29
27
109
37
38
122
44
44
135
51
51
133
45
44
132
41
46
145
52
60
171
74
85
193
96
107
209
108
122
214
113
127
214
109
124
211
104
124
209
99
126
210
98
134
215
103
151
217
108
165
214
110
173
205
110
176
214
138
200
255
191
254
255
189
255
245
163
239
226
127
210
195
88
170
197
86
163
213
103
174
225
121
180
231
129
179
229
126
169
214
110
145
196
91
121
189
83
106
189
82
100
190
82
98
193
84
103
198
89
108
203
92
111
204
93
112
202
91
108
193
82
98
182
71
87
177
67
80
183
75
88
179
72
82
171
65
77
161
55
67
151
47
58
141
39
50
138
36
47
132
39
49
111
27
40
103
31
45
87
22
44
64
8
35
46
0
31
42
0
36
60
14
61
167
119
171
247
194
250
237
181
242
236
177
241
229
170
238
225
163
240
233
170
251
235
169
255
228
162
252
167
102
192
124
60
147
99
36
117
88
26
99
78
18
82
72
13
69
66
8
58
70
13
54
65
9
44
68
13
44
71
16
45
72
18
42
70
16
39
68
15
33
67
14
32
66
15
30
65
17
31
64
16
30
65
15
27
63
13
24
64
12
24
65
12
22
68
12
21
69
13
22
71
11
19
75
16
22
81
18
26
80
18
21
83
19
19
89
26
21
104
39
33
115
51
41
130
64
50
128
63
45
121
54
37
116
48
27
120
52
31
124
56
33
121
54
28
118
51
25
106
36
10
108
38
13
117
51
27
99
44
24
60
20
8
28
5
0
4
0
0
0
1
2
0
2
3
0
1
3
0
1
3
1
1
3
0
0
0
0
0
0
0
0
0
0
0
0
2
2
0
1
0
0
19
15
14
58
49
50
88
76
76
99
83
84
94
75
77
86
64
66
56
32
28
58
35
29
76
51
46
89
64
57
88
61
52
89
61
50
95
63
52
94
58
46
84
46
33
68
26
12
59
11
0
61
9
0
66
10
0
68
11
0
74
15
0
83
20
2
98
32
6
109
42
13
127
56
26
142
67
36
150
71
38
154
72
35
154
70
33
154
69
28
154
67
24
155
68
23
156
68
22
157
69
21
162
71
24
164
73
26
168
76
29
171
76
28
177
81
30
179
84
30
177
80
25
180
81
26
187
86
32
191
92
37
206
111
55
228
142
83
255
181
120
237
172
106
225
162
93
222
159
88
225
159
85
228
159
82
232
161
83
236
163
84
239
167
85
239
167
85
238
167
87
234
165
87
235
163
91
237
163
100
206
129
77
146
69
27
97
20
0
89
12
0
92
18
5
105
30
24
108
33
28
116
37
33
132
48
46
146
60
59
140
56
54
140
56
56
138
54
54
133
49
49
126
40
41
121
35
34
122
35
28
124
35
27
124
35
27
127
39
38
124
33
48
125
36
68
147
59
110
166
79
147
163
76
154
150
68
144
142
63
128
139
64
121
130
57
112
112
40
90
96
27
74
106
37
81
122
56
94
127
61
97
119
55
89
119
56
87
120
55
87
120
55
87
237
175
252
224
163
240
139
81
155
70
17
85
68
16
78
63
15
65
56
6
43
61
12
34
60
10
21
62
12
15
64
12
14
69
13
12
78
16
17
88
22
23
102
30
33
112
36
38
130
48
50
129
43
46
129
38
45
137
44
54
156
60
71
179
82
93
200
100
112
211
111
123
209
104
119
202
95
115
200
90
117
208
96
132
216
104
152
216
107
164
214
108
174
206
111
179
210
136
199
255
190
253
253
180
251
230
146
223
225
126
209
216
108
193
223
114
193
233
126
196
230
126
189
232
129
184
233
127
175
223
117
157
206
101
134
195
88
114
191
84
104
192
83
102
194
85
104
195
86
105
195
84
103
192
81
98
189
78
94
183
73
86
178
68
81
176
66
77
181
74
84
177
70
80
168
62
72
159
55
64
149
48
56
144
44
54
142
42
52
137
44
55
110
26
41
105
32
49
91
27
51
77
21
50
53
6
40
44
0
40
99
53
102
224
175
230
237
183
241
233
177
238
235
176
242
223
163
233
229
167
244
247
184
255
223
157
245
182
116
206
121
56
148
113
48
138
102
38
122
85
23
98
79
18
85
78
19
75
69
11
61
70
13
54
68
12
49
71
16
47
73
18
47
72
18
42
69
15
38
66
13
33
65
12
32
65
12
30
67
16
31
64
16
28
64
14
26
64
12
24
65
12
22
65
12
20
68
12
21
70
13
20
73
13
21
77
16
23
80
18
23
79
17
20
81
17
17
90
27
22
106
41
35
118
54
44
133
67
53
130
63
46
124
56
37
122
54
33
129
61
38
133
66
40
126
59
33
119
49
23
107
35
10
112
42
16
124
58
34
104
47
28
63
21
9
29
4
0
4
0
0
0
0
2
0
1
3
1
1
3
1
1
3
1
1
3
1
0
0
1
0
0
1
0
0
0
0
0
0
0
0
0
0
0
4
3
1
22
18
17
42
34
32
49
39
38
43
29
29
32
16
16
23
4
0
52
29
23
88
65
57
100
75
68
91
64
57
95
66
58
106
73
64
104
70
60
97
59
48
74
34
22
60
16
3
59
13
0
59
12
0
59
10
0
61
12
0
64
11
0
72
16
0
85
25
0
102
38
11
117
50
23
131
57
28
139
63
31
145
67
31
150
68
31
149
67
27
151
68
26
151
68
24
153
69
23
155
71
24
158
72
25
160
74
27
161
73
25
169
77
26
173
79
27
172
77
23
175
78
25
182
83
28
187
90
35
207
112
56
230
144
85
250
174
112
235
166
99
225
158
88
223
156
85
227
157
85
229
157
81
232
159
82
235
162
83
235
163
81
236
164
82
236
164
82
240
167
88
235
161
86
236
159
91
226
147
90
184
107
61
116
42
7
89
19
0
75
8
0
79
15
5
81
16
10
85
18
12
97
28
23
107
37
35
102
37
35
102
36
37
102
36
37
102
34
33
102
30
31
104
30
29
108
31
25
110
31
24
114
34
27
120
39
38
117
33
49
121
36
69
143
59
109
164
79
146
160
78
152
148
67
143
140
64
128
137
62
119
128
55
110
110
38
88
95
26
73
104
37
80
120
54
92
124
59
93
117
54
85
117
54
85
118
53
85
118
53
83
237
173
249
244
182
255
160
102
176
76
23
91
68
16
78
64
16
66
56
6
43
62
12
37
60
10
22
62
11
16
64
12
16
67
13
13
74
14
16
83
19
20
95
24
28
105
29
33
123
41
45
128
41
47
131
40
49
132
39
50
139
43
55
156
58
71
182
81
95
200
99
113
205
100
117
201
94
114
202
92
121
211
99
137
217
105
155
217
105
164
217
108
175
212
117
185
209
135
198
252
183
248
233
160
231
201
117
194
200
101
184
201
96
180
224
117
195
245
139
211
231
129
194
230
126
185
230
122
174
227
117
164
216
107
146
205
96
127
199
89
114
197
88
109
189
80
99
186
77
96
186
75
92
183
72
88
179
69
82
179
69
80
179
69
80
179
69
78
171
64
72
167
60
68
159
54
61
152
48
55
146
45
51
143
43
51
142
42
52
136
44
55
112
29
45
103
30
49
94
30
56
84
27
59
59
9
47
52
5
51
148
100
150
250
199
255
231
177
235
231
175
236
232
173
239
221
161
231
227
165
242
229
166
247
184
118
205
136
70
160
110
43
136
109
43
133
113
48
132
92
28
104
71
9
76
74
13
72
77
17
68
75
17
58
72
14
52
74
17
49
74
18
47
72
16
41
69
14
37
65
10
31
64
9
30
64
11
29
66
15
30
65
15
27
65
13
26
64
12
24
64
11
21
65
12
20
68
12
21
69
12
19
73
13
21
75
14
21
77
15
20
80
16
17
87
22
20
99
34
28
117
50
42
129
63
51
135
68
52
130
63
46
127
59
40
131
60
40
138
67
45
142
72
47
133
63
38
119
49
23
109
37
12
119
47
22
132
64
41
109
51
31
64
20
7
31
4
0
6
0
0
2
2
2
2
2
2
3
1
2
2
0
1
2
0
1
3
0
0
1
0
0
1
0
0
1
0
0
0
0
0
0
0
0
0
0
0
1
0
0
5
1
0
8
2
2
5
0
0
7
0
0
15
0
0
52
33
26
94
74
67
107
84
76
103
76
69
111
82
74
119
86
77
107
73
63
100
62
53
75
37
26
62
22
12
62
22
10
63
21
7
63
21
7
63
21
5
61
18
1
61
14
0
68
17
0
77
22
1
86
28
4
101
37
12
115
48
21
132
58
29
140
65
33
142
66
30
145
67
28
146
69
27
148
69
26
149
71
25
152
71
24
153
72
25
155
71
24
165
77
29
168
78
28
170
78
27
174
80
28
178
83
29
186
91
37
208
115
58
232
146
87
246
166
103
233
159
94
223
153
84
223
153
83
228
154
83
228
154
79
231
155
79
233
157
79
231
156
75
237
160
80
234
157
75
236
159
77
235
156
79
228
148
77
223
141
81
203
126
74
154
80
41
111
44
15
79
18
0
70
14
1
66
14
3
64
11
5
67
12
7
68
15
11
61
13
13
59
13
15
63
13
14
67
16
15
75
19
18
84
23
22
91
26
20
95
26
19
106
31
26
114
35
38
113
32
51
117
36
69
142
59
111
162
80
146
158
78
151
145
68
140
139
63
127
136
61
118
126
53
108
108
36
86
94
25
70
103
36
77
118
52
90
120
56
90
117
54
85
117
54
83
117
54
83
117
54
81
231
167
243
250
188
255
175
117
191
87
32
100
68
16
78
63
13
64
56
6
44
60
12
38
59
8
23
61
11
20
63
12
17
67
12
15
73
12
17
81
16
20
92
21
27
100
25
32
109
28
37
118
32
43
126
35
50
126
32
48
126
29
46
138
39
57
163
62
80
183
82
100
200
94
114
201
93
117
206
95
128
215
100
143
215
101
153
212
99
161
214
105
173
213
116
187
228
152
217
252
181
247
218
142
214
186
102
179
190
92
175
189
84
168
204
100
177
228
122
196
229
124
191
227
121
185
229
117
176
227
114
166
221
110
153
212
102
139
205
95
124
201
91
116
183
74
95
179
70
89
180
69
86
180
70
83
178
68
79
181
71
80
185
75
84
183
76
84
165
58
66
161
56
61
154
51
55
149
48
52
146
47
52
143
46
53
142
45
54
137
45
58
115
34
51
104
30
53
97
33
60
86
29
62
62
11
52
77
29
77
192
142
195
249
198
255
243
187
248
230
174
237
227
168
234
224
164
234
217
155
232
194
131
212
158
92
179
132
66
156
117
50
143
112
46
136
137
72
156
129
65
141
89
27
94
84
23
80
88
29
77
76
18
59
74
17
52
75
18
50
74
18
45
72
16
41
68
13
36
65
10
31
64
9
30
64
11
29
67
14
30
65
15
26
64
12
24
63
12
21
64
11
19
66
11
17
68
11
18
71
12
18
71
10
17
73
11
16
78
13
17
87
21
23
99
34
32
115
48
42
129
62
54
139
71
60
134
67
51
130
62
43
132
61
41
137
66
44
143
73
48
147
77
51
137
65
40
120
49
21
113
39
12
126
52
25
140
70
45
113
52
31
65
19
4
31
3
0
9
0
0
6
4
5
3
1
2
3
1
2
3
1
2
2
0
1
3
0
0
3
0
0
1
0
0
1
0
0
0
0
0
2
2
0
2
2
0
0
0
0
0
0
0
2
1
0
5
4
2
11
6
3
9
0
0
48
34
25
96
77
71
113
93
86
106
83
77
112
85
78
119
89
81
111
78
69
101
64
56
80
43
34
73
36
27
79
43
31
78
42
30
78
42
28
78
42
28
73
37
21
64
25
8
64
21
4
63
16
0
65
14
0
74
17
0
90
30
6
110
44
18
122
56
24
131
60
28
132
62
26
136
64
24
139
66
25
141
66
24
142
68
23
144
67
21
145
67
21
157
73
27
160
74
27
166
78
30
172
82
32
175
83
32
183
92
37
208
117
60
233
147
88
240
159
96
229
151
85
221
146
79
221
147
76
226
147
78
226
148
74
225
147
72
226
149
71
225
146
67
236
155
76
229
148
67
224
143
64
229
146
70
227
143
73
214
130
70
199
117
67
182
109
68
135
69
37
91
35
12
73
24
9
63
19
8
55
15
7
50
10
2
43
4
0
33
0
0
32
0
0
34
0
0
43
3
3
56
11
8
70
19
16
81
22
16
86
21
15
99
29
27
109
34
39
109
30
51
116
34
72
141
58
112
160
79
145
157
77
150
144
67
139
139
63
127
134
61
117
124
51
106
104
34
84
92
25
69
102
35
76
115
51
88
117
53
87
115
52
83
115
52
79
115
52
79
115
52
79
226
160
234
247
183
255
184
124
196
97
42
110
68
16
78
60
10
63
57
6
47
59
10
39
59
8
27
60
10
21
63
12
19
65
12
18
72
12
20
78
15
23
90
20
30
98
22
34
98
17
32
108
21
38
118
26
47
123
28
50
128
30
53
139
39
63
159
57
81
173
71
95
193
86
112
199
90
121
208
96
134
215
99
146
213
98
155
214
99
164
218
106
178
218
118
190
242
159
227
255
186
253
219
142
212
187
103
178
194
99
180
190
89
169
193
89
168
205
99
174
220
113
185
226
115
184
230
115
180
227
112
171
220
108
158
212
101
144
205
93
129
201
88
118
182
70
95
177
65
87
178
67
84
178
68
81
175
65
76
178
68
77
180
73
81
178
71
77
163
56
62
159
54
59
154
51
55
150
49
53
148
49
54
145
48
55
141
45
56
134
43
58
117
35
57
107
34
61
100
35
67
89
31
69
72
19
63
125
75
126
232
179
235
252
198
255
248
192
253
233
174
238
228
169
235
229
169
239
213
151
228
197
134
215
184
118
205
160
94
184
128
61
154
133
67
157
157
92
174
144
80
154
105
43
108
94
34
88
86
27
73
69
11
49
74
17
50
75
19
48
74
18
43
71
16
39
67
12
35
65
10
31
65
10
31
65
12
28
67
15
28
65
15
26
64
12
24
63
12
21
63
10
18
66
11
17
68
11
18
71
12
18
72
11
18
74
12
17
83
18
22
97
31
32
115
47
44
129
60
53
135
67
58
138
68
56
133
64
48
129
61
42
135
64
44
142
70
48
147
75
51
149
77
52
141
67
42
122
48
21
117
42
13
132
57
28
145
73
48
115
53
30
64
17
1
31
1
0
13
0
0
11
7
6
4
2
3
4
2
3
3
1
2
2
0
1
1
0
0
1
0
0
1
0
0
1
0
0
0
0
0
4
4
2
0
2
0
0
1
0
0
1
0
0
0
0
0
0
0
1
0
0
6
0
0
29
19
10
78
63
58
110
93
86
110
89
84
108
85
79
116
88
84
117
88
82
99
66
59
83
49
40
85
51
42
95
61
51
95
61
51
93
61
48
92
60
47
85
53
38
74
41
26
70
33
17
63
21
5
57
11
0
60
9
0
71
16
0
86
28
6
98
38
10
119
55
27
121
56
24
125
59
24
130
62
23
133
64
23
135
64
22
136
63
20
139
62
20
145
63
23
149
66
24
158
74
30
167
81
34
170
82
32
179
92
38
205
119
62
232
146
87
234
150
88
224
143
78
217
138
72
218
139
70
223
140
72
221
138
68
220
138
65
221
137
64
221
135
60
227
141
64
226
140
63
218
132
57
223
134
66
224
134
72
206
116
63
189
105
59
179
103
67
136
69
40
95
38
18
71
25
9
57
19
6
48
16
5
40
10
2
31
2
0
24
0
0
21
0
0
24
0
0
34
0
0
49
10
5
65
18
12
75
20
15
82
19
14
96
26
26
106
30
40
108
28
53
115
33
73
141
58
114
161
78
146
157
75
149
143
66
138
139
63
127
133
60
116
122
49
104
102
32
82
91
24
68
101
34
75
114
50
85
115
52
83
112
49
78
112
49
76
112
49
76
112
50
75
222
156
230
242
178
252
187
127
199
104
49
117
70
15
80
58
8
61
58
7
50
58
9
39
57
8
29
60
9
24
63
11
23
65
12
22
70
13
22
78
15
26
87
19
30
96
22
37
96
17
38
104
18
43
116
23
50
127
30
61
140
41
72
153
52
84
167
63
96
175
71
104
192
84
118
201
91
128
211
98
142
218
101
153
219
104
163
223
108
175
229
117
189
230
127
200
234
145
213
255
189
255
236
154
226
192
108
183
191
99
176
187
88
168
190
87
166
199
92
170
213
102
178
225
111
183
232
115
185
228
112
177
218
105
161
209
97
147
202
89
132
198
84
118
178
65
93
173
61
85
173
62
81
172
61
77
166
56
67
167
57
66
167
60
66
164
57
63
158
53
58
154
51
55
148
48
50
146
47
50
143
47
51
140
45
53
133
40
51
125
37
53
115
36
58
110
37
67
103
37
73
95
34
76
83
27
76
169
116
170
255
203
255
255
205
255
242
183
247
234
175
241
234
175
243
231
171
241
218
156
233
227
164
245
231
165
252
187
121
209
160
94
184
169
103
190
152
87
167
102
39
110
77
16
76
79
19
71
76
18
59
76
19
54
74
18
47
74
18
43
74
19
42
71
16
37
67
12
33
65
10
29
65
10
29
66
12
28
66
14
26
64
14
23
64
13
22
64
11
19
65
10
16
67
10
16
70
11
17
71
10
15
77
15
20
81
16
20
91
25
27
108
40
41
126
56
54
135
66
59
134
64
56
129
59
47
131
62
46
131
60
40
138
66
44
147
72
49
150
76
51
152
78
51
143
67
41
124
49
20
120
43
13
135
58
28
149
75
48
117
53
28
64
15
0
32
0
0
15
0
0
14
9
6
6
2
1
4
2
3
3
1
2
2
0
1
1
0
0
1
0
0
1
0
0
1
0
0
0
0
0
1
1
0
0
0
0
0
1
0
3
5
2
3
5
2
0
1
0
0
1
0
4
0
0
9
2
0
51
40
36
102
89
83
121
103
99
118
99
93
120
96
92
121
93
89
92
63
57
79
49
41
85
55
47
101
68
59
100
67
58
97
65
54
95
63
52
85
56
42
83
51
38
75
43
30
65
29
15
55
16
1
51
8
0
57
10
0
69
18
0
79
25
1
110
54
27
113
56
26
119
59
25
125
61
25
128
63
25
132
63
24
134
62
24
135
61
22
134
54
17
140
58
20
151
69
29
161
79
32
165
82
32
177
92
38
205
119
62
231
145
84
229
143
82
222
137
73
215
132
66
216
133
65
219
134
67
219
132
63
217
130
61
217
129
58
217
126
55
217
126
55
224
136
65
219
132
65
216
127
67
214
124
71
197
109
63
186
103
63
159
84
52
124
58
32
88
33
13
62
19
2
46
12
0
39
11
0
34
7
0
23
0
0
26
6
5
22
2
1
23
0
0
32
3
0
49
12
4
63
18
12
74
19
14
80
16
14
95
25
27
105
29
42
107
27
56
115
32
76
142
56
117
160
77
147
157
75
151
143
66
138
139
63
127
133
60
116
120
50
104
102
32
82
90
23
67
100
33
74
113
49
84
114
51
82
109
46
75
109
47
72
109
47
72
109
47
70
217
151
225
234
170
244
202
142
216
101
46
114
63
8
73
64
13
69
59
7
53
59
9
44
57
7
32
58
9
28
62
11
26
63
11
24
66
10
23
74
12
27
83
16
33
92
19
39
98
18
45
104
19
50
114
23
56
130
34
71
151
50
90
172
70
110
190
85
125
200
95
135
211
102
144
214
102
148
222
108
157
232
115
170
230
114
175
222
107
174
220
106
178
218
111
183
220
121
188
251
160
227
255
181
249
235
149
222
194
103
180
181
87
165
194
91
170
201
94
172
211
96
174
224
107
185
227
107
181
223
106
176
220
107
169
208
96
152
201
87
136
204
89
130
186
72
105
178
66
91
167
55
77
161
50
66
160
50
61
161
51
60
158
51
59
157
50
58
152
47
52
152
49
53
149
51
52
145
49
51
140
45
51
133
40
50
127
35
48
121
34
53
119
39
66
99
28
62
101
35
73
88
27
71
114
57
108
218
163
220
253
197
255
249
193
255
244
185
251
242
183
251
238
179
247
236
176
248
240
178
253
240
177
255
227
162
246
210
144
231
214
148
236
153
88
172
96
32
110
73
11
78
69
8
65
69
10
58
72
14
52
75
18
50
70
14
39
69
14
35
68
13
32
67
13
29
66
12
28
65
11
25
65
11
25
65
11
24
71
19
31
69
18
27
66
13
23
64
11
19
66
11
17
68
11
17
72
13
19
73
12
17
73
11
16
98
33
37
114
45
48
114
44
44
117
48
43
123
53
45
126
53
44
125
53
39
135
64
46
141
70
50
147
72
51
160
84
61
164
88
64
154
78
52
144
67
41
128
51
23
125
46
16
145
66
36
153
77
51
122
56
32
68
17
0
35
0
0
24
7
0
21
13
10
14
10
9
1
0
0
0
0
0
0
0
0
0
0
0
3
3
1
4
3
1
1
0
0
1
0
0
0
0
0
0
0
0
0
0
0
0
0
0
0
0
0
0
1
0
0
0
0
6
5
1
3
0
0
7
0
0
44
34
32
91
80
78
115
100
97
104
85
81
82
61
56
46
21
16
77
50
43
103
74
66
107
77
67
107
74
65
105
73
62
96
64
53
82
50
39
81
51
40
77
48
34
67
35
22
57
21
7
53
14
0
52
11
0
50
7
0
52
6
0
68
21
0
88
37
8
111
56
26
121
62
30
121
56
24
119
53
18
127
57
23
136
63
28
138
59
26
132
52
15
140
58
20
153
70
26
163
80
30
183
98
43
208
122
63
223
137
76
225
137
74
219
131
67
212
124
60
207
120
53
207
118
52
209
120
54
213
121
56
215
123
56
208
114
50
212
120
55
214
124
64
205
119
62
198
115
65
200
117
75
189
107
70
163
86
56
116
44
19
91
29
6
68
17
0
59
18
0
49
15
3
37
9
0
31
7
0
33
10
4
25
6
2
27
6
3
26
1
0
30
0
0
44
7
0
58
14
5
72
17
10
88
24
22
100
29
35
97
20
38
121
39
75
143
59
109
154
68
133
156
72
147
149
66
144
147
69
144
134
58
122
131
58
114
120
50
104
101
31
81
90
23
67
102
35
76
111
47
81
106
43
72
106
46
72
106
46
71
107
45
68
107
45
66
217
151
225
240
176
250
215
155
229
116
59
130
72
17
84
67
16
73
60
8
56
58
8
46
57
7
36
58
9
31
61
10
29
63
10
28
68
11
30
76
15
33
87
19
40
96
24
48
100
21
52
114
28
63
132
42
78
151
54
95
168
67
111
183
80
125
197
91
137
205
100
143
211
101
148
217
105
153
222
108
159
223
106
161
213
98
157
208
92
157
210
95
164
215
104
173
213
107
173
225
126
191
255
164
233
255
180
251
232
144
218
195
103
180
192
91
169
203
96
176
206
90
171
216
97
177
215
97
175
215
99
172
218
109
176
210
102
162
203
90
146
205
89
138
190
75
114
181
68
98
169
57
81
162
51
68
159
49
62
159
49
58
155
48
58
152
47
54
147
43
50
146
45
49
146
47
50
143
49
50
138
45
53
133
41
52
128
37
54
121
36
59
109
30
61
108
36
74
105
38
81
98
36
85
158
101
156
237
181
242
255
200
255
252
195
255
251
192
255
249
190
255
249
189
255
250
190
255
247
185
255
234
171
250
219
154
238
208
142
229
172
106
193
125
60
142
86
22
96
76
14
79
74
14
68
73
14
58
72
15
48
71
15
42
68
13
34
68
14
30
67
13
29
67
13
27
67
13
26
66
12
25
67
13
26
67
14
24
70
19
28
68
17
24
66
13
21
64
11
17
66
11
16
69
13
16
73
12
17
76
14
17
85
20
24
102
36
38
110
40
42
107
35
36
112
41
37
124
51
44
131
58
49
135
63
49
141
68
51
146
74
52
150
74
51
163
85
62
167
90
64
158
81
53
145
68
40
130
51
21
126
45
15
147
66
36
159
79
52
127
57
32
72
16
0
37
0
0
26
7
0
24
15
10
19
15
12
8
7
5
1
0
0
0
0
0
0
0
0
1
1
0
5
4
2
1
0
0
1
0
0
1
0
0
1
0
0
0
0
0
1
0
0
0
0
0
0
0
0
0
0
0
0
0
0
1
0
0
3
0
0
12
7
4
29
21
19
35
24
22
28
14
11
20
2
0
24
3
0
73
50
44
111
86
79
114
85
77
107
77
69
113
80
71
109
76
67
96
64
53
84
56
44
81
53
41
68
38
27
53
21
8
47
14
0
54
18
2
60
22
3
60
19
0
63
21
0
77
31
5
97
46
19
113
58
28
122
61
32
124
59
29
124
55
24
123
52
20
131
55
23
129
51
15
138
56
18
151
68
24
163
80
30
184
99
44
207
121
62
220
132
69
217
127
64
215
125
62
213
123
60
212
122
59
211
121
58
209
119
57
208
115
54
206
113
54
214
121
64
205
114
61
203
117
66
202
121
76
189
111
73
165
90
58
135
64
36
108
41
15
94
29
7
77
20
0
63
15
0
57
15
0
48
15
0
37
7
0
31
4
0
29
4
0
25
1
0
28
4
0
29
2
0
35
2
0
48
10
1
62
15
7
73
18
13
87
23
24
96
24
36
106
28
52
135
52
94
151
66
125
155
69
140
156
72
150
148
66
148
144
66
142
134
59
124
132
59
115
120
50
104
101
31
81
90
23
67
101
37
74
110
46
80
106
43
72
106
46
72
106
47
69
108
46
67
107
45
66
220
152
227
248
182
255
228
166
241
130
72
146
81
26
94
71
19
81
62
9
61
58
7
48
58
7
40
58
8
35
58
8
33
60
8
30
65
10
33
74
14
39
86
21
45
96
23
52
116
39
71
132
48
84
149
59
97
161
66
108
168
67
111
172
69
114
179
73
119
183
77
123
188
78
125
195
83
131
200
86
135
201
84
136
200
83
138
204
89
148
213
99
161
220
105
170
218
104
166
209
100
165
224
127
194
255
170
238
255
168
240
214
122
197
192
95
172
206
102
181
206
93
175
211
95
176
208
92
173
212
100
176
223
118
187
219
113
179
202
89
151
199
82
137
195
79
124
186
70
105
173
59
85
163
50
70
158
47
63
155
45
56
150
42
55
146
40
50
142
38
47
140
41
46
140
44
48
140
45
49
136
45
54
133
43
55
130
38
59
122
36
63
113
33
68
114
41
84
94
26
73
104
41
94
197
138
196
247
188
252
255
197
255
255
199
255
255
202
255
255
200
255
255
197
255
246
186
255
219
157
232
185
122
201
165
100
184
160
94
181
129
64
148
97
34
113
77
16
86
76
16
76
75
17
67
73
17
56
70
15
44
66
12
35
64
11
27
64
12
24
65
13
25
66
15
24
67
16
25
67
16
25
68
17
26
68
17
24
69
18
25
67
16
23
66
13
21
65
12
18
66
11
16
69
13
16
75
14
19
78
16
19
93
28
32
103
37
39
105
35
37
103
32
30
113
40
34
126
52
43
136
62
51
143
70
55
151
75
59
153
78
57
154
76
54
168
88
65
173
93
68
162
82
55
148
69
39
130
49
19
130
45
14
153
70
38
165
84
55
131
59
34
75
18
0
41
2
0
32
9
1
28
17
13
32
27
24
24
23
21
1
0
0
1
0
0
0
0
0
0
0
0
4
4
2
2
2
0
1
0
0
1
0
0
1
0
0
1
0
0
3
0
0
1
0
0
1
0
0
0
0
0
2
2
4
3
3
5
2
2
4
1
0
0
3
0
0
6
0
0
7
0
0
8
0
0
16
1
0
68
49
43
108
88
81
112
87
80
106
77
71
110
80
72
114
84
76
111
81
71
95
68
57
84
58
45
67
41
28
50
22
8
48
19
5
63
31
16
74
38
22
72
35
16
63
25
4
67
25
1
78
32
8
95
44
17
113
56
29
121
60
32
120
55
27
116
47
18
125
50
18
128
50
14
137
55
15
147
65
18
165
79
28
188
102
45
208
119
59
215
125
63
211
119
56
209
117
54
204
114
54
204
114
54
205
116
58
206
117
61
206
115
62
204
114
62
202
114
68
186
103
59
177
99
61
164
94
60
135
70
42
101
41
15
79
21
1
68
11
0
74
19
0
69
18
0
63
18
0
57
18
1
51
15
1
43
9
0
36
3
0
32
1
0
26
0
0
32
3
0
34
4
0
41
7
0
55
15
5
65
18
12
73
17
16
83
20
28
92
20
40
119
42
76
154
71
123
162
77
144
156
72
150
157
73
158
147
68
151
139
62
140
134
59
124
132
59
115
121
51
105
102
32
82
91
24
67
101
37
74
110
46
80
104
44
70
106
46
71
106
47
69
106
47
67
106
47
65
222
154
229
249
182
255
229
167
244
131
73
149
82
26
97
73
21
85
66
13
67
61
9
55
61
9
47
59
8
39
57
7
36
59
6
34
64
8
35
73
13
41
84
18
46
92
21
51
115
38
72
124
42
78
136
48
86
145
50
90
151
50
94
155
52
95
162
57
100
166
61
102
173
64
106
177
66
109
180
67
111
185
69
116
196
80
129
211
94
146
217
102
157
216
101
158
217
99
157
215
101
161
200
100
162
221
129
194
255
166
236
235
145
219
194
100
176
192
91
169
202
95
175
205
93
175
201
92
173
210
103
181
232
130
203
229
126
195
202
91
159
192
76
137
196
80
129
187
71
110
174
59
90
163
49
74
157
46
63
154
44
57
148
40
55
144
38
50
140
36
47
137
37
45
136
39
46
135
42
50
134
42
53
129
41
57
126
36
61
118
33
64
110
32
71
100
27
72
84
16
67
135
72
127
229
169
231
250
191
255
247
187
255
252
192
255
255
198
255
255
199
255
252
192
255
228
168
240
190
128
203
155
92
171
143
75
160
142
77
161
105
42
123
85
24
101
74
13
82
72
14
72
70
12
60
66
12
46
66
12
38
62
11
28
60
8
21
60
10
19
63
12
19
64
15
19
67
16
23
67
18
24
69
18
25
69
18
25
67
16
23
66
15
22
67
14
20
67
12
17
68
12
15
72
13
17
77
17
19
83
18
22
95
29
31
103
35
36
105
33
34
109
35
34
121
46
41
130
56
47
139
62
52
146
70
56
156
80
64
159
82
62
159
78
57
170
90
65
174
94
69
164
83
54
148
67
37
130
47
15
132
46
13
158
74
40
173
90
60
138
64
37
79
21
1
46
4
0
37
13
3
33
20
14
50
42
40
46
40
40
10
6
5
1
0
0
2
2
0
0
0
0
2
2
0
2
2
0
1
0
0
1
0
0
3
0
0
3
0
0
3
0
0
3
0
0
3
0
0
1
0
2
3
2
7
0
0
4
0
0
2
0
0
2
1
0
0
3
0
0
7
2
0
11
3
0
10
0
0
47
34
28
89
72
65
108
89
82
111
88
82
109
84
79
110
83
76
111
84
77
109
85
75
81
57
45
60
36
24
56
30
17
62
34
22
76
47
33
83
51
36
77
44
27
68
31
13
64
26
5
64
22
0
75
27
4
93
39
15
106
48
24
116
52
27
118
51
24
120
49
17
125
51
14
133
54
15
145
62
18
167
81
30
193
106
52
210
121
63
213
123
63
207
114
55
201
110
53
196
106
53
193
108
54
193
110
60
193
111
63
190
108
61
186
104
64
172
94
58
151
78
46
126
61
33
100
40
16
70
18
0
55
6
0
55
6
0
55
6
0
73
26
8
74
29
10
71
28
11
65
24
6
56
19
3
51
13
2
45
8
0
42
5
0
34
1
0
39
6
0
45
8
0
51
13
4
63
18
12
69
19
18
76
17
23
82
18
34
96
23
53
136
59
103
171
89
151
171
87
162
160
76
161
159
76
164
150
70
157
138
61
139
135
60
125
133
60
116
121
51
105
101
33
82
91
24
67
101
37
74
108
47
78
103
43
69
106
46
71
106
47
67
106
47
65
105
47
62
225
154
232
245
177
254
222
159
238
124
66
143
77
21
94
74
22
88
70
16
74
65
13
62
61
10
51
59
9
44
59
8
41
62
8
40
68
13
44
78
19
51
88
23
55
95
25
59
109
34
67
114
33
66
121
34
69
131
37
74
140
40
78
147
45
84
154
50
85
157
53
86
161
53
87
167
58
90
173
61
97
183
69
105
198
82
121
211
96
137
216
101
144
212
96
143
205
84
137
213
98
153
200
95
154
205
109
173
247
154
224
254
162
235
214
122
197
186
92
168
197
96
174
195
92
171
192
89
168
201
100
178
230
134
208
233
133
206
199
92
164
192
77
144
195
78
133
186
69
114
173
57
92
163
49
75
157
46
65
154
43
59
148
40
56
143
38
52
139
37
50
135
38
47
133
38
46
131
40
49
131
40
55
126
37
57
120
31
59
113
27
62
110
32
74
86
12
61
98
29
83
190
125
183
252
190
255
255
195
255
248
186
255
251
189
255
255
192
255
249
187
255
227
167
237
193
133
205
161
99
174
138
75
154
128
60
143
120
55
139
89
28
108
76
18
92
71
12
78
65
10
65
61
5
50
57
6
39
59
7
30
53
5
19
55
5
16
55
8
14
60
11
15
61
15
17
66
17
21
65
19
22
67
18
22
67
18
22
64
13
20
65
14
21
67
14
20
68
13
18
68
12
15
72
13
17
79
19
21
86
21
25
95
29
31
101
33
34
105
33
34
114
40
37
126
51
45
134
57
47
142
64
52
152
75
59
161
84
66
163
86
66
163
82
61
173
91
67
174
92
68
163
79
51
147
64
34
127
44
12
133
47
14
164
78
45
181
96
67
144
68
42
84
23
4
51
8
0
43
16
7
39
24
17
66
55
53
60
52
50
18
13
10
3
0
0
5
4
2
0
0
0
0
1
0
0
0
0
2
0
1
2
0
1
4
0
1
4
0
1
5
0
3
4
0
3
4
0
3
2
0
3
5
4
9
0
0
4
0
0
2
0
0
2
0
0
0
3
2
0
2
1
0
3
0
0
6
0
0
18
9
4
52
41
37
85
72
66
108
90
86
115
96
90
114
93
88
109
89
82
111
91
82
69
47
36
52
30
19
69
45
35
84
57
48
90
62
51
89
59
48
79
47
34
68
35
20
66
29
11
64
23
5
65
20
0
74
23
2
88
33
12
103
45
23
115
53
28
115
50
18
120
52
15
128
53
14
144
63
20
170
86
39
198
111
58
210
120
67
210
121
65
202
110
59
196
108
58
189
107
60
186
107
64
180
107
66
171
102
63
160
90
56
148
81
52
141
79
56
104
47
28
69
18
1
50
2
0
41
0
0
44
2
0
52
8
0
53
10
0
86
40
24
83
40
23
77
34
15
67
26
8
59
17
3
53
13
1
53
10
3
50
9
3
46
7
0
51
12
5
54
14
6
61
16
11
71
23
23
77
22
28
80
19
35
88
19
48
113
38
81
155
76
133
182
98
173
177
92
177
165
80
173
161
77
171
153
73
162
139
62
142
134
62
126
132
61
117
122
52
106
102
34
83
91
24
67
101
37
74
108
47
78
103
43
69
105
46
68
105
46
66
104
46
61
104
46
60
222
151
229
240
171
251
218
155
234
122
64
141
75
19
94
74
21
89
73
19
79
66
13
65
61
10
53
60
10
48
62
10
46
68
14
48
76
20
55
87
27
61
96
30
66
101
31
67
113
38
69
116
37
68
122
37
68
130
39
72
140
40
74
145
44
76
148
45
74
148
45
72
146
39
65
156
48
72
168
58
85
181
68
96
191
76
107
198
83
116
198
84
118
197
81
120
195
75
121
200
83
135
200
93
149
202
102
164
223
128
196
251
160
230
251
161
233
228
138
212
208
114
190
204
107
184
197
100
179
197
103
181
226
134
211
228
131
208
193
86
164
189
75
147
195
77
137
186
68
116
172
56
95
163
48
79
157
45
67
152
44
60
148
39
58
143
38
53
139
37
51
134
37
48
132
36
47
129
37
48
129
38
55
123
35
59
116
27
59
107
22
61
106
27
72
95
21
72
148
79
134
240
174
235
255
194
255
249
188
255
237
175
250
235
173
248
221
157
231
203
141
214
171
110
180
138
78
150
120
58
133
110
47
126
99
31
114
83
18
100
77
16
96
70
12
86
67
11
76
61
6
61
53
0
44
53
2
33
53
4
25
47
0
13
50
3
11
52
6
9
56
10
12
60
14
16
62
16
18
63
17
19
62
16
19
61
15
18
62
11
18
65
12
18
69
14
19
68
13
18
70
11
15
74
14
16
81
19
22
89
25
26
100
31
34
102
32
34
105
33
34
114
40
37
128
51
45
133
56
46
145
67
55
161
84
68
165
88
70
169
91
69
169
89
66
176
94
70
176
92
66
161
77
49
145
62
32
128
44
10
136
47
15
169
83
50
187
102
71
149
74
45
87
26
5
56
10
0
48
20
9
44
27
20
69
53
53
60
48
48
23
15
13
5
0
0
4
3
1
0
0
0
0
1
0
0
1
0
1
1
1
2
0
1
4
0
1
4
0
1
5
0
3
5
0
3
4
0
3
2
0
3
3
2
7
0
1
3
0
0
2
0
0
2
1
1
1
1
1
1
0
0
0
1
0
0
3
0
0
4
0
0
13
5
2
29
20
15
61
50
46
94
83
79
115
101
98
119
104
99
89
70
64
49
29
22
49
29
22
87
64
56
103
78
71
102
75
66
95
66
58
82
52
42
68
36
25
70
34
20
67
28
11
65
22
5
66
19
0
75
24
3
90
35
14
100
44
19
107
48
16
112
49
14
124
52
14
146
69
27
179
96
52
201
115
66
205
117
67
203
115
65
195
107
61
187
102
61
176
98
60
168
98
64
161
98
67
151
94
67
140
82
60
128
75
57
113
65
53
71
28
21
40
0
0
34
0
0
33
0
0
40
2
0
61
18
9
77
33
20
96
50
34
87
42
23
75
30
11
64
21
2
57
14
0
54
10
0
57
10
4
57
12
7
59
14
9
63
18
13
65
17
13
68
18
17
77
24
30
84
26
41
89
25
52
97
26
66
144
67
121
175
94
163
186
101
186
179
92
186
168
82
181
161
77
175
154
73
165
141
64
144
135
63
127
133
62
118
123
53
107
102
34
83
90
25
67
101
37
74
108
47
78
103
43
69
103
44
66
103
44
62
102
44
59
102
44
58
215
144
224
238
169
249
224
159
239
132
71
151
80
22
99
77
21
92
73
19
81
65
12
66
62
10
56
62
11
52
63
13
51
69
17
55
78
22
61
86
26
64
91
26
66
93
26
61
100
27
57
107
29
55
116
32
58
125
35
61
134
35
63
139
39
65
145
43
65
148
47
65
146
41
58
152
45
61
163
55
71
178
67
86
186
72
95
186
72
97
181
69
94
179
64
97
193
74
114
189
71
119
197
88
143
202
98
159
203
104
171
230
137
208
254
167
238
247
161
234
232
144
218
229
139
213
223
132
209
220
129
206
241
153
229
235
143
220
191
88
167
187
75
149
194
78
139
187
69
119
173
56
98
163
48
81
156
44
68
150
41
60
146
37
58
141
36
53
138
35
52
132
34
47
129
33
45
127
35
48
127
36
54
122
34
59
115
25
60
104
19
60
93
16
62
125
53
103
215
146
203
255
195
255
239
174
242
212
149
220
186
122
198
176
112
188
146
82
156
131
69
142
111
50
120
96
36
108
93
31
106
92
29
108
91
23
106
84
19
101
75
16
96
71
15
88
67
12
77
58
5
59
49
0
39
51
2
32
53
6
26
46
0
13
47
2
9
49
4
7
53
9
10
57
13
14
59
15
16
59
15
16
58
13
16
58
12
15
61
10
15
64
11
17
69
14
19
68
13
18
70
11
15
74
14
16
83
21
24
91
27
28
101
32
35
103
33
35
106
34
35
116
42
39
128
51
45
132
55
45
147
69
57
169
90
75
168
91
73
175
97
75
176
96
73
181
99
75
177
93
67
159
75
47
146
61
32
130
46
12
137
48
16
174
85
53
193
106
76
154
77
49
91
29
8
58
12
0
51
23
12
48
29
23
59
41
41
47
33
33
19
9
8
6
0
0
4
0
0
0
0
0
0
1
0
0
2
0
1
1
1
2
0
1
4
0
1
4
0
1
5
0
3
5
0
3
5
0
3
4
0
3
0
0
2
0
0
2
0
0
2
0
1
0
0
1
0
0
2
1
0
2
0
1
1
0
6
6
4
3
2
0
3
0
0
3
0
0
12
7
3
41
36
32
70
62
59
85
76
71
46
31
26
26
9
2
55
36
30
104
83
78
116
91
87
110
82
78
104
75
71
92
62
54
76
43
34
72
38
26
69
32
16
66
24
8
67
22
3
71
23
1
78
28
5
82
31
4
92
41
10
99
43
8
117
51
16
150
76
37
186
107
66
201
118
74
196
112
66
191
107
63
185
100
61
173
93
58
157
86
56
147
85
60
141
89
68
137
90
74
128
84
71
120
80
72
73
38
36
46
14
15
30
0
0
29
0
0
33
0
0
49
12
6
81
37
28
107
59
47
99
50
35
84
36
16
69
21
1
63
16
0
60
12
0
56
10
0
60
11
4
65
16
11
69
20
16
72
21
18
70
19
16
74
19
22
84
26
38
94
30
54
103
33
70
112
38
89
179
98
164
194
109
190
188
99
193
177
89
191
171
83
187
160
74
175
153
69
163
141
62
143
138
63
128
134
63
119
123
54
108
102
34
83
91
26
68
101
37
74
108
47
78
103
43
68
101
42
62
101
42
60
100
42
57
100
42
56
209
137
223
238
169
252
233
168
250
143
80
161
86
27
107
78
22
95
72
17
82
63
10
66
64
12
60
63
12
55
64
14
52
68
16
54
74
19
58
77
19
57
78
16
53
79
14
46
89
19
43
97
22
43
107
25
47
113
26
45
117
24
43
124
27
44
133
35
48
142
42
52
144
40
49
143
38
45
155
45
54
177
67
78
195
83
97
198
86
102
191
80
97
186
74
96
188
70
102
189
74
113
204
94
141
210
105
161
204
102
167
214
117
186
226
135
205
220
130
202
253
161
236
253
161
236
253
161
236
250
159
236
255
179
255
253
162
239
200
101
181
192
86
161
194
81
147
185
70
125
171
58
104
160
48
86
153
42
74
149
39
64
144
36
60
139
33
55
135
33
54
130
31
49
125
31
49
125
34
52
124
36
60
120
33
65
112
26
65
101
19
65
92
15
67
154
83
139
255
186
248
246
179
246
201
135
207
166
100
174
136
69
148
125
58
137
106
42
118
99
35
111
90
28
101
83
23
95
75
15
89
68
7
84
71
8
87
78
17
95
85
29
104
78
25
95
69
17
79
55
5
56
45
0
37
50
4
33
54
9
30
48
4
17
43
0
7
48
3
6
52
7
10
56
12
13
58
13
16
57
12
15
56
11
14
55
9
12
60
9
14
64
12
16
69
14
19
69
14
17
71
12
14
75
15
17
83
21
22
93
27
29
98
30
31
102
32
32
108
37
35
120
46
43
131
54
48
132
55
45
146
68
56
171
92
79
171
94
76
179
101
81
182
102
79
185
103
79
178
94
68
159
75
47
147
62
33
134
47
17
138
48
14
176
87
53
196
110
75
156
80
48
94
30
5
62
13
0
56
24
13
53
30
24
49
28
27
36
18
18
17
3
2
7
0
0
4
0
0
4
3
0
1
1
0
3
3
1
3
2
0
5
1
0
8
0
0
9
0
0
9
0
0
9
0
0
10
0
0
9
0
0
8
2
4
6
2
3
2
1
0
2
1
0
4
3
1
3
3
1
3
3
1
2
2
0
0
0
0
0
0
0
6
5
1
9
8
4
2
1
0
1
0
0
1
0
0
17
13
10
8
0
0
8
0
0
59
44
41
114
96
94
119
98
95
112
87
83
111
83
80
99
70
64
82
53
45
73
43
32
64
31
16
60
24
8
63
25
6
68
26
4
71
24
4
70
22
0
81
34
6
91
38
7
111
50
19
151
82
49
190
116
81
198
120
82
186
106
69
178
100
64
170
95
64
159
89
63
146
85
64
138
87
70
133
91
77
124
90
80
115
82
75
104
75
71
37
11
12
26
1
4
24
0
0
29
0
0
47
10
4
76
33
26
104
54
45
114
60
48
102
46
31
82
29
13
66
15
0
63
14
0
64
15
1
62
12
1
65
15
8
74
21
17
75
21
19
76
22
22
73
18
21
76
19
28
88
27
45
99
34
64
109
40
84
121
48
104
199
122
192
203
121
205
183
97
196
174
87
192
170
83
188
157
72
173
150
66
160
140
61
144
139
64
131
134
63
121
123
54
108
103
35
84
91
26
69
101
37
74
110
47
78
103
43
69
101
39
62
99
40
58
99
41
56
99
41
55
216
142
239
240
169
255
237
169
255
155
90
172
88
27
107
79
21
97
70
15
83
72
18
78
65
15
64
64
16
58
63
15
53
64
14
51
65
13
49
68
14
46
70
16
42
74
16
38
79
17
32
85
17
28
95
22
33
103
26
36
110
24
33
116
25
32
127
32
36
139
41
42
143
40
41
146
40
42
154
45
48
169
59
62
188
77
83
200
89
95
201
92
98
199
89
100
191
80
97
183
73
98
187
79
113
196
89
135
204
99
155
218
113
179
213
110
181
188
86
160
205
103
179
207
105
181
211
110
186
235
139
213
247
153
229
255
166
243
253
161
238
199
101
176
183
78
147
185
75
138
175
66
123
160
50
99
162
53
94
149
41
75
142
35
65
140
36
61
133
33
57
124
29
53
117
25
50
123
34
64
129
45
79
118
38
77
101
22
67
94
17
69
133
62
122
231
162
229
255
187
255
240
170
243
219
151
228
177
108
188
145
76
156
127
58
139
105
38
118
97
32
112
86
24
101
77
17
91
70
12
86
69
13
84
71
15
88
71
18
88
76
25
92
76
28
90
71
24
79
61
15
62
61
15
54
65
20
51
59
15
38
48
6
20
40
0
8
45
2
9
50
8
12
53
11
13
54
12
16
55
13
17
58
13
18
61
14
20
63
13
16
67
15
17
72
17
20
72
17
20
73
14
16
75
15
17
81
19
20
88
22
24
103
35
36
104
34
34
112
41
39
125
52
46
132
55
49
136
59
51
151
73
63
169
91
79
168
90
77
174
95
78
179
98
77
188
108
85
170
89
62
146
62
34
146
61
32
133
46
16
146
56
22
178
88
51
198
113
74
169
91
55
105
40
12
65
13
0
60
20
10
64
33
28
77
49
46
98
74
70
76
58
54
28
15
9
6
0
0
7
4
0
10
6
3
3
0
0
9
1
0
11
0
0
15
0
0
18
0
0
20
0
0
20
0
0
22
1
0
21
1
0
18
2
2
16
2
1
13
2
0
11
1
0
9
1
0
6
1
0
5
2
0
2
1
0
1
2
0
0
1
0
0
1
0
0
1
0
1
1
0
2
2
0
1
1
0
0
0
0
1
0
0
8
4
3
48
40
38
102
90
90
133
115
115
124
103
102
105
81
77
96
71
66
91
66
59
79
52
41
68
42
27
66
37
21
66
33
16
63
25
6
64
21
4
71
24
4
73
22
3
85
30
9
103
45
23
140
76
51
174
107
81
178
108
82
163
93
67
153
87
61
155
94
73
138
85
67
129
83
68
139
101
90
133
103
95
107
82
75
73
49
45
27
8
4
22
2
1
16
0
0
26
0
0
39
2
0
72
26
13
108
55
41
119
60
46
124
62
49
96
37
23
83
25
13
69
15
3
65
13
0
65
13
2
64
11
3
67
14
8
74
19
16
80
24
23
81
25
28
77
20
29
79
21
36
87
27
53
93
32
66
133
70
117
197
129
188
237
167
239
210
137
219
186
109
203
168
90
191
156
75
177
155
75
172
153
72
165
140
61
144
140
65
134
134
63
123
123
54
109
105
37
88
93
25
72
100
33
76
111
45
81
110
47
78
107
43
69
104
42
63
102
41
59
100
39
55
221
146
247
241
170
255
231
161
250
157
92
176
95
32
113
77
19
96
73
17
88
70
18
80
65
15
66
64
16
58
63
15
53
62
15
49
63
14
46
64
14
43
67
15
38
69
16
32
72
15
24
78
16
21
87
20
27
97
25
29
104
25
28
111
25
26
124
33
32
136
41
39
145
43
41
147
42
39
153
45
43
166
56
55
182
72
73
193
83
84
194
85
88
193
84
89
180
70
81
176
67
86
184
76
102
190
81
120
194
86
135
209
101
159
214
105
172
197
90
160
203
96
168
202
94
169
196
93
164
204
102
175
207
109
182
226
132
206
251
159
236
239
145
221
195
93
166
188
83
150
182
76
140
169
64
121
165
59
108
153
48
91
152
48
85
147
46
78
141
42
73
127
32
64
128
38
73
137
51
88
124
43
84
102
25
71
95
21
70
97
26
82
182
113
180
253
185
255
255
194
255
232
161
239
202
131
211
164
92
174
135
63
145
116
47
128
111
43
126
104
39
119
94
32
109
80
22
96
71
15
86
68
15
83
72
21
87
76
28
90
78
30
90
77
32
87
71
27
78
61
18
63
61
17
53
64
21
49
58
16
36
46
5
19
41
0
9
45
4
10
50
8
12
53
11
15
54
12
16
55
13
17
58
13
20
61
14
20
65
15
18
69
17
19
73
18
21
73
17
20
74
15
19
76
16
18
83
21
24
90
26
27
106
38
39
107
37
37
113
42
40
124
51
45
128
53
47
132
55
47
146
68
58
162
84
74
166
88
76
172
93
78
177
96
77
184
104
81
165
83
59
143
59
33
145
59
32
134
45
15
144
54
20
176
86
49
198
113
72
171
93
55
109
43
11
70
15
0
66
22
11
70
35
29
82
51
46
114
89
84
120
101
95
60
45
38
7
0
0
6
1
0
9
4
1
8
3
0
10
0
0
14
0
0
19
0
0
23
0
0
25
0
0
26
1
0
29
1
0
27
2
0
25
0
0
23
0
0
21
0
0
18
0
0
15
0
0
11
0
0
8
0
0
6
1
0
5
1
0
1
0
0
1
0
0
1
0
0
1
1
0
2
2
0
0
0
0
0
0
0
4
6
5
0
0
0
12
8
7
58
48
47
100
84
84
115
95
94
113
92
89
112
91
86
92
72
63
87
67
56
81
59
45
71
48
32
66
39
22
68
35
20
75
38
22
84
42
26
86
38
24
84
35
18
91
38
20
114
57
38
140
79
60
149
88
67
147
89
69
147
92
72
140
93
77
140
98
86
145
111
102
132
103
97
82
58
54
39
21
17
25
10
5
15
0
0
19
0
0
23
0
0
39
7
0
64
22
6
99
46
28
122
64
44
126
61
43
121
54
38
93
29
17
79
19
8
70
12
1
69
15
5
73
18
11
74
19
12
74
19
16
76
20
19
84
25
27
82
22
30
89
28
44
86
26
51
87
26
60
126
65
107
191
129
180
230
166
227
244
178
250
209
140
221
184
111
201
171
97
192
161
84
180
155
78
174
152
73
165
140
62
146
136
63
132
133
62
122
123
54
111
105
36
90
92
24
73
99
32
76
110
43
84
109
44
78
108
43
73
106
42
68
103
41
62
101
40
58
227
152
253
240
169
255
216
146
235
156
91
175
100
37
118
74
16
93
77
21
92
70
18
80
65
15
66
63
16
58
62
15
51
60
13
47
61
12
44
61
12
41
62
13
35
65
14
29
66
10
19
71
12
16
79
17
22
91
22
25
98
24
25
106
25
24
120
32
31
133
39
37
143
43
41
144
42
40
147
41
41
158
50
50
172
62
65
182
72
75
185
74
80
183
74
79
173
63
72
173
65
80
178
70
93
175
67
99
171
62
104
181
73
123
191
82
140
184
76
138
197
88
153
197
91
155
196
91
157
188
86
152
180
81
148
193
97
168
230
136
210
255
165
239
221
123
196
180
80
150
173
72
138
181
79
142
173
72
128
150
50
102
147
48
94
141
42
86
126
29
72
122
30
71
128
40
82
130
47
91
111
32
79
88
12
61
90
16
69
107
36
94
175
105
177
213
146
223
217
150
229
181
112
193
148
79
160
126
57
140
108
39
122
96
28
111
105
38
118
98
36
113
90
30
104
76
19
88
65
10
77
62
10
74
68
18
79
74
26
84
76
29
83
73
29
78
67
24
69
58
16
54
58
14
47
59
17
41
54
11
30
43
1
13
43
2
10
46
5
11
51
9
13
54
12
16
56
11
18
57
12
19
59
13
23
62
15
23
69
16
22
73
18
23
75
18
24
73
16
22
73
14
20
77
16
21
85
23
26
94
30
31
109
41
42
110
40
40
115
44
42
123
49
46
124
49
44
126
52
43
139
62
52
155
77
67
165
87
75
170
91
78
174
93
76
180
99
78
159
77
55
139
55
29
144
58
31
133
44
14
141
51
17
174
84
47
201
113
73
176
96
59
116
47
16
75
18
0
70
23
13
75
38
32
79
48
43
112
87
82
136
117
111
72
57
50
7
0
0
7
2
0
8
3
0
9
1
0
12
0
0
16
0
0
21
0
1
24
0
0
29
1
0
31
3
0
33
4
0
34
4
2
33
1
2
33
1
2
32
2
2
28
2
1
26
2
2
22
2
1
19
3
3
15
4
2
10
2
0
7
2
0
5
0
0
4
0
0
2
1
0
2
1
0
1
0
0
1
0
0
8
8
6
1
0
0
4
0
0
14
2
2
41
25
25
65
47
45
92
73
69
113
94
88
106
89
81
105
88
78
94
76
64
75
56
42
70
47
33
80
52
40
91
59
46
96
60
46
99
61
48
91
49
35
101
55
40
121
74
56
127
76
57
121
70
49
129
81
61
145
99
83
152
112
100
131
97
87
125
98
91
98
74
70
41
23
19
11
0
0
11
0
0
18
3
0
20
0
0
32
3
0
55
17
4
94
47
29
126
69
49
135
73
52
128
61
42
114
47
30
88
22
8
78
16
3
73
13
2
76
19
8
84
27
18
84
29
22
82
27
24
79
23
22
81
22
28
79
18
33
95
33
56
90
29
60
93
31
72
170
106
156
250
185
243
255
192
255
247
179
252
209
140
220
183
110
199
174
101
191
164
87
181
156
79
173
152
73
165
143
65
149
135
62
131
131
61
121
122
53
110
105
36
91
92
24
75
99
31
78
109
42
85
108
42
78
107
44
75
106
43
70
105
43
68
104
42
65
228
153
254
232
161
255
196
126
215
148
83
167
101
38
119
72
14
91
80
24
95
70
18
80
63
15
65
62
15
57
60
13
49
58
11
45
58
9
41
58
9
38
59
10
32
59
11
25
60
9
16
64
9
14
73
14
18
82
20
21
93
23
23
101
25
25
114
30
28
127
37
36
134
40
38
136
36
34
139
36
37
147
41
43
160
51
54
170
61
64
174
65
70
174
65
70
173
64
70
172
65
75
172
63
82
162
54
80
154
44
81
162
53
95
172
62
111
168
60
112
182
73
128
185
78
134
189
84
141
182
78
137
174
74
138
180
81
148
206
110
181
251
155
229
250
154
228
187
91
165
168
70
143
175
78
147
170
74
138
153
57
118
151
56
112
135
41
94
129
36
89
140
50
102
131
44
95
116
33
85
103
26
80
84
9
65
84
11
66
107
37
99
122
54
127
143
78
158
162
95
175
139
72
152
111
43
126
104
36
119
97
29
112
90
25
105
88
24
102
85
23
98
77
20
89
69
14
79
62
11
70
60
11
67
64
15
70
68
22
71
62
19
65
61
18
61
55
13
51
49
8
42
51
8
36
52
10
32
47
4
21
39
0
9
46
5
13
48
7
13
52
10
14
54
12
16
57
12
19
58
13
20
60
14
24
63
16
24
70
17
25
73
18
24
74
17
24
72
15
22
73
13
21
78
17
24
87
25
30
96
31
35
109
40
43
111
41
43
116
44
45
121
47
44
123
48
43
124
49
43
138
61
53
151
74
64
167
87
78
170
91
78
173
92
75
176
95
74
153
71
49
137
53
29
146
60
35
134
44
17
142
52
18
175
85
48
204
116
76
184
102
64
124
53
23
79
21
0
72
24
12
77
38
31
89
56
51
111
83
79
119
98
93
59
44
37
8
0
0
7
0
0
9
1
0
9
1
0
15
1
1
19
1
1
22
0
2
28
2
1
33
3
3
37
6
4
38
7
4
41
7
5
47
8
9
48
7
11
44
8
10
43
9
10
40
8
11
38
9
11
32
10
12
30
12
12
20
4
4
15
4
2
13
3
2
10
2
0
7
2
0
5
0
0
4
0
0
3
0
0
3
0
0
4
0
0
10
0
0
14
0
0
13
0
0
21
3
3
41
23
21
61
46
41
93
80
72
92
79
70
76
63
54
59
45
34
65
48
38
91
71
60
108
84
74
108
81
70
114
84
74
117
85
74
130
94
82
132
95
79
120
81
64
124
83
65
144
105
88
158
122
108
125
95
84
74
49
42
54
33
28
41
23
19
16
2
0
11
0
0
13
2
0
18
0
0
29
2
0
48
12
0
74
28
12
119
64
44
145
83
60
141
73
50
129
58
38
109
41
22
84
17
0
83
17
3
83
21
8
87
27
17
91
32
24
91
33
29
86
31
28
85
26
30
82
20
33
82
19
40
96
31
63
96
31
73
120
53
104
205
140
198
255
206
255
255
196
255
255
187
255
224
155
235
201
129
213
184
111
200
166
91
182
158
82
173
153
77
167
143
68
151
135
63
136
133
63
126
124
54
116
107
38
95
95
26
81
101
33
82
110
43
87
109
42
83
108
44
79
107
44
75
106
43
72
105
42
69
221
146
247
223
152
248
186
116
205
139
74
158
97
34
115
72
14
90
80
24
95
69
17
79
61
13
61
59
13
52
57
11
47
55
10
43
54
7
39
53
7
33
55
8
28
56
10
23
57
10
16
59
10
13
65
13
15
77
18
20
86
22
22
93
23
23
106
28
26
117
33
31
122
32
31
123
29
27
127
29
30
137
34
37
148
43
47
158
52
56
162
55
61
163
57
61
167
61
65
166
59
65
162
54
69
153
46
66
152
43
72
163
55
89
173
64
103
170
61
102
169
60
102
164
57
103
165
59
107
161
57
110
165
64
122
175
75
139
192
95
162
235
139
211
254
162
239
217
126
205
196
104
181
177
85
160
171
79
152
173
82
152
178
87
156
158
69
135
169
80
144
162
76
139
136
54
116
113
35
95
102
27
86
83
12
70
78
9
66
95
26
89
89
23
97
101
38
119
135
70
152
128
63
145
100
35
117
94
29
111
88
23
103
83
21
98
77
17
91
72
15
84
69
14
79
67
16
75
69
18
74
69
21
71
66
20
66
62
19
62
51
9
47
49
8
42
46
5
37
43
3
30
47
5
27
49
8
26
47
5
19
41
0
9
49
6
13
51
9
13
56
11
16
57
12
17
58
11
19
59
12
20
62
15
25
67
17
28
70
17
27
73
17
26
74
17
26
72
15
24
73
13
23
78
17
25
88
25
34
97
32
40
107
38
43
110
39
43
116
44
45
121
47
46
123
48
45
127
52
46
141
64
58
153
76
68
169
89
80
171
91
80
174
92
78
173
92
73
147
65
44
135
51
27
148
62
37
135
48
20
143
53
19
179
87
50
209
120
80
193
109
72
133
60
28
85
23
0
75
23
10
77
37
29
97
64
57
105
77
73
82
61
56
35
20
13
8
0
0
7
0
0
9
0
0
13
3
2
17
1
2
21
1
2
26
1
4
32
4
3
38
6
7
44
8
8
46
11
9
50
10
10
56
11
14
57
11
14
56
11
14
52
12
13
51
12
15
48
14
15
45
15
17
42
16
17
32
8
8
28
8
7
26
8
8
21
5
5
16
2
1
11
0
0
9
0
0
8
0
0
9
0
0
12
2
0
18
4
3
19
3
3
16
0
0
13
0
0
12
0
0
16
2
0
25
14
8
28
19
12
24
15
8
21
12
3
45
35
26
89
76
68
118
103
96
126
109
102
120
101
95
138
118
111
133
109
99
94
68
55
78
50
36
112
83
69
137
109
97
126
99
88
57
37
28
17
0
0
11
0
0
14
3
1
10
0
0
13
1
1
12
0
0
16
0
0
36
4
0
63
20
4
97
45
24
139
77
54
157
87
62
143
69
44
125
50
27
105
33
11
86
18
0
92
25
9
98
32
18
99
35
25
96
33
26
91
32
28
89
31
30
88
29
35
89
24
44
93
26
57
96
28
69
107
39
90
157
87
149
229
159
229
255
195
255
255
185
255
255
195
255
251
180
255
234
162
244
205
133
217
174
100
187
162
88
175
157
83
170
145
72
154
139
67
143
137
65
138
129
58
126
113
43
106
99
31
92
105
38
92
114
48
96
112
47
90
109
45
82
108
44
78
105
44
75
104
44
72
208
133
234
221
147
244
196
126
215
142
77
159
94
31
112
74
16
92
78
22
93
70
18
80
57
9
57
56
10
49
54
8
44
52
7
38
52
6
35
52
6
32
52
7
27
53
10
20
54
12
16
54
9
12
60
11
14
67
16
15
77
19
18
83
19
19
92
21
19
103
25
23
108
24
22
111
23
21
115
23
24
125
29
30
137
36
40
147
44
48
151
48
52
153
48
53
154
50
51
152
47
51
147
41
51
143
36
52
149
43
65
165
58
86
171
64
94
165
60
91
172
64
98
161
55
93
152
47
88
145
42
89
153
53
105
164
64
124
174
75
140
201
105
177
255
167
247
254
165
249
248
159
243
234
145
227
234
145
225
221
132
212
215
128
206
213
127
202
177
94
166
140
59
128
115
36
102
105
30
95
89
17
80
76
6
66
78
10
69
81
17
78
76
14
87
82
21
98
118
56
133
119
58
135
90
29
107
78
17
94
72
11
88
66
6
78
69
12
80
65
11
73
62
11
70
65
17
69
69
21
69
68
23
66
60
18
56
54
13
47
46
5
37
44
4
31
42
2
28
43
4
25
50
9
27
52
11
25
51
9
21
48
7
15
52
9
16
53
11
15
57
12
17
57
12
17
58
11
19
60
13
21
63
16
26
68
18
29
70
16
29
74
18
31
76
18
32
75
17
29
78
16
29
81
19
30
92
26
38
98
32
42
105
35
43
110
41
46
117
45
48
120
48
49
126
51
48
133
58
53
147
69
65
158
81
75
169
90
83
171
91
80
173
91
77
169
88
71
140
59
38
130
48
26
149
65
41
136
49
22
143
52
21
179
87
50
212
123
83
200
115
76
140
65
33
90
26
1
77
24
10
81
37
28
83
48
42
77
50
43
45
21
17
15
0
0
11
0
0
11
2
0
12
2
0
11
0
0
17
1
2
23
1
3
29
3
4
37
5
6
44
8
10
49
11
10
53
13
13
58
14
13
60
11
14
61
10
15
60
11
15
58
12
15
57
12
17
54
13
17
51
15
17
50
15
19
45
13
16
43
14
16
39
13
16
33
8
11
26
4
6
21
1
2
19
0
0
18
0
0
13
0
0
15
0
0
16
0
0
15
0
0
15
0
0
16
0
0
14
0
0
9
0
0
7
0
0
7
0
0
4
0
0
3
0
0
10
5
0
35
30
24
61
54
48
72
62
60
73
62
60
88
74
73
76
58
54
39
20
13
32
12
1
61
41
30
69
49
40
43
26
18
18
5
0
8
0
0
8
0
0
17
7
8
11
1
2
10
0
0
16
0
1
26
1
0
46
7
0
84
32
11
127
65
42
159
89
63
162
85
57
142
62
35
119
42
16
104
29
6
96
25
5
103
34
18
109
41
28
106
39
30
97
32
26
91
30
29
89
30
32
90
30
42
91
25
53
99
28
70
104
31
84
129
57
120
186
113
184
231
158
237
243
170
252
238
166
248
247
175
255
251
179
255
250
178
255
223
151
233
186
113
195
170
96
181
164
90
175
151
77
162
145
72
153
143
71
147
136
64
138
120
49
119
106
37
102
112
44
105
120
53
107
118
52
100
114
49
92
113
49
86
109
48
82
108
47
80
195
118
220
224
150
247
223
153
242
156
91
173
95
32
113
77
19
95
74
19
87
72
21
80
54
7
53
52
8
44
50
6
39
49
6
36
49
4
33
50
6
29
51
8
25
51
9
19
52
11
15
50
8
10
53
9
10
60
12
12
65
14
13
71
13
11
77
13
11
86
16
14
95
20
17
100
19
16
107
21
22
117
27
27
128
33
37
134
38
42
137
41
45
139
40
43
137
37
37
137
37
39
132
31
37
131
29
42
144
41
60
160
56
79
163
59
84
155
52
79
167
62
92
162
59
89
150
49
83
137
36
76
139
40
87
147
48
103
152
54
115
163
70
140
207
118
200
209
120
210
206
117
207
222
134
221
249
163
250
210
124
211
171
87
172
180
97
179
150
69
148
105
27
102
86
10
82
84
13
79
72
3
66
66
1
59
72
9
66
71
10
69
75
16
82
68
11
80
95
35
105
102
45
114
79
22
93
68
11
80
67
12
79
63
8
73
64
13
72
61
12
67
59
11
63
59
13
59
59
14
55
54
12
48
48
7
39
42
3
30
45
5
31
42
3
24
41
2
21
44
5
23
52
11
27
54
14
25
54
12
22
53
10
19
56
11
18
57
12
19
59
12
20
59
12
20
60
10
21
62
12
23
66
16
28
70
18
31
73
16
33
78
19
37
81
23
38
81
23
38
83
20
37
86
24
39
95
29
43
101
35
47
106
36
46
112
42
50
120
48
52
122
50
53
128
52
52
137
62
59
150
75
70
162
85
79
168
89
82
170
90
81
168
89
76
163
84
67
131
53
33
125
44
23
148
64
40
134
48
21
141
50
19
177
85
48
215
123
82
204
119
80
146
70
36
96
29
3
83
26
9
86
39
29
76
39
31
80
51
45
74
49
45
43
24
18
22
7
4
17
6
2
13
2
0
14
0
0
20
2
2
24
2
4
32
3
5
40
6
7
48
9
12
54
12
13
59
15
16
64
16
16
63
13
16
64
14
17
64
14
17
63
14
17
61
15
18
60
15
18
58
16
18
57
16
20
57
18
21
57
18
21
53
17
21
47
12
16
40
5
9
33
1
4
31
0
2
29
0
2
17
0
0
21
0
0
26
5
4
24
3
2
22
1
0
22
2
1
17
1
1
12
0
0
11
1
0
7
2
0
4
0
0
1
0
0
0
0
0
0
0
0
5
5
3
13
12
10
11
5
9
14
5
8
11
0
0
10
0
0
16
3
0
20
7
0
14
1
0
8
0
0
10
2
0
5
0
0
6
0
0
10
1
4
11
0
1
12
0
0
23
3
4
38
7
2
67
18
1
110
48
23
156
84
59
172
92
65
162
77
48
141
56
27
120
39
12
113
35
12
108
33
12
113
42
24
116
44
32
108
38
30
99
31
28
95
31
32
92
31
38
92
29
48
94
23
63
102
28
81
130
54
118
172
96
168
209
132
212
225
150
235
226
150
240
216
142
231
213
139
226
229
155
240
248
175
255
237
164
246
202
129
211
180
107
189
170
97
179
157
83
168
151
77
162
150
77
159
143
70
151
127
55
131
115
43
116
120
49
115
127
59
118
124
57
110
120
54
102
119
54
97
117
52
92
115
51
88
187
110
212
229
155
252
246
176
255
169
104
186
98
35
116
80
22
98
71
16
84
73
23
82
51
5
51
50
6
42
49
5
38
48
5
33
48
5
32
49
7
29
51
8
25
51
11
20
50
11
14
46
7
8
48
6
7
53
9
8
58
10
8
60
9
6
66
8
6
74
10
8
87
19
16
93
19
18
101
23
23
110
29
28
119
33
36
125
36
40
127
36
41
127
37
39
125
31
31
126
32
32
124
29
33
126
30
41
142
44
59
159
60
80
161
62
83
155
55
79
145
45
71
148
49
77
138
41
72
122
26
63
121
26
70
131
34
85
142
47
105
151
58
128
184
95
179
177
91
182
157
71
162
183
96
190
245
160
253
206
121
212
140
57
147
136
56
143
133
56
138
104
30
107
82
10
83
72
5
72
66
2
63
64
3
60
66
6
60
62
5
58
70
15
72
56
2
60
70
16
76
81
27
87
66
12
72
60
9
68
67
16
73
65
16
71
66
18
70
64
18
65
62
17
60
55
13
51
50
9
43
44
5
34
40
1
28
37
0
22
44
5
24
41
2
20
39
0
18
44
6
21
51
10
24
55
13
25
54
11
21
53
10
19
57
11
21
58
12
22
59
12
22
59
12
22
60
10
21
62
12
24
66
16
28
71
18
34
75
18
37
80
21
43
84
25
45
87
25
46
88
25
44
90
27
44
98
31
48
103
37
51
107
36
50
114
44
54
122
49
56
124
52
56
129
55
56
139
63
63
153
78
75
164
86
82
166
87
82
167
89
79
166
86
75
158
81
65
127
48
31
120
42
20
145
63
41
133
47
20
137
48
16
175
83
46
215
123
82
208
120
80
152
74
38
101
31
5
89
28
10
91
41
30
94
55
48
122
93
87
157
129
125
104
83
78
35
17
13
13
0
0
11
0
0
23
9
8
20
2
2
26
1
4
34
4
6
42
6
8
50
10
11
58
14
15
64
16
16
67
17
18
68
16
20
68
16
20
68
18
21
68
18
21
68
18
21
67
18
22
68
19
23
66
20
23
66
19
25
65
20
25
63
18
23
56
13
20
48
5
12
42
0
6
39
0
4
39
0
3
39
7
8
40
12
11
38
10
9
32
6
5
32
6
7
31
10
9
26
6
7
14
0
0
14
2
2
6
0
0
3
0
0
5
5
3
7
7
7
0
2
1
0
1
0
0
1
2
7
6
12
5
0
7
4
0
2
6
0
0
12
2
0
7
0
0
7
0
0
18
10
7
8
4
3
11
7
8
4
0
2
10
0
3
18
2
5
22
0
2
40
12
11
55
17
8
87
30
10
131
60
32
175
96
66
177
90
60
158
67
38
142
51
22
126
40
13
125
45
20
116
39
19
118
45
28
117
43
32
109
36
30
101
31
33
98
31
38
95
32
43
91
27
53
98
26
74
109
33
97
162
85
157
215
136
215
225
147
233
226
147
238
222
142
237
202
125
219
198
122
213
216
142
231
247
173
255
250
177
255
218
145
227
188
115
196
173
100
182
161
88
170
155
81
166
154
80
165
148
75
157
132
59
138
120
48
122
124
53
123
132
62
125
128
60
119
125
58
112
124
57
108
121
55
101
119
54
97
191
114
216
232
158
255
255
189
255
193
125
208
96
33
114
73
15
91
76
23
91
63
13
72
53
7
53
46
4
40
41
0
30
38
0
25
40
0
26
43
4
23
48
7
21
47
10
17
43
7
9
46
7
8
46
8
7
50
8
9
53
9
8
57
9
7
60
9
6
63
8
5
74
14
13
80
16
14
88
20
19
96
25
23
104
28
30
110
30
33
113
31
35
114
32
34
119
33
32
118
32
31
120
31
35
125
35
45
134
42
57
143
50
69
147
54
75
149
55
79
143
49
73
132
40
65
124
31
58
119
28
61
117
26
67
118
26
75
124
34
88
132
41
108
176
87
171
172
83
177
156
69
163
159
72
167
211
126
220
242
157
251
166
83
175
125
45
134
123
48
131
106
33
112
87
19
92
77
12
78
72
11
71
64
7
62
60
3
54
56
2
51
60
8
56
56
7
54
54
4
53
52
4
52
53
5
53
55
9
56
58
12
59
58
15
60
55
12
55
53
12
52
50
10
45
47
7
41
43
4
33
38
3
27
35
0
22
36
0
19
44
5
23
38
0
15
40
0
15
48
7
21
54
12
26
54
12
24
56
12
25
59
16
26
59
13
24
63
15
27
57
7
19
59
9
21
60
8
21
60
7
23
72
19
35
74
19
38
73
15
39
89
29
54
101
39
64
97
35
60
94
30
54
97
34
55
100
32
53
97
30
47
104
33
49
113
43
54
120
47
56
121
48
55
127
52
56
138
64
65
150
74
74
154
79
76
160
82
78
164
87
79
164
86
76
153
77
63
120
43
25
116
39
19
144
63
42
134
50
24
137
51
18
170
80
43
212
121
77
212
125
82
160
80
43
112
38
11
100
35
17
103
49
37
104
63
57
124
93
88
159
130
126
180
156
152
57
38
34
14
0
0
20
6
5
20
4
4
20
2
2
26
1
4
33
3
5
42
6
8
52
10
12
61
15
17
68
18
19
72
20
22
72
20
22
72
20
22
72
20
22
72
20
22
72
20
22
71
19
23
71
19
23
71
19
23
72
19
25
72
21
26
72
21
26
69
20
26
68
19
25
65
16
22
55
6
12
42
0
1
47
7
8
43
7
7
39
5
4
33
2
0
33
3
3
36
7
9
37
11
14
36
14
16
20
1
3
14
0
2
6
0
0
3
0
0
0
0
2
0
2
3
0
3
3
0
2
5
0
0
7
3
2
10
4
2
7
5
1
0
5
0
0
4
0
0
6
1
0
8
4
1
3
0
0
7
2
6
7
1
3
9
0
0
20
0
1
33
5
4
45
11
9
64
18
5
125
59
35
176
97
66
177
91
58
161
68
35
171
76
44
162
68
40
137
50
23
140
58
34
131
54
34
124
48
34
106
29
21
109
33
33
97
24
31
97
29
42
99
34
54
98
31
66
89
15
74
147
70
142
221
142
221
237
158
241
220
139
231
217
136
231
208
126
226
199
119
218
200
120
217
208
131
225
227
151
241
252
177
255
251
178
255
227
154
236
205
132
213
184
111
193
190
115
200
180
105
190
167
92
175
149
74
156
134
60
137
137
65
138
149
78
146
150
80
143
139
69
129
132
63
120
120
51
105
117
49
100
194
117
219
234
160
255
255
185
255
188
120
203
97
34
113
75
17
91
77
24
92
65
17
75
50
7
52
45
5
39
39
0
29
37
0
24
39
1
24
43
4
23
45
7
18
46
9
16
42
6
8
43
7
7
44
8
8
47
9
8
49
9
9
51
10
8
55
10
7
57
9
5
65
14
11
70
15
12
78
18
17
86
22
20
94
26
27
98
28
28
103
28
32
104
30
31
112
34
34
110
32
32
112
31
37
117
34
44
126
39
56
132
45
64
136
48
70
137
49
71
136
48
70
125
40
63
116
30
55
112
27
58
111
25
64
112
26
71
119
32
83
125
39
102
166
78
162
167
78
172
144
57
151
132
45
140
171
86
180
231
146
240
193
110
202
130
51
140
108
33
118
96
25
105
84
16
89
78
16
81
75
15
75
67
13
65
62
8
58
59
7
53
52
6
43
49
5
40
46
2
38
44
0
38
44
0
38
44
2
42
45
4
44
47
7
44
45
8
42
44
7
40
42
5
36
39
5
30
38
3
27
35
2
23
35
0
20
34
0
17
40
4
18
39
1
16
41
0
14
46
5
19
52
10
24
55
13
27
57
13
28
61
14
30
58
10
26
64
16
32
61
10
27
62
11
28
65
12
30
68
15
33
78
23
44
76
18
42
78
18
44
95
35
63
107
44
73
101
38
65
95
31
58
96
30
57
101
33
58
100
32
53
104
33
51
111
40
54
118
46
58
119
46
55
125
50
55
136
61
65
147
71
73
152
76
76
155
80
77
157
82
76
157
80
70
145
71
58
113
40
23
113
38
19
142
64
42
133
52
25
134
50
16
166
78
40
208
119
75
214
127
84
168
86
49
118
43
12
102
36
14
104
48
35
104
61
54
125
92
87
165
134
131
188
163
158
70
49
46
19
1
0
14
0
0
15
0
0
19
1
1
23
2
1
33
3
5
42
6
6
52
10
12
63
14
17
71
19
21
76
21
24
75
20
23
75
20
23
75
20
23
75
20
23
76
20
23
77
21
24
77
20
26
77
20
26
75
18
24
77
20
27
76
21
27
75
20
26
75
19
28
72
16
25
62
6
15
48
0
2
50
4
6
47
5
6
45
5
6
44
5
6
43
7
9
44
10
11
45
13
16
43
14
18
35
10
14
27
6
11
17
1
4
7
0
0
3
0
0
2
2
4
0
3
4
0
1
5
0
0
9
0
0
7
5
4
9
10
6
7
12
7
4
19
14
10
17
12
8
8
4
1
7
3
4
7
3
4
6
0
0
12
0
0
27
3
1
39
6
1
56
16
8
86
33
17
158
87
59
190
106
70
185
92
58
170
73
40
174
75
44
160
65
37
140
50
24
145
60
39
143
65
45
127
51
38
109
32
26
110
34
36
98
25
36
99
27
47
95
29
57
95
26
70
102
27
92
180
101
180
235
156
239
237
157
244
225
144
237
214
132
230
202
120
222
197
115
217
194
112
214
196
116
215
213
134
226
241
165
253
249
174
255
245
172
254
251
178
255
249
174
255
247
171
255
241
165
253
239
161
247
217
142
225
188
114
193
182
108
185
175
102
175
152
81
149
139
67
133
135
65
127
125
55
115
120
51
108
196
119
221
235
161
255
251
178
255
179
111
194
97
34
113
78
20
94
78
25
93
69
22
77
49
6
49
44
4
38
39
0
29
35
0
24
36
1
23
41
4
21
42
7
14
43
8
12
39
5
6
40
6
5
41
7
6
43
8
6
44
9
7
47
9
6
49
9
7
51
10
6
57
12
9
62
13
9
67
16
13
74
19
16
81
21
21
86
25
24
90
24
26
91
25
26
100
30
30
100
30
32
102
29
36
107
31
43
113
35
51
120
38
60
122
40
62
120
41
62
123
44
65
116
37
58
108
29
51
104
25
54
103
23
58
104
23
64
110
28
76
117
33
93
152
68
146
150
64
153
135
49
140
130
43
137
151
66
159
220
135
228
225
142
234
145
65
154
99
21
107
89
16
97
81
13
86
78
16
81
74
16
75
65
11
63
58
6
54
54
6
46
48
4
37
44
4
31
40
0
29
36
0
26
35
0
27
33
0
29
34
0
31
35
0
32
35
0
30
35
1
28
34
0
25
33
1
24
34
1
22
32
1
17
33
1
16
33
1
14
37
1
15
39
1
14
41
0
16
42
1
17
48
5
22
55
12
31
60
15
35
62
15
35
58
9
31
59
10
32
59
7
30
65
11
35
69
13
38
68
12
37
75
17
42
74
15
43
85
24
55
102
38
72
111
48
79
104
41
72
95
30
62
95
29
57
100
31
59
101
33
56
103
31
51
109
38
54
115
43
57
118
45
56
123
48
55
132
57
61
142
68
69
147
73
72
147
73
70
149
76
70
144
70
61
134
62
48
106
34
19
108
37
19
139
64
43
132
55
29
129
46
12
160
75
36
204
115
71
217
130
85
179
97
59
128
53
21
106
38
15
103
45
31
110
66
57
124
89
85
159
125
123
169
141
137
62
41
38
17
0
0
11
0
0
15
0
0
19
1
1
22
1
0
32
2
4
41
5
5
52
10
12
65
16
19
75
20
23
80
24
25
76
20
21
76
20
21
79
20
22
80
21
23
82
22
24
83
23
25
83
22
27
84
23
28
82
21
26
84
23
30
83
24
30
82
23
29
81
24
31
79
22
29
69
12
19
57
2
8
52
2
5
53
5
5
54
8
10
56
12
13
58
13
16
56
14
18
55
14
18
55
16
21
56
21
27
49
18
24
35
8
13
18
0
2
8
0
0
6
0
2
3
3
3
0
0
4
0
0
7
0
0
7
2
0
5
9
5
4
37
29
26
55
48
42
31
24
18
9
4
0
14
9
6
11
3
1
8
0
0
19
0
0
35
6
0
44
6
0
73
26
10
121
60
39
195
116
85
199
109
74
188
91
56
180
81
49
179
78
48
161
63
36
145
53
30
150
65
45
152
73
58
125
48
38
111
33
31
110
35
42
100
26
43
99
26
55
93
23
60
95
25
77
121
45
117
216
137
220
245
165
250
234
154
243
231
147
241
210
125
226
196
111
215
194
109
213
193
108
212
189
107
209
206
124
222
231
152
244
225
146
235
212
137
222
220
145
230
220
145
230
233
154
245
247
168
255
255
176
255
255
179
255
250
173
255
220
143
223
178
102
177
152
79
150
137
62
131
136
64
130
131
59
123
124
52
116
195
118
220
233
157
255
242
169
255
170
103
183
95
32
111
78
20
94
76
24
90
69
22
77
47
4
47
40
3
34
36
0
26
34
0
21
35
0
20
37
3
19
38
5
12
38
6
9
37
3
4
36
4
5
36
5
3
38
7
5
39
8
6
40
9
6
43
9
7
44
9
5
51
11
9
54
13
9
59
14
11
66
17
13
72
18
16
76
20
19
80
22
21
82
22
22
88
26
27
91
26
30
94
27
36
100
29
43
105
32
49
108
33
53
110
35
56
109
36
55
110
37
56
105
32
51
99
26
46
95
21
46
93
20
50
96
22
59
102
25
69
106
27
84
117
35
109
123
39
124
126
42
128
136
52
140
142
57
148
211
126
219
248
165
255
151
70
162
102
24
110
94
21
102
88
20
95
85
23
90
78
20
79
65
12
66
54
4
53
49
3
42
46
5
35
43
5
28
39
1
26
34
0
24
33
0
25
32
0
25
32
0
28
31
1
27
29
0
25
29
0
23
29
0
22
31
0
20
31
0
18
31
0
15
32
2
14
33
1
12
35
0
11
39
1
14
41
0
16
40
0
15
46
3
22
56
13
33
65
17
41
64
16
40
63
13
40
60
7
37
61
6
37
69
14
45
72
15
47
68
11
43
74
15
47
83
22
55
93
29
64
103
39
74
108
44
79
103
38
72
96
29
64
95
28
61
98
29
58
98
30
55
103
31
55
108
37
55
113
40
57
115
43
54
119
46
55
127
52
57
137
62
66
143
69
70
142
68
67
142
69
63
133
60
51
121
51
39
98
29
14
103
35
16
135
63
41
131
55
29
123
43
10
154
69
30
199
110
66
219
132
87
191
109
69
141
65
31
110
43
17
103
44
28
113
66
58
125
88
82
142
108
106
129
100
96
48
24
22
21
3
0
13
0
0
14
0
0
16
0
0
20
0
0
29
1
0
39
5
4
51
9
11
65
17
17
76
21
24
81
25
26
77
19
18
79
19
19
81
19
22
83
21
24
87
22
26
89
24
28
90
25
31
91
26
32
94
29
35
94
32
37
94
31
39
91
30
37
91
30
38
88
28
36
78
18
26
65
8
14
56
1
4
58
3
6
62
10
14
68
18
21
71
20
25
69
18
23
67
18
22
68
19
25
75
28
36
72
29
36
58
21
28
35
4
9
15
0
0
10
0
0
6
0
0
2
0
1
2
1
7
2
1
7
3
0
0
10
2
0
75
64
60
95
84
78
40
29
23
14
3
0
16
7
2
14
3
0
16
0
0
29
4
0
43
7
0
53
6
0
95
40
19
159
92
65
210
126
92
198
104
68
189
91
56
194
94
62
189
88
60
170
72
47
157
65
44
159
72
55
154
72
60
120
41
36
110
34
36
110
34
46
101
25
51
100
26
63
95
23
69
102
28
87
152
76
151
239
160
243
247
167
252
238
158
247
239
155
251
209
124
225
196
111
215
192
106
215
190
104
213
188
102
209
208
123
226
230
148
246
211
130
223
181
102
193
177
98
187
170
91
182
185
104
197
198
117
210
203
122
214
219
139
228
246
166
251
239
162
244
193
114
193
151
75
150
138
61
133
139
64
133
136
61
130
128
56
122
190
112
214
225
149
247
234
161
250
164
97
177
92
29
108
77
19
93
73
22
88
63
18
73
44
3
43
39
2
33
35
0
25
32
0
20
33
0
19
34
2
15
34
3
9
34
4
6
33
1
2
32
2
2
33
3
3
34
4
4
34
6
5
36
8
5
37
7
5
39
8
5
47
13
11
49
14
10
53
13
11
58
14
11
64
16
14
69
18
17
73
19
19
74
20
20
77
21
22
80
24
27
87
27
35
92
30
43
98
31
48
100
31
50
101
32
50
102
33
51
97
29
44
94
28
42
89
23
37
86
19
37
86
18
43
89
20
51
95
23
61
97
23
74
98
18
87
114
33
110
120
38
120
121
39
123
116
33
121
189
106
198
249
166
255
150
69
161
111
32
123
104
30
115
100
31
111
98
35
106
92
33
97
76
23
79
60
10
61
50
5
48
44
5
34
40
5
29
37
1
27
33
0
24
31
0
25
30
0
26
32
2
28
32
4
29
30
2
27
30
2
25
29
1
23
30
1
19
30
2
17
30
2
16
30
2
14
31
1
11
35
0
11
39
1
14
41
0
16
39
0
16
45
2
22
56
12
35
68
20
46
70
21
51
69
18
51
69
15
51
70
14
51
73
15
53
79
18
59
85
24
65
92
30
71
98
36
77
96
31
71
99
34
74
100
33
74
96
30
68
95
27
64
94
27
62
95
26
57
93
24
52
104
31
58
106
34
54
111
38
57
114
42
54
117
44
55
121
48
55
132
57
61
140
66
67
137
66
64
136
65
61
123
53
45
112
44
33
94
27
11
100
33
16
129
61
40
126
55
27
120
41
8
147
64
24
191
104
59
221
135
88
204
123
80
154
78
42
117
47
21
103
44
26
108
61
53
117
78
73
111
76
74
79
50
46
27
3
1
22
3
0
17
2
0
11
0
0
16
1
0
19
0
0
26
0
0
35
4
2
48
8
9
61
15
15
73
21
23
81
25
26
78
18
18
81
20
19
85
21
22
87
23
24
91
25
27
94
28
30
96
30
34
98
32
36
107
41
45
108
42
46
108
41
48
105
40
46
103
40
48
99
38
45
88
27
34
76
17
23
65
6
10
66
7
11
72
13
17
79
23
26
83
26
32
80
23
29
81
22
28
83
23
31
89
32
39
93
37
46
84
34
43
59
18
24
31
0
5
15
0
0
10
0
0
9
1
0
8
2
6
9
3
7
8
0
0
31
17
14
106
89
82
121
104
96
54
37
29
25
8
0
18
1
0
21
2
0
30
6
0
44
10
0
53
7
0
70
15
0
124
60
32
190
115
83
206
118
82
193
97
59
195
95
61
207
107
75
201
102
73
182
86
62
172
81
63
169
81
69
150
67
59
117
37
36
112
35
43
108
34
51
101
26
57
102
27
70
107
34
89
118
43
108
192
115
193
246
169
251
243
165
249
243
163
250
243
159
253
209
124
225
198
111
218
190
102
214
187
99
211
184
96
206
199
112
217
219
134
235
202
118
214
172
91
184
169
88
181
165
84
177
170
86
182
168
84
178
173
89
183
179
96
188
206
123
211
249
169
254
236
154
236
163
84
163
147
66
143
141
63
138
137
60
132
133
58
127
183
105
207
217
141
239
230
157
246
164
97
177
90
27
106
76
18
92
73
22
88
59
14
69
43
2
42
38
1
32
33
0
23
32
0
18
32
0
16
33
1
14
32
1
7
31
1
3
29
0
0
29
1
0
30
2
1
29
3
2
30
4
3
31
5
4
32
7
3
35
7
4
44
14
12
45
14
11
48
13
11
52
12
10
57
13
12
62
14
12
66
16
15
68
17
16
68
18
19
73
21
25
82
26
35
87
29
41
92
30
45
92
30
45
93
29
45
93
29
43
84
21
32
84
23
31
82
20
31
78
16
31
80
17
38
86
20
48
90
23
58
92
20
66
102
28
89
106
30
102
103
27
101
103
24
105
102
22
107
168
85
175
248
164
255
192
111
204
129
50
142
118
44
133
109
40
121
106
42
116
99
40
106
83
29
89
65
14
70
54
8
54
44
4
38
39
5
30
35
1
28
32
0
26
29
0
27
28
0
27
30
1
29
29
3
28
30
4
29
30
5
27
32
4
26
31
4
21
31
3
18
31
3
15
30
3
12
32
2
10
37
1
11
39
1
12
41
0
14
40
0
17
46
3
23
57
13
38
70
21
51
76
26
61
76
21
60
76
21
61
77
18
62
70
11
55
84
22
69
105
43
90
107
44
91
101
38
83
94
29
72
92
27
69
90
23
66
89
22
63
92
24
63
93
25
62
94
24
58
91
22
51
105
32
59
106
34
56
111
38
57
114
42
56
116
43
54
119
46
53
129
54
59
138
63
67
137
65
66
134
65
60
119
50
43
107
41
29
92
26
12
97
32
14
125
59
37
121
51
25
116
40
6
141
59
19
184
97
52
221
135
88
214
133
90
165
90
51
122
53
24
107
46
27
105
57
47
100
61
56
70
35
33
33
2
0
18
0
0
14
0
0
13
0
0
15
1
0
15
0
0
18
0
0
23
0
0
32
1
0
45
5
6
58
12
12
69
19
20
78
22
21
82
20
21
86
22
22
90
24
26
93
27
29
99
30
33
103
34
37
106
37
42
108
37
43
119
48
54
120
51
56
120
50
58
117
50
57
116
51
59
114
49
57
102
39
47
91
28
36
79
17
22
77
15
20
81
19
24
90
28
33
94
31
39
91
28
36
94
29
37
100
33
42
103
35
46
106
43
52
104
47
54
86
37
43
55
16
19
28
0
0
16
0
0
14
0
0
13
1
5
14
2
6
31
13
13
68
47
42
124
101
93
126
102
92
68
44
34
39
15
5
23
0
0
30
3
0
45
11
1
56
14
0
68
16
0
104
40
13
160
87
55
206
124
87
200
106
70
195
97
60
203
103
69
210
111
80
201
103
76
189
93
71
180
88
73
170
82
72
144
61
57
118
38
41
115
37
50
108
33
54
101
25
61
107
33
82
137
63
124
154
78
150
217
143
220
237
162
244
234
157
239
238
160
246
236
152
246
205
120
221
190
102
212
181
93
205
187
99
212
180
92
204
182
95
200
195
109
210
187
101
200
165
81
177
163
79
177
161
77
173
159
73
170
162
77
171
168
83
177
163
80
172
174
91
179
220
138
223
245
163
247
222
140
222
165
84
163
147
66
143
134
53
129
131
53
128
177
99
200
211
136
231
231
158
247
168
101
181
90
27
106
76
18
92
74
23
89
56
11
66
42
1
41
37
0
31
32
0
22
31
0
17
30
0
15
31
1
11
30
0
4
29
0
0
27
0
0
25
0
0
26
0
0
26
2
0
27
3
1
28
4
2
29
5
3
30
6
2
40
15
11
42
13
9
45
11
9
48
10
7
51
10
8
56
10
10
61
11
10
63
13
14
64
15
18
70
21
25
77
26
33
82
29
39
85
27
41
85
24
39
84
22
35
84
22
33
75
14
21
77
18
24
77
17
25
74
14
24
77
16
34
85
21
47
89
24
56
88
21
64
92
23
78
85
15
78
82
9
80
92
16
91
105
25
110
151
71
160
235
151
245
229
148
243
179
99
194
155
79
170
128
56
142
109
42
121
96
36
106
82
28
90
68
17
74
58
12
59
46
9
43
43
9
36
39
4
34
34
1
30
30
0
30
28
0
29
27
1
30
27
3
29
29
5
29
29
5
27
30
5
26
29
5
21
31
5
18
31
5
16
32
5
14
34
4
12
39
4
11
38
1
9
40
0
13
43
2
18
48
4
27
56
12
39
72
23
55
83
33
70
97
42
84
83
27
72
78
19
67
77
17
68
97
34
87
116
53
106
106
41
95
93
29
79
89
23
69
87
22
64
86
19
62
86
19
60
89
21
62
91
23
62
94
24
60
95
26
57
107
34
63
107
35
59
111
38
57
115
43
57
116
43
54
117
44
51
127
52
57
135
63
66
138
68
68
135
67
64
118
51
43
105
41
29
91
28
13
95
32
14
122
56
34
116
46
20
116
40
6
136
57
16
177
93
46
218
135
85
221
140
95
173
98
59
127
56
28
109
48
29
99
51
41
93
52
48
75
37
36
67
36
33
58
32
31
25
4
1
13
0
0
18
4
1
15
1
0
17
0
0
22
0
0
29
0
0
41
2
3
54
10
9
66
16
17
75
19
18
87
25
26
91
27
27
95
29
30
100
34
35
106
37
40
112
41
45
115
44
48
118
46
50
126
53
60
128
55
62
129
56
65
129
58
66
130
60
68
129
59
67
118
51
58
108
41
48
96
31
37
90
25
31
91
26
32
99
34
40
103
36
43
103
33
41
108
37
45
117
44
53
115
42
53
118
46
57
119
54
62
110
53
60
81
36
39
46
12
11
24
0
0
19
0
0
19
0
2
23
4
6
48
24
24
98
70
66
143
113
105
127
94
85
75
42
33
54
21
12
37
4
0
37
3
0
53
11
0
64
15
0
89
29
5
145
74
44
194
114
79
207
119
81
196
100
62
202
102
66
207
109
74
199
100
69
183
85
60
176
81
61
171
79
66
157
68
62
134
50
50
116
35
41
114
38
51
106
32
57
104
29
68
124
50
103
182
107
174
209
133
207
227
153
230
229
155
234
230
153
235
231
153
239
231
147
241
209
124
225
188
100
210
184
94
208
188
98
212
182
92
205
171
82
190
178
91
195
180
94
195
164
80
178
158
73
174
157
73
171
153
68
162
156
70
161
154
68
159
150
66
154
152
68
154
169
85
170
213
130
212
255
177
255
207
124
204
169
88
167
140
59
138
136
55
134
174
97
193
208
133
226
233
160
249
174
105
188
93
28
110
79
18
95
77
24
94
56
8
66
42
0
44
36
0
32
32
0
22
31
0
17
30
0
14
30
0
8
28
0
1
25
0
0
24
0
0
23
0
0
24
0
0
23
2
0
24
3
0
26
5
2
26
5
2
29
5
3
39
13
12
40
12
9
41
10
8
43
8
6
47
7
7
52
8
7
55
9
9
57
11
11
60
15
18
66
21
26
74
27
33
80
29
38
79
25
38
77
21
32
76
18
30
75
18
27
68
11
18
72
15
21
72
17
23
70
14
23
74
16
31
82
23
43
86
26
52
84
23
56
78
15
58
82
15
69
80
10
72
79
6
75
94
17
97
126
48
134
192
111
204
199
117
215
236
156
253
197
120
214
149
76
166
114
46
131
95
31
109
83
23
93
74
17
85
67
18
74
54
13
57
49
11
48
43
7
45
39
3
41
34
0
37
31
0
36
31
0
34
30
0
34
30
1
32
31
0
31
31
1
27
32
2
26
34
2
23
35
4
22
36
3
20
37
3
19
44
3
17
41
0
15
42
0
17
46
1
24
53
4
34
59
9
46
74
21
65
90
34
83
126
67
121
93
32
89
83
19
79
94
30
90
116
50
111
121
55
116
100
32
93
91
23
80
85
18
69
85
19
65
85
18
62
86
19
63
87
18
62
89
21
60
95
25
61
99
30
61
106
35
65
107
34
61
110
38
58
115
42
59
115
43
55
116
43
52
124
51
60
134
61
68
139
70
73
135
70
68
117
52
46
104
42
31
91
29
14
95
32
15
119
54
34
114
44
19
116
41
10
134
55
16
173
91
44
218
134
87
224
143
96
179
101
62
132
59
26
114
48
26
95
38
27
105
57
53
124
80
77
164
126
123
160
130
128
75
51
49
25
5
4
15
0
0
16
1
0
17
0
0
19
0
0
27
0
0
36
2
0
49
9
7
61
15
15
72
18
18
90
30
30
95
31
31
100
34
35
107
39
40
113
42
46
119
47
51
124
49
54
127
50
56
130
53
61
133
56
64
136
59
67
137
62
69
140
64
74
141
66
73
131
58
67
122
49
58
110
39
47
102
31
39
100
29
37
107
36
44
110
39
47
110
37
46
117
41
51
129
52
62
126
46
57
125
48
58
128
56
67
128
63
69
103
48
53
65
19
19
37
0
0
27
0
0
25
0
0
36
10
13
54
24
24
110
76
74
162
125
119
132
93
86
76
36
28
64
24
16
51
8
0
47
3
0
57
8
0
71
14
0
106
39
12
175
99
65
217
132
93
203
111
70
194
96
57
206
106
70
207
108
76
184
86
59
161
65
43
159
66
49
156
66
57
141
53
51
123
38
45
112
29
45
111
33
57
105
29
65
105
32
78
138
65
121
216
144
208
250
179
249
230
160
232
229
157
231
233
159
238
231
153
239
233
152
247
222
137
240
197
109
219
198
110
222
191
101
214
183
96
203
164
76
180
164
78
175
173
88
182
162
77
171
155
70
164
153
68
161
157
73
161
143
59
144
143
58
143
150
66
151
145
62
144
148
65
147
184
101
183
226
143
225
250
167
249
199
116
198
156
74
156
147
65
147
179
103
193
202
126
216
247
173
255
221
148
237
124
56
143
82
18
102
83
25
101
59
7
73
46
0
51
40
0
37
35
0
25
31
0
16
29
2
11
28
3
6
27
3
3
24
3
0
21
0
0
17
0
0
17
0
0
21
0
0
23
2
1
24
0
0
26
2
2
33
7
6
33
5
4
36
6
6
38
6
7
40
6
5
44
5
6
48
9
10
56
16
17
61
21
22
74
32
34
79
37
41
85
40
45
83
36
42
78
28
37
73
22
31
72
19
29
72
19
29
71
18
26
69
16
24
66
13
23
66
13
23
67
15
27
68
16
29
68
15
31
67
14
34
66
7
35
68
6
43
78
15
62
77
9
68
85
14
84
154
81
162
166
90
180
130
53
149
148
71
167
207
130
226
212
137
230
161
88
178
127
57
145
112
44
127
89
24
104
72
12
84
76
28
86
53
10
63
52
8
59
41
0
48
42
0
50
50
8
56
37
0
41
41
0
45
45
4
48
53
10
53
54
12
52
47
5
43
45
1
37
47
3
38
51
7
42
53
8
39
48
0
28
52
2
31
58
4
38
63
8
48
66
8
56
68
8
62
91
30
90
129
64
132
109
43
114
95
27
100
105
34
110
135
65
138
144
72
146
120
48
121
102
29
100
102
31
97
106
37
94
99
32
85
96
28
79
96
28
75
97
30
74
98
31
72
104
36
73
112
42
76
110
41
72
109
39
67
106
36
60
108
36
56
111
40
56
120
48
60
127
55
67
132
62
72
135
68
75
127
63
64
120
56
54
107
47
37
91
32
18
86
24
9
104
38
22
127
56
38
119
43
19
131
51
18
163
80
38
205
123
76
227
145
98
205
124
79
157
79
41
118
44
15
108
40
27
115
54
49
129
76
70
159
114
109
211
173
170
214
184
182
73
47
46
15
0
0
20
0
0
19
0
0
18
0
0
20
0
0
27
0
0
39
4
0
53
12
10
67
17
16
80
24
23
92
30
31
100
36
37
110
41
44
124
49
54
129
50
56
129
48
55
133
50
58
135
52
60
137
54
62
141
58
66
146
63
71
151
68
78
151
70
77
148
67
76
145
64
73
136
56
65
123
43
52
111
34
42
111
36
43
117
42
49
120
45
52
124
47
55
129
49
58
127
46
55
129
48
57
135
55
66
133
60
67
131
64
71
106
46
48
61
5
8
40
0
0
38
0
0
53
19
20
56
20
20
118
78
78
172
131
129
145
100
97
94
46
42
71
22
15
57
5
0
71
15
0
76
18
0
96
31
3
149
76
41
200
121
82
209
125
81
195
104
60
205
107
68
209
111
74
191
93
64
163
67
43
151
58
40
152
60
49
147
58
54
141
52
58
118
31
50
108
23
54
108
27
70
113
35
87
105
32
88
184
115
172
255
195
249
253
190
245
245
181
242
242
175
244
244
173
251
243
167
255
232
152
251
219
133
240
213
127
236
215
129
238
204
117
222
186
102
200
170
85
178
163
79
165
162
78
163
159
76
158
155
72
154
153
70
150
153
71
147
146
65
141
143
61
137
139
58
134
137
56
133
142
61
138
160
79
158
177
95
177
237
155
237
246
164
248
187
105
189
147
65
149
169
93
181
199
123
211
248
173
255
223
150
242
131
60
152
89
23
111
88
27
107
64
8
79
49
0
56
43
0
43
36
0
28
32
1
17
30
3
12
29
4
7
26
5
4
23
3
2
22
2
3
18
0
0
18
0
0
22
0
2
25
1
1
24
0
0
27
1
2
33
4
6
34
4
4
36
4
5
39
5
6
38
4
5
39
3
5
42
6
8
50
11
12
55
16
17
71
30
34
75
34
38
80
38
42
78
36
40
74
29
36
70
23
31
70
20
29
72
21
30
66
15
24
64
13
22
61
9
21
61
9
21
62
12
23
64
14
25
62
15
25
63
13
25
58
3
24
68
9
37
69
7
46
74
10
62
102
33
98
166
95
173
168
94
181
118
43
136
123
46
142
149
74
169
196
121
216
232
159
251
220
147
237
165
92
182
111
41
129
86
21
103
69
16
84
61
13
75
61
13
75
53
5
65
46
0
58
45
0
55
47
0
54
57
8
63
53
4
59
59
11
63
61
11
62
60
10
59
64
14
63
65
16
63
65
13
61
67
15
61
71
14
57
69
10
54
68
9
57
73
13
65
79
15
76
82
17
83
105
37
110
137
69
146
130
59
139
141
69
151
165
92
173
181
108
189
168
94
173
141
67
142
135
61
136
146
73
142
129
59
119
121
54
107
117
49
100
115
47
94
114
47
90
112
46
84
116
49
84
121
54
87
107
38
69
107
38
66
108
38
64
110
41
62
116
45
63
122
51
65
128
58
69
129
61
72
132
67
75
124
62
65
117
56
55
106
46
38
91
31
20
86
24
11
102
36
22
123
54
38
121
45
22
128
47
18
155
73
35
198
115
71
227
145
98
213
132
85
169
87
47
126
50
18
126
53
36
121
54
45
134
75
69
158
109
104
205
164
160
233
199
197
115
85
85
27
3
3
21
0
0
20
1
0
20
1
0
21
1
0
28
1
0
38
5
0
50
10
8
62
14
12
75
21
21
87
27
27
97
33
34
109
38
42
124
47
53
131
50
57
135
49
58
140
53
62
140
53
62
141
54
63
144
57
66
151
64
73
158
71
80
160
74
83
159
72
81
155
69
78
150
64
75
137
54
64
124
43
52
117
37
46
118
41
49
123
46
54
128
48
57
130
49
58
133
50
60
137
54
64
141
58
68
141
60
69
141
66
73
129
58
64
94
28
32
63
4
8
51
7
8
59
19
19
103
61
62
166
122
123
167
119
119
126
77
73
98
47
43
75
21
11
61
3
0
76
15
0
87
22
0
119
48
16
179
101
63
210
127
85
201
114
69
189
98
54
203
105
66
204
106
71
183
88
60
156
61
39
146
53
38
146
56
48
144
54
54
137
49
61
125
37
62
124
37
79
119
36
92
116
38
100
126
52
115
207
139
198
255
203
255
255
198
249
248
187
244
236
174
237
232
164
239
232
158
245
220
140
239
198
115
221
186
100
209
185
99
208
188
103
206
176
92
186
165
83
168
162
81
160
161
78
156
156
74
150
152
68
145
149
67
141
145
65
136
142
62
131
141
61
132
139
59
132
137
56
132
140
59
135
154
73
152
168
87
166
204
122
204
240
158
242
218
136
221
191
109
194
162
86
176
198
122
212
248
173
255
227
153
248
140
69
163
95
29
119
92
30
113
73
17
90
52
2
63
45
2
48
40
0
34
35
2
23
34
3
18
30
5
11
27
5
8
25
3
5
26
4
6
23
2
1
22
1
0
23
2
1
25
1
1
24
0
0
26
0
0
31
3
2
34
4
4
35
3
4
36
2
1
35
1
0
36
0
0
38
2
2
44
5
6
47
8
9
61
20
24
65
24
28
70
28
32
69
27
31
67
22
27
64
17
23
63
16
24
66
16
25
59
9
18
57
7
16
55
5
14
55
5
14
57
7
18
59
9
20
60
10
21
60
8
21
57
2
21
71
12
40
65
3
40
75
11
61
110
41
104
173
102
178
178
104
189
104
29
120
99
24
117
112
37
130
140
65
158
166
93
183
186
113
203
196
126
214
163
93
181
100
35
117
85
29
102
72
21
90
59
8
77
65
14
81
70
19
86
65
14
80
64
12
78
57
5
69
72
20
82
64
13
72
65
11
71
62
8
66
56
2
60
64
11
67
71
16
73
64
9
64
82
21
78
78
14
74
76
12
73
84
19
85
91
25
96
93
27
101
104
36
113
123
54
134
158
86
168
182
111
191
187
114
193
162
90
166
147
75
149
153
82
152
154
83
153
143
73
136
101
34
87
95
29
77
91
25
71
89
24
66
88
22
60
86
21
55
89
22
55
93
26
57
103
34
62
105
37
62
109
41
64
114
47
65
120
52
67
124
56
69
127
59
70
128
61
70
127
64
72
120
60
62
112
52
51
103
44
36
90
32
21
84
25
11
98
35
20
120
51
35
123
46
26
123
44
14
142
60
22
186
103
59
225
143
96
224
143
96
183
102
59
138
62
28
118
45
26
121
53
42
139
79
71
153
103
96
193
149
146
233
198
196
137
107
107
32
6
5
25
1
0
24
3
0
24
3
0
25
2
0
30
1
0
37
4
0
47
7
5
58
10
8
70
16
16
82
22
22
93
27
29
106
35
39
123
46
52
134
51
59
140
53
62
148
58
68
146
56
66
146
56
66
149
59
69
156
66
76
165
75
85
168
81
90
169
79
89
166
76
86
165
75
87
157
69
81
142
56
67
124
41
51
121
40
49
129
48
57
134
51
61
133
47
58
140
52
64
147
59
71
146
58
70
142
59
69
145
65
74
147
72
79
127
56
62
87
25
28
70
20
21
73
29
28
129
83
83
168
120
118
137
86
83
102
49
45
94
39
32
80
22
10
68
9
0
81
19
0
101
34
5
151
78
45
208
128
91
214
129
88
192
103
59
190
97
54
203
107
69
202
105
72
179
83
58
152
57
37
143
49
37
145
54
49
145
55
57
141
53
67
129
40
70
139
52
97
129
45
104
119
40
106
154
79
146
232
163
226
255
203
255
255
201
255
251
192
248
233
171
234
221
153
228
218
146
232
210
132
231
189
106
212
172
86
195
167
81
190
171
86
189
165
81
177
160
77
165
160
78
160
157
76
153
150
69
145
145
63
137
144
62
136
136
56
127
137
57
128
137
57
130
137
57
130
134
53
129
135
54
130
145
64
143
156
75
154
176
94
176
222
140
222
236
154
238
237
155
239
162
86
176
197
122
213
245
172
255
232
161
255
155
85
181
102
35
128
92
30
115
84
28
103
55
5
68
49
5
56
43
3
40
38
4
29
36
5
23
33
5
17
30
4
13
26
4
7
29
7
9
27
6
5
25
4
3
26
2
2
25
1
1
25
0
0
28
0
0
30
0
0
35
3
4
34
3
1
35
1
0
33
0
0
34
0
0
35
0
0
39
0
1
40
1
2
48
7
11
51
10
14
55
13
17
55
13
17
53
11
15
52
7
12
52
7
14
53
8
15
53
6
14
51
4
12
49
2
10
52
2
11
55
5
16
57
7
18
58
8
19
59
7
20
63
9
25
72
14
38
69
8
42
80
17
62
98
30
91
158
88
160
187
114
196
109
35
122
106
32
121
106
33
123
104
31
120
95
25
113
114
44
132
169
99
185
198
128
214
177
112
196
162
105
182
139
85
160
99
45
120
90
36
111
84
31
103
75
19
92
84
28
101
79
23
94
71
16
84
71
14
82
73
16
84
74
18
83
77
18
84
80
21
85
79
20
84
74
14
78
87
25
92
87
21
92
95
29
103
115
49
123
132
65
142
135
68
147
137
68
148
142
73
153
126
55
135
127
56
134
119
47
121
107
36
106
109
38
106
118
48
111
111
41
103
93
24
79
87
21
67
83
18
60
81
16
56
83
19
54
84
19
53
83
18
48
86
20
48
91
25
52
98
30
55
102
34
57
109
41
62
116
49
66
123
55
68
125
57
68
126
59
68
125
60
68
122
61
68
116
57
61
107
49
47
99
42
35
90
33
22
83
25
13
94
30
18
115
48
32
124
49
28
119
39
12
131
49
12
172
89
45
221
139
92
234
152
105
199
118
75
155
77
41
118
43
22
126
58
45
142
82
71
149
96
88
182
137
132
212
174
171
130
99
97
23
0
0
33
9
7
29
8
3
29
6
0
27
2
0
29
0
0
35
2
0
46
6
4
57
9
7
65
11
11
77
17
17
88
22
24
102
31
35
124
45
51
136
53
61
145
58
67
155
63
74
155
63
74
153
61
72
154
62
73
160
68
79
169
77
88
174
82
93
173
81
92
171
79
90
174
80
94
172
80
93
157
67
79
134
46
58
127
39
51
134
48
59
140
52
64
136
48
60
146
54
67
152
60
73
149
59
71
148
60
72
146
63
73
152
71
80
148
71
79
115
46
51
86
30
31
91
40
39
126
72
72
124
68
67
104
46
42
91
32
26
88
28
18
84
22
7
85
20
0
94
28
2
129
58
28
185
109
75
221
139
101
208
120
80
190
99
55
197
101
59
201
104
69
195
100
70
171
77
52
144
51
34
138
46
35
142
51
48
145
54
61
143
54
72
128
38
73
142
54
104
131
46
111
124
44
115
180
104
178
243
173
243
251
190
250
255
196
254
255
200
255
241
181
243
220
154
226
209
137
221
205
128
224
193
112
215
176
93
201
169
83
192
162
77
180
159
75
171
157
74
162
157
75
157
151
70
147
143
62
138
140
58
132
140
58
130
131
51
122
133
53
124
133
53
126
130
50
123
126
45
121
127
46
122
137
56
133
146
65
144
147
66
145
167
85
167
186
104
186
207
125
207
161
87
176
194
119
210
241
168
255
244
173
255
185
115
211
120
55
147
94
32
118
89
32
109
60
7
75
54
7
62
48
5
48
41
4
37
39
5
29
35
7
22
32
4
16
29
4
10
32
7
10
32
8
8
30
6
6
28
2
3
26
0
0
28
0
0
28
0
0
29
0
0
34
3
1
33
2
0
34
0
0
34
0
0
35
0
0
36
1
0
39
1
0
39
0
1
41
0
4
43
2
6
45
4
8
45
4
8
44
3
7
44
2
6
44
2
6
45
3
7
51
6
13
49
4
11
48
3
10
50
3
11
53
6
14
56
9
17
59
9
18
60
8
20
68
14
28
69
11
33
68
9
41
83
20
63
89
21
78
127
58
125
177
106
182
140
68
150
90
18
102
94
22
108
105
33
119
105
36
119
96
27
110
108
40
123
162
94
177
215
150
234
201
142
224
208
151
232
196
139
218
187
130
209
150
93
172
104
46
123
99
41
118
95
37
113
84
26
102
93
33
107
88
28
102
86
26
98
90
28
101
82
21
91
97
36
106
139
75
149
147
80
160
141
72
155
143
74
157
153
84
167
154
85
166
139
70
151
120
51
131
108
40
117
96
26
99
94
24
94
93
24
89
93
25
86
94
26
83
92
25
79
85
18
69
77
11
57
80
16
53
78
14
48
79
16
47
83
20
49
86
22
49
85
21
47
87
23
47
91
28
49
92
27
47
96
32
49
104
40
56
112
48
62
119
53
63
121
56
64
121
56
62
119
57
62
117
58
64
111
55
58
101
45
44
94
39
34
89
35
25
82
25
14
90
28
17
109
43
29
122
49
30
115
38
10
121
41
4
158
77
34
211
129
82
236
154
107
213
130
86
173
93
56
142
67
44
134
65
50
143
81
68
148
94
82
171
124
116
196
155
151
155
120
118
60
30
28
44
19
15
39
15
11
33
8
3
26
1
0
27
0
0
34
1
0
46
6
4
56
11
8
62
8
8
74
14
14
84
18
20
99
28
32
122
43
49
136
53
61
149
59
69
159
67
78
165
72
83
164
71
82
163
70
81
166
73
84
169
76
87
173
80
91
173
80
91
175
79
91
178
80
95
179
83
97
167
73
87
146
54
67
136
44
57
140
48
61
145
53
66
143
51
64
154
58
72
157
61
75
156
60
74
158
64
78
153
63
75
153
65
77
159
76
86
143
66
74
95
30
34
98
38
38
142
81
80
124
63
60
99
36
29
96
32
22
94
28
14
88
21
2
97
29
6
115
44
16
168
92
60
217
137
102
219
134
95
197
108
68
192
99
56
199
103
63
193
96
64
183
87
62
158
63
43
133
39
27
129
36
29
134
42
45
138
46
59
139
49
74
127
36
77
139
50
104
134
49
117
140
59
135
203
126
204
242
172
245
238
173
241
246
186
248
255
206
255
255
198
255
229
166
236
203
134
215
197
122
215
195
114
216
180
97
203
168
82
189
163
76
181
160
74
173
156
73
163
153
71
155
146
65
142
138
58
131
135
55
126
138
58
129
130
50
121
131
51
124
129
49
122
121
41
114
116
36
109
120
39
115
131
50
126
140
59
136
141
60
137
138
57
136
142
61
140
155
74
153
160
86
175
186
113
202
230
157
249
251
180
255
220
151
244
154
89
179
106
44
130
88
31
110
64
11
81
58
10
68
51
8
54
46
6
43
41
7
34
38
7
25
36
5
20
31
4
13
34
7
12
35
9
10
32
6
7
30
1
3
28
0
0
30
2
1
31
1
1
29
0
0
35
4
2
33
2
0
35
1
0
36
2
0
40
5
3
41
6
4
43
5
4
42
4
3
42
2
3
43
2
6
44
3
7
44
3
7
44
3
7
44
3
7
44
3
7
44
3
7
48
7
13
47
4
11
46
3
10
50
5
12
54
7
15
58
11
19
61
11
20
62
11
20
67
13
26
64
7
26
66
7
35
81
21
59
88
24
76
103
34
97
153
83
155
169
98
174
105
34
114
94
25
106
89
20
101
90
23
103
85
18
97
79
12
91
111
44
124
160
97
178
137
75
158
157
98
182
187
128
210
220
161
243
221
162
244
196
134
217
181
120
200
175
112
193
127
64
145
103
40
119
101
36
116
119
55
133
129
65
143
141
74
153
172
105
184
205
138
218
205
135
223
182
112
201
161
88
177
143
73
159
126
57
138
110
41
121
97
29
104
87
20
91
89
20
85
91
23
84
89
22
76
83
16
67
79
13
59
76
14
55
79
14
54
79
15
50
78
15
46
76
13
40
78
16
41
82
20
43
84
21
42
82
19
38
82
19
36
85
22
39
89
25
41
92
28
44
98
34
48
105
42
53
109
46
54
114
49
55
115
50
54
113
51
54
111
55
58
106
51
54
96
42
40
90
37
31
88
35
27
80
26
16
84
24
14
102
39
24
118
47
29
115
39
13
118
40
4
148
66
26
198
116
69
232
150
103
221
139
92
189
110
71
152
76
50
130
59
41
146
80
64
154
96
84
158
108
99
188
145
138
212
175
169
152
118
116
57
28
24
50
22
18
40
12
8
31
3
0
28
0
0
34
1
0
46
6
4
57
12
9
61
7
7
72
12
12
82
16
18
96
25
29
117
40
46
134
51
59
149
59
69
161
68
79
177
81
93
177
81
93
176
80
92
174
76
89
172
74
87
173
75
88
175
77
90
178
80
93
180
79
95
182
81
97
176
78
93
162
66
80
149
53
67
144
48
62
147
51
65
151
55
69
162
64
79
164
63
79
166
65
81
168
70
85
163
67
81
157
65
78
165
75
87
164
81
91
110
35
40
111
41
43
195
125
125
178
109
104
122
52
44
107
38
23
108
37
19
96
24
0
114
40
13
141
66
34
201
121
86
234
150
113
212
122
85
192
98
60
195
97
58
195
97
62
187
89
62
174
79
59
148
55
40
126
33
25
124
33
30
130
39
46
134
43
60
136
45
76
128
39
85
138
50
110
147
61
134
168
86
168
222
145
227
237
166
246
232
166
238
239
177
244
252
194
253
255
203
255
241
178
248
206
139
218
195
120
211
191
113
212
178
95
199
164
78
185
165
78
183
160
74
173
153
70
162
149
67
152
142
61
140
135
55
128
133
53
124
135
55
124
131
51
122
132
52
125
127
47
120
116
36
107
110
30
101
115
35
106
127
47
120
136
56
129
145
64
140
143
62
138
141
60
137
139
58
135
161
89
175
180
108
194
212
139
228
242
172
255
245
176
255
195
131
218
130
68
153
92
33
113
68
12
83
61
11
72
55
8
60
48
7
47
44
7
38
41
8
29
38
5
22
34
4
14
36
7
12
37
8
12
35
6
8
31
1
3
30
0
2
33
3
5
34
2
3
31
0
0
37
3
2
36
2
1
37
2
0
40
5
3
45
10
6
48
13
9
50
12
9
48
10
9
46
6
7
47
5
7
45
5
6
45
5
6
45
6
7
45
6
7
45
6
9
45
6
9
46
7
10
45
4
8
45
3
7
49
4
9
55
8
16
58
11
19
62
12
21
63
12
21
65
12
22
60
6
22
74
16
41
80
20
56
89
26
73
97
32
90
132
66
130
158
91
162
154
86
159
115
47
122
80
12
87
78
12
86
86
20
94
83
19
93
94
30
106
118
56
133
120
59
139
101
39
122
109
47
130
140
78
161
178
116
199
201
137
221
203
139
223
211
146
228
194
129
211
169
104
186
173
105
188
192
125
205
199
132
212
209
140
221
204
135
216
181
109
193
134
61
150
123
50
139
118
44
131
116
44
126
110
39
117
104
34
107
98
29
96
91
23
84
82
17
71
72
9
56
71
9
50
78
16
53
80
19
52
71
12
40
72
12
38
78
18
43
73
14
36
72
13
33
77
16
34
81
20
36
82
21
36
79
19
31
78
18
30
80
20
30
87
25
36
88
26
37
91
29
40
95
34
42
99
38
45
104
42
47
107
45
48
108
48
50
107
52
55
102
50
52
90
39
36
86
36
29
87
37
28
79
27
16
81
23
12
98
36
23
112
43
27
115
40
17
118
42
10
140
61
22
185
104
59
224
142
95
225
143
96
203
121
81
151
74
46
127
55
33
142
75
58
156
94
79
156
102
90
175
128
120
222
181
175
176
141
137
63
32
27
56
27
21
47
18
12
37
8
2
32
1
0
36
1
0
45
7
4
54
10
7
61
10
9
72
14
13
80
16
17
94
23
27
115
38
44
132
49
57
148
58
68
160
67
78
184
88
100
187
89
102
187
89
102
183
82
96
176
75
89
174
73
87
179
78
92
186
84
98
184
81
98
182
79
96
184
81
98
180
79
95
164
63
79
145
47
62
145
47
62
157
56
72
167
64
81
167
64
81
171
68
85
171
68
85
171
70
86
167
71
85
166
72
86
175
85
97
140
57
65
153
73
76
239
159
160
202
123
118
138
61
51
120
43
27
112
36
12
108
31
3
132
56
24
172
92
57
220
136
99
228
140
102
202
110
71
192
96
58
198
98
62
191
91
59
183
84
61
169
73
57
143
49
39
124
31
26
121
31
31
127
37
47
129
41
63
132
45
79
129
41
91
139
53
116
163
79
156
196
114
199
233
155
241
234
160
245
234
165
245
231
168
239
233
175
234
255
201
255
253
192
255
222
158
234
207
134
223
193
118
213
175
94
196
166
81
185
163
76
180
156
70
169
150
67
159
147
65
150
140
61
140
133
55
130
129
52
122
130
53
121
131
51
122
133
53
124
127
47
118
114
34
103
108
28
97
113
33
102
125
45
114
132
52
121
131
51
120
133
53
122
135
55
126
130
50
121
165
93
175
176
107
188
195
126
209
227
159
244
252
186
255
222
158
244
152
88
172
99
41
118
70
14
85
64
12
76
56
9
61
50
7
50
47
8
39
42
7
31
39
5
22
36
4
17
36
5
11
39
8
13
37
6
11
31
1
3
31
0
2
35
3
6
36
4
7
32
0
1
37
3
2
36
2
1
38
3
1
43
8
6
48
13
9
52
17
13
54
16
13
53
15
12
49
7
8
48
6
8
45
5
6
45
5
6
44
5
6
45
6
7
44
5
8
44
5
8
45
6
9
43
4
7
45
3
7
47
5
9
54
7
15
58
11
19
62
12
21
62
12
21
64
11
21
62
8
22
87
29
53
79
20
52
83
20
63
103
38
92
127
61
122
130
64
128
142
75
142
117
52
120
95
30
98
85
22
92
82
19
89
80
19
88
89
28
98
101
39
112
123
62
140
92
31
111
91
30
110
97
36
116
114
51
132
126
63
144
118
53
137
130
65
147
176
108
191
215
147
230
215
146
229
175
106
189
153
84
167
144
75
158
131
59
143
121
49
133
114
40
127
105
31
116
103
30
112
102
29
108
95
25
97
93
24
89
92
24
83
88
21
72
81
18
61
83
21
58
78
17
48
69
9
35
69
11
33
74
17
36
71
14
31
61
4
19
70
12
27
70
12
26
75
15
27
81
21
31
83
23
33
80
20
28
79
20
26
81
22
28
86
25
32
86
25
32
87
26
34
89
28
35
93
32
37
98
38
40
102
42
42
104
46
45
103
51
53
99
49
50
88
39
35
83
34
29
87
37
30
79
26
18
78
21
12
94
34
23
109
42
26
114
43
21
119
44
13
136
58
20
178
97
54
218
136
89
226
144
97
210
128
88
167
88
57
139
63
39
138
67
47
151
85
69
165
107
95
161
111
100
181
136
130
121
82
77
67
32
26
60
29
24
51
20
15
42
11
6
38
5
0
38
3
0
44
6
3
50
9
5
61
11
10
71
15
14
78
16
17
92
23
26
114
37
43
131
48
56
147
57
67
159
66
77
188
92
104
193
95
108
195
94
108
187
86
100
178
76
90
175
73
87
182
80
94
193
88
103
188
83
100
185
80
97
187
84
101
191
88
105
173
72
88
148
47
63
145
44
60
160
57
74
167
62
79
168
63
80
172
67
84
169
64
81
173
70
87
174
73
89
167
69
84
177
81
93
174
83
92
200
111
117
252
163
165
178
93
88
138
54
43
127
46
25
108
27
0
120
40
7
152
70
33
195
112
72
227
139
101
214
125
85
192
98
62
194
96
61
199
99
65
191
90
62
175
76
57
161
65
53
136
41
35
116
25
22
116
27
31
120
32
46
121
35
60
125
39
76
128
41
94
141
56
123
175
90
171
211
128
216
237
158
249
232
156
244
239
167
249
226
160
234
226
168
229
255
202
255
255
207
255
244
180
254
221
152
235
196
123
213
174
94
193
165
83
185
158
73
176
152
68
166
147
63
157
146
63
151
141
62
143
134
56
131
127
52
121
126
51
118
130
50
119
133
53
122
128
48
117
115
36
102
108
29
95
113
34
99
123
44
109
129
50
115
134
55
120
130
51
116
130
51
116
131
52
117
166
98
173
174
106
183
197
128
208
234
167
247
241
176
255
231
168
249
197
134
215
121
63
139
85
29
100
68
16
80
58
9
64
57
12
55
49
8
40
42
4
29
43
6
24
45
9
21
40
7
16
42
10
15
42
10
15
39
7
12
37
2
8
37
2
6
42
7
11
47
13
14
39
3
3
39
3
3
36
1
0
36
1
0
47
9
8
59
21
20
63
25
22
59
21
18
57
15
16
55
13
14
51
11
11
48
8
8
46
7
8
46
7
8
46
7
8
47
8
9
44
5
6
43
4
5
47
5
9
51
9
13
60
13
19
64
17
23
67
18
24
67
18
24
72
19
27
72
18
31
75
20
41
82
26
55
91
30
71
95
33
80
95
30
84
93
28
86
101
37
97
92
28
89
83
19
80
77
15
78
74
14
76
75
16
80
82
23
89
90
31
99
90
30
104
90
29
107
91
28
107
91
28
107
90
27
106
91
28
107
93
28
110
94
29
109
108
41
121
161
92
173
171
99
183
127
55
139
101
29
113
105
33
117
104
30
115
93
20
102
95
20
102
93
19
98
88
16
90
84
13
83
87
17
80
91
22
77
87
21
69
80
15
57
74
13
47
74
14
42
72
14
36
72
15
32
71
14
29
71
15
28
69
15
28
71
15
26
73
15
27
73
16
25
73
16
23
74
17
23
74
17
23
75
19
22
75
19
22
75
19
22
77
18
22
81
22
26
86
27
33
90
31
35
91
32
34
92
34
33
94
36
35
93
37
36
99
47
49
97
49
47
89
41
37
83
36
30
83
34
27
80
30
21
81
27
17
87
29
17
113
50
35
109
41
20
114
40
13
124
48
14
153
74
33
204
123
78
232
150
103
219
138
95
188
108
75
154
77
49
138
63
40
140
72
53
155
93
78
172
118
106
141
92
85
75
32
25
57
20
14
59
24
18
61
26
20
57
24
17
40
5
1
28
0
0
38
3
0
49
10
5
62
14
12
70
16
14
76
16
16
82
16
18
99
24
29
122
41
48
142
55
64
152
60
71
185
89
101
189
91
104
200
99
113
200
98
112
186
81
96
180
75
90
185
80
95
187
82
97
191
86
103
190
85
102
185
82
99
185
82
99
183
82
98
169
68
84
158
55
72
159
56
73
167
62
79
170
65
82
175
68
86
174
69
86
173
68
85
173
70
87
178
75
92
182
81
95
185
85
97
212
115
122
206
112
113
170
79
74
138
50
36
112
26
3
114
29
0
145
61
24
187
102
61
232
145
102
229
140
98
197
105
66
193
99
63
196
99
66
187
88
57
186
86
62
169
69
54
158
61
54
129
34
30
112
20
21
118
28
37
120
33
49
119
35
61
125
43
83
120
37
93
162
79
147
215
132
214
229
146
234
225
146
237
227
151
241
227
153
238
231
163
240
232
173
237
243
188
246
255
201
255
255
202
255
241
174
253
214
144
230
196
119
213
167
87
184
157
75
175
159
75
173
158
74
168
158
75
165
156
77
158
158
80
156
160
85
154
163
88
155
152
72
141
148
69
135
143
64
129
139
61
123
137
59
121
135
57
117
133
55
115
131
53
111
132
54
112
131
53
111
130
52
110
129
51
109
165
97
170
193
125
198
213
147
221
242
175
252
245
181
255
217
155
232
178
115
194
127
66
143
87
30
101
77
22
87
69
18
75
64
17
63
53
9
44
45
5
31
47
5
25
44
6
19
41
5
15
43
8
15
43
8
15
41
6
12
39
4
10
41
6
12
48
13
19
54
19
23
40
4
6
40
4
4
38
2
2
38
3
1
44
6
5
52
14
13
57
19
18
59
21
18
56
16
16
56
14
15
53
13
13
51
11
11
49
10
11
48
9
10
48
9
10
48
9
10
44
5
6
45
5
6
48
6
10
55
10
15
62
15
21
67
20
26
71
22
28
71
22
28
77
26
33
78
24
37
78
23
42
79
23
50
83
23
59
84
23
65
84
20
70
81
19
70
96
33
86
84
24
78
75
15
69
73
14
70
74
17
72
78
20
78
82
24
83
87
28
92
82
22
92
82
22
96
84
24
98
85
23
98
86
24
101
86
24
101
87
23
101
87
23
101
93
26
105
122
53
133
156
84
166
141
69
151
99
27
109
95
23
105
107
34
116
95
22
103
90
16
93
88
15
86
87
16
84
86
16
78
85
16
71
83
15
64
82
17
59
83
19
54
74
14
42
74
15
37
73
16
33
73
17
30
72
16
27
72
16
27
70
17
25
71
15
24
72
17
23
73
16
22
74
17
23
74
18
21
74
18
19
75
19
20
75
19
20
75
19
20
79
20
24
84
25
29
92
33
37
96
37
39
97
39
38
96
38
37
95
37
35
91
38
34
98
48
47
97
49
47
89
42
36
82
35
29
82
33
26
79
30
23
79
26
18
85
28
17
108
46
33
107
42
24
113
43
17
120
47
14
143
68
29
192
113
70
226
145
100
225
144
101
195
113
76
161
80
50
143
66
40
141
69
47
142
77
59
142
84
72
115
63
52
62
18
9
50
9
3
53
16
10
57
20
14
60
25
19
51
16
12
36
1
0
37
2
0
40
2
0
55
11
8
64
15
11
71
15
14
77
15
16
93
22
26
116
37
43
137
51
60
148
58
68
184
88
100
191
93
106
201
100
114
202
100
114
193
88
103
186
81
96
188
81
97
189
82
98
191
86
103
191
86
103
187
84
101
188
85
102
186
85
101
173
72
88
161
58
75
160
57
74
168
63
80
172
67
84
177
70
88
178
71
89
176
69
87
177
72
89
182
75
93
186
81
96
192
87
101
210
106
115
197
97
99
161
66
60
135
44
26
118
28
2
126
40
5
159
74
33
210
123
78
229
142
97
220
131
89
196
104
65
195
101
67
198
100
71
184
86
61
171
72
53
161
63
52
151
53
50
126
32
30
112
22
24
121
34
43
119
35
51
116
33
61
134
53
94
157
74
130
188
107
176
228
145
227
231
151
238
225
144
236
225
149
239
227
152
237
231
163
240
215
156
222
231
177
237
252
196
255
255
199
255
236
172
248
219
152
232
218
145
234
205
128
222
179
99
196
174
92
190
167
86
181
165
82
172
163
84
167
165
87
163
164
88
160
165
88
156
166
87
153
162
83
148
157
79
141
154
76
136
152
74
134
151
73
131
149
72
128
147
70
124
137
60
112
136
59
111
134
57
109
133
56
108
191
125
196
229
163
234
241
175
246
255
192
255
255
194
255
215
153
228
164
102
179
122
61
138
86
29
100
83
28
95
81
30
89
71
23
73
55
9
46
49
6
34
50
7
27
43
2
18
41
3
16
42
4
15
43
5
16
42
5
13
41
4
12
46
9
16
54
17
24
62
26
30
43
7
11
41
5
7
41
2
5
41
2
3
41
2
3
44
6
5
50
12
11
56
18
17
55
15
15
55
15
15
55
15
15
54
14
14
53
13
13
52
12
12
50
10
10
49
9
9
47
7
8
48
6
8
50
8
10
57
12
15
64
18
21
69
23
26
73
24
28
73
24
28
77
26
33
77
26
35
77
23
39
74
19
42
74
15
47
72
12
50
73
12
54
74
12
59
95
33
80
79
20
68
68
9
57
69
11
59
75
19
68
76
22
72
76
22
74
75
20
77
68
12
77
69
12
80
72
15
83
77
18
86
79
19
89
79
19
89
78
16
89
78
14
88
78
11
88
87
20
97
124
55
135
150
81
161
132
61
141
102
31
111
91
20
100
90
19
97
86
15
85
83
13
76
81
11
73
82
13
68
82
15
66
82
17
60
80
16
53
77
14
45
74
14
39
74
15
35
74
16
31
74
16
30
72
16
27
72
16
25
72
16
25
71
15
24
72
17
23
73
18
23
73
18
21
73
19
19
74
20
20
74
20
18
75
19
18
75
19
18
82
26
27
88
32
33
96
40
41
101
45
46
101
45
44
98
42
41
95
40
37
92
39
35
97
48
43
94
49
43
86
41
35
79
35
26
80
33
25
78
29
22
78
25
17
82
28
18
99
39
28
104
41
24
112
44
21
116
45
15
130
56
19
173
96
54
215
137
91
232
151
106
211
129
91
174
91
57
146
67
37
136
60
36
123
55
36
116
53
38
102
48
36
85
37
27
102
57
51
124
83
77
89
50
45
48
11
5
43
5
2
37
2
0
34
0
0
35
0
0
48
7
3
57
12
7
67
16
13
74
16
15
88
19
22
106
31
36
128
45
53
141
54
63
174
81
92
187
91
103
199
98
112
203
101
115
204
99
114
200
95
110
197
90
106
198
91
107
192
87
104
191
88
105
191
88
105
193
90
107
191
90
106
179
78
94
165
64
80
161
60
76
169
66
83
175
70
87
181
74
92
182
75
93
180
73
91
180
73
91
185
76
95
188
79
98
198
90
106
204
96
109
186
81
86
151
52
46
130
35
17
126
35
8
149
61
25
186
99
56
235
149
102
223
137
90
207
118
74
196
104
65
196
103
72
198
102
77
180
84
62
151
55
39
151
54
47
139
44
42
120
29
28
113
24
26
126
40
49
119
36
54
112
29
59
148
67
108
183
100
156
205
124
193
235
152
232
233
153
238
225
145
234
220
144
232
217
142
227
216
148
225
208
149
215
218
164
226
241
185
248
255
198
255
235
174
244
212
148
224
217
148
231
217
144
233
189
112
206
180
100
195
167
86
179
159
78
170
158
78
163
158
79
158
156
79
151
153
76
144
153
74
140
150
71
136
146
68
130
144
66
126
143
66
122
142
65
119
140
63
115
138
62
111
136
60
107
135
59
105
134
58
104
132
56
102
240
175
243
255
193
255
255
191
255
255
200
255
255
198
255
230
168
243
177
116
193
118
57
134
82
24
98
84
27
96
86
31
96
75
25
78
57
9
51
52
7
38
54
9
32
45
2
21
43
2
18
43
5
18
45
4
18
41
3
14
43
3
14
46
9
17
55
18
26
63
26
33
50
13
20
42
6
10
40
1
6
41
2
5
41
2
5
40
1
2
45
6
7
52
14
13
53
13
13
54
14
14
55
15
15
55
15
15
54
14
14
53
11
12
51
9
10
49
7
8
53
8
11
53
8
11
54
9
12
58
12
15
64
18
21
67
21
24
71
22
26
70
21
25
68
17
24
69
18
27
70
16
32
68
13
36
67
8
38
67
7
41
71
11
49
73
15
55
93
35
76
76
19
60
64
7
48
66
11
51
72
19
61
72
21
64
65
13
59
59
7
56
57
4
60
59
5
65
63
7
68
68
12
73
72
16
79
74
15
79
72
13
79
71
10
77
74
11
81
75
9
80
94
28
100
130
62
135
149
79
152
128
57
133
101
30
106
91
21
94
83
12
78
84
14
74
83
14
69
79
11
62
78
12
58
80
15
55
78
14
48
74
11
38
73
14
36
73
14
32
73
15
30
72
14
26
71
15
24
70
14
23
70
14
23
70
15
21
73
18
24
73
18
23
73
18
21
74
20
20
74
20
18
74
20
18
76
20
19
76
20
19
89
33
34
94
38
39
101
45
46
105
49
50
104
48
47
100
47
43
98
43
40
94
44
37
95
48
40
93
49
40
85
41
32
78
34
25
79
32
24
77
28
21
75
25
16
80
27
19
90
32
21
102
40
27
111
46
26
111
44
17
120
47
14
151
76
36
199
122
78
232
154
108
226
143
103
186
102
65
150
70
37
134
57
29
121
49
27
112
46
30
118
60
48
128
78
67
164
117
109
213
170
163
175
134
128
89
50
45
40
0
0
32
0
0
39
5
3
34
1
0
42
5
0
52
11
5
64
16
12
72
18
16
83
19
20
99
27
31
120
41
47
136
50
59
158
68
78
177
84
95
192
94
107
201
100
114
212
110
124
213
108
123
208
103
118
210
105
120
191
88
105
192
89
106
194
91
108
197
94
111
195
94
110
186
85
101
172
71
87
163
62
78
171
68
85
176
73
90
185
78
96
186
79
97
185
76
95
184
75
94
186
77
96
190
79
98
203
90
110
205
93
109
186
79
85
155
52
47
131
34
17
137
46
17
177
89
51
219
132
87
243
157
108
212
126
79
195
108
63
194
104
67
191
100
71
191
99
76
176
83
66
144
50
40
139
46
41
126
35
34
116
26
26
116
27
31
132
46
55
120
37
55
111
28
58
160
77
119
215
132
188
226
143
211
242
159
237
236
154
238
225
147
231
221
146
229
214
141
223
213
145
222
212
153
221
208
152
215
227
171
234
255
201
255
247
188
255
216
155
225
206
139
218
196
127
210
186
112
201
177
101
192
166
87
179
157
76
168
152
72
159
149
70
151
146
68
143
143
66
134
141
62
128
138
59
124
135
57
119
134
56
114
133
56
112
132
55
107
130
54
101
128
52
98
128
53
96
127
52
93
125
50
91
124
49
90
255
197
255
248
186
253
237
174
244
240
177
247
236
172
246
236
174
249
211
150
228
138
77
155
86
28
105
81
23
97
84
27
96
78
24
82
61
9
57
55
8
44
58
9
38
48
3
24
46
3
22
46
5
21
47
4
21
44
3
17
43
1
15
45
5
16
52
12
23
59
19
28
58
18
26
47
8
13
38
0
4
39
0
3
42
3
6
42
3
4
43
7
7
49
11
10
51
11
11
52
12
10
54
13
11
55
14
12
54
12
13
54
10
11
52
8
9
50
6
7
56
10
12
55
9
11
55
9
12
59
10
14
63
14
18
65
16
20
65
16
20
64
15
19
61
10
17
63
12
21
65
11
27
64
9
30
63
7
34
65
8
40
69
12
47
74
16
54
87
30
65
72
16
51
63
7
42
66
12
48
72
20
58
69
19
57
59
8
49
48
0
42
49
0
47
51
1
50
56
3
55
63
10
62
68
15
69
71
16
71
71
13
71
69
10
68
76
16
76
73
11
74
78
13
79
91
26
92
115
48
115
132
65
134
128
61
130
112
45
112
90
22
83
88
20
77
86
19
72
84
18
66
79
14
57
73
9
46
74
11
42
80
18
43
71
12
32
71
13
28
71
13
27
70
12
24
70
13
22
70
13
22
69
12
21
69
12
19
73
18
24
73
18
23
74
19
22
74
20
20
74
20
18
75
21
19
75
21
19
75
21
19
93
39
39
97
43
43
101
47
47
103
49
49
102
48
46
98
47
43
99
46
42
97
47
40
94
47
37
93
46
36
86
39
29
79
32
22
78
31
23
75
28
20
73
24
17
77
27
18
84
27
18
98
38
27
109
46
28
109
43
17
113
42
10
134
60
23
178
104
59
223
145
99
229
146
104
197
114
74
162
78
44
142
61
32
131
55
32
121
53
34
132
70
57
153
99
87
167
119
109
206
161
155
234
191
185
196
155
151
91
51
49
36
0
0
47
13
11
31
0
0
38
5
0
48
11
3
60
17
11
69
20
16
79
19
19
93
24
27
112
35
41
129
46
54
145
58
67
169
77
88
188
92
104
199
101
114
213
112
126
217
115
129
215
110
125
216
111
126
193
90
107
193
90
107
196
93
110
199
96
113
199
96
113
193
90
107
179
78
94
167
66
82
173
70
87
179
76
93
188
81
99
190
83
101
188
79
98
188
77
96
188
77
96
190
77
97
204
86
108
208
92
111
199
89
98
168
64
61
141
44
25
156
65
34
205
117
77
242
158
111
229
146
96
200
117
67
188
104
60
190
102
66
184
94
67
183
92
73
171
82
68
143
53
45
129
40
36
119
29
28
114
26
25
116
30
33
135
49
58
122
38
54
113
28
57
165
80
122
233
146
201
239
154
221
254
170
245
253
172
251
246
169
249
237
163
242
219
148
226
210
144
216
211
150
219
201
145
210
213
157
220
245
191
253
255
200
255
242
185
253
220
158
231
189
122
201
181
109
195
177
102
193
172
93
185
164
83
175
156
76
163
152
70
152
149
68
144
147
67
138
141
61
130
138
59
124
136
58
120
135
57
115
135
58
112
133
57
106
130
54
100
127
52
95
120
45
86
119
44
83
117
42
81
115
40
79
228
165
235
208
145
215
196
133
203
198
135
206
192
130
203
218
156
231
232
171
251
178
116
199
107
45
128
84
26
103
81
23
97
83
27
90
67
14
66
59
8
49
59
10
42
54
6
32
50
5
26
51
8
27
51
8
27
48
5
22
44
1
18
44
2
16
48
7
21
53
13
24
60
20
29
50
10
18
40
0
8
39
0
5
43
4
9
47
8
11
47
11
13
48
12
12
51
11
11
52
12
10
53
12
10
53
12
10
55
11
12
55
9
11
54
8
10
55
6
9
59
10
13
58
9
12
57
8
12
58
9
13
60
11
15
61
12
16
60
11
15
59
10
14
62
11
18
63
12
21
65
11
27
65
10
31
65
9
36
66
10
39
68
11
44
70
13
46
76
21
53
67
12
43
62
9
39
65
14
45
70
21
53
64
17
51
55
8
44
48
0
38
47
0
39
47
0
39
50
2
44
57
9
51
66
14
60
70
18
64
70
16
65
69
12
63
75
18
71
77
18
72
70
9
66
74
11
68
90
26
86
101
35
96
113
47
109
134
68
129
115
47
104
94
27
81
82
15
66
87
21
67
88
23
65
78
14
49
74
11
40
78
16
41
71
12
32
71
13
28
71
13
25
71
14
23
70
13
22
70
13
20
69
12
19
69
12
19
74
19
25
74
19
24
74
19
22
74
19
22
75
21
21
75
21
19
75
21
19
76
22
20
93
39
39
96
42
42
99
45
45
101
47
47
98
47
44
97
46
42
97
46
42
97
49
39
93
45
33
92
46
33
85
38
28
78
31
21
77
30
22
74
27
19
72
23
16
76
26
19
80
25
18
95
37
26
106
45
27
110
46
21
114
45
16
123
50
15
158
83
41
204
126
80
235
152
108
215
130
89
176
91
54
145
62
32
132
54
31
125
54
34
132
69
54
154
97
86
153
103
94
155
108
100
204
159
153
246
203
197
158
117
115
51
13
10
39
5
3
37
6
1
35
5
0
42
9
0
53
14
7
67
19
15
76
20
19
87
23
24
105
30
35
120
39
46
139
53
62
164
74
84
185
92
103
197
101
113
206
108
121
214
113
127
214
112
126
213
108
123
195
92
109
194
91
108
197
94
111
200
97
114
199
96
113
197
94
111
185
84
100
170
69
85
174
71
88
180
77
94
191
84
102
194
85
104
193
82
101
190
77
97
188
75
95
191
75
96
202
84
108
210
93
112
211
100
109
186
81
78
161
64
45
183
92
61
227
140
97
247
164
114
210
127
75
194
111
61
185
101
57
180
94
59
175
88
61
175
88
69
165
77
67
141
54
47
125
37
33
116
31
28
112
26
25
117
33
33
135
50
57
123
39
55
117
31
60
160
73
115
205
116
172
213
127
192
237
151
224
250
169
246
255
179
255
250
178
254
226
158
231
211
148
218
211
150
219
208
151
219
208
152
217
221
167
229
242
188
250
255
204
255
247
187
255
200
138
213
176
107
190
175
102
191
170
94
185
163
84
176
156
73
161
150
68
152
146
65
142
145
65
138
139
59
128
137
58
123
135
57
119
134
56
114
133
56
110
131
55
104
127
51
97
124
49
90
118
43
82
116
41
80
114
40
77
112
38
75
181
118
189
173
110
181
164
101
172
168
104
178
168
106
181
193
131
208
225
161
245
207
145
230
138
76
162
98
36
119
83
25
102
91
34
102
77
22
79
62
9
55
59
9
44
57
8
37
52
7
30
55
10
30
56
11
31
53
9
26
48
5
22
46
4
18
48
6
20
51
9
21
59
19
28
54
14
22
46
6
14
41
2
7
43
4
9
51
12
15
53
17
19
54
18
18
54
14
14
53
13
11
54
13
11
53
12
10
55
11
10
56
10
10
58
9
12
60
10
13
59
9
12
58
8
11
57
7
10
59
9
12
60
11
15
61
12
16
58
12
15
59
10
14
66
15
22
65
13
25
65
12
28
66
13
33
69
13
38
69
13
42
67
10
42
66
9
41
69
14
45
66
11
40
66
13
41
69
19
46
68
19
48
59
13
42
51
4
36
46
1
34
45
0
31
44
0
30
45
0
33
52
7
40
62
15
51
70
20
57
70
20
58
69
16
58
72
16
61
74
17
62
69
11
59
77
17
68
89
26
79
77
14
67
83
20
75
121
58
111
127
62
116
108
44
96
90
27
74
85
22
65
86
24
63
84
23
57
78
18
46
73
14
36
76
15
33
76
15
30
75
15
25
75
15
23
75
15
23
74
15
21
74
15
21
72
15
21
74
19
25
74
19
24
74
19
22
75
20
23
75
21
21
75
21
21
76
22
22
76
22
22
85
33
35
89
37
39
95
44
43
98
47
46
97
46
43
96
45
41
95
44
40
94
46
36
93
45
33
91
45
30
84
38
25
77
31
18
76
29
19
73
26
16
71
22
15
75
25
18
78
25
17
92
35
24
101
42
26
110
48
25
117
50
23
116
46
12
140
67
26
183
106
60
234
152
105
232
148
104
195
110
73
153
70
38
140
60
35
134
61
42
134
71
56
148
92
79
155
105
94
144
97
89
160
115
109
207
164
158
159
118
116
55
17
14
31
0
0
40
9
4
33
4
0
35
5
0
47
10
2
61
16
11
73
19
17
82
20
21
97
25
29
112
33
39
131
48
56
155
68
77
182
90
101
195
99
111
199
101
114
209
108
122
215
113
127
211
109
123
199
94
111
197
92
109
197
94
111
198
95
112
198
95
112
199
96
113
190
87
104
174
71
88
174
71
88
181
78
95
192
85
103
195
86
105
194
83
102
190
77
97
189
73
94
190
72
96
201
81
108
207
89
111
213
102
111
197
92
89
183
86
67
210
119
88
239
152
109
232
149
99
196
115
62
193
111
61
180
97
53
169
85
49
170
84
61
171
85
70
153
68
61
130
47
41
121
38
34
118
35
31
112
28
26
118
34
34
133
48
55
126
39
55
124
35
63
150
62
102
178
88
142
179
90
154
198
111
182
217
135
211
238
162
236
250
180
252
242
177
245
236
175
242
230
170
240
231
174
243
222
166
231
213
159
221
218
167
226
247
193
253
255
199
255
227
167
239
184
116
199
180
107
196
172
96
187
163
84
176
157
74
164
151
69
153
148
65
145
146
64
140
143
63
134
141
62
128
139
60
125
138
60
120
136
59
113
133
57
106
128
52
98
124
49
90
117
42
81
116
42
79
114
40
77
111
37
74
154
91
161
161
98
168
152
89
160
160
96
170
169
105
183
179
114
196
207
141
228
215
150
240
163
98
190
109
46
135
89
27
110
99
39
113
84
28
91
63
8
63
59
6
52
58
8
46
53
6
38
57
11
39
59
13
39
57
12
35
51
8
28
48
5
24
48
5
22
50
8
22
56
16
27
56
16
25
51
11
19
43
3
11
43
3
11
52
13
18
57
21
25
61
22
25
57
17
18
57
15
16
55
13
14
55
11
10
56
10
10
57
11
11
61
12
15
62
13
16
59
9
12
57
7
10
57
7
10
59
8
13
61
12
16
63
14
18
60
14
17
61
12
16
67
16
23
66
14
26
66
14
27
68
15
33
71
17
40
71
17
41
67
14
40
63
10
36
69
16
42
66
16
41
69
20
42
71
23
45
64
19
42
53
9
32
45
1
26
41
0
23
43
1
25
41
0
23
43
0
24
49
5
30
60
14
42
67
21
50
70
21
51
69
20
52
69
17
53
63
9
45
71
15
54
81
25
64
78
20
61
81
20
62
89
28
72
91
30
74
118
55
102
126
63
110
116
53
98
88
25
68
73
11
52
79
17
54
84
23
56
80
20
48
78
16
41
78
16
37
78
17
33
77
17
29
77
17
27
77
17
25
76
17
23
74
17
23
75
18
24
74
19
24
75
19
22
75
20
23
75
21
21
76
22
22
76
22
22
76
22
22
79
27
29
86
35
34
93
42
41
97
47
46
97
48
44
94
45
41
92
43
38
90
41
34
91
45
32
89
45
32
81
37
24
74
30
17
73
29
18
72
25
15
69
22
12
73
25
15
77
27
18
89
35
23
98
40
26
111
50
31
120
54
30
112
46
14
127
57
21
167
94
53
221
140
93
238
156
109
213
130
90
170
87
53
156
76
49
151
76
53
142
75
58
145
86
70
156
102
90
163
113
104
163
116
108
169
124
119
115
74
70
45
5
3
38
3
0
36
3
0
31
2
0
31
2
0
41
6
0
57
13
10
69
18
17
79
19
21
91
22
25
104
27
33
124
41
49
148
61
69
179
87
98
192
96
108
194
96
109
207
106
120
218
115
132
213
110
127
200
95
112
197
92
109
196
93
112
197
94
111
197
94
113
200
97
114
193
90
107
176
73
90
174
71
88
183
78
95
191
86
103
195
88
106
192
83
102
189
78
97
186
73
93
188
72
95
198
81
107
203
87
110
209
99
110
201
97
96
199
99
84
230
137
106
244
157
114
216
133
83
192
109
57
195
113
65
178
95
55
160
77
47
166
84
63
169
87
76
143
62
58
118
39
35
118
39
35
118
39
35
111
30
29
117
35
37
131
45
54
127
39
55
130
37
66
147
52
92
173
79
131
170
76
136
183
92
159
205
118
187
234
154
223
255
184
250
255
191
255
255
196
255
255
196
255
255
198
255
241
187
249
224
170
230
210
159
218
230
176
236
255
202
255
255
195
255
204
140
218
195
126
209
182
108
197
171
95
185
166
87
176
162
82
169
158
76
160
155
72
152
146
64
140
145
63
135
142
61
130
140
61
126
138
60
118
134
57
111
128
52
101
124
48
94
114
42
82
113
41
79
110
38
75
108
36
73
143
78
142
146
81
145
145
79
150
146
80
154
153
86
166
165
97
184
190
121
212
218
148
244
198
128
226
142
75
170
105
39
129
100
36
120
91
30
107
74
17
86
69
13
78
70
17
73
65
16
61
61
15
52
56
10
46
54
9
40
53
9
36
53
9
32
51
10
28
50
9
23
47
7
18
52
12
21
55
15
23
52
12
20
44
7
14
42
5
13
47
10
18
56
16
24
66
24
28
67
22
25
66
21
24
66
20
22
65
19
19
64
18
18
63
17
19
62
16
18
61
12
16
61
12
16
62
13
17
63
14
18
64
15
19
65
16
19
65
16
19
65
16
19
62
11
18
70
19
28
80
28
40
83
33
45
77
29
43
68
21
37
58
14
31
54
10
27
52
8
25
57
13
30
62
18
35
64
21
38
62
20
34
53
12
26
43
2
16
35
0
12
38
0
15
41
2
20
46
5
23
48
7
25
51
8
28
57
12
33
68
20
42
76
28
50
66
16
41
69
16
42
72
17
46
73
18
47
74
17
49
72
15
47
73
14
46
71
11
45
85
24
65
106
45
87
134
73
115
129
68
110
93
32
76
79
18
60
86
25
67
85
25
63
81
19
56
82
21
54
86
26
52
84
25
45
76
18
33
74
16
28
75
18
25
70
13
19
72
15
21
73
16
22
76
17
21
75
19
22
76
20
23
77
21
24
77
23
23
78
24
24
84
33
32
82
32
31
89
39
38
99
51
47
104
56
52
99
51
47
94
47
41
92
48
39
89
46
37
85
43
31
79
37
25
75
33
21
74
32
18
75
31
18
76
30
17
76
28
16
73
23
12
80
28
15
93
37
24
105
46
30
108
47
28
111
46
24
119
53
27
132
64
29
196
122
77
231
153
104
232
154
108
187
109
70
152
73
40
152
77
48
155
85
60
145
80
60
147
88
72
152
99
85
160
110
99
135
88
80
79
34
29
45
1
0
41
0
0
38
0
0
25
0
0
32
3
0
38
4
2
49
7
8
64
14
15
71
12
16
83
17
21
104
29
34
127
46
52
136
49
55
157
64
74
182
86
97
200
102
115
209
108
124
216
113
132
222
119
138
212
106
126
211
105
125
205
99
121
198
92
112
198
92
114
201
95
115
197
91
111
190
84
104
174
68
88
185
79
99
195
90
107
197
92
109
197
90
108
195
88
106
187
80
98
180
71
92
189
77
101
202
90
112
204
96
111
201
96
100
234
133
123
255
161
136
229
137
98
204
116
68
197
114
64
177
95
48
163
80
46
160
80
57
160
82
69
157
80
74
136
60
60
111
35
35
112
36
36
108
30
30
114
34
37
123
38
45
127
39
51
141
48
67
156
57
86
155
55
93
162
59
106
180
77
130
198
99
156
214
118
179
230
142
203
246
164
226
255
182
244
255
197
255
255
194
255
252
196
255
239
185
245
217
166
225
209
157
219
225
171
233
248
192
255
255
205
255
240
176
250
231
164
241
202
135
215
187
118
201
186
112
199
171
95
185
159
78
171
156
73
163
156
71
156
151
64
145
142
58
136
140
58
132
140
61
127
138
60
122
128
53
109
121
47
96
116
45
89
113
42
82
111
41
78
110
40
77
140
76
136
142
78
139
141
76
142
141
75
147
149
80
161
159
89
177
182
111
205
207
135
234
219
149
248
199
129
228
138
71
166
95
29
119
95
31
115
86
25
103
72
11
88
78
23
90
64
13
69
62
15
61
60
13
55
59
13
50
58
13
44
54
10
35
49
6
26
44
3
19
48
8
19
52
12
21
54
14
23
50
10
18
41
4
12
39
2
10
44
6
17
51
11
20
62
17
24
63
16
22
63
17
20
63
17
19
63
17
17
63
17
17
63
17
19
63
17
19
62
16
19
62
16
19
63
14
20
63
14
18
65
16
19
67
18
21
70
22
22
72
23
26
76
25
30
79
28
35
79
29
38
74
27
35
63
20
29
54
12
22
46
6
17
43
2
16
47
6
20
52
11
25
57
16
30
60
20
31
59
19
28
50
13
21
43
6
14
37
0
8
38
0
11
41
3
16
46
5
19
48
7
21
50
7
24
55
12
29
65
21
38
74
27
45
69
20
41
69
20
41
72
18
41
72
18
41
73
17
42
72
16
41
73
15
40
72
13
41
75
15
49
82
22
60
113
52
93
141
80
122
135
74
118
112
50
97
90
28
75
74
13
57
82
19
62
78
16
55
82
21
54
86
26
52
82
23
43
80
22
36
77
20
29
71
14
21
72
13
19
73
14
20
74
15
19
77
18
22
77
21
24
79
23
26
80
26
26
79
28
27
82
31
30
81
31
30
86
38
34
97
49
45
100
55
50
97
52
47
93
48
42
91
48
41
90
47
38
83
43
33
77
37
25
73
33
21
74
32
18
73
31
17
73
29
16
74
28
15
74
26
12
80
28
15
89
36
22
102
44
30
106
47
31
109
48
29
115
53
32
126
61
31
174
103
59
217
144
93
237
163
116
207
132
90
166
91
52
150
75
43
153
79
52
150
82
59
149
84
66
150
91
75
146
92
80
109
61
51
57
10
4
39
0
0
61
17
14
80
42
39
61
32
28
28
0
0
24
0
0
47
7
7
64
15
18
70
14
17
81
17
18
92
20
23
123
43
46
138
51
57
158
67
74
179
83
94
194
96
109
208
107
123
217
114
135
221
118
139
221
115
137
218
112
134
211
105
127
205
99
121
206
100
122
208
102
124
203
97
119
195
89
109
177
71
91
187
81
101
196
90
110
199
94
111
199
94
111
197
92
109
189
84
101
180
74
94
183
74
97
197
88
109
203
96
112
203
98
105
227
125
120
242
145
126
221
127
93
204
115
71
194
107
62
170
87
47
153
72
43
150
71
54
150
73
65
144
70
67
128
54
55
106
34
35
109
33
33
112
34
34
115
34
40
119
36
44
130
39
54
148
55
74
167
67
95
173
69
104
175
70
111
185
79
127
197
93
146
207
106
162
210
115
173
210
120
181
230
144
205
255
178
238
255
197
255
255
197
255
237
181
242
213
159
219
207
155
219
224
169
234
237
181
246
240
181
247
244
183
252
251
188
255
245
181
255
237
170
250
224
154
240
217
142
233
218
138
235
211
127
223
191
105
194
178
90
176
156
71
154
141
58
136
135
55
128
131
55
120
128
53
112
123
50
103
114
45
90
111
43
84
109
41
80
108
40
77
132
71
128
135
74
133
136
71
135
136
70
141
142
73
153
152
82
170
170
99
193
192
120
219
219
147
247
221
151
250
187
120
217
133
66
159
99
35
122
85
23
106
77
16
96
72
15
86
72
18
76
68
18
67
65
16
63
63
15
57
60
13
49
55
10
39
49
5
30
44
1
20
50
8
22
53
11
23
53
13
22
49
9
18
42
2
11
40
0
9
41
4
12
48
8
16
56
13
20
58
13
18
58
13
16
59
15
16
59
15
14
60
16
15
60
16
17
60
16
17
68
22
25
67
21
24
65
19
22
65
19
22
67
21
23
72
26
28
76
30
30
82
33
36
84
33
38
81
30
35
72
25
31
62
17
24
50
9
17
43
3
12
40
0
9
37
0
10
42
4
15
46
8
19
51
13
24
54
17
25
53
16
24
47
12
19
42
7
13
37
2
9
38
0
11
41
3
14
46
5
19
48
7
21
50
8
22
54
12
26
63
19
34
71
24
40
73
24
43
72
23
42
73
20
40
71
18
38
71
16
39
71
16
39
73
15
39
73
15
40
74
15
47
80
20
54
91
31
67
107
46
87
121
60
102
128
67
111
122
60
107
112
51
95
111
48
91
93
31
70
84
23
56
84
24
50
81
22
42
78
20
34
76
19
26
73
16
22
71
12
18
72
13
19
74
15
19
77
18
22
78
22
25
81
25
28
82
28
28
82
31
30
79
28
27
79
29
28
84
36
32
93
45
41
97
52
47
96
51
46
94
49
43
92
49
42
90
47
38
84
44
34
77
37
25
73
33
21
73
31
17
72
30
16
72
28
15
73
27
14
76
28
16
80
28
15
86
33
19
98
40
26
105
46
30
109
48
29
114
52
31
121
56
26
144
77
34
193
123
74
236
164
116
234
159
117
195
120
81
160
84
50
150
75
44
151
79
54
149
81
60
140
77
60
122
64
52
93
41
30
73
24
17
86
41
36
127
86
82
161
123
120
130
101
95
70
41
35
34
0
0
42
2
0
58
12
12
68
14
14
75
13
14
81
11
13
114
35
38
137
52
57
158
68
77
171
78
88
185
87
102
202
103
121
217
115
137
223
119
142
227
121
144
221
115
138
212
106
129
207
101
124
209
103
126
210
104
126
204
98
120
195
89
111
182
76
98
190
84
104
198
92
112
203
97
117
204
98
118
202
96
116
194
88
108
185
79
99
182
73
96
193
84
105
202
95
113
205
99
109
218
116
114
223
126
110
210
115
87
202
112
75
186
101
62
160
78
41
144
62
38
142
63
48
140
63
57
131
57
54
118
44
45
102
30
31
106
30
30
112
36
36
115
36
41
115
34
41
129
41
55
149
58
76
170
71
99
182
81
115
190
85
126
188
82
128
186
82
133
194
91
146
197
98
155
196
100
161
213
122
183
242
158
220
255
193
255
255
197
255
243
183
245
218
162
223
215
160
225
228
173
238
229
173
238
216
157
223
217
156
225
228
167
237
244
180
255
253
186
255
233
164
247
219
145
234
225
145
240
221
137
231
223
137
228
209
123
212
189
104
189
171
88
168
160
79
155
149
72
140
140
66
125
132
62
114
120
51
96
116
49
90
112
46
84
111
45
81
124
64
116
128
68
122
129
65
125
129
64
130
137
69
146
146
77
160
160
90
179
176
105
201
186
114
213
190
118
218
197
127
225
172
105
200
121
55
145
94
30
117
90
26
110
78
17
94
81
27
89
75
24
80
70
17
69
63
14
61
59
11
51
56
9
43
52
6
35
49
5
28
51
8
27
53
10
27
54
12
26
50
10
21
44
4
15
42
2
11
45
5
14
49
9
18
57
14
21
58
13
18
58
13
16
57
13
14
56
12
13
55
11
12
54
10
11
54
10
11
62
17
20
61
16
19
61
15
18
61
16
19
64
18
20
67
23
24
72
26
26
75
29
29
73
24
27
67
21
24
59
14
19
50
8
12
42
3
8
38
1
8
39
2
9
40
5
12
40
5
12
43
8
15
46
9
17
47
12
19
46
11
18
43
8
14
39
4
10
36
1
7
37
2
9
41
3
14
47
6
20
48
7
21
49
7
21
52
10
24
60
16
31
65
21
36
74
27
45
73
24
43
72
21
40
71
18
38
70
15
36
70
15
36
72
14
38
73
15
39
75
16
44
81
22
52
85
26
58
88
28
64
87
26
67
91
30
72
122
61
105
166
105
149
137
75
116
109
47
84
89
28
61
85
25
51
82
23
43
77
19
33
75
18
25
72
15
21
74
15
21
74
15
21
76
17
21
79
20
24
79
23
26
81
25
28
82
28
28
81
30
29
76
25
24
77
27
26
81
33
29
89
41
37
93
48
43
95
50
45
94
49
43
91
48
41
90
47
38
83
43
33
77
37
25
73
33
21
73
31
17
72
30
16
72
28
15
72
26
13
78
30
18
78
28
17
84
30
18
92
36
21
101
44
27
107
49
29
111
50
29
114
50
22
123
58
16
163
95
48
215
144
98
243
170
127
227
152
112
185
109
73
155
79
47
145
70
41
130
58
34
116
48
29
99
37
22
99
42
31
119
69
62
142
97
92
159
118
114
166
131
127
163
132
127
120
91
83
64
31
26
40
1
0
52
7
4
66
15
12
72
12
11
79
11
12
100
26
27
128
48
51
152
65
73
161
69
80
173
76
93
197
98
118
218
116
140
225
123
147
228
124
149
221
115
138
212
106
129
209
103
126
211
105
128
211
105
128
204
98
121
196
90
112
189
83
105
193
87
109
199
93
115
205
99
119
209
103
125
207
101
121
200
94
116
192
86
108
187
79
102
194
85
106
201
94
112
208
102
114
213
110
113
211
113
104
202
107
85
197
106
77
178
91
61
154
70
42
140
57
39
140
60
49
136
58
54
122
48
47
111
37
38
99
27
28
104
30
29
111
35
35
112
33
38
114
33
40
125
41
54
137
48
66
154
60
86
176
77
108
189
87
126
191
86
129
185
79
128
183
79
132
187
84
140
185
86
143
196
98
159
214
124
185
251
170
236
255
187
251
255
189
253
237
177
239
234
175
241
240
184
249
230
174
239
207
151
216
192
133
201
186
125
195
201
139
212
233
166
245
224
155
238
192
118
205
183
104
196
186
105
198
179
94
187
187
102
193
201
117
205
212
130
214
210
132
208
195
120
189
169
97
160
150
81
135
124
56
103
118
53
95
113
47
85
109
45
80
112
55
100
118
60
108
119
59
111
120
59
118
130
64
135
139
72
149
150
80
166
161
91
180
155
84
180
158
86
185
161
91
187
158
91
186
140
74
164
112
48
135
94
30
116
90
29
107
87
30
99
81
27
89
76
21
79
69
16
70
66
14
63
60
12
54
57
10
46
55
9
38
54
8
34
55
12
32
55
12
31
53
10
27
50
8
22
48
8
19
51
11
22
56
14
24
61
18
27
62
17
24
59
14
19
57
12
15
51
9
11
48
6
8
46
4
6
45
3
5
45
3
5
45
3
5
49
4
7
48
6
8
52
8
9
51
9
10
54
10
9
55
11
10
55
11
12
52
8
9
46
4
6
41
2
5
38
2
4
39
4
8
39
7
10
40
8
13
39
7
12
39
7
12
42
7
13
39
7
12
38
6
11
35
3
6
33
1
4
31
0
4
36
1
8
40
4
14
45
7
18
46
8
19
47
7
18
50
8
20
56
12
25
61
17
30
73
26
42
72
24
40
72
21
38
69
18
35
68
15
33
68
15
33
69
14
35
70
15
36
74
16
40
77
19
44
78
19
47
85
26
58
90
30
66
86
26
64
98
37
78
126
65
106
130
68
109
105
43
80
89
28
61
88
28
54
86
27
47
81
23
37
76
19
28
72
15
22
79
20
26
80
21
27
80
21
25
81
22
26
79
23
26
80
24
27
80
26
26
78
27
26
75
24
23
76
26
25
79
31
27
84
36
32
88
43
38
93
48
43
93
48
42
90
47
40
88
45
36
82
42
32
76
36
24
72
32
20
73
31
17
72
30
16
72
28
15
73
27
14
78
30
18
79
29
18
81
29
16
87
34
20
98
40
26
105
46
28
106
48
28
106
46
18
114
52
13
134
70
26
177
110
67
226
155
113
242
169
128
215
140
101
173
95
59
145
66
35
128
51
25
112
37
16
97
30
13
107
47
36
137
82
75
152
105
99
142
101
99
127
92
88
140
110
102
126
96
86
86
53
46
48
11
3
45
2
0
60
11
7
70
15
12
77
13
11
87
17
17
114
38
40
138
56
62
150
60
72
162
68
86
189
90
111
216
113
140
228
125
152
230
126
151
221
117
142
212
108
133
210
106
131
212
108
133
210
106
131
204
100
125
199
95
118
196
92
115
194
90
113
196
92
115
204
101
122
210
106
129
210
107
128
204
100
123
200
94
116
199
91
114
199
91
114
201
94
114
209
102
118
212
108
115
209
109
107
202
106
94
188
97
78
172
84
64
151
66
46
142
58
47
143
63
56
135
57
55
119
45
46
107
33
34
97
25
26
103
29
28
105
31
30
106
30
34
114
35
41
122
41
50
123
36
52
133
41
64
156
60
88
178
78
114
190
85
126
189
83
131
184
77
129
178
71
125
162
57
113
163
59
118
181
83
144
221
132
198
242
161
228
255
185
251
254
188
252
250
189
255
249
193
255
237
181
246
217
161
226
202
145
213
176
116
186
178
116
189
214
150
226
234
165
246
204
130
215
169
93
181
171
90
182
165
84
177
166
85
178
168
87
179
171
93
179
170
96
175
164
92
165
154
85
148
146
78
135
121
55
103
113
51
92
106
42
79
98
37
71
107
51
88
113
57
96
114
57
102
116
56
108
126
65
125
136
70
141
142
74
151
148
79
162
147
77
166
151
80
172
148
79
172
143
74
165
138
69
160
119
53
141
97
31
118
84
21
102
88
28
102
84
27
96
83
24
90
79
23
86
76
21
78
70
18
67
65
13
59
58
10
48
57
10
42
58
12
40
58
12
38
55
12
32
53
10
29
53
10
27
56
13
30
59
17
31
63
19
32
63
17
28
61
15
25
57
12
19
52
9
16
48
6
10
46
4
8
44
2
6
42
0
4
43
1
5
44
2
4
44
2
4
44
2
3
44
2
3
43
2
0
42
1
0
46
4
5
43
1
2
39
0
1
36
0
0
36
2
3
35
3
4
35
5
7
34
4
6
37
7
9
36
6
8
35
3
8
33
3
5
32
0
3
30
0
2
29
0
1
28
0
0
34
1
8
40
4
14
45
7
18
46
8
19
46
6
17
47
7
18
52
10
22
58
14
27
69
23
36
68
22
35
68
20
36
68
17
32
68
15
33
67
14
30
68
13
32
68
13
32
61
4
23
76
18
40
82
24
48
79
20
48
78
19
51
78
18
52
84
24
60
96
36
74
118
56
93
98
37
71
86
25
56
84
24
49
80
21
39
79
21
35
80
23
32
78
21
28
84
25
31
84
25
31
83
24
28
83
24
28
80
24
27
79
23
26
77
23
23
75
24
23
74
23
22
76
26
25
77
29
25
80
32
28
83
38
33
90
45
40
91
46
40
87
44
37
85
42
33
79
39
29
74
34
22
71
31
19
73
31
17
73
31
17
74
30
17
73
29
16
77
31
18
79
31
19
79
29
18
83
31
17
93
37
22
101
44
25
103
46
26
101
44
17
109
49
13
115
53
12
140
75
33
188
121
79
229
158
116
231
156
116
198
118
81
162
82
47
139
58
29
123
45
22
112
39
20
118
52
38
132
75
64
143
94
89
140
96
93
129
91
88
125
95
85
113
83
73
92
59
50
60
23
15
37
0
0
49
2
0
69
16
10
74
15
11
79
14
12
99
27
28
123
42
49
139
51
63
152
59
77
176
78
101
207
104
131
228
125
154
224
120
147
217
113
138
210
106
131
210
106
131
209
105
130
206
102
127
202
98
123
201
97
122
204
100
125
197
93
116
195
91
116
202
98
121
211
107
132
213
109
132
209
105
130
206
102
125
210
104
127
208
100
123
204
96
119
207
101
121
208
106
119
211
112
117
205
107
104
178
85
77
165
75
66
150
63
54
144
59
54
142
61
58
132
53
56
117
41
43
105
31
32
94
22
23
101
27
26
100
26
25
105
29
33
113
36
42
119
39
48
117
33
48
124
35
55
140
46
72
175
76
107
183
79
116
185
78
122
193
85
134
197
86
137
173
65
117
163
54
109
178
73
132
191
94
161
214
124
194
240
159
226
254
182
248
255
192
255
254
195
255
244
188
253
233
178
243
215
158
226
177
120
188
167
107
177
190
126
200
232
163
243
230
157
239
180
105
190
165
86
177
151
71
166
147
67
162
141
65
156
138
62
152
137
64
146
136
65
141
132
65
132
129
66
123
121
59
108
113
52
94
103
43
79
94
34
68
112
59
87
120
67
97
120
66
102
122
65
108
132
72
123
139
78
137
142
77
145
144
78
152
149
80
161
154
84
170
160
90
178
156
88
175
152
84
171
154
86
173
137
69
154
101
36
120
90
27
106
87
26
103
86
24
99
84
24
94
83
24
90
78
23
81
73
18
73
68
16
64
62
11
52
60
13
49
60
13
45
58
12
41
55
9
35
54
10
33
56
13
33
58
15
34
60
15
35
59
15
32
58
14
31
56
12
27
54
10
23
52
9
19
51
8
17
51
8
17
53
10
17
51
8
15
48
7
11
46
6
7
44
4
4
42
2
2
42
2
0
42
2
0
44
4
4
40
1
2
35
0
0
33
0
0
31
1
1
30
2
1
29
1
0
28
0
0
33
5
4
31
3
2
30
0
2
27
0
0
27
0
0
26
0
0
28
0
0
29
0
2
34
1
8
38
5
12
44
9
16
45
10
17
44
7
15
46
6
15
50
8
18
54
12
22
62
19
29
64
18
29
66
18
32
66
18
30
67
16
31
66
16
28
66
13
29
67
13
27
73
16
31
67
10
27
65
8
27
69
11
33
71
13
38
69
10
40
78
19
51
94
35
67
111
50
83
98
37
68
89
29
55
83
24
46
76
17
35
78
20
34
84
26
38
85
28
37
87
27
35
86
27
33
85
26
30
84
25
29
80
24
27
79
23
26
77
23
23
75
24
23
75
24
23
77
27
26
76
28
24
76
28
24
80
35
30
87
42
37
89
44
38
84
41
34
82
39
30
77
37
27
72
32
20
70
30
18
71
31
19
73
33
21
75
33
21
76
32
21
76
29
19
79
31
19
81
31
20
82
30
17
87
34
20
96
40
23
100
45
25
99
43
18
102
46
11
106
48
10
118
56
17
148
83
43
194
125
84
228
153
113
221
142
103
198
116
79
154
71
39
134
54
27
123
48
25
123
54
38
126
66
55
137
84
76
137
92
87
126
87
82
116
83
74
102
72
61
84
52
41
58
21
12
41
3
0
52
9
2
69
20
13
70
15
10
77
16
13
88
20
19
108
31
37
129
46
56
146
53
71
163
65
88
195
92
119
225
120
150
218
114
141
212
108
135
209
105
132
209
105
132
206
102
129
201
97
124
200
96
123
203
99
126
210
106
133
199
95
120
192
88
115
199
95
120
210
106
133
214
110
135
213
109
136
212
108
133
217
111
134
216
110
133
208
102
125
206
100
122
205
102
121
214
114
126
209
110
115
171
77
77
160
69
68
149
61
60
143
57
60
135
53
57
124
43
49
112
36
40
104
30
31
95
21
20
95
24
22
97
26
24
106
31
35
113
36
42
118
38
47
126
44
56
136
47
65
139
45
69
174
73
103
181
77
112
184
75
116
197
87
132
214
102
150
199
89
138
181
70
121
186
77
134
181
76
142
189
92
161
212
125
193
242
163
229
255
188
253
255
194
255
250
194
255
249
195
255
225
170
235
179
122
190
165
105
175
167
103
177
210
141
221
237
164
246
187
112
197
156
80
170
146
71
166
144
68
166
142
68
163
141
68
158
138
68
154
135
68
147
130
67
137
127
66
126
123
63
115
115
56
100
103
45
83
94
37
70
121
72
93
128
79
101
131
78
108
130
76
110
139
82
125
147
87
139
147
83
144
146
81
149
152
84
159
155
86
166
161
92
175
170
101
184
193
124
207
214
146
231
198
128
214
154
86
171
95
30
114
90
27
108
87
22
102
84
22
99
83
21
94
82
23
91
81
22
86
78
23
80
65
11
63
64
12
58
62
11
54
58
10
48
55
8
42
54
7
39
55
9
38
55
11
38
55
9
37
56
10
36
56
10
36
56
11
34
56
11
32
57
12
32
57
13
30
57
13
28
60
16
29
56
13
23
50
9
17
45
4
10
42
1
5
41
1
2
42
2
2
42
2
2
44
5
8
38
2
4
33
0
0
29
0
0
28
0
0
27
1
0
25
0
0
24
0
0
28
2
1
28
0
0
26
0
0
24
0
0
24
0
0
24
0
0
27
1
0
29
3
2
33
2
7
38
6
11
44
9
16
45
10
16
43
6
14
43
6
13
48
8
17
52
11
19
58
15
25
60
17
26
63
17
28
66
19
29
68
18
30
66
16
27
66
14
27
64
12
24
62
8
21
69
13
26
73
16
31
69
12
29
67
9
31
73
15
39
79
21
46
79
21
46
99
39
65
97
37
63
97
37
62
92
33
53
84
25
43
85
27
42
89
31
45
87
30
39
87
27
35
86
27
33
85
26
30
84
25
29
81
25
28
80
24
27
78
24
24
75
24
23
75
24
23
77
27
26
76
28
24
75
27
23
78
33
28
85
40
35
87
42
36
82
39
32
81
38
29
75
35
25
71
31
19
70
30
18
71
31
19
73
33
21
76
34
22
76
34
22
73
29
18
79
32
22
80
32
22
79
30
16
84
32
18
92
39
23
96
44
23
97
43
19
96
41
10
104
48
11
109
49
12
123
59
21
165
98
56
215
144
102
235
158
116
224
145
106
193
111
74
156
75
45
129
53
27
120
49
29
118
55
40
129
72
61
129
79
72
110
67
60
89
52
43
87
55
44
68
34
24
47
13
3
55
18
9
71
31
23
72
27
21
66
17
10
75
20
15
80
16
16
98
26
30
125
44
53
140
52
68
153
58
78
187
84
111
221
117
144
218
114
141
214
110
137
213
109
136
213
109
136
209
105
132
203
99
126
204
100
127
210
106
133
214
110
137
200
96
123
191
87
114
197
93
120
209
105
132
214
110
137
215
111
138
216
112
139
219
112
138
221
114
140
211
104
130
203
99
124
202
98
121
214
113
131
210
112
125
166
71
79
157
64
72
148
59
65
140
53
61
129
46
54
116
35
42
108
32
36
103
27
29
93
19
18
92
21
19
98
27
25
108
34
35
111
36
40
116
39
45
138
56
68
151
63
79
144
51
72
166
66
94
187
82
113
191
83
119
192
82
121
203
92
134
196
85
128
180
68
114
181
70
121
184
76
138
179
77
143
196
101
167
232
147
214
255
182
247
255
194
255
255
199
255
255
205
255
246
191
255
190
134
199
179
119
189
168
104
178
200
132
209
238
166
248
192
118
203
158
84
173
139
65
160
135
63
162
131
60
156
128
59
150
126
57
146
122
57
137
119
57
130
117
59
120
120
63
116
111
56
98
99
45
81
90
36
68
120
74
87
123
76
92
131
82
104
139
86
116
143
87
126
146
87
133
147
84
139
146
82
143
148
81
152
148
80
155
160
89
169
187
115
197
224
152
234
241
172
255
233
161
245
211
141
227
139
71
158
104
38
125
89
21
106
85
20
102
76
11
91
73
11
88
82
20
93
85
26
94
86
27
91
71
16
73
58
3
58
52
0
49
55
3
49
55
7
47
52
4
42
48
0
38
60
10
48
62
12
49
65
15
52
68
18
53
67
20
52
65
19
48
61
15
41
58
13
36
63
20
39
54
11
28
48
6
18
53
11
21
58
17
25
56
15
21
48
7
11
41
2
5
41
4
11
39
4
10
34
3
8
29
0
4
23
0
0
21
0
0
24
0
0
27
3
3
25
1
0
26
0
0
25
0
0
24
0
0
25
0
0
25
1
0
26
2
0
29
3
2
36
6
8
39
9
11
44
12
17
45
13
16
45
10
16
44
8
12
46
6
14
47
8
13
48
7
15
51
8
15
57
11
21
60
15
22
63
16
26
62
15
23
62
12
23
62
11
20
65
12
22
66
10
21
66
10
23
66
10
23
68
11
26
70
13
30
73
16
33
75
18
37
88
29
49
90
31
51
93
34
52
93
34
52
92
34
49
90
32
47
91
33
47
92
34
46
89
29
37
90
31
37
90
31
35
89
30
34
84
28
31
81
25
28
76
22
22
71
20
19
74
23
22
76
26
25
77
29
25
77
29
25
79
34
29
85
40
35
83
38
32
75
32
25
73
30
21
72
32
22
73
33
23
74
34
24
73
33
21
72
32
20
71
31
19
72
30
18
72
29
20
74
30
19
77
30
20
80
32
20
83
34
20
87
36
19
88
37
18
90
38
16
96
42
14
99
45
11
105
47
10
111
49
10
124
59
17
157
88
46
209
136
93
251
174
132
218
139
100
193
115
79
155
78
48
127
55
31
123
56
37
130
68
55
124
67
58
107
59
49
89
49
39
73
39
27
57
23
13
59
25
15
72
38
29
74
37
29
68
27
21
69
24
18
71
20
16
78
20
18
92
23
26
109
32
40
129
43
56
150
57
75
176
76
100
195
92
119
218
115
142
217
114
141
215
112
139
214
111
138
213
110
137
210
107
134
208
105
134
206
103
132
206
103
132
204
101
130
192
89
118
192
89
118
211
108
137
218
115
144
214
111
140
219
116
143
224
120
145
214
110
135
209
105
132
204
100
127
204
100
127
216
114
138
206
107
127
171
74
91
156
62
78
139
49
61
129
41
53
124
41
51
116
35
42
103
27
31
99
23
25
97
23
24
93
22
20
97
26
24
109
37
38
116
41
45
105
28
34
102
21
30
133
45
59
175
82
100
156
56
80
178
74
101
190
82
114
185
77
111
180
70
107
174
64
103
172
63
102
176
66
111
181
69
127
189
80
145
196
96
160
215
125
189
249
168
234
255
194
255
255
193
255
246
187
251
252
196
255
229
173
238
213
153
223
195
131
205
207
139
216
237
165
247
213
139
224
160
86
175
135
64
158
125
55
153
117
47
145
112
45
138
104
39
129
96
35
115
97
39
113
104
48
111
89
36
88
86
35
78
80
33
67
75
29
58
116
70
81
119
73
86
125
78
98
131
81
106
138
84
118
142
85
126
144
84
135
146
83
140
150
83
150
153
86
157
171
100
176
198
127
207
216
145
225
217
145
227
213
141
225
212
140
224
185
115
203
138
69
158
107
37
125
98
30
117
89
21
106
83
18
100
89
24
104
91
29
104
90
28
101
80
21
89
67
8
72
57
2
60
54
0
54
52
0
51
51
0
48
49
0
46
52
0
49
57
5
53
64
12
60
69
17
63
70
19
62
67
19
59
65
18
54
65
18
50
66
20
48
57
13
36
53
10
30
56
13
30
59
17
31
54
12
24
45
3
15
39
0
10
40
4
14
38
5
16
34
4
12
27
0
7
22
0
1
19
0
0
22
0
2
25
4
3
25
1
1
25
1
0
25
0
0
24
0
0
24
0
0
25
1
0
26
2
0
28
4
0
35
7
6
39
9
11
43
11
14
44
12
15
44
9
13
42
7
11
44
8
12
47
8
13
47
6
12
50
9
13
54
11
18
60
15
20
62
15
23
62
15
21
62
12
21
62
11
18
65
12
22
66
10
19
66
10
21
67
11
22
68
12
23
71
15
26
73
17
30
75
19
32
82
24
39
85
27
42
88
30
44
90
32
46
89
31
45
89
31
45
90
32
46
91
33
45
89
29
37
88
29
35
88
29
33
87
28
32
83
27
30
81
25
28
79
25
25
76
25
24
77
26
25
79
29
28
78
30
26
78
30
26
79
34
29
83
38
33
81
36
30
75
30
24
72
29
20
71
31
21
72
32
22
73
33
23
73
33
21
72
32
20
71
31
19
70
30
18
73
30
21
74
31
22
75
31
22
78
32
19
81
33
19
83
34
19
83
34
17
86
35
14
93
42
15
97
44
13
102
46
13
106
48
10
115
53
12
139
75
31
180
112
67
216
143
100
236
161
119
216
141
102
181
106
74
150
76
49
132
64
41
128
63
45
116
54
41
97
43
31
76
32
19
59
21
10
46
10
0
53
19
9
74
40
31
77
43
34
67
30
22
59
20
13
69
24
19
74
20
18
82
20
21
100
27
34
119
38
47
141
53
67
168
71
91
185
85
109
204
101
128
210
107
134
215
112
139
216
113
140
211
108
135
207
104
131
206
103
132
207
104
133
207
104
133
207
104
133
196
93
122
195
92
121
209
106
135
214
111
140
212
109
138
217
114
143
219
115
142
215
111
138
214
109
139
208
103
133
205
102
131
212
112
140
209
109
133
186
91
111
141
46
66
128
37
54
119
31
47
116
32
45
111
30
39
99
22
28
94
18
22
96
22
23
92
21
19
98
27
25
107
35
36
111
37
38
101
25
29
100
19
26
123
37
48
153
61
76
149
52
72
174
72
96
186
82
109
193
86
114
196
87
118
172
64
96
158
50
84
174
65
106
167
54
106
170
61
119
176
72
133
186
90
153
210
124
187
240
164
228
253
184
247
245
183
246
243
184
248
221
162
230
217
156
226
210
146
220
214
145
225
246
174
255
241
167
254
191
118
208
139
68
164
123
56
153
107
40
137
93
28
122
85
22
111
78
19
101
76
20
93
75
23
87
73
25
77
71
24
66
66
22
55
62
19
47
111
67
80
113
69
84
120
73
91
126
76
101
133
79
111
139
83
122
144
85
133
148
85
140
157
91
153
172
102
172
186
114
188
188
116
192
181
108
189
178
105
186
180
107
189
183
111
195
167
94
183
125
55
143
102
29
118
98
28
116
93
23
111
86
18
105
86
18
103
83
18
100
91
28
107
86
25
102
79
19
93
71
14
83
67
11
76
67
11
74
69
13
74
71
15
76
69
13
74
72
16
77
74
18
79
73
19
77
70
17
73
67
14
66
66
14
62
65
17
59
60
12
50
58
11
45
58
12
41
59
13
39
54
10
33
45
2
22
40
0
17
39
0
17
42
5
23
38
5
22
34
3
18
28
0
12
23
0
6
20
0
3
22
0
3
24
4
5
23
2
1
23
2
1
24
0
0
23
0
0
24
0
0
25
1
0
24
3
0
28
4
0
35
7
6
37
9
8
40
10
10
40
10
10
41
9
10
42
8
9
43
7
9
44
8
10
45
6
9
49
9
10
53
11
15
56
14
16
60
15
20
60
15
18
60
13
19
61
12
16
64
11
19
66
11
17
67
11
20
67
12
18
69
14
20
71
16
22
73
18
24
75
20
26
75
18
27
78
21
30
82
24
36
84
26
38
85
27
39
85
27
41
87
29
43
88
30
42
88
28
36
88
29
35
88
29
33
88
29
33
86
30
33
87
31
34
87
33
33
85
34
33
82
31
30
82
32
31
81
33
29
80
32
28
79
34
29
81
36
31
79
34
28
74
29
23
73
30
21
74
31
22
73
33
23
73
33
23
72
34
21
71
33
20
70
32
21
69
31
20
73
33
25
75
32
23
76
32
23
78
31
21
77
31
18
78
31
15
78
31
13
79
31
11
91
39
15
95
41
13
98
45
13
101
45
10
103
45
7
117
56
12
143
79
35
169
101
56
226
155
111
230
157
116
217
145
107
187
114
81
152
81
53
124
56
33
102
35
16
82
23
5
64
15
0
49
7
0
43
3
0
55
18
9
74
40
31
76
43
34
63
30
23
54
19
13
65
24
20
67
19
17
72
16
17
86
20
24
105
28
36
126
42
55
154
62
77
174
77
97
182
82
106
200
97
124
218
115
142
222
119
146
213
110
137
205
102
129
204
101
128
208
105
132
208
105
134
210
107
136
202
99
128
200
97
126
208
105
134
209
106
135
208
105
134
215
112
141
212
109
138
217
114
143
218
115
144
212
109
139
209
106
136
209
109
137
211
111
139
207
112
136
141
46
68
122
31
49
115
27
43
115
31
44
109
28
37
100
23
29
99
23
27
94
20
21
96
25
23
96
26
24
99
27
28
103
29
30
109
33
37
119
40
46
127
44
52
135
45
57
128
34
50
153
54
74
169
65
88
182
78
101
200
93
119
189
82
108
164
57
85
158
50
84
157
45
91
161
50
103
166
61
117
169
70
127
183
92
153
219
137
199
246
174
237
247
181
245
236
174
239
208
147
216
204
142
215
205
141
217
202
133
214
229
159
245
243
170
255
198
127
219
137
67
163
126
59
154
110
43
140
94
29
123
83
23
113
79
21
105
72
20
94
67
19
81
63
19
70
61
19
59
57
18
49
55
16
43
111
69
81
113
71
85
116
72
89
123
75
97
130
80
109
140
84
121
146
87
131
152
90
141
172
104
163
183
114
179
186
115
185
174
102
176
162
90
166
162
89
168
170
97
178
175
102
184
174
100
185
152
80
166
138
66
152
131
58
147
119
46
135
107
37
126
101
31
120
94
25
114
100
34
121
97
33
117
94
31
112
88
27
105
84
23
100
79
22
93
78
21
92
78
21
90
80
23
94
77
20
91
73
16
85
69
12
81
66
9
77
63
9
71
63
9
67
64
11
65
56
4
53
54
6
48
56
8
48
54
7
43
46
1
34
39
0
27
41
0
27
47
4
34
42
6
32
38
6
29
34
2
23
27
0
17
22
0
12
22
0
9
22
1
8
23
3
5
23
1
3
23
2
1
24
0
0
23
0
0
24
0
0
25
1
0
24
3
0
28
4
0
33
7
6
35
7
6
37
7
7
38
8
8
39
7
8
39
7
8
41
7
8
42
6
6
44
5
6
46
7
8
50
10
11
54
12
14
58
13
16
59
15
16
59
13
16
61
12
15
64
11
17
66
11
16
67
12
18
69
14
19
70
15
20
72
17
20
73
18
23
74
19
24
71
14
20
74
17
24
78
21
28
80
23
32
81
24
33
81
23
35
82
24
36
84
27
36
87
27
35
89
30
36
93
34
38
97
38
42
97
41
44
99
43
46
98
44
44
96
45
44
86
35
34
85
35
34
83
35
31
82
34
30
79
34
29
79
34
29
77
32
26
75
30
24
77
34
25
78
35
26
77
37
27
77
37
27
75
37
24
73
35
22
72
34
23
71
33
22
74
34
26
74
34
26
75
32
23
75
31
20
74
30
17
75
29
14
75
28
12
74
27
7
86
36
13
89
38
11
94
43
12
97
44
10
98
42
5
102
45
2
117
56
12
133
69
23
174
107
62
205
136
94
229
160
119
218
149
110
184
111
78
142
71
41
108
36
11
83
18
0
63
7
0
53
5
0
50
6
0
57
17
7
67
30
21
64
31
24
56
25
20
54
21
16
57
19
16
59
15
14
65
13
15
76
16
18
91
20
26
112
32
41
140
54
67
164
71
89
164
66
89
193
90
117
222
119
146
231
128
155
220
117
144
207
104
131
204
101
128
208
105
132
206
103
132
210
107
136
207
104
133
204
101
130
207
104
133
206
103
132
207
104
133
214
111
140
212
109
138
220
117
146
220
117
147
215
112
142
214
111
141
209
109
137
211
112
140
221
126
150
177
84
105
131
40
58
115
27
43
124
40
53
113
32
41
101
24
30
102
26
30
96
24
25
88
17
15
99
29
27
104
32
33
100
28
29
105
30
34
120
44
48
135
54
61
140
54
63
141
49
62
145
49
63
154
53
71
162
59
78
173
67
89
181
75
97
174
68
91
157
50
78
159
50
89
168
58
105
174
68
117
175
72
125
182
87
143
209
121
181
236
158
220
249
179
242
246
181
247
213
150
220
196
132
206
197
130
210
194
124
210
220
150
238
245
172
255
215
144
238
152
83
176
139
72
167
122
57
151
106
42
136
93
33
123
81
26
109
71
21
94
63
17
79
59
17
67
56
18
57
53
18
48
52
18
43
114
74
85
116
74
88
118
74
91
124
76
98
130
80
107
139
85
119
147
89
130
153
91
138
166
99
153
160
92
151
159
88
154
163
90
161
164
91
164
165
91
166
174
100
177
184
110
189
188
113
195
186
113
195
186
113
195
178
106
190
164
91
180
146
76
165
127
56
148
108
39
130
105
39
129
102
37
127
99
35
122
93
31
117
88
26
111
82
21
101
75
16
96
71
13
90
77
16
94
74
13
91
72
11
91
72
11
89
75
14
91
75
17
91
75
18
87
73
18
83
80
26
86
72
19
73
62
12
63
57
8
55
53
4
51
51
2
47
53
6
50
58
13
54
44
7
41
39
6
35
34
1
28
28
0
23
23
0
17
22
0
13
22
1
10
22
1
8
23
1
4
23
1
3
24
0
0
23
0
0
24
0
0
25
1
0
26
2
0
28
4
2
32
6
5
32
6
5
33
5
2
34
6
3
36
6
4
38
7
5
40
6
5
41
5
5
43
4
5
45
7
6
48
8
8
51
11
11
54
12
13
55
14
12
58
14
15
59
13
13
64
12
16
67
12
15
68
13
18
70
15
18
71
16
19
73
19
19
74
19
22
74
19
22
71
15
18
74
17
23
78
21
27
79
22
29
78
21
28
78
21
30
79
22
31
80
23
30
88
29
35
93
34
40
101
42
46
109
50
54
110
54
57
110
54
57
106
52
52
102
51
50
88
37
36
86
36
35
84
36
32
83
35
31
80
35
30
78
33
28
78
33
27
79
34
28
84
41
34
84
41
34
82
42
32
81
41
31
79
41
30
76
38
27
74
36
25
72
34
23
73
35
26
73
33
25
73
33
23
73
31
19
73
29
16
72
29
13
73
27
11
74
27
9
79
33
10
82
35
9
89
40
10
95
45
12
98
44
8
98
43
2
106
47
5
116
55
10
123
61
14
157
93
47
198
131
88
219
150
108
217
145
107
193
119
84
151
76
44
113
44
15
78
17
0
64
8
0
53
4
0
52
8
0
52
14
5
49
16
9
46
15
10
44
15
11
44
10
8
49
11
10
58
12
14
68
13
16
77
15
20
95
24
32
126
46
57
152
65
81
152
57
77
184
84
108
217
117
141
232
132
156
225
125
149
211
111
135
205
105
131
205
105
131
202
102
128
208
108
134
208
108
136
206
106
134
205
105
133
203
103
131
205
105
133
211
111
139
214
111
141
221
118
148
219
116
146
215
112
142
215
115
143
210
110
138
211
112
140
222
127
151
217
124
145
161
70
88
123
35
51
118
34
47
113
32
41
98
21
27
97
21
25
101
29
30
94
23
21
98
28
26
95
25
25
87
17
17
96
24
25
119
45
46
135
59
63
138
57
63
162
75
84
158
66
77
168
72
86
175
74
90
164
61
80
160
54
74
163
57
77
163
57
80
169
61
93
176
70
110
174
67
111
175
69
118
184
85
139
194
103
162
219
137
199
254
179
244
254
185
252
232
166
238
205
138
215
194
126
209
194
124
212
213
142
234
243
172
255
244
173
255
187
118
211
161
94
187
131
66
160
108
47
140
96
37
127
82
29
111
70
22
96
63
19
82
52
14
63
50
16
53
48
18
46
47
17
41
116
76
87
116
76
87
118
76
90
122
77
97
128
80
104
136
83
113
142
84
122
147
86
128
150
86
136
148
81
135
148
76
139
153
81
145
161
88
157
168
95
166
171
98
171
172
99
172
166
92
167
174
100
177
185
111
190
189
116
198
186
112
199
175
102
191
154
81
173
132
61
155
116
47
140
113
46
139
109
42
137
104
39
131
100
37
126
96
34
120
91
32
116
91
29
114
90
26
112
90
26
112
92
28
115
93
31
117
94
32
117
94
33
113
92
31
109
88
30
104
82
25
94
71
16
81
64
10
70
66
15
71
71
20
76
72
21
77
69
20
75
67
21
70
46
8
49
40
6
39
35
1
34
28
0
27
25
0
22
23
0
18
23
1
14
22
1
10
23
0
6
23
1
4
24
0
2
23
0
0
24
0
0
25
1
0
26
2
0
28
4
2
32
6
5
30
4
3
31
3
0
31
3
0
34
4
2
35
5
3
39
5
4
38
4
2
40
5
3
43
5
4
46
6
6
49
9
7
52
11
9
54
13
11
58
14
13
60
14
14
63
11
13
67
13
13
69
14
17
71
17
17
73
19
19
73
19
19
74
20
20
74
20
20
73
17
20
76
20
23
79
22
28
80
23
29
79
22
28
79
22
28
80
23
30
81
24
30
93
34
40
99
40
46
108
49
53
116
57
61
116
60
63
113
57
60
106
52
52
99
48
47
88
37
36
85
35
34
84
36
32
85
37
33
81
36
31
79
34
29
80
35
29
84
39
33
91
48
41
90
47
40
87
47
37
85
45
35
81
43
32
77
39
28
74
36
25
71
33
22
71
33
24
71
33
24
72
32
22
71
31
21
73
31
19
74
31
15
76
30
15
76
31
12
75
30
7
77
31
5
82
35
7
91
42
10
97
44
10
98
45
5
104
46
6
110
51
7
107
46
1
121
59
12
146
82
36
184
116
71
219
148
106
228
154
115
200
125
86
162
89
56
113
47
21
86
25
6
63
7
0
50
2
0
43
3
0
40
5
0
35
6
0
31
3
0
32
2
0
39
5
4
49
9
10
61
12
15
71
12
18
85
18
25
109
36
45
134
52
66
145
52
71
173
73
97
203
103
127
222
122
146
224
124
148
216
116
140
209
109
135
206
106
132
203
103
129
208
108
134
211
111
139
209
109
137
206
106
134
203
103
131
204
104
132
208
108
136
212
109
139
217
114
144
215
112
142
214
111
141
215
115
143
212
112
140
211
113
138
216
121
143
222
129
148
201
113
129
153
65
79
109
26
36
103
22
29
103
26
32
99
23
27
97
25
28
107
35
36
94
24
22
78
8
8
74
6
5
93
25
24
122
52
52
137
62
66
138
59
64
154
72
78
170
80
89
184
91
101
193
92
106
187
85
99
178
71
87
170
63
81
167
60
80
177
73
100
180
75
108
169
60
101
165
58
104
175
72
125
179
84
140
205
117
178
250
171
236
254
183
251
253
185
255
231
162
242
201
133
218
188
118
207
189
118
212
211
139
238
233
163
255
235
166
255
203
138
228
162
97
189
125
65
155
105
47
134
90
37
119
75
27
101
62
20
83
53
15
64
50
18
55
49
20
48
46
21
43
112
75
83
114
74
83
116
74
86
119
75
90
123
76
96
129
76
102
132
77
109
136
76
114
147
84
129
154
87
138
157
86
142
153
82
142
158
83
148
167
92
159
171
96
165
167
92
161
174
98
170
173
100
173
177
103
178
183
110
189
185
112
194
183
110
199
185
112
204
187
116
210
191
121
217
181
114
209
164
97
194
139
74
168
113
49
143
95
32
123
88
25
114
86
23
112
86
21
111
90
25
115
92
27
119
89
24
116
84
19
109
82
20
106
86
24
109
88
29
109
80
22
98
87
31
102
102
47
114
114
59
124
110
58
122
95
43
105
78
26
90
67
19
77
48
9
54
41
7
44
35
1
38
28
0
30
25
0
24
24
1
21
23
0
16
21
0
11
23
0
8
23
1
4
24
0
2
23
0
0
25
0
0
26
0
0
26
2
0
28
4
2
32
7
3
29
4
0
29
1
0
29
1
0
32
3
0
35
6
2
38
4
2
37
3
1
39
4
2
42
4
1
45
5
3
47
7
5
51
10
8
54
13
9
58
14
11
60
15
12
63
12
11
67
13
11
69
15
15
72
18
18
73
19
19
74
20
20
74
20
20
73
19
19
73
17
20
76
20
23
80
24
27
82
26
29
82
26
29
83
27
30
84
27
33
86
29
35
101
42
48
105
46
52
111
52
56
115
56
60
112
56
59
106
50
53
97
43
43
90
39
38
86
35
34
83
33
32
83
35
31
85
37
33
82
37
32
80
35
30
84
39
33
90
45
39
95
52
45
94
51
44
90
50
40
86
46
36
81
43
32
76
38
27
70
33
24
67
30
21
68
30
21
69
31
22
71
31
23
72
32
22
75
33
21
76
34
18
78
35
19
78
35
16
74
32
10
71
29
4
76
30
4
84
37
7
92
42
9
98
44
6
104
46
8
109
50
8
110
49
4
111
49
2
117
53
7
137
71
23
174
103
59
207
132
90
214
137
95
202
126
90
166
97
68
131
66
44
96
37
19
70
18
4
50
6
0
40
3
0
33
4
0
25
0
0
27
0
0
29
0
0
39
3
5
53
8
11
66
11
16
78
15
23
95
25
33
111
33
46
142
49
68
159
60
81
181
82
103
202
103
124
215
115
139
218
118
142
214
114
138
209
109
133
207
107
133
210
110
136
213
113
139
211
111
137
206
106
134
203
103
131
202
102
130
203
103
131
204
103
133
209
108
140
210
109
139
210
109
139
212
112
140
212
112
140
211
113
138
211
116
138
212
119
138
216
128
144
194
106
120
145
62
72
116
35
42
108
31
37
106
29
35
99
27
30
104
32
33
92
22
20
79
11
10
72
7
5
80
15
13
100
35
33
125
55
55
142
68
69
145
65
68
163
76
82
182
89
97
189
92
103
192
87
101
193
87
101
190
79
96
176
67
86
174
70
93
172
69
98
162
56
92
157
50
94
163
56
108
163
64
119
183
92
153
216
134
200
248
173
242
255
190
255
253
184
255
217
147
235
186
115
207
169
98
194
172
100
200
194
124
222
240
171
255
234
169
255
208
143
235
159
99
189
118
62
149
96
44
126
76
30
102
57
17
77
58
22
70
56
24
61
53
27
54
51
27
49
111
71
79
111
71
79
113
71
81
115
71
84
118
71
89
120
71
93
123
70
98
126
69
102
136
76
114
140
77
120
147
81
129
150
81
135
149
78
136
151
80
140
163
91
154
178
103
170
174
99
168
170
97
168
175
102
175
184
110
187
182
109
190
181
107
192
198
125
214
225
152
242
234
163
255
223
154
247
200
131
224
164
97
190
128
63
155
107
42
134
102
37
127
105
39
129
100
31
122
105
36
127
106
39
132
101
34
127
94
29
121
99
35
122
114
52
137
129
68
148
137
79
155
163
106
177
193
138
206
199
144
211
167
112
179
114
61
129
76
20
91
55
4
70
51
8
61
43
6
50
35
0
40
29
0
32
26
0
27
26
1
22
23
0
16
21
0
9
23
0
8
23
0
6
22
0
3
23
0
1
24
0
0
25
1
0
26
2
0
28
4
2
32
7
3
29
4
0
28
0
0
28
0
0
32
3
0
35
4
1
35
4
1
37
3
1
39
4
0
40
5
1
43
5
2
46
6
4
49
10
5
53
12
8
55
14
10
60
15
12
62
13
9
65
14
11
68
17
14
70
19
16
72
21
20
74
20
20
74
20
20
73
19
19
72
16
17
76
20
21
81
25
28
84
28
29
85
29
32
86
30
31
88
32
35
92
33
37
106
47
51
109
50
54
111
52
56
109
53
56
105
49
52
97
43
43
89
35
35
81
30
29
83
33
32
80
32
30
82
34
30
83
38
33
83
38
33
80
37
31
85
42
35
93
50
43
96
53
46
93
53
45
90
50
40
85
47
36
80
42
31
73
37
25
67
30
21
64
27
18
66
29
20
67
31
19
69
31
22
72
32
22
74
34
22
78
36
22
79
37
21
80
39
21
74
33
11
70
28
4
71
27
2
79
32
4
88
39
7
94
41
9
100
46
10
105
50
11
107
49
9
112
53
9
110
49
4
106
42
0
120
53
8
157
86
42
196
123
80
218
144
105
208
137
107
175
108
82
137
75
54
99
43
26
63
15
1
43
3
0
37
4
0
32
4
0
24
0
0
24
0
0
30
0
0
46
6
7
62
13
16
71
16
19
80
19
24
91
20
28
135
48
64
146
52
70
162
65
84
184
87
107
206
107
128
217
118
139
217
117
141
212
112
136
211
111
137
212
112
138
214
114
140
212
114
139
207
107
135
202
102
130
200
100
128
197
98
126
197
98
127
203
104
133
208
109
137
208
109
137
208
109
137
211
113
138
213
115
138
210
112
135
216
121
141
204
113
130
218
127
142
207
121
134
147
64
74
106
25
34
109
29
38
115
40
45
106
34
37
89
21
20
72
6
7
66
0
1
69
5
5
82
17
15
105
37
36
126
54
55
141
61
64
147
62
67
182
89
97
200
103
112
185
81
92
177
71
83
184
74
87
174
66
82
161
58
77
161
57
82
160
52
84
157
48
87
152
45
91
151
48
101
160
65
123
173
87
148
225
146
212
243
170
243
251
178
255
219
146
235
183
112
208
161
89
189
149
76
181
160
89
191
183
113
209
217
151
241
225
160
252
181
118
209
130
72
159
104
51
133
85
38
110
65
23
86
61
23
74
58
26
67
56
27
58
54
28
55
104
63
69
105
64
70
106
64
74
106
64
76
108
64
81
110
63
83
111
61
86
113
60
88
128
73
105
137
80
115
147
86
127
150
87
132
150
83
134
153
84
139
160
91
148
169
97
160
169
96
165
171
98
169
179
106
179
187
115
189
187
115
191
187
114
193
201
128
209
220
148
230
227
155
239
216
146
232
198
128
214
178
110
197
164
96
183
161
93
180
169
101
188
178
108
196
179
107
193
180
107
196
166
96
185
148
79
168
148
82
170
174
110
196
201
140
220
214
153
230
218
161
230
241
186
251
255
204
255
238
183
248
163
108
176
93
37
110
74
16
93
62
8
83
77
33
94
61
23
74
47
12
54
39
8
42
33
3
29
25
0
15
20
0
9
22
0
7
20
0
6
20
0
6
20
0
4
21
0
4
22
0
2
24
3
2
26
5
2
29
5
1
30
5
1
32
4
1
33
4
0
34
5
1
35
4
1
36
5
2
36
5
2
38
4
2
40
5
1
41
6
2
42
7
3
45
7
4
47
9
6
50
10
8
51
11
9
53
12
8
59
14
9
58
10
6
59
10
6
64
15
11
68
19
15
68
17
14
69
18
15
70
19
16
72
18
16
79
25
23
87
31
32
90
34
33
90
31
33
87
29
28
86
27
29
87
28
30
87
28
30
81
25
26
79
23
24
80
24
25
84
30
30
86
35
32
87
36
33
85
36
32
97
49
45
92
47
42
88
43
38
84
41
35
85
42
35
87
47
39
92
52
44
95
55
47
91
51
41
92
52
42
90
50
40
85
47
36
78
42
30
72
38
26
70
36
24
70
36
24
74
40
28
74
41
26
75
39
27
74
38
24
74
36
23
74
34
22
73
34
19
75
33
17
74
33
13
72
30
8
71
26
3
70
24
0
74
27
1
83
33
6
91
40
9
99
46
12
100
46
10
104
48
11
108
50
12
108
49
9
111
49
8
117
55
14
129
66
23
139
74
34
180
112
77
188
119
88
182
117
89
153
93
69
105
53
32
66
20
4
46
8
0
40
10
0
35
8
0
28
4
0
27
0
0
31
0
0
44
5
0
58
13
10
69
18
17
79
17
20
116
39
47
138
50
64
159
68
83
168
75
93
178
81
100
199
102
121
217
118
139
215
116
137
213
115
138
215
117
140
215
117
142
210
115
139
211
112
140
209
110
138
203
104
132
193
97
124
195
103
126
197
105
128
200
108
131
204
110
134
208
113
137
210
112
135
210
112
135
211
111
135
217
119
142
206
111
131
210
115
135
220
129
147
207
118
136
167
80
97
129
45
61
111
31
44
107
34
41
88
19
22
70
4
6
83
17
19
77
13
14
71
5
6
105
37
38
121
49
52
142
62
65
142
57
62
153
61
66
169
72
79
179
78
86
175
69
79
163
56
66
155
47
60
149
42
58
155
49
69
163
55
79
163
56
86
157
51
91
151
48
93
150
52
103
148
58
112
172
88
148
228
149
215
239
162
240
201
127
216
180
105
206
168
95
202
153
81
191
148
76
184
155
85
184
163
93
189
216
149
244
208
143
235
151
91
177
129
74
155
104
54
127
75
30
95
63
22
78
62
24
73
60
25
67
57
25
64
98
57
61
99
58
64
99
59
67
101
61
70
103
61
75
104
61
78
106
61
81
109
61
83
123
73
98
132
79
109
141
86
118
146
88
128
147
86
130
148
84
134
154
87
141
159
89
149
165
93
159
167
94
165
176
103
174
185
113
186
188
116
189
189
117
191
202
130
206
218
145
224
215
142
221
208
137
217
198
126
208
186
117
200
181
112
195
183
114
197
190
120
206
198
126
210
197
123
208
198
124
209
195
122
211
192
122
210
196
128
215
204
141
222
210
147
226
209
149
221
223
167
232
243
189
251
255
202
255
223
169
231
148
91
160
92
34
108
80
21
101
74
20
96
79
35
98
60
21
74
44
7
51
36
2
37
31
1
25
28
0
17
25
0
10
24
1
9
23
0
8
21
0
7
21
0
7
21
0
5
23
1
4
24
3
2
26
5
2
29
5
1
30
5
1
32
4
1
33
4
0
34
5
1
35
4
1
36
5
2
36
5
2
36
5
2
39
4
0
40
5
1
41
6
2
43
8
4
47
9
6
49
11
8
51
11
9
53
12
8
56
12
9
54
9
4
56
8
4
62
14
10
67
18
14
67
18
14
68
17
14
70
19
16
81
27
25
87
33
31
95
39
38
97
41
40
94
36
35
89
31
30
87
27
27
85
27
26
87
31
32
87
31
32
87
31
32
88
34
34
88
37
34
89
38
35
88
39
35
86
38
34
91
46
41
91
46
41
90
47
41
91
48
42
91
51
43
94
54
46
96
58
49
97
59
50
90
50
40
90
50
40
88
50
39
84
48
36
79
43
31
74
40
28
72
40
27
73
41
28
75
43
28
74
42
27
74
41
26
72
39
24
74
36
23
74
36
23
75
35
23
75
36
21
76
35
17
74
31
12
72
27
8
69
24
3
72
26
3
77
31
7
84
37
9
91
42
12
95
45
12
100
47
13
102
48
12
101
45
8
99
44
5
103
45
5
109
51
11
118
56
17
133
67
32
149
80
47
157
92
62
147
86
58
118
64
40
87
39
19
65
26
9
55
23
8
35
9
0
29
7
0
27
3
0
30
3
0
39
6
0
51
12
5
62
17
12
73
17
16
94
23
29
120
40
49
146
62
75
157
69
83
165
73
88
186
92
108
209
112
131
215
118
138
210
112
135
214
116
139
216
118
143
212
117
141
209
113
140
207
111
138
205
106
134
197
101
128
194
105
127
194
105
125
195
106
126
199
107
128
201
108
129
205
110
132
208
110
133
210
110
134
212
112
136
213
115
138
207
112
134
204
111
132
211
119
140
209
120
140
180
91
111
138
55
71
114
41
50
81
12
17
84
15
20
93
27
31
88
22
24
75
9
11
97
27
29
118
43
47
135
55
58
133
48
53
138
47
52
153
56
63
165
64
70
167
63
70
165
60
67
163
57
67
149
43
55
152
45
61
157
50
70
161
54
80
159
54
87
157
52
93
153
54
100
153
59
109
173
86
141
235
153
217
252
174
250
211
137
226
179
104
207
161
88
196
146
74
186
141
69
179
142
69
174
142
72
170
189
122
217
216
151
243
200
138
224
158
101
182
108
56
130
93
46
114
74
30
91
69
29
82
64
26
75
59
23
67
84
48
50
84
48
50
85
49
53
86
49
56
90
50
59
92
52
63
94
52
66
95
52
69
110
65
85
119
71
93
129
79
108
136
82
116
138
81
122
138
79
125
139
77
128
142
74
133
152
80
146
155
82
151
165
92
161
177
104
175
184
111
182
187
114
187
198
124
199
210
138
214
195
123
199
192
119
198
188
115
196
186
114
196
189
117
199
193
121
203
195
123
207
197
125
207
191
118
200
190
117
199
192
120
204
200
130
216
206
138
223
205
142
221
208
146
223
212
152
222
235
179
244
250
194
255
254
200
255
205
151
213
131
74
143
92
34
108
88
29
109
88
34
110
76
30
94
58
19
72
43
6
50
36
2
37
34
4
28
32
3
21
28
2
13
24
1
9
26
3
11
25
2
10
24
1
9
23
0
6
24
2
5
25
4
3
28
4
2
29
5
1
30
5
1
32
4
1
33
3
1
34
4
2
35
4
1
36
5
2
36
5
2
36
5
2
38
3
1
39
4
2
40
5
1
42
7
3
46
8
5
48
10
7
51
11
9
53
12
8
54
10
7
51
6
1
54
6
2
60
12
8
66
17
13
66
17
13
68
17
14
70
19
16
82
28
26
89
35
33
97
41
40
100
44
43
98
40
39
94
36
35
92
34
33
92
34
33
93
37
38
95
39
40
97
43
43
98
44
44
94
43
40
92
41
38
90
41
37
89
41
37
87
42
37
90
45
40
95
52
46
100
57
51
101
61
53
100
62
53
99
61
52
97
59
50
86
46
36
88
48
38
87
49
38
84
48
36
81
45
33
77
43
31
76
44
31
77
45
32
78
46
31
76
44
29
75
42
27
72
39
24
74
36
23
74
36
23
76
36
24
77
38
23
78
36
20
75
34
14
71
28
9
68
26
4
70
25
4
73
27
4
78
31
5
83
33
6
88
39
9
93
42
11
98
45
11
100
46
10
98
44
8
99
43
6
102
46
9
108
48
11
105
41
6
114
49
17
123
59
31
122
62
36
109
55
31
89
42
22
73
31
15
60
27
12
37
9
0
33
10
0
31
7
0
32
5
0
37
4
0
46
7
2
57
12
7
68
14
12
75
9
13
97
24
31
121
44
52
134
53
62
146
58
72
170
78
93
194
100
118
207
110
130
202
104
127
212
112
136
217
117
143
214
116
141
210
112
137
208
110
135
206
107
135
201
105
132
197
105
128
194
105
127
194
102
125
195
101
125
197
102
126
200
105
129
204
106
131
206
108
133
203
105
130
207
109
134
205
110
134
204
109
133
212
118
142
220
128
151
210
121
143
191
106
125
140
64
74
84
13
19
92
21
27
105
36
41
102
33
36
87
18
21
90
20
22
110
35
39
128
48
51
128
43
48
133
42
47
143
48
54
154
55
60
163
59
66
170
65
72
175
69
79
159
53
65
154
49
63
154
49
66
161
55
77
164
59
89
161
57
94
157
56
98
155
59
107
176
87
141
226
142
204
240
162
238
210
134
222
185
108
210
171
98
206
156
84
196
147
75
183
130
59
161
128
58
156
145
78
173
178
115
204
214
155
239
198
144
222
134
82
156
97
50
118
83
39
100
76
36
89
67
29
78
61
23
70
76
44
45
75
43
44
75
43
46
75
43
46
78
43
49
79
44
50
81
44
52
82
45
53
95
54
68
102
59
76
111
66
89
121
72
102
127
72
111
126
71
113
125
67
115
126
63
118
139
69
132
145
70
137
154
82
148
168
95
164
177
104
173
183
110
181
193
120
193
203
129
204
187
115
189
184
112
188
183
110
189
186
113
192
189
118
198
191
120
200
187
116
196
183
112
192
186
113
192
183
112
190
189
120
201
201
134
214
204
137
217
200
138
215
210
148
221
224
165
233
251
195
255
255
202
255
255
202
255
199
145
207
129
72
141
100
42
116
95
36
116
93
39
115
66
20
84
57
17
70
50
11
56
44
8
44
40
7
34
34
5
23
30
2
16
26
0
9
32
6
15
28
5
13
27
4
12
26
3
9
25
3
6
26
5
4
29
5
3
29
5
1
32
4
1
32
4
1
33
3
1
34
4
2
35
4
1
36
5
2
36
5
2
36
5
2
37
2
0
38
3
1
40
5
1
42
7
3
46
8
5
48
10
7
51
11
9
53
12
8
52
8
5
50
5
0
53
5
1
59
11
7
65
16
12
65
16
12
67
16
13
69
18
15
80
26
24
85
31
29
92
36
35
94
38
37
95
37
36
94
36
35
96
38
37
96
40
39
100
44
45
102
48
48
104
50
50
100
49
48
95
44
41
90
41
37
89
41
37
90
42
38
87
42
37
92
49
43
100
57
51
105
64
58
105
67
58
101
63
54
95
57
48
90
52
43
83
43
33
84
46
35
85
47
36
83
47
35
81
45
33
78
44
32
80
46
34
80
48
35
79
47
32
77
45
30
74
41
26
74
38
24
72
36
22
73
35
22
75
35
23
76
37
22
80
38
22
77
36
18
72
31
13
69
26
7
67
24
5
69
24
3
72
26
3
74
27
1
79
32
6
86
37
7
93
42
11
96
46
13
98
45
11
98
45
11
101
47
11
103
47
12
106
46
12
106
45
14
105
45
17
103
45
21
96
44
22
84
37
17
68
26
10
54
21
6
40
12
0
37
14
0
35
11
0
34
7
0
36
3
0
41
4
0
52
9
3
61
12
8
69
9
11
79
13
17
93
22
28
106
31
38
124
42
54
148
62
75
172
81
98
184
91
109
191
94
114
204
104
128
213
113
139
212
112
138
207
107
133
204
106
131
204
105
133
202
106
133
197
103
127
196
104
127
195
101
125
195
101
125
196
101
125
197
102
126
200
102
127
201
103
128
200
102
127
199
101
126
201
106
130
207
112
136
206
111
135
203
109
133
210
118
141
220
133
152
178
98
109
105
30
37
88
15
22
111
40
46
112
41
45
104
33
37
93
21
24
97
21
25
118
38
41
128
43
48
141
50
55
149
54
60
153
54
59
156
55
61
165
61
68
172
68
75
171
67
76
160
56
67
156
51
66
163
57
77
167
63
88
164
61
91
158
58
96
155
58
103
165
75
126
192
106
167
214
132
208
216
137
226
211
134
236
196
120
228
168
94
205
145
73
181
132
62
161
128
61
156
121
56
148
130
67
156
179
120
204
212
158
236
172
120
194
107
60
128
93
49
110
86
45
101
77
39
88
70
32
79
77
47
47
76
46
46
75
45
45
74
44
44
74
44
44
75
45
45
78
46
49
79
47
50
85
50
57
91
53
64
100
59
77
107
63
88
114
65
97
117
67
105
119
66
110
123
65
116
139
69
129
147
72
137
155
83
147
167
95
161
176
104
170
183
110
179
192
119
188
200
127
198
193
120
193
191
117
192
190
118
192
194
122
198
201
128
207
202
129
208
197
124
203
191
119
195
196
126
199
191
121
194
191
123
200
199
132
209
204
137
216
206
144
219
224
163
233
244
185
253
255
202
255
255
204
255
255
202
255
208
152
215
144
87
156
114
56
130
100
39
119
90
33
110
64
15
81
60
19
75
56
17
64
48
12
50
39
6
33
33
4
22
33
5
19
33
7
18
36
10
21
34
8
19
30
7
17
28
5
13
29
4
10
29
4
7
29
5
5
29
5
3
32
4
1
32
4
1
33
3
1
34
4
2
35
4
2
36
5
3
36
5
2
36
5
2
37
2
0
38
3
1
40
5
3
43
8
6
47
9
6
50
12
9
53
13
11
55
14
10
52
8
5
50
5
0
50
5
0
56
11
6
63
15
11
63
15
11
65
16
12
67
18
14
76
25
22
79
28
25
84
30
28
85
31
29
84
28
27
85
29
28
90
34
33
95
39
38
104
50
50
103
52
51
102
51
50
97
46
45
92
41
38
88
39
35
88
40
36
90
42
38
91
46
41
95
52
46
103
60
54
105
64
58
103
65
56
96
58
49
87
49
40
80
42
33
82
44
33
84
46
35
85
47
36
84
48
36
82
46
34
79
45
33
81
47
35
82
48
36
79
46
31
77
44
29
77
41
27
74
38
24
72
36
22
72
36
22
73
35
22
73
35
22
78
39
24
75
36
21
71
32
17
70
28
12
67
26
8
66
23
4
66
24
2
68
23
0
73
27
4
78
31
5
84
37
9
90
41
11
92
41
10
93
42
11
94
43
12
97
44
12
104
49
18
104
47
17
104
48
21
106
52
28
102
51
30
89
42
24
68
26
10
51
15
1
44
15
1
42
16
3
40
13
2
37
9
0
35
5
0
38
3
0
46
7
2
55
10
7
65
14
13
70
11
13
72
12
14
83
17
21
99
26
35
118
41
51
141
57
72
160
72
88
174
79
99
191
92
113
204
104
128
205
105
129
202
102
128
202
102
128
203
105
130
204
106
131
199
103
130
198
104
130
200
104
131
200
104
131
201
102
130
199
100
128
197
98
126
196
97
125
202
103
131
199
100
128
198
99
127
198
102
129
201
105
132
204
108
135
207
113
139
209
117
138
206
122
135
138
58
67
88
11
19
117
42
49
120
48
52
125
53
57
106
31
35
82
6
10
103
23
26
125
40
45
149
58
63
158
63
69
153
57
61
148
49
54
149
48
54
152
51
57
166
65
71
156
55
63
151
49
60
155
53
67
164
58
80
163
59
86
158
57
91
155
57
98
157
64
111
164
76
136
194
110
185
224
144
231
220
142
243
189
113
221
156
83
191
137
66
172
134
67
164
130
63
156
129
64
154
125
63
149
140
81
163
189
135
211
192
140
212
123
77
142
102
58
119
95
54
110
88
50
101
84
46
95
71
43
42
68
42
41
69
41
40
68
42
41
72
44
41
75
47
44
79
51
50
82
52
52
86
55
60
90
57
64
95
57
72
100
58
78
104
59
88
111
65
101
120
72
112
132
76
125
148
80
137
156
84
147
164
92
155
169
99
162
173
101
165
177
106
172
187
115
181
194
123
191
190
117
188
187
116
186
188
116
189
194
122
195
204
132
206
209
139
212
210
138
212
207
137
210
191
121
193
184
117
188
185
117
190
194
128
200
207
143
217
223
159
233
239
178
247
252
193
255
251
192
255
251
195
255
254
198
255
224
168
231
167
110
179
125
67
141
101
40
120
84
27
104
69
20
86
68
24
83
62
20
70
47
9
50
35
0
30
34
2
23
40
9
25
43
15
27
40
12
24
38
12
23
35
9
20
30
7
15
30
5
11
30
5
8
29
5
5
30
4
3
32
4
1
32
4
1
33
3
1
34
4
2
35
4
2
36
5
3
36
5
2
36
5
2
38
3
1
39
4
2
41
6
4
44
9
7
49
11
8
52
14
11
55
15
13
57
16
12
54
10
7
52
7
2
52
7
2
57
12
7
63
15
11
63
15
11
64
15
11
66
17
13
67
16
13
71
20
17
77
23
21
78
24
22
79
25
23
83
27
26
90
34
33
94
40
38
100
49
48
99
48
47
97
46
45
92
42
41
89
40
36
87
39
35
89
41
37
89
44
39
95
52
46
95
54
48
99
58
52
100
59
53
96
58
49
90
52
43
82
44
35
77
39
30
87
49
38
89
51
40
89
53
41
87
51
39
85
49
37
84
48
36
83
49
37
84
50
38
79
46
31
78
45
30
79
43
29
77
41
27
75
39
25
73
37
23
73
35
22
72
34
21
75
37
24
74
36
23
72
32
20
69
30
15
67
28
11
67
26
8
65
24
6
66
23
4
70
25
4
72
27
4
77
31
7
81
35
11
86
39
13
90
43
15
93
46
18
97
47
20
99
48
19
100
46
18
99
48
21
100
50
27
97
49
27
85
40
21
65
26
9
50
14
0
48
19
5
46
18
6
42
15
4
39
11
0
38
8
0
40
7
0
45
8
2
50
9
5
60
15
12
64
14
13
67
13
13
72
13
15
79
17
22
90
20
28
114
36
49
140
56
71
154
63
81
172
77
97
191
91
115
197
97
121
199
99
125
203
103
129
207
107
133
208
110
135
206
107
135
204
108
135
205
109
136
205
109
136
205
106
134
202
103
131
198
99
127
196
97
125
203
104
132
201
102
130
200
101
129
202
103
131
205
109
136
207
111
138
206
110
137
202
109
130
213
126
142
170
89
98
106
26
35
118
41
49
125
50
55
138
63
68
124
48
52
82
3
8
94
14
17
121
36
41
149
60
64
159
67
72
155
60
64
146
50
54
142
43
48
140
41
46
147
48
53
145
46
51
142
42
50
144
42
53
151
46
63
155
52
73
158
55
84
155
55
91
154
58
104
155
64
123
196
108
182
232
149
237
210
130
229
159
84
189
133
60
167
130
59
163
128
61
156
126
61
151
136
72
159
133
71
156
125
66
146
172
118
194
195
143
215
121
75
140
104
58
120
98
55
111
90
50
102
86
48
97
57
32
28
56
32
28
59
34
30
62
38
34
70
44
43
77
51
50
85
59
58
89
63
62
92
63
67
93
62
68
92
59
70
91
54
72
92
52
78
104
60
93
121
75
112
137
86
129
150
87
142
160
90
150
164
94
154
161
93
154
158
88
150
159
90
153
168
98
161
175
106
171
173
102
168
170
101
168
170
100
170
175
105
175
185
115
187
193
126
197
201
131
203
201
134
205
187
120
187
195
130
196
205
140
208
213
150
220
224
161
232
234
171
241
235
174
243
230
171
237
227
168
232
233
175
236
248
189
253
240
181
247
188
128
200
131
70
147
102
41
121
83
25
102
76
25
94
73
27
89
65
21
74
49
8
50
37
0
31
38
5
26
43
12
28
46
18
32
43
15
29
40
14
27
37
11
22
34
8
17
33
6
13
31
5
8
31
5
6
31
5
4
32
4
1
32
4
1
33
3
1
34
4
2
35
4
2
36
5
3
36
5
3
36
5
3
40
5
3
41
6
4
43
8
6
46
11
9
51
13
12
54
16
15
57
17
15
59
18
14
57
13
10
54
11
5
54
9
4
59
14
9
62
17
12
61
16
11
62
14
10
64
16
12
60
11
7
66
17
13
74
23
20
78
27
24
79
28
25
84
30
28
88
34
32
92
38
36
92
41
40
90
40
39
89
39
38
89
41
39
91
43
39
93
45
41
93
45
41
91
46
41
96
53
47
94
53
47
95
54
48
93
54
47
91
53
44
88
50
41
84
47
38
82
45
36
95
59
47
96
60
48
96
60
48
93
57
45
90
54
42
88
52
40
88
52
40
89
53
41
82
46
32
83
47
33
84
48
34
83
47
33
81
45
31
77
41
27
74
38
24
71
35
21
72
36
24
71
35
23
72
34
23
70
32
19
68
30
17
67
28
13
66
27
12
67
25
9
68
27
9
68
25
6
70
25
4
72
27
6
77
32
9
83
38
15
89
43
20
92
46
22
93
46
20
91
44
18
88
40
17
85
39
16
80
35
14
72
29
10
60
21
4
52
16
0
54
22
9
47
19
7
42
15
4
39
12
1
40
11
3
41
11
3
44
11
4
46
9
3
54
13
9
57
13
10
58
13
10
66
16
15
73
18
21
76
15
20
94
24
32
119
43
53
133
49
64
155
64
81
175
80
100
191
92
113
200
100
124
209
109
133
215
115
139
217
117
143
215
115
143
213
114
142
212
113
141
209
110
138
207
108
136
204
105
133
202
103
131
200
101
129
203
104
132
204
105
133
208
109
137
213
114
142
213
114
142
209
110
138
208
109
137
209
114
136
206
118
134
193
110
120
139
58
67
110
30
39
117
42
47
136
61
66
143
67
71
101
22
27
89
9
12
109
27
31
133
47
50
146
55
60
149
57
60
149
54
58
143
48
52
137
41
45
132
36
38
137
41
43
140
41
44
134
35
40
137
35
46
147
44
61
156
52
77
154
53
85
147
48
92
146
53
108
196
106
178
240
154
241
211
131
228
155
78
182
128
55
160
124
53
155
127
60
153
129
65
151
132
68
154
128
69
151
124
67
144
167
113
188
196
145
214
133
87
151
108
63
122
99
56
110
88
48
100
85
45
95
50
26
22
52
28
24
56
32
30
63
39
37
73
49
49
85
61
61
95
70
73
101
76
79
96
67
72
95
65
73
91
57
71
83
49
66
84
44
70
96
55
85
118
74
109
137
89
131
145
85
137
154
89
147
155
90
148
148
83
141
138
72
133
137
71
132
145
79
141
153
87
149
159
93
157
156
90
154
153
86
153
155
88
155
161
96
164
171
106
174
180
115
183
185
120
188
210
145
209
225
163
226
234
172
237
227
165
232
220
157
227
219
156
226
212
151
218
202
141
208
206
147
211
218
159
223
240
181
245
248
189
255
198
138
210
132
71
148
102
41
121
84
25
105
78
25
97
76
28
90
69
22
76
53
10
55
44
4
38
43
8
32
45
12
31
44
13
28
47
16
31
43
15
29
40
12
26
36
9
18
33
6
13
32
6
9
31
5
6
31
5
4
32
4
1
32
4
1
33
3
1
34
4
2
35
4
2
36
5
3
36
5
3
36
5
3
41
6
4
42
7
5
44
9
7
47
12
10
52
14
13
55
17
16
58
18
16
59
19
17
60
16
13
55
12
6
56
11
6
60
15
10
62
17
12
60
15
10
62
14
10
63
15
11
62
13
9
70
21
17
78
29
25
84
33
30
83
32
29
81
30
27
81
30
27
83
32
29
84
34
33
82
34
32
84
36
34
90
42
40
96
48
44
96
51
46
95
50
45
91
48
42
94
53
47
93
52
46
90
51
44
89
50
43
88
50
41
89
51
42
88
51
42
89
52
43
101
65
53
102
66
54
101
65
53
98
62
50
94
58
46
91
55
43
90
54
42
91
55
43
84
48
34
86
50
36
87
51
37
88
52
38
85
49
35
81
45
31
76
40
26
72
36
22
70
33
24
71
34
25
71
35
23
70
34
22
70
32
21
68
30
17
66
28
15
66
27
12
69
30
13
65
27
8
63
22
4
60
19
1
62
21
1
66
25
5
72
29
10
75
33
11
86
41
18
86
42
17
84
39
16
82
37
16
75
32
13
68
27
9
60
23
5
56
20
4
56
24
9
49
20
6
43
15
3
40
13
2
42
13
5
43
14
6
43
13
5
43
10
3
51
14
8
49
10
5
50
9
5
62
18
15
74
26
26
74
22
24
82
21
26
103
33
41
118
42
54
140
56
71
166
75
93
184
89
109
201
102
123
214
114
138
222
122
146
224
124
148
221
121
147
219
119
147
214
115
143
210
111
139
207
108
136
205
106
134
205
106
134
205
106
134
205
106
134
210
111
139
213
114
142
213
114
142
215
116
144
217
118
146
215
115
143
205
110
132
201
110
125
205
122
132
165
84
93
99
19
28
107
30
36
129
54
59
156
81
85
122
46
50
81
2
5
94
14
17
111
26
29
126
37
41
137
47
49
144
54
56
142
50
53
134
42
45
126
34
35
139
45
45
141
45
46
133
34
37
130
30
38
142
40
53
153
50
71
154
51
80
150
52
91
142
45
98
183
92
162
232
144
228
214
133
228
170
93
195
146
74
176
134
66
165
136
72
159
136
74
157
128
67
147
130
72
149
128
72
147
157
105
177
197
148
214
171
125
189
117
73
132
107
64
118
94
54
106
88
48
98
53
27
26
53
27
26
67
43
43
78
53
56
80
55
59
94
69
75
105
79
88
97
71
82
97
67
79
85
54
69
80
46
63
82
47
69
84
44
71
85
44
74
101
57
92
121
73
113
149
92
143
154
93
150
155
94
151
140
79
136
118
57
116
114
53
112
131
70
130
145
84
144
141
79
142
143
81
144
143
81
144
147
85
148
154
92
157
161
99
164
186
124
189
219
157
222
221
159
222
223
163
225
222
162
226
210
149
216
191
130
199
181
120
189
182
121
190
187
126
193
200
139
206
206
145
212
223
162
231
233
172
242
211
149
224
161
98
177
109
47
130
76
17
97
84
31
103
73
22
88
61
12
68
53
7
53
50
8
44
50
11
38
48
13
35
46
13
30
41
10
26
37
6
21
36
5
20
36
6
18
34
4
14
31
2
7
32
3
5
36
8
7
33
5
4
32
4
3
32
2
0
32
2
0
34
3
1
35
4
2
37
6
4
38
7
5
41
5
5
43
7
7
45
10
8
48
13
11
54
16
15
57
19
18
61
21
21
62
22
20
62
18
15
60
16
13
58
14
11
59
15
12
63
18
15
64
19
16
64
19
16
62
17
14
67
19
17
73
25
23
80
32
30
86
36
35
86
36
35
83
33
32
80
30
29
79
29
28
81
33
31
74
29
26
75
30
27
85
40
37
96
51
46
96
53
47
92
49
43
87
46
40
77
36
30
80
39
33
84
45
38
90
51
44
95
58
49
99
62
53
100
63
54
100
63
54
106
70
58
105
69
57
102
66
54
96
60
48
90
54
42
87
51
39
88
52
40
91
55
43
87
51
37
88
52
38
90
54
40
89
53
39
87
51
37
83
47
33
78
42
28
75
39
25
73
39
29
73
39
29
73
39
29
72
38
26
71
35
23
67
31
17
63
27
13
62
24
11
67
30
14
65
28
12
64
25
10
62
23
6
60
21
4
59
20
3
60
22
3
60
22
3
70
32
11
71
33
10
74
33
13
74
33
13
71
33
14
69
32
13
65
30
11
62
29
12
51
19
4
49
20
6
47
19
7
46
18
7
44
17
8
44
15
7
43
14
8
43
12
7
45
10
4
52
15
9
58
21
15
59
20
15
58
17
13
61
16
13
71
19
21
83
24
28
107
37
45
120
44
54
139
55
70
162
71
88
185
91
109
208
111
131
223
124
145
230
130
154
226
126
152
229
129
155
225
127
152
213
115
140
205
107
132
206
108
133
208
110
135
208
110
135
210
112
137
211
113
138
214
116
141
218
120
145
220
122
147
218
120
145
213
113
139
206
111
133
201
110
125
204
121
131
171
90
99
105
28
36
96
21
26
105
33
37
128
56
59
143
68
72
100
24
26
90
11
14
88
6
8
103
18
21
121
35
36
131
45
46
135
46
48
135
46
48
125
35
35
126
35
34
127
36
35
133
39
39
142
43
48
147
47
57
147
46
62
144
44
70
152
52
88
143
47
95
162
70
137
201
112
194
206
122
216
171
93
194
145
73
175
145
78
175
141
77
163
140
79
157
134
73
150
133
75
149
135
79
150
132
81
148
159
110
175
203
157
219
175
132
188
123
80
134
90
50
102
93
53
103
64
38
39
72
46
49
90
63
70
92
66
75
85
59
72
93
66
81
104
77
94
100
71
91
93
61
82
84
52
75
79
43
69
76
40
68
75
34
66
72
31
65
81
37
72
93
46
88
129
75
125
151
94
149
169
112
167
155
98
153
115
57
115
94
36
94
108
50
109
128
70
129
134
76
137
140
82
143
140
82
143
133
75
136
150
91
155
200
141
205
219
160
224
195
136
200
195
137
198
207
147
209
212
152
216
202
141
208
184
123
192
173
112
182
174
113
183
178
117
187
194
133
202
202
141
210
215
154
224
229
167
240
221
159
236
176
113
192
117
55
138
83
21
104
86
30
105
75
23
89
63
12
71
55
7
55
53
8
47
52
11
41
52
14
39
49
14
34
43
10
29
38
7
23
36
5
21
37
7
19
35
5
15
32
3
8
32
3
5
36
8
7
33
5
4
33
5
4
33
3
1
32
2
0
34
3
1
35
4
2
37
6
4
38
7
5
41
5
5
42
6
6
45
10
8
47
12
10
52
14
13
55
17
16
58
18
18
59
19
17
61
17
16
60
16
13
59
15
12
61
17
14
64
19
16
65
20
17
63
18
15
61
16
13
67
19
17
73
25
23
80
32
30
84
36
34
84
36
34
81
33
31
81
31
30
79
31
29
78
33
30
73
28
25
75
30
27
84
40
37
93
50
44
92
51
45
88
47
41
86
45
39
83
42
36
84
45
38
88
49
42
94
55
48
97
60
51
100
63
54
102
65
56
102
65
56
106
70
58
102
66
54
96
60
48
89
53
41
85
49
37
85
49
37
88
52
40
92
56
44
91
55
41
91
55
41
91
55
41
89
53
39
86
50
36
82
46
32
78
42
28
75
39
25
75
41
29
75
41
31
74
40
30
73
39
29
72
36
24
69
33
21
65
29
15
63
27
13
64
28
14
63
27
13
60
24
8
58
22
6
57
20
4
55
19
3
56
19
3
55
20
1
58
23
3
59
24
4
60
23
4
61
24
5
59
24
5
57
22
3
53
20
1
51
20
0
47
18
0
46
19
2
45
17
3
44
16
4
43
16
7
42
15
6
42
13
7
42
13
7
46
13
6
49
14
8
53
18
12
57
22
16
61
24
18
62
23
18
65
19
19
67
15
17
86
25
30
99
29
37
118
42
54
143
59
74
163
75
91
182
89
107
205
111
129
226
129
149
229
131
154
232
134
159
228
130
155
217
119
144
208
110
135
206
108
133
206
108
133
205
107
132
209
111
136
209
111
136
209
111
136
210
112
137
211
113
138
208
110
135
202
104
129
196
101
123
186
98
112
193
112
121
159
79
88
95
20
27
84
12
16
92
21
25
115
45
47
136
64
67
115
41
42
103
27
29
94
16
16
97
17
18
107
26
25
115
34
33
122
38
38
127
41
42
120
32
31
121
31
30
124
34
33
130
39
38
139
43
45
142
45
52
142
44
57
140
41
62
139
42
73
136
40
86
146
54
117
171
83
161
179
96
188
166
88
187
151
79
179
148
81
176
144
81
162
140
82
156
131
74
145
127
71
142
127
74
142
124
73
139
138
90
152
168
123
182
191
148
202
146
103
156
105
65
115
98
58
108
63
33
41
85
58
67
106
78
92
95
66
84
70
41
63
67
37
61
80
50
78
85
54
85
90
57
88
86
52
85
82
45
79
77
40
74
76
34
72
73
31
69
74
29
68
75
28
72
95
45
96
129
76
132
163
110
166
153
100
156
105
51
109
78
24
82
96
42
102
126
72
132
132
76
137
130
74
135
126
70
133
141
85
148
179
123
186
203
147
210
182
126
191
145
89
152
165
109
172
186
127
191
197
138
204
187
128
196
172
111
181
164
102
175
166
102
176
171
107
181
190
126
200
202
138
212
211
147
223
227
163
241
234
171
250
196
133
214
131
67
153
92
30
113
89
31
108
79
24
92
67
13
75
58
8
59
56
11
50
55
14
44
55
17
42
52
17
37
44
11
30
40
7
24
36
5
21
37
6
21
36
6
16
33
4
9
33
4
8
36
7
9
34
6
5
33
5
4
33
3
3
33
3
3
34
3
1
35
4
2
37
6
4
38
7
5
41
5
5
42
6
6
44
8
8
46
10
10
50
12
11
52
14
13
54
14
14
55
15
13
59
15
14
60
16
13
61
17
14
63
19
16
65
21
18
65
21
18
62
18
15
59
15
12
66
21
18
70
25
22
76
31
28
79
34
31
80
35
32
79
34
31
81
33
31
79
34
31
79
34
31
73
29
26
75
31
28
84
40
37
92
49
43
90
49
43
87
46
40
83
44
37
89
50
43
91
52
45
95
56
49
97
60
52
99
62
53
101
64
55
100
66
56
101
67
57
103
69
57
96
62
50
89
53
41
82
46
34
81
45
33
85
49
37
91
53
42
94
56
45
95
57
44
94
56
43
91
55
41
89
53
39
86
50
36
82
46
32
77
44
29
76
43
28
78
44
32
77
43
31
77
43
31
75
41
29
73
39
27
70
36
24
67
33
21
65
31
19
64
31
16
62
29
14
59
26
11
57
24
9
56
20
6
53
20
5
55
19
5
53
20
3
48
15
0
48
15
0
49
16
0
49
16
0
48
15
0
45
14
0
44
13
0
41
13
0
44
15
0
43
16
0
43
15
1
42
16
3
41
14
5
41
14
5
41
14
7
42
13
7
47
14
7
48
15
8
51
18
11
54
21
14
57
24
17
57
22
16
57
18
13
58
13
10
73
21
23
78
17
22
95
25
33
119
43
53
139
57
69
155
69
82
182
91
106
206
113
131
226
131
153
229
134
156
228
133
155
219
124
146
212
114
137
208
110
133
207
109
132
206
108
131
205
107
130
204
106
129
204
106
129
204
106
129
200
105
127
194
99
121
187
92
114
180
87
106
167
83
96
176
96
105
143
66
74
86
13
20
77
6
10
80
11
14
96
28
29
118
50
51
121
51
51
110
38
39
100
26
25
97
21
21
100
22
20
102
24
22
106
26
25
110
29
28
111
25
24
116
28
26
121
33
31
128
38
37
134
42
43
138
43
49
136
40
51
134
37
56
126
30
58
125
30
72
129
38
97
141
53
129
154
71
161
159
82
178
156
84
183
150
83
176
148
87
164
144
87
156
132
75
143
122
67
134
120
68
132
115
65
126
116
68
126
127
82
137
173
130
183
169
127
177
144
102
152
121
79
127
59
28
43
84
53
69
98
69
89
81
51
75
56
25
56
52
21
55
64
32
71
71
39
78
84
49
91
89
52
95
90
51
95
83
44
88
80
37
82
77
34
77
74
28
74
69
23
70
85
37
89
113
64
119
147
98
154
144
95
151
107
56
113
80
30
89
94
43
102
117
66
125
126
75
134
121
69
131
139
85
147
184
130
192
207
153
215
174
119
184
134
79
144
127
72
137
149
93
158
169
113
178
178
119
187
167
107
177
155
93
166
153
91
166
161
97
175
172
108
186
196
132
210
209
145
223
213
148
228
226
161
241
242
177
255
211
147
231
146
82
169
103
39
125
94
33
113
83
26
97
71
15
78
63
10
64
60
13
55
60
16
49
59
19
45
57
19
42
47
12
32
41
8
27
38
5
22
38
7
22
38
8
18
35
6
11
35
6
10
37
8
10
35
7
6
34
6
5
34
4
4
33
3
3
34
3
1
35
4
2
37
6
4
38
7
5
41
5
5
42
6
6
43
7
7
44
8
8
47
9
8
49
11
10
51
11
11
51
11
9
56
15
13
60
16
13
63
19
16
66
22
19
67
23
20
65
21
18
62
18
15
60
16
13
67
22
19
70
25
22
74
29
26
76
31
28
77
32
29
78
33
30
80
35
32
81
37
34
81
37
34
77
33
30
78
34
31
85
44
40
91
50
44
90
49
43
86
47
40
84
45
38
94
55
48
96
57
50
97
60
52
98
61
53
98
61
52
99
62
53
98
64
54
100
66
56
101
67
55
94
60
48
87
51
39
83
47
35
84
48
36
89
53
41
93
55
44
94
56
45
96
58
45
95
57
44
93
55
42
90
54
40
87
51
37
84
51
36
83
50
35
82
49
34
82
49
34
81
48
33
80
46
34
78
45
30
76
42
30
73
39
27
72
38
26
70
36
24
68
35
20
66
33
18
63
30
15
59
26
11
57
24
9
55
22
7
55
22
7
53
21
6
47
15
2
45
16
0
47
15
0
45
16
0
44
15
0
43
14
0
42
14
0
40
13
0
41
14
0
41
14
0
40
14
0
41
15
2
41
14
3
42
15
6
42
14
10
42
15
8
45
14
9
48
18
10
50
20
12
49
19
11
47
17
9
48
15
8
54
17
11
60
19
15
74
26
26
71
16
19
78
17
22
100
30
38
122
46
56
139
59
70
157
73
86
174
86
102
203
110
129
208
115
134
213
118
140
211
116
136
209
111
134
205
108
128
205
107
130
205
108
128
200
102
125
199
102
122
198
100
123
195
100
120
192
97
119
185
90
110
176
83
104
167
78
96
161
79
91
160
85
92
123
50
57
79
10
15
75
9
11
75
11
12
78
14
14
93
29
29
106
41
39
102
34
33
98
28
26
100
29
27
105
31
28
103
29
26
97
22
19
93
15
13
105
21
19
111
25
24
118
32
31
127
39
38
133
43
45
133
42
47
131
38
48
128
34
50
120
26
50
115
23
60
121
31
85
139
52
123
155
73
158
158
81
177
152
80
179
147
81
171
146
86
160
144
89
154
131
77
139
115
63
125
111
61
120
107
59
117
104
57
112
104
60
113
128
86
136
173
131
179
169
127
175
131
89
135
66
34
57
79
47
71
81
48
77
68
34
67
59
24
64
61
25
69
66
30
78
70
33
84
74
35
88
91
52
105
101
61
113
91
51
103
77
33
84
70
26
75
71
24
76
72
25
77
80
33
88
92
45
100
111
63
121
116
68
126
101
51
110
89
41
101
96
46
107
105
55
116
112
62
123
119
69
132
153
101
165
177
125
189
160
108
172
132
80
146
121
69
135
121
69
135
141
86
153
153
98
166
152
95
166
140
80
154
136
74
151
141
79
156
156
91
171
174
109
189
210
143
223
217
150
230
219
151
234
223
158
242
235
170
254
218
152
239
162
98
185
114
50
136
99
38
118
87
29
103
75
19
84
67
14
68
64
16
58
64
19
52
61
21
47
59
21
44
49
14
34
42
9
28
38
5
22
40
8
23
41
9
22
38
7
15
37
6
11
38
8
10
36
8
7
35
7
6
35
5
5
34
4
4
35
3
4
35
3
4
37
6
4
37
6
4
41
5
5
41
5
5
42
6
6
43
7
7
46
7
8
47
8
9
49
9
9
49
9
7
56
15
13
59
18
14
63
22
18
65
24
20
67
23
20
65
21
18
63
19
16
61
17
14
66
22
19
68
24
21
71
27
24
72
28
25
74
30
27
77
33
30
81
37
34
85
41
38
85
41
38
80
39
35
81
40
36
87
48
43
92
53
46
90
51
44
87
48
41
86
47
40
94
57
49
96
59
51
97
60
52
97
60
52
93
59
49
92
58
48
94
60
50
97
63
53
98
66
53
93
61
48
89
55
43
90
54
42
93
57
45
96
58
47
97
57
47
96
56
46
96
56
44
95
57
44
94
56
43
92
56
42
92
56
42
90
57
42
90
57
42
90
58
43
86
53
38
85
52
35
83
50
35
81
48
31
79
46
31
78
45
30
77
44
29
76
43
28
69
37
22
67
35
20
63
31
16
59
27
12
56
24
11
54
22
9
53
21
8
53
21
8
50
20
9
48
20
8
48
18
7
46
18
4
45
18
1
45
18
0
45
18
0
44
19
0
41
16
0
41
15
0
42
16
1
42
16
3
42
15
4
43
16
7
41
16
11
43
16
9
45
16
10
48
18
10
50
20
12
50
20
12
49
19
11
51
18
11
55
20
14
61
22
17
66
22
19
67
19
17
72
18
18
85
25
27
103
37
41
122
49
56
134
57
67
143
59
72
163
75
91
173
82
99
185
92
111
193
100
118
196
101
121
195
101
119
198
101
121
201
104
123
198
101
121
193
96
115
185
90
110
179
85
103
176
81
101
172
79
97
169
78
96
163
76
92
163
86
96
146
75
81
102
33
38
70
5
9
71
9
10
74
14
14
69
9
8
76
16
15
84
23
20
84
20
18
86
21
17
97
29
26
108
39
34
110
39
35
99
25
22
87
12
9
100
19
18
108
24
22
117
33
31
125
39
38
128
42
43
129
40
44
128
37
46
126
34
47
121
29
50
111
20
53
122
32
83
155
68
136
172
90
174
159
82
176
144
73
169
140
74
162
134
77
146
136
82
142
127
73
131
109
58
115
102
53
108
102
55
109
101
54
106
97
53
102
101
59
107
153
111
157
153
111
157
112
71
115
65
32
63
76
43
74
74
40
77
61
26
68
53
17
65
49
12
64
55
17
74
68
30
89
89
49
109
110
70
130
124
83
141
111
70
128
88
45
101
76
31
86
80
33
88
86
38
96
72
27
84
82
37
94
105
57
117
124
76
136
133
85
145
142
94
154
146
98
158
143
95
157
149
99
162
157
107
170
154
104
167
132
81
147
115
63
129
115
63
129
119
67
133
115
62
130
136
81
149
137
81
152
126
68
142
115
57
133
123
60
139
133
70
151
153
88
170
176
111
193
216
148
233
211
143
228
211
143
228
213
145
230
216
150
237
217
151
239
180
115
205
127
63
150
104
43
123
95
35
109
82
23
89
71
16
73
68
16
62
66
20
56
64
21
49
61
21
45
53
15
38
44
9
29
39
5
22
40
8
23
42
10
23
40
9
17
38
7
12
39
9
11
37
9
8
36
8
7
36
6
6
34
4
4
35
3
4
35
3
4
36
5
3
37
6
4
40
4
4
40
4
4
41
5
5
42
6
6
46
7
8
47
8
9
49
9
9
50
10
10
58
17
15
61
20
16
64
23
19
65
24
20
66
22
19
65
21
18
64
20
17
64
20
17
67
23
20
68
24
21
69
25
22
70
26
23
71
27
24
76
32
29
83
39
36
88
44
41
86
45
41
83
42
38
84
45
40
90
51
46
93
54
47
90
51
44
87
48
41
86
47
40
93
56
48
95
58
50
96
59
51
94
57
49
89
55
45
88
54
44
91
57
47
95
61
51
97
65
52
96
64
51
96
62
50
97
63
51
100
62
51
100
62
51
99
59
49
97
57
47
97
57
45
97
57
45
97
59
46
97
61
47
98
62
48
97
64
49
96
64
49
96
64
49
90
57
40
88
55
38
86
53
36
84
51
34
82
49
32
82
49
32
81
48
33
81
48
33
71
39
24
68
36
21
64
32
17
60
28
13
57
25
12
54
22
9
53
21
8
50
20
9
52
24
13
51
23
12
50
22
11
47
21
8
47
21
6
47
22
2
47
22
2
47
22
0
45
20
0
45
20
0
45
19
4
45
19
6
45
18
7
45
18
11
43
18
13
45
17
13
46
19
10
47
18
10
49
19
11
55
25
17
62
32
24
66
33
26
63
28
22
60
23
17
54
13
9
62
17
14
69
19
18
75
21
21
86
24
27
99
33
37
112
39
48
119
42
52
133
49
64
146
58
74
164
73
90
180
87
105
187
93
111
187
93
111
191
94
113
195
98
117
194
97
116
183
86
105
166
72
90
155
61
79
151
58
76
153
62
79
156
68
84
157
73
86
155
82
89
124
58
62
79
14
18
60
0
1
61
3
2
70
14
13
69
11
9
72
14
12
72
13
9
71
10
7
74
11
6
85
20
16
102
35
29
110
41
36
102
33
28
92
18
15
96
16
15
106
22
22
115
31
31
122
38
38
124
39
42
124
37
43
122
35
43
121
33
45
123
32
50
110
21
51
123
35
83
161
76
141
180
97
179
163
84
176
142
68
165
134
68
156
124
67
135
128
75
131
119
68
124
104
54
107
96
48
100
98
52
101
97
53
102
94
51
97
94
52
98
120
79
123
119
78
122
99
58
102
61
27
64
73
39
76
76
40
84
73
37
85
73
39
90
72
37
95
80
44
106
102
66
130
147
108
173
153
113
176
153
111
174
139
97
160
122
78
139
106
62
123
98
52
114
93
47
109
112
66
128
127
82
141
148
102
164
160
114
176
165
119
181
172
126
188
176
128
190
167
118
183
178
129
194
175
126
191
150
99
165
124
73
140
121
70
137
120
69
136
119
66
134
125
72
140
130
77
147
123
67
140
108
50
126
106
48
125
125
62
143
137
73
157
154
89
173
178
113
197
213
145
232
192
124
211
191
123
210
193
125
212
193
127
215
215
149
237
199
134
224
138
74
161
110
46
130
99
38
115
86
27
95
74
19
76
70
18
64
66
20
56
64
21
49
61
21
45
54
16
39
44
9
29
40
6
23
42
8
24
43
11
24
42
11
19
39
8
13
39
9
11
38
10
9
37
9
8
36
6
6
35
5
5
35
3
4
35
3
4
36
4
5
37
5
6
39
3
3
40
4
4
41
5
5
43
7
7
46
7
8
48
9
10
50
10
11
51
11
11
60
19
17
62
21
17
64
23
19
64
23
19
63
22
18
62
21
17
63
22
18
65
24
20
65
24
20
65
24
20
67
23
20
67
23
20
70
26
23
76
32
29
84
40
37
90
46
43
87
46
42
83
44
39
85
46
41
90
51
46
92
53
46
89
50
43
84
47
39
84
47
39
92
55
47
94
57
49
94
60
51
91
57
48
87
53
43
86
52
42
90
56
46
94
60
50
97
65
52
99
67
54
102
68
56
101
67
55
102
64
53
100
62
51
100
60
50
99
59
49
99
59
47
101
61
49
102
64
51
103
67
53
104
68
54
101
68
53
98
66
51
97
66
48
93
60
41
93
58
39
91
56
37
88
53
34
85
52
33
84
51
32
85
52
35
85
52
35
77
46
28
75
44
26
70
38
23
66
34
19
62
30
17
59
27
14
55
26
12
55
25
14
57
28
20
54
27
18
52
25
14
48
25
11
48
25
9
48
26
5
49
27
6
49
27
4
48
26
5
48
26
5
47
24
8
47
24
10
48
21
10
47
20
13
47
19
15
46
18
14
51
24
15
51
23
12
54
24
16
62
32
24
73
40
33
78
43
37
75
40
34
72
35
29
59
20
15
58
17
13
61
16
13
67
17
16
76
17
19
81
19
22
89
23
27
99
26
33
116
34
46
130
42
56
149
61
75
169
78
93
176
84
99
175
81
97
177
80
97
182
83
101
181
82
100
167
70
87
148
54
70
133
41
56
128
37
52
130
42
56
137
49
63
138
56
68
127
56
62
94
29
33
62
0
3
57
0
0
51
0
0
63
9
7
67
12
9
71
16
13
71
13
9
70
11
7
68
7
2
74
11
6
88
23
17
101
34
28
100
33
27
94
23
19
94
14
15
101
19
21
109
27
29
115
33
35
117
35
37
118
33
38
118
33
40
118
32
43
119
30
48
111
22
52
117
30
75
143
59
121
165
82
162
162
83
174
146
72
167
133
67
154
125
69
134
126
73
127
119
69
122
108
58
109
100
52
102
99
53
102
95
51
100
90
47
93
94
52
98
98
57
101
104
61
106
105
62
105
66
31
73
71
36
78
75
39
85
97
60
111
130
92
149
142
106
167
151
112
177
168
129
196
142
103
170
135
94
160
134
92
158
146
104
168
165
121
184
172
128
191
164
118
182
153
107
171
172
126
190
175
129
193
168
122
186
141
95
159
114
68
132
113
67
131
122
73
139
120
71
137
126
77
143
120
71
137
126
75
144
128
77
146
112
61
130
101
50
119
110
57
127
123
70
142
128
74
149
115
61
137
100
43
120
107
48
128
132
70
153
144
80
164
158
93
177
181
115
202
206
138
225
175
107
194
174
106
193
177
108
197
179
110
199
214
148
238
212
146
236
145
80
170
113
49
135
102
41
119
88
28
100
76
20
83
69
19
72
67
20
62
64
20
55
60
20
47
55
17
42
47
9
32
40
6
23
42
8
24
44
12
25
43
12
20
40
9
15
39
9
11
38
10
9
37
9
8
35
7
6
35
5
5
34
4
4
35
3
4
36
4
5
37
5
6
37
3
2
38
4
3
40
6
5
43
7
7
45
9
9
49
10
11
52
12
13
52
12
12
61
20
18
63
22
20
64
23
21
63
22
20
61
20
18
61
20
18
64
23
21
67
26
22
66
25
23
65
24
20
66
22
21
66
22
19
69
25
24
75
31
28
85
41
38
90
49
45
86
45
41
83
44
39
85
45
43
90
51
46
91
52
47
87
48
41
83
46
38
83
46
38
92
55
47
94
57
49
94
60
51
91
57
48
86
52
42
86
52
42
90
56
46
95
61
51
99
65
53
102
68
56
104
70
58
104
68
56
100
64
52
99
61
50
100
60
50
101
61
51
102
62
50
104
64
52
106
68
55
108
70
57
107
71
57
103
70
55
100
66
54
98
65
50
96
60
44
95
60
41
92
56
40
90
54
38
88
52
36
86
53
36
87
54
37
87
54
37
85
52
37
82
50
35
78
46
31
73
41
26
69
37
24
66
34
21
62
33
19
61
31
20
61
32
24
58
31
22
56
29
18
52
29
15
51
28
12
52
29
11
53
30
12
54
32
11
52
29
11
51
28
12
50
27
11
49
26
12
48
24
12
47
22
15
48
20
16
47
20
13
54
27
18
57
29
18
62
32
24
66
36
28
75
40
34
80
45
39
84
49
43
89
52
46
75
36
31
61
20
16
55
11
8
64
16
14
73
19
19
71
15
16
73
13
15
81
15
19
100
24
34
113
33
44
133
51
63
152
68
81
159
73
86
155
67
81
155
64
79
159
67
82
162
70
85
150
59
74
135
44
59
121
33
47
113
29
42
113
31
43
113
36
46
111
40
48
90
29
34
64
10
10
48
0
0
55
4
3
44
0
0
54
5
1
62
11
8
67
16
12
70
17
13
70
15
10
69
10
4
68
9
3
77
17
9
90
27
20
92
29
22
91
24
18
88
13
10
97
19
19
105
27
27
111
31
32
112
32
35
112
31
37
113
32
39
114
32
44
112
29
47
108
25
53
108
25
69
119
38
96
142
64
139
158
83
166
153
80
170
134
69
151
131
75
136
130
78
127
123
74
121
113
66
110
107
60
102
103
58
99
95
53
91
86
46
83
97
57
94
95
55
92
103
63
98
106
66
101
62
26
70
71
35
79
94
58
104
120
83
134
126
89
143
112
74
133
102
62
125
102
61
127
91
50
116
85
43
109
84
42
108
101
56
121
126
82
145
147
103
166
155
111
172
155
111
174
143
98
163
125
80
145
108
63
130
101
56
123
99
52
120
96
49
117
97
47
116
99
49
118
104
52
124
110
58
130
112
60
134
106
54
128
97
43
118
92
38
113
96
42
117
102
48
124
117
63
141
116
61
142
118
61
142
122
63
145
134
72
155
153
89
173
174
109
193
187
122
206
181
113
198
162
94
181
161
91
179
170
101
190
176
107
198
189
120
213
192
123
216
173
106
199
155
91
178
116
54
139
87
28
108
82
26
101
78
26
92
67
18
73
57
14
57
59
19
53
52
13
40
44
9
31
41
7
24
43
9
25
43
9
23
41
8
19
40
7
16
41
10
15
31
5
6
30
6
4
32
6
5
35
7
6
37
7
7
38
8
8
40
8
9
40
8
9
39
8
6
40
9
7
40
9
7
41
10
8
45
11
9
47
12
10
49
11
10
51
11
11
57
15
16
57
15
16
58
16
17
60
18
19
61
19
20
62
20
21
63
21
22
63
22
20
69
25
26
65
21
20
63
19
20
66
22
21
73
29
30
80
36
35
84
40
39
82
41
39
73
32
30
72
32
30
72
32
32
72
32
30
74
36
33
77
40
34
80
43
37
82
45
39
93
58
52
96
61
55
97
63
54
92
58
49
86
53
44
86
53
44
92
60
49
100
66
56
103
69
59
106
69
60
107
70
61
105
69
57
103
67
55
101
65
51
103
65
52
104
66
53
110
72
59
108
70
57
106
68
55
106
68
55
107
69
58
107
69
58
106
68
59
104
66
55
98
60
47
98
60
47
99
61
48
99
61
48
98
60
47
95
59
45
92
56
42
88
55
40
91
57
45
93
59
47
89
57
44
83
51
38
78
49
35
77
48
34
75
46
32
70
40
29
68
40
29
67
39
28
64
36
25
61
34
23
59
33
20
58
32
19
58
32
19
57
34
20
54
30
18
54
30
18
52
30
17
51
29
16
50
28
17
49
27
16
49
24
17
49
25
15
55
26
18
62
32
24
66
36
28
65
35
27
71
36
30
81
46
40
94
57
51
100
63
57
109
69
67
88
47
45
67
23
22
58
12
12
61
11
12
61
11
12
63
11
13
67
11
14
72
10
15
84
14
22
97
26
34
112
39
48
125
49
59
133
57
67
137
61
71
140
63
73
138
61
71
128
51
61
114
37
47
108
31
41
110
37
48
110
43
52
96
33
41
76
21
26
40
0
0
35
0
0
39
1
0
46
6
4
48
7
5
49
5
2
58
13
8
72
25
19
72
23
18
68
18
11
65
10
3
63
8
1
66
12
2
75
18
9
80
23
12
86
26
16
80
13
5
84
13
9
90
19
17
99
25
26
106
31
35
109
34
39
108
32
42
107
31
44
107
30
50
103
27
55
105
29
68
102
28
79
125
55
118
162
92
165
159
92
172
146
84
157
147
92
149
142
91
134
138
91
127
134
89
120
125
81
108
108
66
90
95
55
79
90
52
75
95
57
82
94
59
83
96
61
85
98
63
87
73
37
81
73
40
83
84
48
94
93
57
105
90
53
105
76
39
93
69
29
89
68
28
88
88
48
110
84
42
105
85
43
107
96
54
117
113
69
132
118
77
137
114
70
131
105
61
122
100
55
120
98
53
118
96
51
118
93
48
115
89
42
110
82
35
105
81
31
102
82
32
103
97
45
119
101
49
123
103
51
126
97
45
120
90
36
112
86
32
108
90
36
112
95
41
119
108
53
136
120
65
148
140
82
166
159
101
185
174
115
199
187
125
208
196
132
216
201
136
220
179
111
196
163
95
180
162
92
180
173
103
192
180
111
202
191
122
213
200
131
224
195
129
219
188
124
211
136
77
161
96
37
121
90
36
114
86
33
105
67
19
81
58
14
65
57
16
56
54
15
46
46
11
35
43
8
28
44
10
27
45
11
27
42
8
22
43
7
19
43
10
17
31
5
6
31
7
5
32
6
5
33
7
6
37
7
7
38
8
8
40
8
9
40
8
9
38
8
6
39
9
7
39
9
7
40
10
8
44
10
8
46
11
9
49
11
8
50
10
10
56
16
17
56
16
17
57
17
18
58
18
19
59
19
20
60
20
21
61
21
21
63
21
22
66
24
25
62
20
21
60
18
19
63
21
22
70
28
29
77
35
36
80
39
37
80
39
37
71
31
31
71
31
31
71
31
31
72
32
32
73
35
32
76
38
35
79
42
36
80
43
37
90
55
49
91
56
50
91
57
48
88
54
45
84
51
42
85
52
43
90
58
47
95
63
52
99
62
53
101
64
55
103
66
57
104
68
56
103
67
55
103
67
53
106
68
55
108
70
57
115
77
64
113
75
62
110
72
59
108
70
57
107
69
60
106
68
59
104
64
56
101
61
53
104
64
54
104
64
54
104
66
55
103
65
54
101
63
52
99
61
50
95
59
47
93
57
45
92
58
46
93
59
47
90
58
45
84
52
39
78
49
35
78
49
35
75
46
32
71
42
28
68
40
29
67
39
28
65
37
26
62
34
23
60
33
22
59
32
21
59
32
21
59
32
21
54
30
20
54
30
20
52
30
19
51
29
18
50
28
17
50
28
17
49
27
16
50
26
16
57
28
20
63
33
25
66
36
28
65
35
27
71
36
30
81
46
40
95
58
52
101
64
58
121
80
78
110
69
67
96
52
51
79
35
34
67
19
19
58
10
10
57
9
9
61
11
12
70
14
17
75
14
19
82
17
23
89
22
29
98
31
38
110
40
48
118
48
56
124
54
62
122
51
59
114
43
51
103
32
40
97
27
35
98
33
41
94
35
41
77
25
29
55
13
14
34
0
0
28
0
0
33
2
0
42
8
6
43
8
4
45
5
3
54
13
9
69
24
19
72
25
19
67
18
13
61
11
4
60
7
0
63
10
2
70
18
7
77
23
13
83
26
15
78
15
6
80
16
7
86
19
13
93
23
21
99
29
31
103
31
35
103
30
39
101
29
43
103
30
50
98
25
52
95
23
60
89
20
65
111
43
100
147
80
147
154
88
160
149
88
157
147
93
145
143
93
131
138
91
123
135
91
114
127
84
103
111
73
86
102
64
77
98
62
76
99
65
81
100
66
82
102
68
84
104
70
86
67
35
76
68
37
78
70
37
80
69
36
79
65
32
79
59
25
75
58
21
72
58
21
73
60
23
77
62
23
78
68
29
86
83
44
101
98
57
115
101
62
119
93
52
110
83
42
100
84
43
103
90
48
111
92
50
114
85
43
107
78
33
98
74
29
96
77
30
98
80
33
101
86
36
107
89
39
110
91
39
113
88
36
110
83
31
106
82
30
105
87
33
109
91
37
115
116
63
145
130
76
160
153
98
182
176
118
203
193
133
219
205
143
228
212
148
234
214
150
234
206
141
225
198
133
217
199
131
216
207
139
226
207
139
226
202
133
222
202
136
224
211
145
232
227
164
245
167
108
188
105
46
126
95
41
117
93
39
114
70
21
86
63
18
73
61
19
65
56
16
53
50
11
42
45
9
35
45
10
32
46
12
29
43
9
25
43
7
19
43
10
17
32
6
9
32
8
8
33
7
8
34
8
9
38
8
10
38
8
10
40
8
9
40
8
9
39
9
9
39
9
9
39
9
7
40
10
8
44
10
8
46
11
9
48
10
9
49
11
10
54
15
16
54
15
16
55
16
17
56
17
18
57
18
19
59
20
21
59
20
21
61
21
22
63
23
23
60
20
20
58
18
18
61
21
21
68
28
28
74
34
34
77
37
37
76
36
36
69
29
29
68
30
29
69
31
30
70
32
31
72
34
31
74
36
33
75
40
36
76
41
37
84
49
43
83
48
42
82
48
39
82
48
39
81
48
39
84
51
42
87
54
45
89
56
47
91
54
45
94
57
48
97
60
51
100
64
52
101
65
53
103
67
53
107
71
57
110
74
60
116
78
65
114
76
63
111
73
60
109
71
58
109
71
62
107
69
60
105
67
58
102
64
55
109
71
60
109
71
60
109
71
60
107
69
58
104
68
56
101
65
53
98
62
50
96
60
48
93
59
47
94
60
48
91
59
46
85
53
40
80
51
37
79
50
36
77
48
34
73
44
30
69
41
30
68
40
29
65
37
26
63
35
24
61
33
22
61
33
22
60
33
22
60
33
22
55
31
21
55
31
21
54
30
20
54
30
20
52
30
19
51
29
18
50
28
17
51
27
17
59
30
22
65
35
27
66
36
28
64
34
26
70
35
29
81
46
40
95
58
52
101
64
58
108
67
65
117
76
74
124
80
79
116
72
71
102
54
54
83
35
35
67
19
19
57
7
8
68
13
16
69
10
14
68
6
11
70
5
11
76
9
16
84
17
24
92
25
32
98
31
38
100
30
40
96
26
36
91
21
31
89
22
31
88
27
34
82
27
32
65
16
19
45
5
5
32
1
0
28
0
0
33
2
0
41
7
5
42
7
3
44
4
2
53
12
8
68
23
18
73
26
20
67
18
13
60
10
3
56
6
0
60
7
0
67
15
4
74
22
11
79
25
13
76
16
6
78
15
6
81
17
8
85
20
14
92
24
21
97
27
29
97
26
32
97
25
36
98
25
42
92
22
46
90
20
54
85
18
61
104
37
90
135
69
131
150
85
153
153
91
156
148
94
144
143
93
130
138
92
121
135
92
112
129
87
101
117
79
90
111
73
84
109
73
83
107
74
85
108
75
86
110
77
88
112
79
90
53
25
63
59
31
69
62
34
72
59
31
69
59
28
69
60
29
70
59
28
70
56
25
67
46
13
58
46
13
58
53
16
67
65
28
79
77
40
92
81
44
96
75
38
90
69
30
85
71
32
89
76
35
93
75
34
94
66
25
85
60
18
81
65
21
84
68
23
88
70
23
91
81
34
102
83
33
104
82
32
103
82
30
104
81
29
104
82
30
105
87
33
109
90
35
116
94
40
126
102
48
136
115
59
150
128
72
161
143
83
173
153
93
181
164
101
190
171
107
194
198
132
219
206
140
227
217
152
236
230
165
249
233
165
250
216
151
235
214
149
233
229
166
247
248
187
255
198
138
212
115
57
134
92
35
112
95
41
116
75
24
93
70
22
84
71
26
81
58
15
61
51
10
50
47
7
41
46
10
38
45
10
32
42
8
25
42
6
18
42
9
18
34
8
11
33
8
11
34
8
11
37
8
10
38
8
10
39
9
11
40
8
11
40
8
9
39
9
9
39
9
9
39
9
7
40
10
8
41
10
7
44
10
8
45
10
8
46
11
9
49
15
14
50
16
15
51
17
16
52
18
17
53
19
18
54
20
19
56
20
20
57
21
21
58
23
21
55
20
18
54
19
17
57
22
20
64
29
27
70
35
33
73
35
34
72
34
33
66
28
27
66
28
27
68
30
29
69
31
30
71
33
30
74
36
33
73
38
34
74
39
35
79
44
38
76
41
35
75
41
32
76
42
33
79
46
37
83
50
41
84
51
42
84
51
42
81
47
37
87
50
41
91
54
45
94
58
46
96
60
48
99
63
49
103
67
53
106
70
56
108
70
57
107
69
56
107
69
56
108
70
57
111
73
64
112
74
65
111
73
64
110
72
63
113
75
64
112
74
63
111
73
62
108
70
59
104
68
56
101
65
53
99
63
51
98
62
50
93
59
47
95
61
49
92
60
47
86
54
41
81
52
38
81
52
38
79
50
36
75
45
34
71
43
32
69
41
30
67
39
28
64
36
25
63
35
24
62
34
23
61
34
23
61
34
23
56
32
22
56
32
22
55
31
21
55
31
21
53
31
20
53
31
20
53
31
20
53
29
19
62
33
25
67
37
29
68
38
30
65
35
27
70
35
29
81
46
40
95
58
52
101
64
58
100
59
57
111
70
68
121
77
76
120
76
75
121
73
73
116
68
68
101
53
53
85
35
36
75
23
25
77
21
24
77
16
21
76
14
19
78
13
19
80
13
20
82
15
22
84
17
24
88
21
30
87
20
29
86
21
29
86
23
31
82
25
31
72
22
25
54
10
11
36
1
0
30
0
0
27
0
0
31
2
0
38
7
4
41
6
2
42
4
1
51
10
6
65
21
18
72
27
22
66
19
13
58
9
4
54
4
0
56
6
0
62
12
3
71
18
10
75
23
12
74
17
6
74
16
5
75
15
5
79
16
9
85
20
16
88
23
21
91
22
25
90
20
28
90
19
33
91
22
43
94
27
58
102
36
74
119
52
103
138
73
131
151
86
152
156
95
155
148
95
141
142
92
127
137
91
119
135
92
111
130
88
100
121
84
91
118
81
88
118
83
89
113
80
87
114
81
88
116
83
90
117
85
90
52
27
59
58
33
65
58
33
63
51
26
56
45
20
50
44
19
49
42
15
46
37
10
43
41
11
47
40
10
46
42
11
52
49
18
60
57
24
69
60
27
74
56
23
70
50
16
66
57
20
72
63
24
77
68
29
84
72
33
88
81
42
99
91
50
108
90
49
109
85
41
104
85
40
105
82
35
103
78
31
101
78
28
101
78
27
102
80
29
104
82
29
107
82
29
111
83
28
119
91
36
130
102
45
142
113
56
151
124
62
159
131
70
165
138
74
168
142
79
170
159
94
184
176
112
199
192
128
214
205
141
225
212
147
231
206
143
224
214
151
232
237
175
252
255
195
255
224
164
234
137
79
153
97
40
117
98
44
122
79
27
102
71
21
92
75
29
93
60
15
72
52
10
60
48
7
51
48
8
43
47
8
37
43
5
26
41
5
19
40
7
16
37
7
15
35
8
13
38
9
14
38
9
13
39
8
13
39
9
11
40
10
12
40
10
12
39
9
9
39
9
9
39
9
7
40
10
8
41
10
8
43
9
8
43
9
8
43
9
8
46
14
15
46
16
16
47
17
17
48
18
18
50
18
19
51
19
20
52
21
19
53
22
20
54
23
21
52
21
19
53
19
18
56
22
21
63
29
27
68
34
32
68
34
32
67
33
31
63
28
26
64
29
27
66
31
29
68
33
31
70
35
31
71
36
32
73
38
34
73
38
34
75
42
35
72
39
32
71
38
31
73
40
33
79
46
37
83
50
41
83
50
41
81
48
39
77
43
33
80
46
36
84
50
40
86
52
40
88
54
42
90
57
42
96
60
46
99
63
49
100
64
50
100
64
50
101
65
51
104
68
54
110
72
63
114
76
67
115
77
68
114
76
67
113
75
66
112
74
65
108
71
62
106
69
60
103
66
57
100
63
54
96
62
52
96
62
52
94
60
50
96
62
52
93
61
50
88
56
45
85
53
42
85
53
42
81
51
40
78
48
37
73
43
33
71
41
31
68
40
29
65
37
26
64
36
25
63
35
24
62
35
24
62
35
24
59
32
23
59
32
23
57
33
23
56
32
22
56
32
22
56
32
22
55
33
22
56
32
22
63
34
26
69
39
31
70
40
32
67
37
29
71
36
30
81
46
40
94
57
51
100
63
57
105
64
62
113
72
70
114
70
69
107
63
62
116
68
68
129
81
81
126
78
78
112
64
64
99
49
50
99
47
49
99
43
46
98
37
42
96
34
39
94
29
35
93
26
35
91
24
33
94
27
36
92
27
35
91
28
37
88
28
36
78
25
31
60
15
18
41
2
3
27
0
0
29
1
0
26
0
0
30
1
0
37
6
3
40
5
1
40
2
0
49
8
4
63
19
16
71
26
21
66
19
13
56
9
3
52
3
0
53
4
0
58
10
0
65
15
6
68
18
7
69
17
6
69
15
5
70
13
4
73
14
6
78
17
12
83
19
17
84
18
20
84
17
24
80
12
25
89
22
40
106
40
68
131
65
103
150
84
132
156
91
147
159
95
156
158
97
156
149
96
140
143
94
126
138
92
118
135
92
109
131
90
98
122
86
90
120
84
86
121
87
88
114
82
83
115
83
84
117
85
86
119
88
86
46
26
53
49
29
56
46
26
51
36
16
41
29
10
32
31
9
32
30
8
31
27
5
28
29
5
31
31
6
35
36
11
41
44
17
52
51
23
61
54
26
66
52
23
67
51
20
64
57
24
71
64
28
76
74
37
88
92
53
106
113
74
127
126
87
142
128
87
145
123
82
142
92
48
111
85
40
105
77
30
100
74
27
97
78
27
102
80
29
104
79
26
104
77
23
107
86
31
125
93
37
138
105
47
149
114
56
158
124
64
164
130
68
167
137
73
170
140
76
172
153
88
182
167
102
194
172
108
195
170
106
190
176
113
194
189
126
205
212
149
228
236
176
250
255
196
255
242
183
251
178
120
194
133
75
152
116
59
140
88
33
116
74
21
101
75
24
99
65
15
84
56
11
70
51
7
60
50
9
53
48
8
42
44
6
31
42
5
23
41
8
19
39
9
19
37
10
17
39
9
17
39
10
15
40
9
15
40
9
14
40
9
14
40
10
12
39
9
11
39
9
9
39
9
9
39
9
7
40
9
7
40
9
7
42
8
7
40
9
7
43
15
14
42
16
15
44
16
15
46
18
17
47
19
18
48
20
19
50
20
18
49
21
18
53
23
21
51
21
19
50
20
18
54
24
22
62
31
28
65
36
32
66
35
32
64
33
30
61
27
25
64
29
27
66
31
29
69
34
32
71
36
32
72
37
33
73
38
34
72
39
34
75
42
35
73
40
33
73
40
33
75
42
35
80
47
38
83
50
41
82
49
40
81
48
39
76
42
32
79
45
35
82
48
38
83
49
37
84
50
38
85
52
37
90
54
40
92
56
42
97
61
47
96
60
46
97
61
47
101
65
51
107
69
60
111
73
64
112
74
65
111
73
64
111
73
64
109
71
62
106
69
60
103
66
57
100
63
54
99
62
53
96
62
52
96
62
52
95
61
51
97
63
53
94
62
51
89
57
46
87
55
44
87
55
44
83
53
42
80
50
39
74
44
34
72
42
32
69
41
30
67
39
28
65
37
26
64
36
25
64
36
25
64
37
26
60
33
24
60
33
24
58
34
24
58
34
24
58
34
24
58
34
24
57
35
24
58
34
24
63
34
26
70
40
32
72
42
34
70
40
32
74
39
33
82
47
41
93
56
50
98
61
55
107
66
64
122
81
79
124
80
79
108
64
63
109
61
61
123
75
75
124
76
76
111
63
63
117
67
68
114
64
65
111
56
59
108
49
53
105
43
48
103
38
44
101
34
43
100
33
42
95
30
38
93
30
38
91
31
39
84
31
37
70
24
27
51
11
12
36
2
1
27
0
0
26
1
0
24
0
0
28
0
0
35
6
2
37
3
1
36
1
0
47
7
5
59
18
14
68
24
21
62
17
12
54
9
4
51
4
0
52
5
0
55
8
0
59
10
3
61
13
3
64
14
5
63
13
4
66
13
5
69
14
7
75
17
13
78
18
17
79
17
18
77
15
20
76
10
22
86
21
41
110
46
73
152
88
125
178
112
158
176
111
165
172
108
168
165
104
161
154
101
143
148
99
129
142
97
118
139
97
109
133
92
98
123
87
87
120
85
83
120
86
84
112
81
78
114
83
78
115
84
79
117
87
79
35
17
39
36
18
40
34
17
36
29
12
31
25
8
26
26
8
24
28
10
26
29
10
29
31
9
30
32
10
33
36
13
39
42
17
46
47
22
54
49
23
58
48
22
61
48
20
60
49
18
60
53
20
65
62
29
76
79
43
91
93
56
107
102
65
117
110
71
128
115
75
135
92
50
113
86
41
106
78
31
101
77
30
100
84
33
108
89
38
113
87
36
113
84
32
117
100
46
144
102
47
151
105
48
153
109
50
156
115
54
158
123
60
164
134
69
171
140
75
175
160
96
192
173
110
201
172
110
196
160
98
181
167
106
184
198
137
214
231
171
245
248
188
255
252
193
255
248
189
255
227
167
241
191
132
212
145
87
172
103
47
136
84
28
115
76
22
106
69
18
95
60
13
83
55
10
69
55
11
62
53
11
51
48
7
39
45
7
28
43
9
25
41
9
24
40
10
22
39
9
21
39
9
19
40
9
17
40
9
15
40
9
14
40
10
12
40
10
12
39
9
9
39
9
9
39
9
9
39
9
9
39
9
9
40
8
9
39
9
9
40
14
15
40
16
16
42
16
15
43
17
16
44
18
17
45
19
18
48
20
19
46
20
19
53
25
22
51
23
20
50
22
19
54
26
23
62
32
30
64
36
33
65
35
33
62
32
30
62
28
27
64
30
29
66
32
30
69
35
33
71
37
35
72
38
36
72
39
34
72
39
34
77
44
37
75
45
37
75
45
37
77
47
39
79
49
39
81
51
41
81
51
41
81
51
41
76
44
33
78
46
35
82
48
38
83
49
37
83
49
37
84
51
36
86
53
38
89
56
41
92
56
42
92
56
42
93
57
43
97
61
47
102
65
56
106
69
60
108
71
62
107
70
61
108
71
62
107
70
61
104
67
58
101
64
55
98
64
54
97
63
53
97
63
53
98
64
54
95
63
52
97
65
54
95
63
52
90
58
47
88
56
45
89
57
46
87
55
44
83
51
40
75
45
35
73
43
33
71
41
31
69
39
29
67
37
27
65
37
26
65
37
26
65
37
26
61
34
25
61
34
25
61
34
25
61
34
25
59
35
25
59
35
25
59
35
25
61
34
25
62
33
25
70
40
32
74
44
36
73
43
35
76
41
35
83
48
42
92
55
49
95
58
52
108
67
65
127
86
84
128
84
83
105
61
60
101
53
53
117
69
69
121
73
73
108
60
60
116
68
68
114
64
65
111
56
59
105
49
52
102
41
48
101
36
44
99
32
41
98
31
40
92
26
36
88
27
35
83
28
34
76
27
31
60
18
22
42
6
8
30
0
0
27
1
0
25
1
0
23
0
0
28
0
0
34
5
1
34
3
0
34
1
0
44
6
3
57
18
13
63
22
18
60
17
11
55
10
5
51
6
0
50
5
0
52
7
1
55
8
2
55
8
2
58
11
5
59
12
6
62
13
8
67
16
12
73
19
17
77
18
20
76
15
20
74
13
21
76
12
28
82
19
40
106
41
71
157
93
130
190
124
170
187
122
176
183
120
177
174
114
168
161
109
148
155
106
135
149
104
124
144
102
112
137
96
100
125
90
86
119
84
78
118
85
78
111
81
71
112
82
72
114
84
73
115
86
72
27
13
30
28
14
31
28
14
31
26
12
27
23
9
22
22
6
19
22
6
19
23
6
22
30
11
30
30
11
30
30
11
33
33
10
36
36
13
42
39
15
47
41
17
51
43
17
54
48
17
58
53
20
63
62
29
74
69
36
81
71
35
83
69
32
84
76
37
92
85
45
105
91
49
112
83
41
107
78
31
101
81
34
106
93
42
117
101
50
127
102
51
130
99
47
132
124
70
168
121
66
168
117
60
165
114
56
159
116
55
158
121
61
161
134
69
169
141
77
174
161
97
191
178
115
204
180
118
203
166
105
185
174
113
190
212
152
224
243
186
255
251
194
255
249
190
254
245
186
252
255
197
255
238
176
255
171
111
201
119
60
154
97
38
132
80
24
115
74
20
106
66
15
92
61
11
80
58
13
70
56
13
59
51
9
45
47
8
35
46
11
31
41
8
25
40
9
25
40
9
24
40
10
22
40
8
19
40
9
17
40
9
15
40
9
14
40
9
14
40
10
12
39
9
11
39
9
9
39
9
9
39
9
9
38
8
8
37
9
8
40
14
15
39
15
15
40
16
14
41
17
15
43
17
16
45
19
18
46
20
19
46
20
19
51
25
24
49
24
20
51
23
20
55
27
24
62
34
31
65
37
34
64
36
33
61
33
30
60
29
27
62
31
29
67
33
31
68
37
34
73
39
37
71
40
37
73
40
35
71
40
35
76
45
40
77
47
39
79
49
41
80
50
42
81
51
41
81
51
41
82
52
42
82
52
42
77
45
34
79
47
36
83
49
39
84
50
38
84
50
38
85
52
37
88
55
40
90
57
42
87
51
37
87
51
37
89
53
39
94
58
44
101
64
55
106
69
60
108
71
62
108
71
62
108
71
62
106
69
60
103
66
57
101
64
55
98
64
54
98
64
54
99
65
55
99
65
55
95
63
52
97
65
54
96
64
53
91
59
48
89
57
46
89
57
46
88
56
45
84
52
41
75
45
35
74
44
34
71
41
31
69
39
29
67
37
27
67
37
27
66
38
27
66
38
27
62
33
25
61
34
25
61
34
25
62
35
26
60
36
26
60
36
26
60
36
26
62
35
26
62
33
25
70
40
32
75
45
37
75
45
37
78
43
37
83
48
42
91
54
48
93
56
50
100
59
57
121
80
78
124
80
79
103
59
58
103
55
55
122
74
74
124
76
76
106
58
58
111
63
63
110
60
61
110
55
58
105
49
52
103
42
49
98
35
43
96
29
38
93
28
36
91
28
37
86
26
34
79
26
32
68
23
26
51
12
15
30
0
0
20
0
0
20
0
0
25
1
0
22
0
0
25
0
0
32
4
1
33
4
0
32
1
0
42
7
5
55
17
14
61
21
19
57
16
12
54
10
7
50
7
1
50
7
1
50
7
0
51
6
0
49
6
0
53
10
4
55
10
5
61
13
11
67
17
16
72
21
20
75
20
23
75
15
23
73
11
24
78
15
34
80
16
42
98
33
65
152
87
127
189
126
171
191
127
179
189
126
181
182
122
173
167
115
153
160
112
138
154
110
127
149
108
116
140
100
100
126
91
85
119
85
76
116
84
73
110
81
67
111
82
66
113
84
68
115
86
68
27
15
29
31
19
33
33
21
35
31
19
31
25
13
25
21
7
20
19
5
20
20
6
21
28
11
29
25
8
26
24
6
28
27
7
32
33
13
40
38
18
46
39
19
47
41
17
51
47
19
57
50
19
60
51
20
62
53
22
66
58
25
72
66
29
81
75
36
91
80
40
100
70
28
91
76
34
100
81
34
104
81
34
106
99
48
125
127
76
155
131
80
159
114
62
147
122
67
161
134
78
175
128
70
170
115
58
155
116
56
154
121
61
157
143
79
175
174
111
202
194
132
218
181
119
202
183
122
200
195
135
209
213
156
225
244
187
255
255
201
255
242
186
251
228
169
235
221
159
232
221
160
240
207
144
233
178
114
210
158
96
195
130
68
169
86
26
122
86
30
121
74
20
104
74
22
97
76
27
92
64
20
71
55
13
53
53
12
44
48
10
35
45
10
32
43
10
31
42
9
28
40
7
24
39
9
21
39
9
19
40
10
18
40
11
16
41
12
16
41
12
14
41
12
14
40
11
13
40
11
13
39
10
12
39
10
12
37
11
12
37
13
13
35
14
13
38
14
14
40
16
16
41
17
17
43
19
19
44
20
20
44
20
18
49
23
22
48
22
21
48
22
21
48
22
21
50
24
23
53
27
26
56
31
27
59
31
28
63
33
31
65
35
33
68
37
35
67
37
35
67
36
33
66
37
33
69
38
35
71
40
35
77
46
41
78
47
42
79
49
41
81
51
43
81
51
43
81
51
43
80
50
40
79
49
39
76
44
33
79
47
36
82
50
39
84
52
39
84
52
39
84
52
37
85
53
38
86
54
39
86
53
38
87
54
39
87
54
39
87
54
39
88
54
44
92
58
48
99
62
53
104
67
58
97
63
53
97
63
53
97
63
53
96
62
52
95
61
51
94
60
50
92
60
49
92
60
49
97
65
54
97
65
54
95
63
52
91
59
48
90
58
47
91
59
48
87
55
44
81
49
38
71
38
29
71
38
29
70
37
28
69
36
27
67
37
27
66
36
26
65
35
25
64
36
25
62
33
25
63
34
26
62
35
26
62
35
26
62
35
26
62
35
26
62
35
26
62
35
26
62
33
25
70
40
32
79
49
41
84
54
46
87
52
46
86
51
45
88
51
45
90
53
47
108
67
65
119
78
76
119
75
74
105
61
60
117
69
69
119
71
71
102
54
54
111
63
63
107
57
58
93
43
44
98
43
48
99
40
46
97
36
43
97
34
42
93
25
36
90
24
34
84
22
33
85
28
37
75
26
32
54
13
17
37
2
6
27
0
0
21
0
0
18
0
0
21
0
0
23
0
0
25
1
0
27
2
0
32
2
0
34
3
0
38
4
2
39
4
0
50
12
9
51
12
7
51
12
7
51
10
6
51
10
6
50
9
3
52
9
3
50
9
3
48
7
3
52
11
7
56
12
11
57
11
11
62
12
13
71
19
23
77
20
29
76
15
30
75
13
34
75
12
39
89
25
59
135
71
108
184
121
164
188
125
172
187
125
176
174
115
161
159
108
141
157
109
133
153
109
124
147
106
112
140
100
98
128
94
84
121
87
75
115
83
68
116
87
69
115
87
66
113
85
64
112
84
62
28
18
29
32
22
33
36
24
36
34
22
36
28
16
30
22
10
24
22
8
25
23
9
26
28
11
30
26
8
30
26
8
32
30
12
36
37
17
44
39
19
47
38
18
46
36
12
44
39
11
49
41
10
52
42
11
53
44
13
57
49
15
65
57
20
72
66
27
84
72
32
92
81
39
103
79
34
101
90
43
115
92
44
118
92
41
120
119
67
149
146
94
176
142
90
173
142
88
176
158
103
194
159
103
194
147
91
182
149
90
180
156
96
184
175
112
201
200
138
223
222
161
241
216
155
233
221
161
235
231
171
241
244
185
251
255
201
255
249
193
254
219
163
226
201
139
212
193
130
209
194
132
218
187
123
217
168
103
205
159
94
198
139
74
178
101
39
140
84
25
119
80
24
111
83
29
107
79
28
97
65
17
75
56
13
59
55
13
51
52
13
44
46
10
38
44
10
34
42
9
30
41
8
27
39
8
23
39
9
21
40
10
20
41
11
19
41
12
17
41
12
16
41
12
14
40
11
13
40
11
13
37
11
12
37
11
12
36
12
12
35
14
13
35
14
13
38
14
14
40
16
16
41
17
17
42
18
18
43
19
19
44
20
20
48
22
21
48
22
21
47
21
20
48
22
21
50
24
23
52
26
25
55
30
26
56
31
27
61
33
30
64
34
32
66
36
34
66
36
34
65
36
32
65
36
32
67
38
34
69
40
36
73
42
37
75
44
39
77
47
39
80
50
42
81
51
43
80
50
42
79
49
39
78
48
38
77
45
34
79
47
36
82
50
39
83
51
38
82
50
37
81
49
34
82
50
35
83
51
36
84
51
36
84
51
36
84
51
36
83
50
35
83
49
39
86
52
42
93
56
47
95
61
51
94
60
50
94
60
50
95
61
51
95
61
51
95
61
51
96
62
52
95
63
52
95
63
52
95
63
52
96
64
53
95
63
52
92
60
49
91
59
48
91
59
48
86
54
43
80
48
37
71
38
29
71
38
29
70
37
28
69
36
27
66
36
26
66
36
26
65
35
25
65
35
25
63
34
26
63
34
26
63
34
26
62
35
26
62
35
26
63
36
27
63
36
27
63
36
27
65
35
27
71
41
33
78
48
40
81
51
43
84
49
43
84
49
43
88
51
45
91
54
48
105
64
62
114
73
71
115
71
70
104
60
59
113
65
65
111
63
63
97
49
49
108
60
60
105
55
56
92
40
42
96
41
46
96
39
45
95
34
41
96
33
41
91
25
35
87
24
33
82
22
32
79
26
34
68
23
28
47
11
13
30
0
2
21
0
0
17
0
0
16
0
0
20
1
0
21
0
0
25
1
0
26
2
0
31
3
0
33
3
1
36
5
2
38
4
2
48
13
11
49
11
8
50
10
8
50
11
6
50
11
6
49
10
5
50
9
5
49
10
5
46
7
2
50
10
8
54
10
9
56
10
10
63
14
17
72
19
25
76
20
33
74
15
33
77
15
38
78
15
44
87
23
57
124
62
99
177
115
156
184
123
165
184
123
167
172
114
154
159
109
138
157
110
130
152
109
119
147
107
108
140
101
94
129
96
81
122
89
72
116
85
65
116
88
66
115
87
63
114
86
62
113
86
59
25
13
27
33
21
35
42
30
44
44
31
48
39
26
44
29
16
34
23
8
29
20
5
28
20
2
28
24
6
32
28
9
37
30
11
39
30
10
38
30
9
40
31
10
41
34
10
44
33
5
45
36
5
49
37
6
50
38
6
53
42
8
59
51
14
68
61
21
81
67
27
89
85
43
109
65
20
89
81
33
107
104
56
132
108
56
138
136
82
166
184
130
214
204
150
234
206
151
234
219
164
247
222
164
248
213
155
239
213
154
236
218
159
239
229
168
248
243
181
255
251
189
255
246
184
255
245
184
253
244
185
251
249
191
252
250
192
251
221
166
224
180
124
189
170
107
186
167
102
192
175
109
206
178
111
214
169
102
208
161
95
201
141
75
181
108
46
147
90
29
124
86
28
115
84
29
110
82
30
102
71
23
85
61
14
68
54
11
56
53
13
50
47
10
43
46
10
38
43
9
34
41
8
29
39
8
24
39
8
23
40
10
20
41
11
19
41
12
17
41
12
16
41
12
16
40
11
15
38
12
15
37
11
14
37
11
14
36
11
14
35
13
15
36
14
16
36
14
16
37
15
17
39
18
17
40
19
18
43
19
19
43
19
19
45
21
21
45
21
21
46
22
20
46
22
20
48
24
22
50
26
24
53
27
26
55
29
28
59
31
28
61
33
30
63
35
32
63
35
32
62
34
30
62
34
30
64
36
32
66
38
34
66
37
31
69
40
34
73
44
38
77
48
42
78
49
41
78
49
41
76
47
39
74
46
35
75
45
34
78
48
37
80
50
39
80
51
37
80
48
35
79
47
32
79
47
32
80
48
33
80
48
33
80
48
33
81
48
33
79
46
31
78
44
34
80
46
36
84
50
40
88
54
44
91
57
47
90
58
47
91
59
48
93
61
50
94
62
51
96
64
53
97
65
54
98
66
55
92
60
49
95
63
52
95
63
52
93
61
50
92
60
49
91
59
48
85
53
42
77
45
34
72
38
29
71
37
28
70
37
28
69
36
27
68
35
26
67
34
25
65
35
25
65
35
25
64
34
26
63
34
26
64
35
27
64
35
27
64
35
27
65
36
28
64
37
28
64
37
28
67
37
29
72
42
34
77
47
39
79
49
41
82
47
41
84
49
43
91
54
48
95
58
52
103
62
60
108
67
65
108
64
63
103
59
58
110
62
62
104
56
56
93
45
45
105
57
57
101
51
52
89
37
39
92
37
42
93
36
42
93
32
40
94
31
40
87
24
33
84
23
31
81
24
33
75
24
31
59
18
24
38
6
9
23
0
0
15
0
0
12
0
0
12
0
0
20
0
0
20
1
0
23
2
0
26
2
0
31
3
0
33
3
1
36
5
3
38
4
2
46
11
9
46
11
7
48
10
7
48
10
7
48
10
7
48
10
7
49
9
7
49
10
5
47
8
3
50
11
6
53
9
8
56
10
12
64
15
19
72
19
27
75
18
33
74
15
35
78
16
41
82
19
48
87
26
59
116
55
89
167
105
144
179
119
157
178
118
156
166
111
143
157
107
132
156
109
125
152
110
114
147
108
103
141
103
90
130
97
78
124
92
71
119
89
65
115
88
61
114
87
58
113
86
57
113
86
56
19
6
23
28
15
32
39
26
44
44
31
51
42
28
51
38
23
46
35
19
46
34
18
45
31
12
42
30
11
41
28
9
41
28
7
40
27
6
39
27
6
39
29
8
41
32
8
44
34
5
49
37
5
52
38
6
55
39
5
55
43
6
60
50
12
69
61
21
83
70
28
92
80
35
104
75
29
101
83
35
111
106
55
134
141
87
171
183
129
215
210
156
242
214
159
243
213
158
241
218
161
240
221
164
245
228
169
249
235
176
255
239
178
255
240
178
255
243
181
255
238
176
249
230
169
239
218
157
226
211
150
217
216
157
223
218
159
223
188
132
195
151
91
163
152
87
177
152
86
186
162
95
201
172
104
213
170
102
213
163
95
206
147
80
186
123
58
158
105
41
137
92
32
120
81
24
105
78
24
99
77
26
93
66
18
76
56
12
63
57
14
59
50
10
47
47
10
41
45
9
37
42
8
32
40
8
29
40
9
25
40
10
22
41
11
19
41
12
17
41
12
16
41
12
16
40
11
15
38
12
15
36
11
14
36
11
14
34
12
14
35
13
15
36
14
16
36
14
16
37
15
17
38
17
16
39
18
17
40
19
18
42
18
18
43
19
19
43
19
19
44
20
18
46
22
20
47
23
21
49
25
23
51
27
25
52
26
25
55
30
26
58
30
27
60
32
29
60
32
29
59
31
27
60
32
28
61
33
29
63
35
31
61
32
26
64
35
29
69
40
34
73
44
38
75
46
38
75
46
38
73
44
36
71
43
32
74
44
34
77
47
36
80
50
39
80
51
37
81
49
36
79
47
32
80
48
33
81
49
34
79
47
32
80
48
33
80
47
32
78
45
30
78
44
34
79
45
35
84
50
40
86
54
43
89
57
46
89
57
46
90
58
47
91
59
48
93
61
50
94
62
51
95
63
52
96
64
53
90
58
47
93
61
50
94
62
51
93
61
50
92
60
49
90
58
47
83
51
40
75
43
32
71
37
28
71
37
28
69
36
27
69
36
27
68
35
26
67
34
25
64
34
24
64
34
24
65
35
27
65
35
27
64
35
27
65
36
28
66
37
29
66
37
29
66
39
30
67
38
30
69
39
31
73
43
35
77
47
39
79
49
41
83
48
42
86
51
45
95
58
52
101
64
58
107
66
64
104
63
61
102
58
57
105
61
60
112
64
64
103
55
55
95
47
47
103
55
55
98
46
48
85
33
35
89
34
39
89
34
39
89
29
37
91
30
38
84
23
31
82
22
30
79
26
34
68
23
28
50
14
18
32
3
5
17
0
0
11
0
0
11
0
0
12
0
0
19
1
0
20
1
0
23
2
0
24
3
0
29
4
0
32
4
1
35
5
3
36
5
3
43
9
7
44
9
7
45
10
8
45
10
6
48
10
7
46
11
7
49
11
8
49
11
8
51
11
9
52
12
10
53
9
8
56
10
12
65
16
22
71
17
30
73
16
33
75
16
38
77
14
43
89
25
59
100
39
73
119
58
92
159
99
135
172
112
146
169
112
145
162
107
136
156
107
126
155
109
119
152
110
111
148
110
101
143
106
88
133
101
76
127
96
68
123
93
65
116
89
59
115
89
56
113
87
54
112
86
51
20
5
28
24
9
32
28
12
38
31
15
41
34
18
45
42
23
51
51
32
64
59
40
72
59
37
73
48
26
64
35
13
51
32
7
46
33
8
48
35
10
50
33
8
47
31
4
45
33
4
50
37
5
54
39
5
56
38
3
57
41
3
60
48
10
69
60
20
83
71
29
95
74
28
100
102
54
128
107
56
135
122
70
152
183
129
213
215
159
246
186
130
219
153
97
184
153
95
180
150
91
173
165
106
190
194
132
215
211
149
232
211
148
229
204
141
222
200
135
215
188
124
202
184
120
198
174
112
187
174
112
187
190
130
204
197
137
211
173
113
187
142
80
163
136
70
170
135
67
178
144
74
190
154
84
200
160
90
206
159
91
204
155
88
194
148
83
183
131
68
159
122
62
148
97
40
119
73
19
94
68
17
86
66
18
80
60
15
72
61
17
68
52
11
53
48
11
45
46
9
40
43
9
34
41
9
32
40
9
27
39
11
25
39
12
21
41
11
19
41
12
17
41
12
16
40
11
15
38
11
16
36
11
15
34
12
15
33
13
15
35
15
16
35
15
16
35
15
16
36
16
17
37
17
18
37
17
18
38
18
19
39
17
19
39
18
17
39
18
17
41
20
19
43
22
21
44
23
22
46
25
24
47
26
25
49
25
23
52
27
23
54
29
25
55
30
26
56
31
27
55
30
26
55
30
26
59
31
27
60
32
28
57
30
23
59
32
25
63
36
29
67
40
33
70
41
33
70
41
33
69
40
32
68
40
29
72
42
32
75
45
34
78
48
37
80
51
37
79
50
36
79
50
34
80
51
35
81
52
36
80
48
33
80
48
33
80
48
33
79
47
32
79
47
36
82
50
39
86
54
43
90
58
47
89
56
47
87
57
47
87
57
47
88
58
48
90
57
48
90
57
48
90
57
48
90
57
48
88
55
46
92
59
50
93
60
51
91
58
49
91
58
49
89
56
47
82
49
40
73
40
31
71
37
28
71
37
28
70
36
27
69
35
26
67
34
25
67
34
25
66
33
24
66
33
24
65
35
27
66
36
28
65
36
28
66
37
29
67
38
30
68
39
31
69
40
32
69
40
32
70
40
32
75
45
37
80
50
42
82
52
44
86
51
45
90
55
49
99
62
56
104
67
61
110
69
67
101
60
58
98
54
53
107
63
62
115
67
67
106
58
58
101
53
53
103
55
55
95
43
47
82
30
34
84
32
36
86
31
36
86
29
36
88
28
36
82
22
32
78
22
31
76
26
35
60
19
25
41
10
15
24
2
4
14
0
0
11
0
0
10
0
0
12
1
0
17
2
0
19
1
0
22
3
0
24
3
0
29
3
2
32
4
3
35
5
3
36
5
3
39
8
6
41
7
5
42
8
6
43
9
7
45
10
8
45
11
9
47
12
10
47
12
8
53
15
12
56
16
14
55
11
12
56
10
13
65
15
24
69
15
31
73
15
37
82
22
50
80
16
50
99
35
70
121
59
96
133
71
108
158
98
132
166
107
139
164
108
137
159
105
129
156
108
122
155
110
113
153
112
106
150
113
97
146
110
86
137
106
77
132
101
70
128
99
65
124
98
63
122
96
59
120
94
57
118
93
53
23
7
34
25
9
36
28
12
41
29
13
42
32
13
45
37
18
50
45
25
60
53
33
70
61
39
78
58
35
77
53
28
70
42
17
59
32
6
51
28
2
47
30
5
47
35
8
53
35
3
53
37
4
57
39
4
58
38
3
59
40
2
61
48
8
70
61
19
85
72
29
98
75
27
101
94
46
122
116
64
146
170
116
200
222
166
253
191
135
224
133
77
168
125
66
158
123
63
153
124
64
152
149
86
175
178
115
204
186
122
209
178
114
201
168
102
189
158
92
179
147
81
168
153
87
174
156
90
177
168
104
190
193
129
216
193
131
217
164
102
188
137
73
169
120
52
163
122
53
172
130
59
181
141
70
192
149
78
198
150
80
194
153
86
191
161
95
193
175
110
200
181
119
202
144
85
165
87
33
108
66
13
83
63
14
80
60
11
76
56
11
66
53
12
56
52
12
47
47
10
43
44
10
37
42
8
32
41
10
28
39
11
25
39
12
21
41
11
19
41
12
17
41
12
16
38
12
15
38
11
16
34
12
15
33
13
15
33
13
15
35
15
17
34
16
16
35
15
16
36
16
17
36
16
17
37
17
18
37
17
18
37
17
18
35
15
14
38
17
16
40
19
18
42
21
20
44
23
22
44
23
22
45
24
23
45
24
23
48
24
22
51
26
22
53
28
24
53
28
24
52
27
23
52
27
23
56
28
24
58
30
26
56
29
22
57
30
23
59
32
25
62
35
28
64
35
27
65
36
28
65
36
28
65
37
26
69
39
29
72
42
31
76
46
35
78
49
35
78
49
35
78
49
33
79
50
34
80
51
35
81
49
34
81
49
34
81
49
34
80
48
33
80
48
37
83
51
40
88
56
45
92
60
49
87
57
47
87
57
47
86
56
46
85
55
45
86
53
44
85
52
43
85
52
43
84
51
42
89
56
47
91
58
49
91
58
49
89
56
47
88
55
46
87
54
45
81
48
39
73
40
31
70
36
27
70
36
27
70
36
27
69
35
26
67
34
25
66
33
24
66
33
24
65
32
23
66
36
28
66
36
28
66
37
29
67
38
30
68
39
31
69
40
32
70
41
33
71
42
34
70
40
32
76
46
38
83
53
45
87
57
49
90
55
49
90
55
49
96
59
53
99
62
56
106
65
63
98
57
55
96
52
51
108
64
63
113
65
65
106
58
58
106
58
58
104
56
56
92
40
44
80
28
32
82
30
34
83
31
35
84
29
35
85
30
36
79
23
32
75
24
31
69
24
31
51
15
19
31
5
8
20
2
2
14
0
0
9
0
0
9
0
0
12
0
0
17
1
1
19
1
0
22
3
0
24
3
0
28
4
2
30
4
3
34
6
3
35
5
3
37
6
4
37
6
4
41
7
5
42
8
6
44
10
8
45
11
9
46
12
10
48
13
11
53
15
14
59
17
18
56
11
14
56
9
17
65
13
26
68
13
34
78
19
47
95
34
67
92
28
65
110
45
85
143
81
122
153
91
130
161
101
135
162
105
137
164
108
137
159
105
128
157
110
120
156
112
111
154
114
104
152
115
96
149
114
86
142
112
78
137
107
71
133
105
66
135
110
70
134
109
69
131
106
65
128
104
60
24
5
37
29
10
42
35
16
48
36
16
51
34
12
50
31
9
47
32
10
49
33
10
52
43
18
60
52
26
71
59
31
79
54
26
74
41
13
61
33
5
53
35
7
56
41
13
62
44
11
64
47
12
68
49
14
70
47
12
70
48
10
71
56
16
79
71
28
97
82
39
110
87
39
115
103
54
133
148
96
179
199
145
231
199
143
232
141
82
174
108
49
141
130
71
165
128
66
163
142
78
175
167
101
199
173
107
205
155
88
185
144
77
174
144
74
172
137
67
165
138
68
166
146
79
176
155
87
186
175
109
207
200
134
234
191
124
227
155
90
192
133
67
175
120
50
172
124
53
181
131
59
187
140
68
194
146
75
197
145
75
189
153
84
190
171
105
202
211
147
234
222
161
241
185
127
204
125
71
146
94
41
113
75
25
94
60
11
77
55
10
69
55
12
58
53
13
50
48
11
45
45
10
40
43
9
34
41
9
30
39
11
25
39
12
21
41
11
19
41
12
17
41
12
16
38
12
15
38
11
16
34
12
15
33
12
17
32
13
15
34
15
17
32
16
17
34
16
16
34
16
16
35
17
17
35
17
17
35
17
17
35
17
17
33
15
15
35
15
16
38
18
17
40
20
19
42
22
21
43
23
22
42
22
21
43
22
21
46
22
20
48
24
22
50
26
22
50
26
22
50
25
21
50
25
21
52
27
22
54
29
24
57
29
25
57
29
25
56
29
22
57
30
23
58
29
21
60
31
23
62
33
25
63
35
24
66
38
27
69
41
29
73
43
32
75
46
32
74
45
31
73
44
28
74
45
29
75
46
30
79
50
34
79
50
34
80
48
33
79
47
32
78
46
35
80
48
37
84
52
41
87
55
44
84
54
44
84
54
44
83
53
43
82
52
42
81
51
41
80
50
40
81
48
39
81
48
39
89
56
47
91
58
49
90
57
48
86
53
44
86
53
44
86
53
44
81
48
39
74
41
32
70
36
27
70
36
27
69
35
26
69
35
26
68
34
25
67
33
24
65
32
23
65
32
23
66
36
28
67
37
29
68
38
30
69
39
31
69
40
32
71
42
34
72
43
35
72
43
35
70
40
32
78
48
40
86
56
48
90
60
52
91
56
50
87
52
46
87
50
44
87
50
44
95
54
52
93
52
50
95
51
50
106
62
61
106
58
58
99
51
51
107
59
59
105
57
57
91
39
43
79
27
31
81
31
34
82
32
35
82
29
35
83
30
36
78
25
33
75
26
32
60
17
24
41
9
12
22
0
2
14
0
0
10
0
0
8
0
0
7
0
0
10
0
0
17
1
1
19
1
0
22
2
1
24
3
2
28
4
2
30
4
3
34
6
5
35
5
5
35
4
2
36
5
3
37
6
4
39
8
6
41
10
8
43
12
10
44
13
10
47
13
11
51
11
12
58
16
20
56
11
18
55
7
19
64
11
31
69
13
38
85
26
58
111
49
88
111
46
89
120
54
100
158
95
140
168
105
148
165
105
143
164
107
140
168
112
141
159
108
127
158
111
119
158
114
111
156
117
102
155
119
95
153
118
88
146
116
78
142
113
73
138
110
70
141
117
73
140
116
72
137
113
67
135
111
65
20
0
35
26
6
41
32
12
47
33
13
48
32
10
48
29
7
46
31
6
46
33
8
50
36
9
54
40
13
58
49
19
69
58
28
78
63
33
83
59
29
79
50
20
72
44
11
66
59
21
82
62
24
85
64
24
87
62
22
85
62
20
86
69
26
95
85
39
111
97
51
126
103
54
133
158
106
188
208
154
238
192
136
223
132
76
167
106
47
139
113
54
148
116
57
151
126
64
163
151
86
186
174
109
211
158
93
193
123
57
157
118
52
152
134
66
167
135
67
168
136
68
169
146
78
181
153
86
189
175
108
213
199
132
238
187
119
228
151
85
193
135
68
181
131
61
183
134
62
188
134
62
188
138
66
191
144
73
191
146
77
186
163
95
196
193
126
221
224
158
246
229
165
249
201
140
220
162
104
181
136
80
155
99
46
118
68
17
86
66
16
77
58
12
61
54
12
52
51
11
48
46
9
42
43
9
34
41
9
30
39
11
26
39
11
23
41
11
19
41
12
17
41
12
17
38
11
16
38
11
16
36
11
15
33
12
17
32
13
17
34
15
17
32
16
17
34
15
17
34
16
16
35
17
17
35
17
17
35
17
17
35
17
17
32
14
14
33
15
15
37
17
18
40
20
21
42
22
21
41
23
21
42
22
21
41
21
20
43
22
19
45
24
21
49
25
21
49
25
21
48
24
20
48
24
20
50
27
21
52
29
23
56
31
26
55
30
25
53
28
23
52
27
20
54
27
20
56
29
20
59
32
25
60
33
24
66
38
27
68
40
28
71
43
32
71
43
31
70
41
27
68
40
26
69
40
26
70
41
27
78
49
35
78
49
35
77
48
34
74
45
31
74
42
31
73
43
32
79
46
37
80
50
40
82
52
42
80
52
41
81
51
41
79
51
40
79
49
39
79
49
39
78
48
38
78
48
38
88
58
48
89
59
49
87
57
47
83
53
43
82
52
42
83
53
43
79
49
39
73
43
33
69
36
27
69
36
27
68
35
26
67
34
25
67
34
25
66
33
24
65
32
23
63
33
23
66
36
28
67
37
29
68
38
30
69
39
31
70
41
33
71
42
34
72
43
35
73
44
36
70
40
32
79
49
41
88
58
50
92
62
54
89
56
49
83
48
42
77
42
36
77
40
34
84
44
42
88
47
45
92
51
49
104
60
59
97
51
53
91
45
47
104
58
60
105
56
59
90
39
44
78
25
33
80
29
36
82
31
38
80
31
37
82
33
39
74
27
35
70
27
34
51
15
19
33
4
8
16
0
0
11
0
0
10
0
0
7
0
0
6
0
0
8
0
0
17
1
1
20
0
0
22
2
1
24
3
2
28
4
2
30
4
3
34
6
5
34
6
3
34
3
1
35
4
1
37
6
4
41
7
6
43
9
8
45
11
10
47
13
11
48
12
12
48
5
12
58
12
23
56
8
24
57
5
27
64
10
36
71
14
47
91
30
71
121
60
104
124
60
110
124
60
110
165
103
150
175
114
156
166
109
144
166
111
140
171
117
141
161
111
123
157
113
114
156
116
106
158
120
101
157
121
95
154
121
90
150
117
82
145
115
77
141
113
73
143
116
73
140
116
70
138
114
66
136
112
64
21
0
33
26
5
38
31
10
43
31
9
45
29
5
41
29
4
43
35
8
49
40
13
56
49
20
66
44
12
59
48
14
65
59
25
76
73
36
90
86
49
103
87
49
106
76
36
96
75
30
99
80
34
107
94
46
120
101
53
127
103
55
129
117
69
145
145
94
173
163
112
191
170
118
200
207
153
237
201
147
233
135
79
166
97
41
132
96
40
131
89
33
124
96
37
131
151
91
187
155
93
190
132
70
169
113
51
148
121
59
156
122
60
157
116
51
151
119
54
154
122
57
159
126
61
163
152
87
189
157
92
196
155
90
194
167
101
207
154
88
194
126
58
167
134
64
178
130
57
174
148
75
190
165
93
205
163
91
199
179
108
210
209
139
237
220
151
244
220
151
244
182
116
206
172
107
197
191
127
214
198
135
216
181
120
197
133
73
143
74
18
79
74
26
78
59
16
61
51
10
50
48
11
45
44
10
37
42
10
33
41
12
30
39
11
25
41
13
25
40
13
22
40
13
22
39
12
19
39
12
19
37
12
18
37
12
16
35
13
16
37
16
21
36
17
19
36
16
18
35
15
16
35
15
16
34
14
13
33
15
15
32
14
14
33
14
16
35
16
18
37
18
20
39
20
22
40
22
22
38
23
20
39
21
19
39
21
17
43
24
20
43
24
20
45
24
21
45
24
21
45
24
19
46
25
20
46
25
20
46
25
20
49
25
21
50
27
21
51
28
22
52
29
23
53
30
24
54
31
23
54
31
25
56
31
24
63
36
27
63
36
25
64
37
28
65
38
27
67
39
28
66
39
28
68
40
29
68
40
29
71
43
32
72
44
33
72
44
33
71
43
32
70
40
30
68
40
29
72
42
34
73
45
34
72
44
33
70
43
32
71
43
32
70
43
32
73
45
34
75
47
36
77
49
38
78
50
39
81
53
42
81
53
42
80
52
41
79
51
40
78
50
39
77
49
38
76
48
37
76
48
37
66
36
25
66
36
25
65
35
25
64
34
24
63
33
23
62
32
22
61
31
21
60
32
21
63
34
26
63
34
26
64
35
29
64
35
29
65
36
30
66
37
31
66
37
31
66
37
31
76
47
41
80
51
45
84
55
49
85
54
49
81
51
43
79
46
39
77
42
36
79
42
36
80
43
37
90
50
48
99
59
57
100
58
59
92
50
52
87
42
45
87
42
47
90
43
51
90
38
50
79
27
40
76
24
37
79
29
41
79
31
43
78
32
43
67
26
34
48
13
19
29
0
4
24
2
4
20
2
2
16
2
1
12
1
0
9
0
0
9
0
0
10
0
0
18
0
0
21
0
1
24
2
4
26
5
4
30
6
4
31
5
4
33
5
2
33
5
1
34
3
0
35
4
0
38
4
2
40
5
3
42
7
5
43
8
6
46
8
7
47
6
10
57
10
26
62
13
35
65
12
40
57
3
35
69
14
53
72
15
58
92
34
84
171
113
164
139
80
134
149
91
141
168
111
156
177
121
158
172
117
146
169
118
137
170
120
132
166
120
122
156
116
106
154
117
98
153
117
95
154
120
95
154
120
92
150
117
86
141
111
77
134
106
67
125
97
57
126
99
54
130
106
58
137
113
65
27
3
37
31
7
41
35
11
47
34
10
46
32
6
45
31
5
44
36
7
51
42
11
55
44
12
61
56
22
72
64
27
79
61
22
77
64
25
82
89
50
107
132
91
151
165
123
187
150
102
176
160
109
188
176
125
204
185
134
213
187
136
215
194
143
222
204
151
233
204
151
233
188
134
218
154
100
184
115
59
146
93
37
124
94
38
127
85
29
120
81
25
116
112
56
147
169
110
204
146
87
181
125
66
160
119
60
154
116
56
152
108
48
144
105
45
141
111
49
148
103
41
140
111
49
148
129
67
166
131
69
170
120
58
159
117
55
156
120
55
157
121
56
160
129
60
169
157
85
195
188
116
224
206
135
241
213
142
244
215
145
243
209
139
235
198
128
224
176
106
202
170
100
198
172
105
202
182
115
208
202
136
223
223
158
238
195
132
203
130
72
133
81
30
86
63
20
66
56
13
56
51
13
50
45
10
40
42
10
33
40
11
29
37
9
24
40
12
26
40
12
24
40
12
24
39
12
21
38
11
20
38
11
18
36
11
17
34
11
17
37
14
20
36
15
20
35
14
19
35
15
17
34
14
15
34
14
15
32
14
14
32
14
14
33
14
16
34
15
17
36
17
19
38
19
21
37
21
21
37
22
19
37
22
17
36
21
16
41
23
19
43
24
20
43
24
20
43
24
20
44
25
19
44
25
19
44
25
19
44
25
19
46
25
20
47
26
21
47
27
20
48
28
21
49
29
22
50
30
23
51
31
24
53
30
24
57
32
25
59
32
23
60
33
24
62
35
26
63
36
27
64
37
28
65
38
29
66
39
30
67
38
30
69
40
32
71
42
34
70
41
33
68
39
31
67
38
30
68
39
31
69
40
32
68
41
30
67
40
29
67
40
29
67
40
29
68
41
30
70
43
32
72
45
34
73
46
35
77
50
39
77
50
39
76
49
38
75
48
37
74
47
36
74
47
36
73
46
35
72
45
34
66
38
26
65
37
25
64
36
25
64
36
25
63
35
24
62
34
23
61
33
22
61
33
22
64
35
27
64
35
27
64
35
29
65
36
30
65
36
30
66
37
31
66
37
31
66
37
31
75
46
42
78
49
45
82
53
49
83
54
48
81
50
45
78
48
40
78
45
38
79
44
38
82
45
39
89
51
48
95
55
55
94
54
55
89
47
51
83
41
45
84
39
46
85
39
49
86
35
50
77
26
43
76
25
42
79
31
45
80
33
49
73
31
43
57
19
30
36
5
11
22
0
1
18
0
0
15
0
0
13
0
0
10
0
0
9
0
0
11
0
0
11
0
0
20
0
2
23
1
4
25
3
6
29
4
7
31
5
6
31
5
4
33
5
2
32
4
0
35
4
1
35
4
0
38
4
2
41
6
4
44
6
5
46
8
7
48
8
9
49
6
13
60
11
33
63
10
40
64
10
44
61
6
45
73
17
62
82
26
75
129
72
125
205
148
203
161
104
159
159
102
153
165
109
154
172
118
154
174
121
147
175
124
141
173
123
132
163
118
115
160
121
104
157
121
97
154
120
95
153
119
94
151
117
90
144
110
82
132
102
68
124
94
56
109
82
39
112
85
40
117
93
45
128
105
55
33
7
46
35
9
48
38
11
52
37
10
51
35
6
50
36
5
49
38
6
55
42
8
58
48
11
65
61
22
77
69
30
87
66
25
85
81
39
102
130
88
151
180
136
199
197
152
219
192
144
218
184
136
212
174
125
204
162
113
192
156
105
184
158
107
186
154
102
184
142
90
172
121
67
151
97
43
127
84
30
116
81
27
113
78
24
112
76
22
110
102
46
135
150
94
183
177
121
212
137
81
172
117
61
152
112
56
147
95
38
132
83
26
120
83
26
120
82
22
118
78
18
114
104
44
140
112
52
148
104
44
142
97
37
135
94
34
132
100
38
137
106
44
145
138
71
177
163
94
201
163
94
201
153
85
188
164
96
197
171
103
202
161
94
191
153
86
183
150
82
181
154
86
185
164
96
195
170
103
200
191
125
215
230
165
247
228
164
238
181
122
186
86
35
91
68
24
73
59
16
61
53
15
52
46
11
41
42
10
34
39
10
30
35
7
22
40
12
26
40
12
24
39
11
23
39
12
21
38
11
20
37
10
17
35
10
16
33
10
16
36
13
21
35
14
21
34
13
20
34
13
18
34
13
18
33
13
15
32
13
15
32
13
15
32
13
15
34
15
17
35
16
18
37
19
19
38
20
20
38
20
18
35
20
15
34
19
14
40
22
18
40
22
18
41
22
18
42
23
19
42
23
19
43
24
20
43
24
18
43
24
18
43
24
18
44
25
19
45
24
19
46
25
20
47
27
20
47
27
20
48
28
21
50
27
21
52
27
20
52
27
20
54
29
22
56
31
24
58
33
26
59
34
27
63
36
29
64
37
30
62
35
28
66
39
32
69
42
35
70
43
36
69
40
34
67
38
32
66
37
31
66
37
29
64
37
26
64
37
26
63
36
25
63
36
25
64
37
26
65
38
27
67
40
29
68
41
30
73
46
35
72
45
34
72
45
34
71
44
33
70
43
32
70
43
32
69
42
31
69
42
31
65
37
26
65
37
26
65
37
26
64
36
25
63
35
24
62
34
23
62
33
25
61
32
24
64
35
27
65
36
28
65
36
30
65
36
30
66
37
31
66
37
31
66
37
31
66
37
31
70
42
38
73
45
41
78
49
45
79
50
44
79
48
43
77
46
41
79
46
41
78
45
40
81
46
42
85
47
46
88
48
48
86
46
47
82
41
45
78
37
43
78
35
44
80
34
45
81
33
49
75
26
45
75
26
45
79
32
48
76
32
49
65
27
40
44
11
22
22
0
2
17
0
0
15
0
0
12
0
0
11
0
0
12
0
0
12
1
0
15
1
1
16
0
1
23
3
5
25
3
6
29
4
8
30
5
8
31
5
6
31
5
4
32
4
1
31
3
0
35
4
2
36
5
2
39
5
4
42
6
6
45
6
7
47
8
9
48
9
12
50
9
17
61
13
37
59
8
39
62
10
46
63
11
50
73
20
64
92
38
88
168
113
168
227
172
229
181
126
181
173
119
169
171
118
162
175
123
159
177
127
154
177
128
147
172
125
135
160
116
115
163
124
109
157
121
99
151
117
92
147
113
86
142
108
80
134
101
70
120
90
54
110
81
41
103
76
31
105
78
31
109
86
36
118
95
43
39
7
54
40
8
55
41
9
56
40
8
57
41
7
57
40
6
57
43
6
60
44
6
63
55
15
75
64
23
83
63
19
82
78
33
98
135
90
157
186
139
207
178
131
199
143
96
166
119
71
145
109
61
137
97
48
127
90
41
120
98
47
126
111
60
139
108
56
138
90
38
120
74
20
104
83
29
113
87
33
119
71
17
103
71
17
103
113
59
145
147
93
181
147
93
179
133
77
164
108
54
140
96
40
129
86
32
120
72
16
105
71
17
105
76
20
111
68
12
103
75
19
110
102
46
137
97
38
132
86
29
123
94
35
129
90
33
127
91
31
127
91
31
129
157
92
194
155
88
193
127
60
165
103
36
139
113
47
147
127
61
159
134
68
165
143
77
175
145
77
178
143
76
179
162
94
197
178
110
209
182
115
208
193
128
212
193
129
205
171
112
178
85
34
91
67
23
72
59
16
61
53
15
52
47
12
42
43
11
35
40
11
31
37
9
24
40
12
27
40
12
26
39
11
23
38
10
22
37
10
19
36
9
18
34
9
15
32
9
17
34
11
21
33
12
21
33
12
21
33
12
19
33
12
19
32
11
16
31
12
16
31
12
14
31
12
14
33
15
15
34
16
16
36
18
16
36
18
16
36
18
14
33
18
13
32
17
12
38
20
16
38
20
16
39
20
16
40
21
17
40
21
17
41
22
18
41
22
16
41
22
16
41
22
16
42
23
17
43
22
17
44
23
18
44
24
17
45
25
18
45
25
18
45
25
18
47
24
16
49
24
17
51
26
19
53
28
21
56
31
24
58
33
26
62
35
28
62
35
28
61
34
27
66
39
32
71
44
37
73
46
39
73
44
38
70
41
35
67
38
32
66
37
31
63
36
27
62
35
24
61
34
23
61
34
23
61
34
23
62
35
24
64
37
26
65
38
27
67
40
29
67
40
29
67
40
29
66
39
28
66
39
28
65
38
27
65
38
27
65
38
27
64
36
25
64
36
25
64
36
25
63
35
24
63
35
24
62
34
23
62
33
25
62
33
25
65
36
28
65
36
28
65
36
30
65
36
30
65
36
30
65
36
30
65
36
30
64
36
32
64
36
33
67
39
36
70
40
38
73
44
40
73
44
40
74
43
38
74
43
40
76
42
40
78
43
41
77
41
41
77
38
39
77
36
40
77
36
42
76
35
43
76
33
42
75
31
44
77
30
48
75
28
48
75
28
48
72
29
46
66
25
41
52
16
30
33
3
15
18
0
1
15
0
2
14
0
1
13
1
3
14
2
4
16
4
6
18
6
6
21
6
9
23
7
10
25
4
9
27
4
10
30
5
9
31
6
10
32
6
9
32
6
7
32
4
3
31
3
2
36
4
5
37
5
6
40
6
7
42
8
9
45
9
13
49
10
15
50
11
16
52
10
22
60
12
38
59
8
41
62
10
48
64
11
53
74
21
67
107
53
103
196
141
196
226
171
228
189
134
189
184
130
182
183
130
176
184
132
170
179
129
158
175
126
147
169
121
135
158
113
116
159
119
107
150
114
92
140
105
83
134
100
73
130
97
66
123
90
55
112
82
44
104
75
33
107
80
33
107
81
32
110
84
33
113
90
38
52
15
69
51
14
68
51
14
68
52
14
71
55
16
73
56
16
76
57
15
78
57
15
79
58
13
78
72
27
94
79
32
102
119
72
142
183
136
208
184
134
207
130
79
154
97
46
121
82
34
110
75
27
103
72
24
100
75
27
103
88
39
118
104
55
134
99
50
129
78
29
108
82
30
112
87
35
117
79
27
110
76
24
107
105
53
136
147
95
178
144
92
177
102
50
133
84
31
113
81
29
111
76
23
105
63
11
93
59
5
89
62
10
93
68
14
100
67
13
99
81
27
113
100
46
132
92
36
125
84
30
118
82
26
115
73
19
107
92
36
127
122
65
159
164
102
201
142
77
179
115
50
152
104
39
139
104
40
137
108
44
141
121
57
154
137
73
170
141
74
177
141
76
180
164
97
202
178
111
214
165
99
196
157
93
180
153
90
169
138
79
147
78
27
84
60
17
63
54
11
54
50
12
49
45
10
40
43
11
35
42
13
33
39
11
26
40
12
27
40
12
26
39
11
23
37
9
21
36
9
18
35
8
17
33
8
14
30
7
15
32
9
19
31
9
21
31
9
21
31
10
19
31
10
19
32
11
18
32
11
16
32
12
14
30
11
13
31
13
13
33
15
13
34
16
12
34
16
12
34
17
10
33
16
9
32
15
8
36
18
14
36
18
14
36
18
14
37
19
15
38
19
15
39
20
16
39
20
16
39
20
16
40
21
15
41
22
16
41
22
16
41
22
16
42
21
16
43
22
17
43
22
17
43
23
16
46
23
15
46
23
15
48
25
17
50
27
19
53
30
22
55
32
24
58
33
26
59
34
27
60
35
28
65
40
33
71
46
39
74
49
42
75
48
41
71
44
37
68
41
34
67
40
33
65
36
28
64
35
27
62
33
25
61
32
24
61
32
24
62
33
25
63
34
26
63
34
26
64
35
27
64
35
27
63
34
26
63
34
26
63
34
26
63
34
26
62
33
25
62
33
25
62
35
26
61
34
25
61
34
25
61
34
25
61
34
25
60
33
24
60
33
24
60
33
24
63
36
29
63
36
29
63
36
29
63
36
29
63
36
29
63
36
29
63
36
29
63
35
31
58
30
27
57
32
28
61
33
30
64
36
33
66
38
35
68
39
35
70
39
37
69
38
36
70
36
35
69
33
35
67
31
35
70
30
38
72
32
40
73
33
42
74
32
42
75
31
46
74
29
49
75
30
51
71
28
48
62
21
39
49
12
29
36
4
19
24
0
11
19
0
7
14
0
5
12
0
4
12
1
5
14
3
7
18
6
10
20
8
10
23
8
13
25
9
12
28
5
11
30
5
11
32
7
11
33
8
12
34
7
12
33
7
10
34
5
9
33
4
6
37
5
10
38
6
11
42
7
14
44
9
16
47
9
20
49
11
22
51
13
24
53
12
28
59
13
42
61
11
48
62
11
52
63
12
55
79
27
75
138
85
137
223
170
224
227
174
230
196
143
199
188
135
187
184
132
180
180
130
168
173
124
154
168
120
144
164
117
135
156
111
118
153
113
105
142
105
87
129
94
72
123
89
62
122
89
58
122
90
52
115
86
46
110
81
37
111
83
36
108
82
33
110
84
33
114
88
37
64
22
85
62
20
83
62
20
83
65
23
87
73
28
93
76
31
98
76
31
100
75
28
98
73
26
98
86
36
109
133
82
157
182
131
206
177
126
201
126
73
151
90
37
115
86
33
111
80
32
108
73
25
99
69
21
97
71
23
99
80
32
108
91
42
121
88
39
118
72
23
102
73
24
103
69
20
101
74
22
104
113
64
145
149
97
179
130
81
162
98
46
128
79
30
109
71
23
99
73
25
101
66
18
94
59
11
87
56
8
84
52
3
82
54
5
84
65
16
97
90
38
120
92
40
122
81
29
111
78
26
109
88
36
119
105
53
136
132
80
163
157
103
191
136
77
171
107
47
143
93
33
129
93
33
129
86
26
122
84
22
119
99
37
134
115
53
152
126
64
165
142
77
181
162
96
202
162
97
199
148
84
181
151
86
176
144
81
160
113
56
124
66
17
72
51
8
53
46
4
44
44
7
40
42
8
35
42
10
33
42
13
31
40
12
27
40
12
26
39
11
23
38
10
22
37
9
21
35
8
17
34
7
16
31
6
12
31
5
14
30
7
17
29
7
19
30
8
20
30
8
20
30
9
18
31
10
19
31
10
17
31
10
15
30
12
12
30
12
10
32
14
10
33
15
11
33
16
9
32
15
8
31
14
7
30
13
6
34
16
12
34
16
12
34
16
12
35
17
13
36
17
13
37
18
14
37
18
14
37
18
14
40
21
15
40
21
15
40
21
15
41
22
16
42
21
16
42
21
16
42
21
16
42
21
16
44
21
15
45
22
14
47
24
16
48
25
17
50
27
19
52
29
21
55
30
23
55
30
23
58
33
26
63
38
31
68
43
36
71
46
39
70
45
38
70
43
36
67
40
33
66
39
32
65
36
30
64
35
27
62
33
25
61
32
24
60
31
23
60
31
23
61
32
24
61
32
24
60
31
23
60
31
23
60
31
23
60
31
23
60
31
23
60
31
23
60
31
23
59
32
23
59
32
23
59
32
23
59
32
23
59
32
23
59
32
23
59
32
23
59
32
23
59
32
23
62
35
28
62
35
28
61
34
27
61
34
27
61
34
27
60
33
26
60
33
26
58
33
28
53
28
24
52
26
25
55
27
24
58
30
27
61
33
30
63
35
32
64
34
32
64
32
33
64
30
31
63
28
32
64
27
34
65
28
36
69
29
38
71
31
42
72
30
44
72
29
46
73
30
49
72
29
49
63
21
41
48
11
29
35
3
18
25
0
11
19
0
9
20
3
13
11
0
5
11
0
6
12
1
7
13
2
6
16
4
8
19
4
9
20
5
10
24
5
11
28
5
11
31
6
12
32
7
11
34
7
12
35
8
13
35
8
13
36
7
12
36
5
13
38
5
14
39
6
17
43
7
19
45
9
23
49
10
28
51
12
30
53
14
32
56
14
36
61
14
48
64
13
54
63
12
55
67
15
61
92
40
89
173
120
172
242
189
243
240
187
243
212
159
215
198
145
199
186
134
182
176
125
166
168
118
153
166
118
144
165
118
138
157
114
124
154
115
110
143
106
90
130
95
76
126
92
67
129
96
65
132
100
62
128
99
57
123
94
50
119
91
44
115
87
39
114
88
39
116
90
41
102
57
126
100
55
124
100
55
124
105
59
131
115
68
140
121
74
146
121
73
147
121
70
145
128
77
152
138
86
161
176
123
201
183
130
208
126
73
151
82
27
108
77
22
103
76
23
103
68
20
94
62
16
88
63
17
90
65
19
92
66
20
93
69
23
98
66
20
95
57
11
86
66
20
95
57
10
88
81
32
111
136
89
167
143
95
171
94
48
123
71
23
99
72
26
99
63
17
89
60
15
84
56
11
80
58
13
82
61
16
85
59
13
85
66
20
92
82
36
109
95
47
121
74
26
100
67
19
93
81
33
109
115
67
143
146
98
174
140
92
168
115
66
147
85
31
117
78
22
111
79
23
114
82
26
117
79
23
114
85
26
120
101
41
137
114
54
152
120
60
160
132
69
173
150
87
192
150
88
189
143
81
178
150
87
176
132
71
149
87
30
98
57
9
59
42
0
38
38
0
31
38
2
30
37
3
27
38
7
25
39
11
25
38
10
22
40
12
24
39
12
21
38
11
20
36
9
18
34
7
16
33
6
15
30
5
11
30
4
13
29
6
16
29
6
16
30
6
19
30
6
19
30
8
20
30
9
18
31
10
17
31
10
15
30
10
11
31
11
10
31
13
9
32
15
8
31
14
7
30
13
6
29
11
7
28
10
6
33
15
13
33
15
13
33
15
13
33
15
13
34
16
14
34
16
14
35
16
12
36
17
13
41
22
18
41
22
18
41
22
18
41
22
18
41
22
16
40
21
15
41
20
15
41
20
15
40
20
13
41
21
14
42
22
15
43
23
16
44
24
17
46
26
19
49
26
20
49
26
20
51
28
22
56
33
27
61
38
32
63
40
34
62
39
33
61
36
31
60
35
30
60
35
28
63
36
29
62
35
28
60
33
26
58
31
24
57
30
23
57
30
23
57
30
23
58
31
24
57
30
23
57
30
23
57
30
23
57
30
23
57
30
23
58
31
24
58
31
24
58
31
24
56
29
22
54
29
22
55
30
23
55
30
23
55
30
23
55
30
23
55
30
23
55
30
23
58
33
26
58
33
26
58
33
26
57
32
25
56
31
24
56
31
24
56
31
24
55
30
25
53
28
24
50
26
22
51
25
24
53
27
26
59
31
30
61
33
32
62
32
32
61
31
33
58
26
31
61
26
33
64
27
35
65
27
38
67
26
40
67
26
40
68
27
43
69
28
46
72
30
50
68
26
48
51
14
32
36
2
19
28
0
15
21
0
11
17
0
8
19
3
13
14
3
11
14
3
9
14
3
9
15
4
10
16
4
8
18
3
8
21
2
8
23
2
9
29
4
10
31
4
11
33
6
13
37
7
15
38
8
16
38
8
18
39
7
18
39
7
20
39
5
21
40
6
23
44
6
27
46
8
29
49
11
34
51
13
36
54
14
40
57
14
44
60
14
51
61
13
55
64
15
60
74
25
72
101
51
100
188
138
189
230
180
233
233
182
238
226
175
231
215
165
218
203
153
202
188
140
182
172
125
161
167
121
150
170
125
148
169
125
140
165
125
125
155
117
108
146
109
93
144
107
88
148
114
86
151
118
83
146
114
75
140
109
65
128
100
53
123
95
48
121
93
46
121
93
46
168
120
194
165
117
191
166
118
192
173
125
199
186
135
210
193
142
217
193
142
219
191
140
217
189
136
214
208
155
233
185
132
212
124
71
151
84
29
110
75
20
101
72
17
98
66
13
91
66
19
91
60
15
84
61
16
85
62
16
88
57
11
83
57
11
84
59
13
86
57
11
84
65
19
94
68
22
95
110
64
137
147
101
174
111
65
137
70
24
96
68
22
94
52
9
78
56
14
78
49
9
71
48
8
71
52
12
75
58
18
81
67
27
90
80
40
103
92
51
117
73
31
97
59
16
85
84
41
110
111
68
137
117
74
143
113
70
139
84
41
112
57
11
84
59
10
89
71
19
102
73
21
104
67
15
100
68
14
102
80
26
114
97
42
135
108
51
146
136
79
176
127
67
167
131
70
173
138
76
175
135
74
167
133
74
158
112
54
130
73
19
79
52
5
49
38
0
29
34
0
21
34
0
21
34
1
18
35
5
17
37
10
19
36
9
18
40
13
22
39
12
21
38
11
20
36
9
18
34
7
16
32
5
14
30
4
13
29
3
12
28
5
13
28
5
15
29
5
18
30
6
19
29
7
19
30
9
18
30
9
18
31
10
15
30
10
11
30
10
9
30
12
8
31
14
7
31
13
9
30
12
8
28
10
6
27
9
7
32
14
12
32
14
12
32
14
12
33
15
13
33
15
13
33
15
13
35
16
12
35
16
12
41
22
18
41
22
18
41
22
18
41
22
18
41
22
16
40
21
15
41
20
15
41
20
15
39
19
12
39
19
12
40
20
13
40
20
13
41
21
14
42
22
15
43
23
16
43
23
16
46
23
17
50
27
21
54
31
25
56
33
27
56
33
27
54
31
25
54
31
25
55
30
25
60
35
28
61
34
27
59
32
25
57
30
23
55
28
21
55
28
21
55
28
21
56
29
22
56
29
22
56
29
22
56
29
22
56
29
22
57
30
23
57
30
23
57
30
23
55
30
23
53
28
21
52
29
21
53
28
21
52
29
21
54
29
22
53
30
22
54
29
22
53
30
22
57
32
25
56
33
25
56
31
24
55
32
24
55
30
23
53
30
22
54
29
22
53
30
24
53
30
24
51
27
23
51
25
24
52
26
25
58
30
29
61
32
34
61
31
33
60
29
34
57
24
31
60
27
36
66
28
41
66
28
43
66
25
43
65
24
42
65
23
43
66
24
44
73
31
53
63
24
45
44
6
27
28
0
13
26
0
14
22
0
13
16
0
10
15
2
11
19
8
16
19
8
16
20
7
16
19
6
13
22
5
13
23
4
10
24
3
12
25
2
10
29
2
11
33
3
13
35
5
15
37
7
17
40
8
21
41
9
24
41
8
25
41
6
26
39
4
26
40
5
29
44
5
32
47
8
37
50
11
42
52
13
44
55
14
48
58
14
50
59
12
56
59
10
57
66
16
65
81
31
80
105
55
106
185
135
188
204
153
209
214
163
219
234
183
239
232
182
235
228
178
227
210
161
206
183
135
173
171
124
156
177
131
159
183
138
158
175
134
140
167
128
123
160
122
113
160
123
107
164
130
105
165
132
101
157
124
89
149
117
78
131
102
60
126
97
55
122
93
53
122
93
53
179
128
205
159
108
185
138
87
164
133
82
159
138
87
164
143
92
169
143
92
169
143
92
169
155
104
181
175
124
201
139
86
164
84
31
109
73
20
98
72
19
97
62
9
87
65
14
89
58
13
82
59
17
83
59
17
83
61
18
87
50
7
76
59
16
87
55
12
83
52
9
80
68
25
97
129
86
157
151
108
179
110
67
136
71
29
95
60
18
84
58
16
80
55
13
76
49
11
68
51
14
68
55
17
74
60
22
79
63
25
82
65
27
84
65
27
84
65
27
86
56
16
76
87
47
109
101
61
123
88
48
110
73
33
95
65
25
87
61
21
84
60
19
85
63
20
91
65
19
94
65
16
95
66
17
98
74
25
107
90
41
123
112
59
147
127
72
163
102
47
141
102
45
142
104
47
144
105
46
140
105
47
132
109
52
129
96
41
108
68
15
69
47
1
37
43
3
27
40
1
22
34
0
16
31
0
10
29
0
7
26
0
4
26
0
4
28
1
6
29
2
9
31
4
13
33
6
15
33
5
17
33
5
17
32
6
17
32
6
15
30
7
15
31
8
16
32
9
19
33
10
20
33
9
22
34
11
21
33
12
21
32
11
16
29
9
11
29
9
8
29
9
8
29
10
6
28
10
8
28
10
8
28
10
8
28
10
10
26
10
10
27
11
11
30
12
12
31
13
13
33
15
13
34
16
14
35
17
15
36
18
16
38
18
17
38
18
17
39
20
16
39
20
16
39
20
16
40
21
17
40
21
17
40
21
15
42
23
16
41
22
15
41
22
15
40
21
14
39
20
13
38
19
12
38
19
12
38
19
12
40
20
13
40
20
13
41
21
14
42
22
15
45
25
18
48
28
21
51
31
24
55
32
26
53
28
23
54
29
24
56
31
26
57
32
27
58
33
28
58
33
28
57
32
27
57
32
27
53
28
23
53
28
23
53
28
23
54
29
24
55
30
25
56
31
26
56
31
26
57
32
27
49
26
20
47
27
20
49
26
20
46
26
19
48
25
19
46
26
19
47
24
18
45
25
18
47
24
18
45
25
18
47
24
18
46
26
19
48
25
19
46
26
19
48
25
19
48
25
19
53
30
24
50
26
22
54
28
27
54
28
27
53
24
26
55
26
30
58
27
33
53
22
30
60
27
38
62
28
42
64
25
43
62
23
42
65
23
45
68
26
50
68
26
50
65
23
47
57
17
41
48
10
33
36
1
23
27
0
14
23
0
13
20
0
14
18
0
14
17
1
12
28
15
25
30
14
24
32
15
25
31
14
24
31
9
21
29
6
16
28
2
15
27
0
11
38
6
19
36
4
17
35
3
16
38
6
21
44
10
27
47
12
32
47
12
36
47
8
35
40
1
32
49
9
43
56
14
50
54
12
50
52
10
50
60
17
60
64
21
66
60
14
60
72
24
72
73
23
74
76
26
77
93
43
94
127
77
130
164
114
167
183
132
188
186
135
191
200
150
203
204
154
205
218
168
217
226
177
222
203
155
195
189
142
176
202
156
185
204
159
182
180
138
150
173
132
136
165
125
123
163
125
116
165
128
110
164
128
104
157
123
95
150
117
86
145
112
79
138
105
70
129
96
63
121
88
55
118
67
144
103
52
127
88
37
114
86
35
110
90
39
114
91
40
115
91
40
115
88
40
114
105
54
129
126
75
150
107
56
131
74
23
98
72
21
96
73
22
97
64
13
88
61
14
86
57
12
77
58
16
79
55
13
77
62
20
86
61
19
85
57
14
83
51
8
77
76
33
102
127
84
153
131
90
158
103
61
127
68
28
91
65
23
86
57
17
77
48
7
67
54
15
72
46
12
63
46
14
63
48
16
65
51
19
68
52
20
69
52
20
70
51
19
69
51
19
69
52
18
69
82
47
101
91
56
110
72
37
93
58
23
79
58
23
79
59
24
80
58
20
79
59
19
82
59
18
86
62
19
90
70
27
99
80
36
111
90
43
121
95
46
127
97
45
128
85
32
120
85
30
121
87
32
123
89
33
120
91
37
115
92
37
105
77
23
81
54
6
48
48
4
31
43
4
22
40
2
15
34
1
10
31
0
6
29
0
4
26
0
3
26
0
3
27
0
5
29
2
9
31
4
13
31
3
15
31
3
17
31
3
18
33
6
21
35
9
22
33
9
22
33
10
20
33
9
22
32
8
21
32
8
21
31
7
20
30
9
18
29
8
15
29
8
13
29
9
11
29
9
10
29
9
10
28
10
10
28
10
10
28
9
11
28
9
11
26
10
10
27
11
11
30
12
12
31
13
13
32
14
12
34
16
14
35
17
15
35
17
15
38
18
17
38
18
17
38
19
15
38
19
15
39
20
16
39
20
16
40
21
17
40
21
17
40
23
16
40
23
15
39
22
14
39
20
13
39
20
13
38
19
12
37
18
11
37
18
11
38
19
12
38
19
12
39
19
12
39
19
12
41
21
14
43
23
16
46
26
19
47
27
20
51
28
22
53
28
23
55
30
25
56
31
26
57
32
27
56
31
26
56
31
26
55
30
25
55
30
25
55
30
25
55
30
25
55
30
25
56
31
26
56
31
26
56
31
26
55
32
26
46
26
19
45
25
18
45
25
18
45
25
18
44
24
17
44
24
17
44
24
17
43
23
16
43
23
16
44
24
17
44
24
17
44
24
17
44
24
17
45
25
18
45
25
18
45
25
18
52
29
23
49
25
21
52
26
25
52
26
27
51
22
26
54
25
30
58
26
37
56
24
37
52
18
35
59
21
42
63
23
47
63
23
49
66
23
51
67
24
54
62
19
49
56
13
43
46
6
33
41
3
28
34
0
23
29
0
20
26
0
20
24
1
19
24
3
20
23
5
21
25
7
23
28
7
22
30
7
23
31
7
21
33
6
21
34
6
21
35
4
20
35
2
19
46
12
29
45
8
26
44
7
25
46
8
29
50
12
37
54
15
42
55
16
47
54
14
48
58
16
54
55
13
53
53
10
55
54
11
57
59
15
64
59
15
64
57
13
64
65
18
70
72
23
78
70
19
75
77
27
80
102
52
105
137
87
140
166
116
169
181
131
184
186
136
189
191
141
194
189
139
190
196
146
195
219
170
215
223
175
215
208
161
197
199
152
186
190
144
172
175
132
151
173
131
141
168
127
133
159
119
119
150
112
103
145
107
94
142
107
88
142
107
85
147
113
88
142
108
83
134
100
75
128
94
69
88
40
114
80
33
105
73
25
99
73
26
98
75
28
100
73
26
98
72
25
97
72
26
98
76
29
99
88
41
111
82
35
103
68
21
89
68
23
90
70
25
92
62
17
84
57
12
77
56
14
77
58
18
78
56
16
78
51
11
73
47
7
70
49
8
74
64
23
89
116
75
141
153
112
178
102
63
126
61
21
83
53
15
74
57
18
75
51
14
68
46
7
62
45
8
59
45
14
58
43
15
56
43
15
56
43
15
56
42
14
55
40
11
55
38
9
53
37
8
52
43
12
56
72
40
87
78
46
93
58
26
75
47
15
64
53
21
70
55
23
72
52
20
70
52
17
73
57
19
78
63
24
87
72
33
98
78
37
105
79
36
107
73
30
102
69
23
98
71
22
103
75
23
106
76
24
106
80
27
105
86
33
101
78
27
84
61
12
57
49
2
34
49
6
25
44
7
15
41
4
12
35
3
8
32
2
4
29
1
0
27
1
2
26
0
3
24
0
4
27
0
9
30
2
16
31
2
20
32
3
23
33
4
26
35
7
30
37
9
31
36
12
28
36
12
26
35
11
25
33
9
23
32
8
22
31
7
21
31
7
21
31
7
20
30
9
18
30
9
16
30
9
14
30
9
14
30
10
12
30
10
12
30
9
14
29
10
14
26
10
11
27
11
11
27
11
11
29
13
13
32
14
14
33
15
15
34
16
16
34
16
16
36
18
16
36
18
16
37
17
16
38
18
17
38
18
17
38
18
17
39
19
18
39
20
16
39
22
15
37
22
15
36
21
14
37
20
13
36
19
12
36
19
12
35
18
11
35
18
11
35
18
11
34
17
10
35
16
10
35
16
10
35
16
10
37
18
12
39
20
14
41
20
15
49
25
21
50
26
22
51
27
23
53
29
25
53
29
25
52
28
24
52
28
24
51
27
23
54
30
26
54
30
26
54
30
26
54
30
26
53
29
25
53
29
25
53
29
25
53
29
25
43
22
17
42
23
17
41
22
16
41
22
16
41
22
16
40
21
15
40
21
15
40
21
15
40
21
14
40
21
14
40
21
14
41
22
15
41
22
15
41
22
15
42
23
16
43
23
16
52
28
24
48
23
19
49
21
20
48
19
23
46
17
22
49
19
29
56
24
39
58
23
43
57
19
44
59
20
47
60
19
51
61
20
54
66
22
58
66
22
58
59
13
52
48
4
40
41
0
34
40
1
32
37
0
31
33
0
26
29
0
25
26
0
25
27
3
27
28
4
26
27
2
24
27
2
23
31
2
24
34
2
25
37
3
27
40
5
29
43
8
32
46
8
33
55
15
41
54
14
40
54
14
41
55
14
44
58
17
51
61
19
55
63
21
61
64
21
64
71
25
72
66
20
69
60
13
65
64
17
71
66
19
73
63
16
71
76
28
86
97
49
107
76
27
83
76
25
82
90
39
95
121
70
126
151
101
154
167
117
170
174
124
177
178
128
179
182
132
183
182
132
183
180
130
179
204
155
200
231
183
225
224
176
214
196
149
185
166
119
151
162
118
141
163
120
139
159
117
131
143
102
110
122
81
85
111
71
69
112
73
66
119
81
72
137
99
88
134
96
83
130
92
79
127
89
76
71
26
95
67
22
91
65
20
89
66
21
88
66
21
88
64
19
86
65
20
87
66
24
88
78
36
100
75
33
96
68
26
89
61
20
80
58
18
78
61
21
81
59
19
79
54
14
74
65
26
83
69
30
85
78
39
96
78
38
98
86
46
108
108
68
130
129
89
151
161
123
184
113
75
136
66
28
89
50
12
71
60
23
77
53
16
68
45
8
59
47
11
59
44
13
57
43
15
53
40
16
50
40
14
51
37
13
49
36
10
47
33
9
45
32
6
45
31
5
44
29
3
42
52
26
65
60
32
73
47
20
61
43
14
58
45
18
61
47
18
62
46
17
63
50
18
67
55
23
73
61
28
83
64
29
87
63
25
86
61
21
84
59
18
84
60
17
86
67
21
94
71
23
97
71
24
96
79
30
96
85
36
92
73
24
71
56
9
43
52
8
31
50
10
21
46
10
14
42
6
10
36
4
5
32
2
2
30
2
1
27
1
2
27
0
5
23
0
5
26
0
12
31
2
22
37
7
31
42
12
40
43
12
44
40
11
42
37
8
38
36
11
33
35
10
31
34
9
30
33
8
27
33
8
27
34
9
28
34
10
26
35
11
27
31
9
22
31
9
21
31
10
19
31
10
19
31
10
17
31
10
17
31
10
17
30
11
15
28
9
11
26
10
10
27
11
11
28
12
12
31
13
13
32
14
14
32
14
14
33
15
15
35
17
15
35
17
15
36
16
15
36
16
15
37
17
16
37
17
16
38
18
17
37
19
15
35
20
15
35
20
13
35
20
13
34
19
12
35
18
11
34
17
10
34
17
10
33
16
9
32
15
8
32
15
8
32
13
7
32
13
7
33
14
8
35
16
10
36
17
11
38
19
13
44
23
18
45
24
19
48
24
20
47
26
21
49
25
21
47
26
21
48
24
20
45
24
19
52
28
24
49
28
23
51
27
23
48
27
22
49
25
21
46
25
20
48
24
20
46
25
20
39
20
14
39
20
14
39
20
14
38
19
13
38
19
13
37
18
12
37
18
12
37
18
12
37
18
11
37
18
11
37
18
11
38
19
12
39
20
13
39
20
13
40
21
14
41
21
14
52
28
24
47
21
20
45
16
18
47
18
23
49
19
29
53
21
36
57
22
42
59
23
49
63
24
55
65
23
59
65
23
61
67
22
65
69
23
69
64
18
64
52
4
52
37
0
36
43
0
39
42
0
38
41
1
38
36
0
36
32
0
31
31
0
32
35
6
37
41
10
42
37
6
37
38
5
36
40
3
34
42
3
34
45
4
36
48
7
39
53
9
42
55
11
44
60
15
48
62
17
50
64
18
55
66
20
59
68
21
63
68
23
66
70
22
70
70
24
73
73
24
79
76
29
84
70
21
77
72
24
82
62
14
72
69
21
81
114
66
126
130
80
141
87
35
97
95
44
103
113
62
119
136
85
141
153
103
156
159
109
160
159
109
160
159
109
158
166
116
167
177
127
176
177
128
175
188
139
184
214
166
208
227
179
219
208
160
198
166
119
153
162
117
146
162
118
143
155
111
134
138
95
114
118
76
90
106
64
74
108
67
73
113
73
74
120
80
81
120
80
80
120
80
80
119
79
79
56
14
78
54
12
76
53
11
74
54
12
75
52
10
73
50
10
70
54
14
74
61
22
79
75
36
93
63
24
79
54
17
71
50
13
65
48
11
63
54
17
69
57
23
74
55
21
72
68
29
82
70
31
84
80
41
96
101
62
117
140
102
159
152
114
173
132
94
153
122
84
143
68
30
89
55
20
76
48
13
67
49
15
65
47
14
61
40
7
52
42
9
52
49
21
59
38
13
45
34
14
42
35
11
43
31
10
41
31
7
39
27
6
37
28
4
38
28
4
38
24
0
34
35
11
45
41
15
52
39
15
51
40
14
51
37
13
49
40
14
53
47
20
61
46
19
62
50
21
67
52
23
71
52
20
70
50
17
70
50
15
71
53
15
74
57
17
79
61
19
83
66
21
86
69
23
87
76
28
86
79
32
78
64
18
54
51
7
30
54
12
24
51
11
19
47
11
13
44
8
10
37
5
6
33
3
3
30
1
3
27
1
4
27
0
9
23
0
9
27
0
18
36
6
32
48
17
49
57
25
64
57
25
66
48
17
61
40
9
50
34
5
36
33
4
32
30
4
31
30
4
29
31
6
28
33
8
30
35
10
31
37
12
33
32
7
26
32
8
24
31
9
22
31
9
22
31
9
21
31
9
21
31
10
19
30
11
17
28
9
13
26
10
11
27
11
12
27
11
12
28
12
12
29
13
13
31
13
13
31
13
13
33
15
15
33
15
15
34
16
14
34
16
14
36
16
15
36
16
15
36
16
15
35
17
13
34
19
14
32
19
11
32
19
11
31
18
10
31
16
9
30
15
8
30
15
8
30
15
8
28
13
6
27
12
5
29
12
5
30
13
6
32
15
8
34
17
10
36
19
12
39
20
14
40
21
17
41
22
18
43
22
19
43
24
20
44
23
20
42
23
19
41
20
17
39
20
16
43
22
19
42
23
19
42
21
18
41
22
18
41
20
17
39
20
16
40
19
16
38
19
15
37
18
14
36
18
14
36
18
14
35
17
13
35
17
13
34
16
12
34
17
10
34
17
10
33
16
9
34
17
10
34
17
9
35
18
10
36
19
11
37
20
12
38
21
13
39
20
14
49
23
22
47
18
20
47
16
22
53
22
30
58
26
41
56
21
41
54
18
44
58
18
52
54
12
50
66
23
66
78
32
81
79
31
83
73
24
79
65
16
72
57
6
65
49
0
56
47
0
49
47
1
48
43
1
47
39
0
45
38
1
44
42
7
49
52
15
58
59
22
65
55
17
58
56
15
57
57
12
53
57
10
52
57
10
52
59
11
53
60
12
54
62
14
56
60
12
54
65
17
59
72
23
70
75
25
74
74
24
75
72
24
76
73
22
78
73
24
80
77
26
85
79
29
90
69
17
79
74
24
85
63
13
74
92
42
105
154
104
167
130
80
141
120
68
130
135
81
141
148
94
152
152
99
155
153
100
154
154
101
153
155
103
152
153
101
149
149
97
146
164
112
160
173
121
169
180
128
174
190
139
182
216
165
206
227
177
215
199
152
188
169
124
157
163
118
149
152
107
136
138
94
121
126
82
107
118
75
95
116
73
92
115
73
87
120
76
91
120
76
89
121
78
88
122
79
89
57
17
77
54
14
74
54
15
72
53
15
72
53
14
71
52
15
69
57
20
74
62
28
79
63
29
79
53
19
69
47
14
61
45
13
60
44
13
57
50
19
63
56
25
69
55
24
68
63
27
75
65
27
78
59
21
72
85
46
99
134
97
151
112
74
131
69
31
88
60
22
79
53
18
74
50
15
69
47
13
63
42
9
56
39
6
49
43
11
52
44
14
52
37
10
43
32
9
37
28
10
36
27
7
34
26
6
33
25
5
32
25
5
33
25
5
33
25
5
33
24
4
32
28
4
36
28
4
36
30
6
38
33
9
43
31
7
41
34
10
44
46
22
58
44
18
57
42
15
56
42
13
57
44
15
61
49
17
66
51
19
69
51
16
70
51
14
68
58
19
76
62
21
79
68
23
78
71
27
76
70
26
62
59
15
40
52
10
22
55
14
20
52
13
16
48
12
14
45
9
9
38
7
5
34
4
4
30
1
3
27
0
7
27
0
11
26
0
17
33
3
29
46
15
49
62
30
71
72
39
86
71
37
88
59
26
79
49
17
67
36
5
46
35
5
39
31
4
37
29
2
33
29
3
32
31
5
32
33
7
32
34
9
31
33
8
30
33
8
29
32
9
27
32
9
27
32
9
25
32
10
23
32
10
22
31
12
18
28
9
13
26
10
11
26
10
11
27
11
12
27
11
11
27
11
11
30
12
12
30
12
12
32
14
14
32
14
14
33
15
13
33
15
13
34
14
13
35
15
14
35
15
14
34
16
14
32
17
12
31
18
10
30
17
9
30
17
9
30
15
8
29
14
7
28
13
6
28
13
6
27
12
5
26
11
4
28
11
4
29
12
5
31
14
7
33
16
9
36
19
12
37
20
13
37
18
14
38
19
15
39
20
16
39
20
16
39
20
16
38
19
15
36
17
13
35
16
12
35
16
12
35
16
12
35
16
12
35
16
12
34
15
11
34
15
11
34
15
11
34
15
11
35
17
13
35
17
13
35
17
13
34
16
12
34
16
12
33
15
11
33
16
9
33
16
9
32
15
8
32
15
8
33
16
8
34
17
9
36
19
11
37
20
12
38
21
13
39
20
14
44
18
19
47
18
22
49
18
26
54
22
35
56
22
39
49
14
38
50
11
42
59
19
56
88
45
90
104
57
109
112
63
119
99
49
110
78
28
91
66
15
81
67
15
81
71
19
83
60
10
69
57
10
65
51
6
61
48
5
58
47
7
59
52
12
64
62
19
72
68
26
76
73
26
78
73
25
75
72
22
73
72
19
71
72
18
70
71
17
67
71
17
69
71
17
67
66
13
65
73
20
72
80
27
81
83
30
86
80
26
84
76
25
84
80
26
88
81
29
91
83
31
95
76
24
88
75
23
89
92
40
104
94
42
106
139
89
152
187
137
200
131
79
143
151
97
159
162
108
170
166
112
172
157
104
160
148
95
149
147
95
144
149
97
145
149
97
145
146
94
142
152
100
148
165
113
159
176
124
170
175
124
167
194
143
186
225
174
215
222
174
212
197
149
187
187
141
178
174
128
164
164
118
154
156
111
144
150
105
136
144
99
128
139
95
120
142
97
120
140
95
116
138
93
114
136
91
112
51
14
68
48
11
65
48
11
65
48
14
65
49
12
64
47
13
63
50
16
66
55
23
70
55
24
68
49
20
64
46
18
59
44
16
57
43
15
55
46
18
58
50
22
62
50
22
63
57
24
69
63
27
75
52
15
66
79
42
94
119
82
134
76
39
93
47
12
66
58
23
77
50
15
69
42
8
59
42
10
57
41
10
54
34
3
44
43
13
51
48
18
52
33
6
37
31
11
36
27
12
35
27
9
33
25
7
31
24
6
30
25
7
33
26
8
34
26
8
34
24
6
32
26
6
34
24
4
32
25
5
33
29
8
39
27
6
37
28
7
38
35
14
45
38
14
48
37
13
49
38
12
51
41
14
55
47
18
62
52
20
67
51
17
67
51
14
65
57
18
71
60
20
72
68
24
73
68
25
68
61
18
48
54
13
31
55
14
18
56
16
16
53
14
15
49
13
15
46
10
12
39
7
8
34
4
6
31
2
6
27
0
9
27
0
14
30
0
24
42
11
43
59
27
68
74
40
90
81
46
102
78
42
103
70
36
97
65
31
91
51
19
68
48
17
59
43
13
51
38
8
44
33
6
39
32
5
36
32
6
35
33
7
34
34
8
35
34
8
33
33
9
31
33
10
30
33
10
28
33
10
26
33
11
23
32
12
21
28
9
13
26
10
11
26
10
11
26
10
11
26
10
11
27
11
12
27
11
11
27
11
11
31
13
13
31
13
13
32
14
14
32
14
14
33
15
13
33
15
13
34
14
13
33
15
13
31
16
11
30
17
11
29
16
10
28
15
9
28
15
9
27
14
8
26
13
7
26
13
7
27
12
7
26
11
6
26
11
6
26
11
6
27
12
7
28
13
8
30
15
10
31
16
11
34
16
12
35
17
13
35
17
13
36
18
14
35
17
13
34
16
12
32
14
10
31
13
9
30
12
8
30
12
8
30
12
8
30
12
8
31
13
9
31
13
9
31
13
9
31
13
9
35
17
15
35
17
15
34
16
12
34
16
12
33
15
11
33
15
11
33
15
11
33
15
11
32
15
8
32
15
8
33
16
8
34
17
9
36
19
11
37
20
12
38
21
13
40
21
15
43
17
18
50
19
25
51
19
30
51
19
34
51
16
38
54
18
46
76
36
71
107
64
109
172
125
177
177
129
187
170
120
183
144
93
159
113
60
130
91
38
110
83
27
102
78
25
97
73
22
89
69
19
82
63
15
77
59
14
73
60
15
74
62
18
77
66
21
80
70
22
80
79
28
87
81
27
87
83
27
88
85
27
86
85
25
85
84
25
83
82
24
83
81
23
81
77
22
80
83
28
86
88
33
91
88
32
93
84
28
91
83
28
93
90
33
101
95
40
107
104
49
116
95
40
107
127
72
140
152
100
166
155
103
167
196
144
208
214
162
224
164
112
174
169
114
179
173
119
181
175
121
181
170
117
173
161
108
160
153
101
150
149
97
145
148
96
142
153
101
147
156
104
150
160
108
154
171
119
165
172
121
164
182
131
174
205
154
195
209
161
201
217
169
211
213
166
208
208
161
203
204
157
199
200
154
193
198
152
191
198
150
188
197
150
184
186
139
171
180
134
163
172
126
155
163
117
145
52
15
67
47
13
64
48
14
65
51
17
67
52
19
66
49
18
62
51
20
62
52
24
65
46
18
58
45
19
56
42
16
53
38
12
47
37
11
46
40
16
50
44
18
55
45
19
58
48
17
59
52
19
64
51
18
65
87
51
99
115
79
127
64
30
80
46
12
62
47
14
61
41
8
55
43
12
56
37
6
47
31
3
41
36
9
42
38
11
42
41
16
45
50
28
51
35
17
39
31
16
35
29
14
33
27
12
31
28
10
32
28
10
32
29
11
33
30
12
34
21
3
27
27
9
33
28
8
33
26
6
31
30
10
37
29
9
36
24
4
31
23
3
30
31
11
39
35
14
47
40
16
52
43
17
56
42
16
55
44
16
57
50
19
61
57
21
65
54
17
61
55
16
60
64
22
60
62
21
53
51
9
31
48
8
17
54
14
14
51
14
8
52
17
15
49
15
14
45
11
10
38
8
6
33
5
4
29
3
6
28
0
12
27
0
18
33
3
31
49
17
56
69
36
83
81
46
102
86
47
110
81
44
111
79
42
111
79
43
107
69
34
92
64
30
81
57
23
73
48
17
61
41
10
51
38
8
44
34
7
40
34
7
38
34
8
37
34
8
35
33
9
33
33
9
31
33
10
30
33
10
28
33
10
26
32
12
24
28
8
17
26
9
15
26
9
15
26
10
13
26
9
15
26
10
13
26
10
13
26
10
13
29
13
16
29
13
14
31
12
14
30
14
15
32
13
15
32
14
14
33
14
16
33
15
15
29
15
12
27
16
12
29
15
12
26
15
11
27
13
10
26
12
9
26
12
9
25
11
8
27
13
10
26
12
9
26
11
8
24
10
7
24
9
6
25
10
7
26
11
8
27
12
9
31
16
13
31
16
13
34
16
14
32
17
14
34
16
14
30
15
12
31
13
11
27
12
9
27
9
7
26
11
8
28
10
8
27
12
9
30
12
10
29
14
11
31
13
11
29
14
11
33
18
15
33
18
15
34
16
14
34
16
12
34
16
14
33
15
11
33
15
11
33
15
11
32
14
10
30
15
8
31
16
9
33
19
10
34
20
11
37
20
12
38
21
13
40
21
15
47
18
23
54
21
32
54
20
36
52
17
39
58
19
48
78
36
72
127
81
127
179
132
184
217
167
226
216
166
229
208
156
222
189
136
204
166
113
185
141
85
158
114
58
133
94
38
113
75
22
92
71
18
88
67
16
83
68
17
84
72
21
88
75
24
91
75
24
90
76
24
90
82
25
93
85
26
94
87
28
94
90
29
96
91
30
97
90
30
94
89
28
95
87
28
92
88
29
93
91
35
98
96
37
103
90
34
99
86
29
97
88
31
99
97
40
108
107
50
118
128
71
139
126
71
138
192
137
204
218
163
228
207
155
217
229
177
239
227
176
235
202
151
210
194
140
200
195
141
199
200
147
203
206
153
205
200
148
197
185
133
181
172
120
166
168
117
160
156
105
148
162
111
154
158
107
150
161
113
153
175
124
165
181
133
171
188
140
178
186
138
176
185
139
178
191
144
186
197
150
192
202
155
197
204
157
199
210
163
205
219
171
211
226
178
216
227
180
216
218
171
205
205
158
190
191
144
176
47
12
66
47
13
64
48
14
64
47
15
62
48
17
59
49
19
57
50
20
56
48
21
54
43
16
47
41
16
46
40
15
45
38
15
44
37
14
43
36
15
46
39
15
49
39
15
51
44
15
59
51
20
64
72
41
85
82
49
92
63
30
73
48
16
57
46
14
55
40
10
48
39
9
43
37
10
41
35
10
39
34
11
37
34
12
35
34
15
35
35
18
36
36
19
35
35
18
34
34
17
33
34
17
33
33
16
32
32
15
31
31
14
30
30
13
31
29
12
30
26
9
27
26
9
27
26
9
27
25
8
26
25
8
27
24
7
26
24
7
26
24
6
28
27
11
38
30
14
43
35
16
48
37
16
49
39
13
48
41
14
49
46
16
50
52
18
51
56
21
53
58
22
50
60
20
44
56
17
35
51
13
24
48
12
14
51
13
10
51
16
10
47
14
9
44
15
9
41
12
6
32
7
2
26
2
0
24
2
4
26
3
13
29
1
23
50
19
53
61
28
73
71
33
90
72
33
96
75
34
102
79
39
109
80
40
111
77
37
107
74
35
102
75
36
101
74
36
97
70
32
89
63
26
78
50
17
62
39
8
49
33
3
39
35
8
39
37
11
40
38
14
40
40
16
40
38
16
37
35
13
34
32
10
31
30
9
28
30
9
24
30
10
22
26
8
20
25
8
18
25
7
19
26
9
19
28
11
21
29
12
22
25
8
18
25
10
17
28
11
19
28
13
20
29
12
20
28
11
17
27
10
18
26
11
16
24
12
12
22
12
10
23
12
10
22
12
10
22
11
9
22
11
9
22
11
9
22
11
9
24
13
11
24
13
11
26
12
11
24
13
11
26
12
11
26
12
11
26
12
11
26
12
11
30
16
15
29
15
14
30
14
14
28
14
13
28
12
12
26
12
11
27
11
11
26
12
11
27
11
11
26
12
11
28
12
12
28
14
13
30
14
14
29
15
14
31
15
15
30
16
15
31
17
16
31
17
16
33
17
17
32
17
14
34
16
16
33
15
13
32
17
14
33
18
13
32
17
12
30
17
9
30
17
9
29
16
8
30
17
8
32
18
9
34
20
11
38
19
15
45
14
22
52
15
32
47
7
33
64
23
55
117
72
113
154
106
156
168
117
176
180
128
192
194
139
206
189
134
202
190
135
203
200
145
213
215
160
228
222
165
234
197
140
209
159
102
173
96
38
112
88
30
104
79
21
95
74
16
90
75
17
91
78
20
94
79
21
95
80
22
96
81
21
93
81
21
93
82
22
94
85
25
97
90
30
102
91
31
101
89
29
101
86
26
96
92
32
102
89
29
99
91
30
100
91
31
101
90
30
100
104
45
113
145
86
154
185
129
194
187
131
194
203
147
210
215
161
221
211
157
217
196
142
200
190
136
194
200
147
203
213
160
214
202
148
200
198
144
194
201
147
196
200
147
193
192
141
184
190
139
182
187
139
179
182
134
172
156
108
146
157
110
146
157
110
146
155
110
143
154
107
141
155
110
141
160
115
146
164
119
150
162
116
152
161
115
152
161
115
152
162
116
153
166
120
157
171
125
162
177
129
167
180
133
169
182
135
169
190
143
177
200
150
185
202
152
187
46
11
65
46
12
63
47
15
64
47
16
60
48
17
58
48
18
54
46
19
50
45
19
48
38
14
40
38
14
40
35
12
38
35
12
38
33
13
40
34
14
42
35
14
45
38
14
50
41
14
55
47
18
62
65
37
78
73
42
83
56
26
64
45
15
51
43
13
47
36
9
40
36
10
37
35
11
35
33
11
32
31
12
31
31
13
29
31
15
28
31
18
28
32
19
29
33
17
30
33
17
30
32
16
29
32
16
29
32
16
29
31
15
28
31
14
30
31
14
30
28
11
27
28
11
27
28
11
27
28
11
27
28
11
27
28
11
27
28
11
29
28
11
30
30
14
40
33
17
44
37
18
46
39
19
47
41
16
46
42
16
45
48
17
48
52
19
46
57
23
47
58
23
43
59
21
36
55
18
26
50
14
18
48
13
11
52
15
9
53
18
12
48
18
10
43
16
7
38
11
2
31
8
0
25
5
0
24
4
5
30
7
17
37
9
31
71
40
74
78
42
88
80
41
98
76
36
99
73
32
98
75
34
102
76
35
103
74
33
101
77
36
106
77
36
104
76
35
101
74
34
96
67
29
86
59
22
73
50
17
62
44
13
54
29
2
37
30
3
34
30
5
34
32
8
34
31
8
34
32
9
35
32
9
35
31
9
32
32
11
30
31
10
27
28
10
24
27
9
23
27
9
23
26
8
22
26
8
22
27
9
23
25
9
20
26
10
21
27
11
21
28
12
22
28
12
22
27
11
21
26
10
20
23
10
17
23
11
13
22
12
11
22
12
11
21
11
10
21
11
10
21
11
10
21
9
9
21
9
9
24
12
12
24
12
12
24
12
12
24
12
12
24
12
12
24
12
12
26
12
12
26
12
12
28
14
14
28
14
14
27
13
13
27
13
13
26
12
12
25
11
11
24
10
10
24
10
10
25
11
11
25
11
11
26
12
12
26
12
12
27
13
13
28
14
14
29
15
15
29
15
15
31
19
19
33
19
19
34
18
18
33
17
17
35
17
17
34
16
16
32
17
14
32
17
14
27
14
8
26
13
7
23
13
4
23
13
4
26
13
4
27
14
5
30
16
7
35
14
11
46
13
22
51
12
31
87
44
72
136
90
127
165
116
163
179
126
182
181
126
191
177
120
189
169
112
183
163
106
177
165
105
177
175
118
189
200
140
210
218
161
230
212
155
224
189
132
203
179
118
195
162
101
178
136
75
152
109
48
125
89
28
105
78
17
94
73
12
89
72
11
88
76
15
92
80
20
94
82
21
98
82
22
96
80
19
96
80
20
94
83
22
99
87
27
101
90
28
103
93
31
104
99
37
110
111
49
122
133
73
143
168
109
177
208
149
215
234
178
241
216
160
221
213
159
217
205
151
209
193
140
196
180
127
181
168
118
171
164
114
165
165
113
162
165
112
156
161
108
150
163
110
152
164
112
151
159
109
147
160
110
147
160
113
149
157
110
144
156
109
141
156
110
139
154
109
138
151
107
134
146
102
129
144
100
125
144
102
126
146
104
128
148
103
132
148
103
134
149
104
135
150
105
136
151
106
137
151
106
137
152
105
137
152
105
137
150
103
135
156
109
141
165
116
148
167
118
150
48
13
69
49
14
68
50
16
67
51
18
65
49
18
60
46
16
54
42
15
48
40
13
44
34
9
38
33
9
35
32
9
35
32
9
35
30
10
37
32
12
40
34
14
42
35
14
47
37
12
51
44
18
57
58
32
71
60
32
70
46
19
54
40
13
46
39
12
43
32
6
35
35
9
36
33
9
33
31
9
30
28
9
28
29
11
27
29
13
26
29
16
26
30
17
27
30
14
25
30
14
25
31
15
26
31
15
26
31
15
26
32
16
27
32
16
29
32
16
29
30
14
27
31
15
28
31
15
28
32
16
29
33
16
32
33
16
32
34
17
33
34
17
35
34
19
40
36
21
44
40
22
46
41
21
46
43
19
45
45
19
44
49
19
45
53
21
44
58
25
44
58
24
40
58
20
31
53
17
21
52
13
14
51
13
10
54
17
9
54
20
11
53
23
15
43
16
7
36
9
0
31
8
0
27
6
1
27
5
7
36
13
23
49
22
41
85
54
85
88
53
93
86
48
97
80
39
95
77
36
96
79
37
100
81
39
102
80
40
102
78
38
101
78
38
100
77
39
98
75
37
94
73
36
90
69
32
83
64
31
76
61
30
72
38
10
48
37
10
45
34
9
41
31
6
36
29
6
34
28
5
33
27
4
32
27
5
28
31
10
29
31
10
25
31
10
25
31
10
25
28
10
24
26
8
22
25
7
19
24
6
18
26
8
20
27
9
21
27
11
21
28
12
22
28
12
22
27
11
21
26
10
20
23
10
17
23
11
15
22
12
13
21
11
12
21
11
12
20
10
11
20
10
11
20
10
11
20
10
11
23
11
13
23
11
13
23
11
13
23
11
13
23
11
13
23
11
13
23
11
13
23
11
13
26
12
12
26
12
12
25
11
11
25
11
11
24
10
10
23
9
9
22
8
8
22
8
8
23
9
9
23
9
9
23
9
9
24
10
10
25
11
11
26
12
12
26
12
12
27
13
13
26
12
12
25
11
11
26
10
11
26
10
11
29
11
11
29
11
11
26
11
8
26
11
8
21
8
2
21
8
2
18
8
0
18
8
0
21
8
0
23
10
1
26
12
3
31
10
7
48
15
24
55
14
32
107
63
90
165
119
155
177
128
175
169
116
172
167
111
176
165
105
175
168
108
182
157
96
173
152
90
167
157
96
173
175
113
190
197
136
213
205
144
221
195
134
211
213
152
230
202
141
219
183
122
200
161
100
178
142
81
159
131
70
148
127
66
144
127
66
144
133
70
149
131
69
146
121
58
137
105
43
120
91
28
107
89
27
104
100
37
116
111
49
126
133
71
148
147
85
160
164
102
177
182
120
193
204
144
214
223
164
232
221
165
230
210
154
217
198
143
201
188
135
191
177
124
178
168
118
169
164
114
163
158
110
158
150
103
149
144
96
138
151
101
138
148
97
130
146
97
129
145
96
126
143
94
124
145
96
125
146
100
128
146
100
126
152
106
132
152
107
130
150
107
127
146
103
123
139
97
117
133
92
110
130
89
107
129
88
106
125
83
103
126
84
106
129
87
109
131
89
111
135
91
116
138
94
119
139
95
120
140
96
121
136
90
116
141
95
121
145
99
125
146
100
126
58
23
79
58
23
79
58
24
75
56
23
70
51
20
64
46
15
56
39
12
47
36
9
42
33
7
36
32
8
34
32
8
34
31
8
34
32
9
37
32
12
39
34
14
41
35
15
43
34
13
46
41
19
55
51
27
61
48
24
58
37
13
45
37
12
42
38
13
42
30
6
32
32
8
32
30
8
29
29
8
27
27
9
25
26
10
23
27
11
22
26
13
23
27
14
24
26
13
23
26
13
23
29
13
24
30
14
25
31
15
26
32
16
27
33
17
28
33
17
30
32
16
29
33
17
30
34
18
31
35
19
32
36
20
33
37
21
34
38
21
37
39
22
38
39
22
40
40
23
42
42
23
43
44
22
43
47
22
44
49
21
43
53
21
42
55
22
41
60
26
42
59
23
35
56
19
26
52
16
18
52
14
11
53
16
8
56
19
10
56
22
12
55
25
15
42
15
6
34
7
0
33
8
1
31
7
3
29
7
9
41
18
26
59
32
47
75
45
69
77
43
76
76
39
80
76
37
82
77
37
87
81
41
93
86
46
98
88
48
101
78
38
91
77
38
91
77
38
91
77
38
91
78
40
91
77
41
89
78
42
90
76
43
86
66
35
76
61
33
71
56
29
64
49
22
55
40
15
47
33
8
38
28
3
33
25
1
27
29
8
25
30
9
24
30
9
24
30
9
24
27
9
23
26
8
22
25
7
19
24
6
18
27
9
21
27
9
21
28
12
22
28
12
22
28
12
22
27
11
21
25
9
19
22
9
16
21
10
14
21
10
14
21
10
14
20
9
13
20
9
13
19
8
12
19
8
12
19
8
12
22
10
14
22
10
14
22
10
14
22
10
14
22
10
14
22
10
14
22
10
14
22
10
12
24
9
12
24
10
10
23
9
9
23
9
9
22
8
8
21
7
7
20
6
6
20
6
6
21
7
7
21
7
7
21
7
7
22
8
8
23
9
9
24
10
10
24
10
10
25
11
11
20
6
6
19
5
5
19
3
4
20
4
5
23
5
5
24
6
6
23
5
3
20
5
2
19
4
1
18
5
0
17
4
0
17
4
0
19
6
0
21
7
0
25
8
0
31
7
3
42
7
14
53
12
28
86
42
65
134
87
119
164
113
156
162
107
162
157
99
160
162
101
170
183
121
194
169
107
184
158
93
173
152
89
168
157
92
172
170
107
186
179
116
197
177
114
193
181
120
198
184
123
201
187
126
204
188
127
205
186
125
203
187
126
204
191
128
207
195
132
211
186
123
202
171
108
187
147
84
163
126
63
142
119
54
136
130
67
148
155
90
172
173
110
189
193
130
209
201
139
216
208
146
223
210
150
224
214
154
226
208
151
220
184
128
193
157
103
163
161
107
165
157
107
160
155
105
156
153
105
153
153
106
152
150
103
147
143
98
141
140
94
131
152
103
133
149
101
127
146
98
122
145
97
121
144
96
118
144
99
120
148
103
123
149
104
124
146
102
119
145
103
117
145
103
115
142
102
113
137
97
108
131
91
100
125
85
94
122
82
91
109
69
80
109
68
82
111
70
84
115
74
88
121
80
96
130
87
104
137
94
111
141
98
115
140
97
116
142
99
118
145
100
121
143
100
120
74
36
95
73
35
92
67
32
86
62
28
78
54
22
69
47
16
58
40
10
48
35
8
41
35
8
39
33
8
37
33
9
35
32
9
35
33
10
36
35
12
38
35
15
40
37
17
44
35
16
44
39
20
50
45
25
53
40
20
48
33
13
40
36
13
39
36
14
37
30
8
29
31
9
30
28
9
28
26
8
24
26
8
22
24
8
21
25
9
20
24
11
21
25
12
21
24
11
20
24
13
21
26
13
22
27
14
23
28
15
24
30
17
26
30
17
26
31
18
28
31
18
28
32
19
29
35
19
30
36
20
31
37
21
32
38
22
33
39
23
36
39
23
36
40
22
36
42
21
36
43
22
37
45
22
38
49
22
39
51
23
38
54
23
39
55
23
36
59
26
35
58
23
29
55
19
21
53
18
16
54
17
9
55
19
7
57
21
7
56
22
10
54
24
14
41
14
5
34
7
0
33
8
3
32
8
4
34
10
10
46
21
27
62
36
47
59
30
48
60
28
52
63
28
58
67
32
65
72
34
71
76
38
77
78
40
81
81
42
86
74
35
79
74
35
80
75
36
81
76
37
82
78
39
86
79
41
88
82
44
91
82
46
92
85
49
93
82
50
91
78
46
87
71
41
79
62
32
66
53
24
55
42
15
46
37
11
38
30
7
25
29
9
21
29
9
21
29
9
21
27
9
21
26
8
20
26
8
20
26
8
20
27
10
20
28
11
21
29
12
22
29
12
22
28
12
22
26
10
20
25
9
19
22
9
18
20
9
15
19
10
15
19
10
15
18
9
14
18
9
14
17
8
13
18
7
13
18
7
13
21
10
16
21
10
16
21
10
16
21
10
16
22
9
16
22
9
16
22
9
16
22
9
16
23
8
11
24
8
11
23
7
10
22
6
9
21
5
8
21
5
8
20
4
7
20
4
7
20
4
7
21
5
8
21
5
8
22
6
9
23
7
10
24
8
11
24
8
11
24
8
11
26
10
13
23
7
10
23
4
6
22
3
5
24
4
5
24
4
5
22
2
3
18
0
0
19
4
1
18
3
0
18
3
0
18
3
0
20
5
0
24
7
0
26
9
1
32
8
4
42
7
11
56
14
26
63
18
38
87
41
69
133
83
121
161
107
156
175
117
175
190
130
194
186
123
194
170
106
182
159
92
171
150
85
165
148
80
163
153
88
170
165
100
184
169
104
186
161
98
177
168
106
183
177
114
193
183
120
199
185
122
201
185
122
201
188
123
205
190
125
207
168
103
185
161
96
178
154
89
171
153
88
170
162
94
179
169
104
188
177
109
194
177
112
196
185
121
205
181
120
200
176
115
193
170
112
188
167
109
183
161
104
175
152
95
163
143
89
151
140
86
144
139
89
142
141
91
140
141
94
140
141
94
136
139
94
133
137
92
131
137
92
125
136
91
112
136
92
107
135
91
106
135
91
106
137
93
106
140
96
109
142
99
109
143
101
111
141
100
108
140
101
106
140
101
104
139
100
103
136
97
98
128
92
92
122
86
86
118
82
82
103
67
67
103
67
69
104
68
70
106
70
72
111
75
79
120
80
88
126
86
94
130
90
99
132
92
103
132
92
103
132
90
104
129
88
102
86
48
107
83
45
104
74
39
95
66
32
83
57
24
71
48
17
61
42
11
52
39
9
45
37
10
43
36
9
40
35
10
39
35
11
37
34
11
37
36
13
39
36
16
41
37
17
42
35
17
43
35
19
45
38
20
44
36
18
42
34
14
39
33
14
36
32
13
33
28
9
28
29
10
29
27
10
26
27
9
23
24
8
19
24
8
19
22
9
18
23
10
19
23
12
18
23
12
20
23
12
18
24
13
21
25
14
20
26
15
23
28
15
22
29
16
25
30
17
26
31
18
27
31
18
27
33
17
28
34
18
28
35
19
30
36
20
30
36
20
31
37
20
30
39
19
30
40
18
30
41
17
30
43
19
32
49
21
33
53
23
35
55
23
34
55
22
31
59
24
30
57
21
23
55
20
18
54
19
13
57
20
11
58
22
8
58
22
6
55
22
7
48
18
8
40
11
3
34
7
0
33
8
3
34
9
5
36
12
12
46
21
24
59
34
40
58
30
42
56
28
43
59
27
48
64
32
55
68
34
59
67
33
60
65
30
60
66
31
63
67
30
63
68
31
65
69
31
68
70
32
71
72
34
75
74
37
80
76
39
82
76
41
83
79
44
86
78
46
87
79
47
86
78
46
83
74
43
77
68
39
70
62
33
64
56
30
55
36
13
31
34
14
26
32
12
24
30
10
22
27
9
21
27
9
21
28
10
22
29
11
23
28
11
21
29
12
22
29
12
22
29
12
22
28
12
22
26
10
20
24
8
18
21
8
17
19
8
16
18
8
16
18
8
16
18
8
16
17
7
15
17
7
15
17
6
14
17
6
14
20
9
17
20
9
17
20
9
17
20
9
17
21
8
17
21
8
17
21
8
17
21
8
15
23
8
13
23
7
10
23
7
10
22
6
9
21
5
8
20
4
7
20
4
7
20
4
7
20
4
7
20
4
7
21
5
8
22
6
9
23
7
10
23
7
10
24
8
11
24
8
11
29
13
16
27
8
12
24
5
7
24
4
6
25
5
7
25
5
6
22
0
2
17
0
0
21
3
1
19
4
1
21
3
0
21
3
0
23
6
0
26
7
1
29
10
3
34
9
5
45
9
11
61
20
28
68
24
39
70
25
48
88
37
70
122
67
109
162
104
155
190
129
188
174
109
175
159
93
164
148
82
156
144
77
154
140
71
151
141
74
154
152
83
164
159
92
171
157
93
169
163
101
176
174
110
186
179
115
191
178
114
192
170
106
184
162
98
176
156
91
171
167
100
180
160
93
173
156
88
171
159
91
174
166
97
180
167
99
182
162
92
178
153
85
170
148
84
168
145
84
164
143
85
162
144
86
162
140
82
156
133
76
147
128
73
140
129
75
137
123
72
129
122
72
125
120
72
120
122
75
119
127
80
122
131
86
125
133
89
125
134
91
121
131
88
105
134
93
101
134
93
101
135
94
102
137
96
102
135
94
100
132
91
95
132
93
94
133
95
94
130
95
91
130
95
91
130
95
89
128
93
87
123
90
81
117
84
75
113
80
71
106
72
63
107
72
66
110
75
69
112
77
73
115
80
76
117
82
80
119
83
83
119
83
85
120
81
86
118
82
86
119
79
88
116
79
87
91
53
112
86
48
107
78
40
97
66
31
85
57
23
73
51
18
65
45
14
56
44
14
52
38
11
46
37
10
41
35
10
39
35
11
37
34
11
37
35
13
36
36
14
37
35
16
38
35
17
39
31
16
37
33
15
37
34
17
36
33
16
35
30
13
31
27
10
26
26
10
23
29
13
26
26
13
23
26
10
21
23
10
19
22
9
18
22
11
17
22
11
17
23
12
16
24
13
19
23
14
17
23
14
19
24
15
18
25
16
21
26
15
19
27
16
22
27
16
22
29
16
23
29
16
23
31
15
25
31
16
23
31
15
25
32
17
24
33
16
26
35
15
24
36
15
22
36
13
21
39
13
22
43
16
25
50
20
28
54
23
31
55
22
29
56
21
27
57
21
25
58
19
20
57
19
16
59
22
14
61
25
13
61
25
11
58
22
6
53
20
5
42
9
0
38
9
1
35
8
1
33
8
3
34
9
5
37
13
11
45
21
21
50
28
30
55
30
34
51
26
32
52
25
34
57
29
41
59
31
45
56
28
43
53
24
42
56
24
45
60
26
50
60
26
51
62
28
55
63
28
58
64
29
61
64
30
63
64
30
65
62
30
67
62
30
67
62
32
68
64
34
68
66
36
70
67
38
69
64
38
67
63
37
64
61
37
59
46
25
40
41
24
34
36
19
29
31
14
24
29
12
22
29
12
22
30
13
23
32
15
25
27
11
21
28
12
22
29
13
23
28
12
22
27
11
21
26
10
20
24
8
18
21
8
17
18
8
17
16
9
17
17
7
16
17
7
16
17
7
16
16
6
15
16
6
15
16
6
15
19
7
17
19
7
17
19
7
17
19
7
17
19
7
17
19
7
17
19
7
17
20
7
16
23
8
13
24
8
11
23
7
10
22
6
9
22
6
9
21
5
8
20
4
7
20
4
7
20
4
7
21
5
8
21
5
8
22
6
9
23
7
10
24
8
11
24
8
11
25
9
12
27
8
12
25
4
9
23
2
7
26
4
7
31
9
12
34
12
15
34
9
12
29
7
9
21
1
0
20
2
0
21
2
0
22
3
0
24
5
0
27
6
1
30
9
4
37
9
6
43
7
7
56
15
19
75
32
41
78
34
49
70
20
45
76
22
56
105
48
89
131
71
122
142
79
134
132
66
127
131
65
129
137
70
139
136
66
136
131
64
135
138
68
140
141
74
145
143
77
148
148
85
155
161
95
166
171
105
176
176
110
182
172
106
178
164
98
170
157
91
165
164
96
171
161
93
168
159
91
168
160
92
169
161
90
170
155
86
166
149
77
159
140
73
153
139
76
155
133
75
152
131
73
150
131
73
149
127
71
142
120
65
133
115
60
125
114
60
120
115
64
120
114
64
115
113
63
112
111
64
108
111
64
106
113
67
106
115
69
106
115
72
100
127
86
100
133
94
99
134
95
98
135
96
99
136
97
98
126
90
90
116
81
79
114
81
76
113
80
73
113
80
71
113
81
70
113
84
70
115
86
72
115
86
70
112
83
67
108
79
63
110
78
63
111
79
66
112
80
67
113
81
70
114
81
72
114
81
74
114
81
76
114
80
78
112
76
76
112
78
77
113
77
81
113
78
82
92
54
113
87
49
108
77
39
96
67
30
84
59
22
74
51
17
67
49
16
61
47
16
57
41
11
49
38
11
44
36
9
40
34
9
38
33
9
35
33
11
34
34
12
33
35
13
34
34
17
36
30
13
31
29
12
31
33
16
34
34
17
35
27
10
26
23
7
20
23
10
20
28
15
25
25
14
22
25
12
21
22
11
17
22
11
17
21
12
15
23
12
16
22
13
14
23
14
17
23
14
15
24
15
18
24
15
16
24
15
18
24
15
16
26
15
19
26
15
19
28
16
20
28
16
20
30
15
22
29
14
19
29
14
21
30
13
19
29
12
20
32
11
18
37
12
18
36
9
14
39
9
17
43
14
19
49
18
24
54
22
27
57
22
28
57
21
25
57
18
19
57
19
18
57
20
14
60
23
14
63
27
15
62
26
12
58
22
6
52
19
4
38
5
0
38
7
2
37
8
4
35
7
4
34
8
7
38
14
12
41
20
19
45
24
23
41
21
20
35
15
14
35
15
14
41
21
22
45
23
26
43
22
27
43
20
28
45
22
32
51
25
38
53
25
40
54
27
44
55
28
47
55
27
50
55
27
52
52
26
53
51
25
52
50
25
54
50
25
54
50
26
52
50
26
52
50
27
53
51
29
52
52
30
51
53
32
49
54
36
48
49
32
42
41
24
34
34
17
27
30
13
23
30
13
23
31
14
24
32
16
26
28
12
22
28
12
22
29
13
23
29
13
23
27
11
21
24
11
20
24
8
18
20
7
16
17
7
16
15
8
16
17
7
16
17
7
16
16
6
15
16
6
15
16
6
15
15
5
14
19
7
17
19
7
17
19
7
17
19
7
17
19
7
17
19
7
17
19
7
17
20
7
16
23
8
13
24
8
11
24
8
11
23
7
10
22
6
9
21
5
8
21
5
8
20
4
7
21
5
8
21
5
8
22
6
9
22
6
9
23
7
10
24
8
11
25
9
12
25
9
12
25
4
9
24
1
7
25
2
8
34
9
15
44
19
25
50
25
29
51
26
30
50
25
28
22
0
2
20
0
0
21
1
0
22
3
0
24
3
0
27
6
1
32
8
4
36
8
5
56
21
19
49
9
9
55
14
18
74
31
40
77
30
48
67
17
42
73
18
50
89
31
69
103
42
86
100
36
86
115
48
101
134
67
121
137
69
126
132
64
121
132
64
121
134
66
125
130
65
123
131
67
127
137
73
133
148
84
144
159
95
155
168
102
164
170
104
166
170
104
168
165
96
161
163
94
161
158
89
156
151
80
150
144
73
143
141
69
142
144
72
145
144
76
149
132
68
142
124
64
136
118
58
128
116
56
126
116
60
125
117
61
124
114
59
117
109
56
112
105
52
104
108
58
107
112
63
108
110
62
104
102
56
95
97
51
88
98
52
88
99
56
83
105
67
78
113
79
80
116
82
83
119
85
84
121
87
86
112
78
76
100
67
62
95
65
55
94
64
53
93
65
51
95
68
51
101
74
55
107
80
61
109
84
62
109
84
62
108
81
60
113
85
64
111
82
64
109
77
62
103
74
58
103
71
58
101
71
60
105
72
63
104
74
66
106
73
68
105
74
71
109
75
74
110
79
77
103
63
123
85
45
105
73
34
91
68
31
85
62
25
77
57
23
73
56
23
70
54
23
65
54
23
64
47
20
55
40
13
44
34
9
38
34
10
36
34
10
34
35
11
33
34
12
33
32
13
32
31
13
29
31
12
31
30
12
28
28
11
27
27
11
24
25
12
22
24
11
20
21
10
18
21
12
17
24
13
19
24
15
18
23
14
17
20
14
14
20
11
12
17
12
9
17
11
11
16
11
8
17
8
9
17
9
7
19
9
10
21
11
10
24
12
14
25
13
15
26
11
14
27
12
15
30
13
19
31
15
18
31
14
20
32
13
17
30
11
17
30
7
13
35
8
13
41
12
16
48
17
23
55
23
28
60
25
31
61
25
29
60
24
28
61
22
25
56
17
18
55
15
13
55
16
11
59
21
12
63
27
15
63
27
13
57
21
7
49
15
3
39
6
0
36
5
0
37
6
3
37
7
5
39
11
10
40
16
14
42
21
18
43
24
20
37
20
13
35
20
13
35
20
13
33
20
12
33
18
13
31
17
14
32
16
16
31
15
16
36
19
25
36
19
27
35
18
28
35
17
29
35
17
29
34
16
30
33
16
32
33
16
32
32
15
33
32
15
33
30
16
33
29
15
32
29
15
32
29
15
30
27
15
29
28
15
25
32
16
26
32
17
24
32
17
24
32
17
24
31
16
23
31
16
23
30
15
22
28
15
22
26
13
20
26
13
20
26
13
20
25
12
19
25
12
19
24
13
19
25
12
19
23
12
20
16
6
15
14
6
17
14
6
17
14
6
17
14
6
17
14
6
17
14
6
17
14
6
17
17
7
18
17
7
18
18
8
19
18
8
19
18
8
19
19
9
20
20
8
20
21
8
18
19
4
11
19
4
9
19
4
9
20
5
10
20
5
10
21
6
11
21
6
11
21
6
11
22
7
12
22
7
12
23
8
13
25
10
15
26
11
16
28
13
18
29
14
19
30
13
19
25
4
11
42
19
27
66
40
49
85
58
65
96
69
76
95
68
73
78
51
56
58
33
36
25
0
3
23
2
1
23
2
1
24
3
0
27
3
1
28
4
2
29
3
2
32
4
1
45
12
7
53
15
12
58
20
19
63
22
26
69
23
33
72
24
38
78
24
47
81
25
52
79
20
50
83
22
56
91
27
64
100
35
75
109
44
84
112
47
87
110
45
85
107
42
82
113
50
93
111
48
93
113
50
95
121
58
103
132
69
114
143
77
125
146
80
128
146
79
130
145
77
128
146
77
131
148
79
133
151
80
136
152
81
137
151
80
138
150
79
137
148
78
138
131
65
126
125
61
122
119
58
118
120
59
118
120
61
117
117
58
112
110
53
104
103
49
98
105
54
97
109
58
99
110
62
102
106
58
96
97
51
87
90
46
79
89
46
76
89
49
73
90
54
64
94
62
65
99
67
70
98
66
67
92
61
59
86
57
53
86
57
51
86
59
48
75
49
36
75
49
34
76
50
33
78
56
35
83
61
38
90
68
44
97
76
49
101
80
53
106
79
58
104
77
56
102
73
55
99
72
55
98
69
53
97
69
55
98
68
57
98
70
59
106
76
68
106
77
71
107
76
73
107
78
74
117
77
137
96
57
114
79
40
97
73
34
89
67
30
84
65
28
80
61
27
77
56
23
68
54
23
65
49
19
57
40
13
46
36
9
40
35
9
36
35
11
35
35
11
33
35
12
32
34
13
32
31
13
29
31
13
29
30
12
26
28
12
25
27
11
22
25
12
21
23
12
18
19
10
15
20
11
14
22
13
16
23
14
15
21
15
15
20
15
12
18
13
10
17
12
8
11
3
1
13
5
2
17
7
6
19
9
7
22
10
10
22
11
9
24
10
10
23
9
9
30
14
15
28
12
13
28
9
13
27
8
10
29
8
13
31
11
13
35
12
18
40
15
19
51
20
25
54
22
27
60
25
31
63
28
32
64
28
32
64
25
28
60
21
24
59
19
20
58
18
18
56
16
14
56
17
12
59
20
13
61
23
14
59
23
11
53
17
5
49
13
1
42
8
0
41
8
3
40
6
4
38
8
6
39
11
10
39
15
13
39
18
15
39
22
15
33
19
10
32
19
10
29
19
7
27
19
6
27
18
9
26
17
8
25
16
9
25
15
13
28
18
19
28
17
21
28
17
21
28
17
23
27
16
22
27
16
22
26
16
24
25
15
23
23
13
21
23
13
22
21
14
22
21
14
22
20
13
21
20
13
21
19
12
19
19
12
19
22
11
17
23
10
17
25
10
17
22
9
16
24
9
16
22
9
16
21
8
15
20
9
15
21
8
15
20
9
15
21
8
15
21
10
16
22
11
17
21
12
17
23
12
18
22
12
20
16
9
17
16
8
19
16
8
19
16
8
19
16
8
19
16
8
19
16
8
19
16
8
19
20
10
21
20
10
21
21
11
22
21
11
22
21
11
22
22
12
23
23
11
23
23
11
21
20
7
14
23
8
13
23
8
13
23
8
13
24
9
14
24
9
14
24
9
14
25
10
15
18
3
8
20
5
10
25
10
15
31
16
21
38
23
28
44
29
34
48
33
38
52
35
41
63
42
49
70
47
55
77
51
60
80
53
62
82
52
60
73
46
53
56
29
34
39
14
18
24
0
2
22
0
2
23
2
1
24
3
2
27
3
3
27
3
1
29
3
2
31
3
0
42
11
6
48
15
10
55
20
16
61
23
22
65
23
25
69
24
31
75
25
36
78
25
41
81
26
45
84
26
48
87
27
52
93
31
56
97
35
60
96
34
57
93
31
54
89
27
50
90
30
56
89
29
57
93
33
61
105
42
71
119
56
87
130
65
97
132
67
101
131
66
100
143
77
113
145
77
114
146
78
115
150
79
119
151
80
120
153
82
122
154
81
124
154
83
125
152
84
131
149
83
129
147
81
129
145
82
127
143
80
123
134
73
115
120
62
102
110
56
92
103
52
85
101
52
84
98
52
81
95
50
79
94
50
77
93
50
77
93
51
75
91
52
71
87
54
63
90
59
64
94
63
68
95
65
67
92
62
62
87
59
55
85
58
51
83
59
47
73
50
36
71
48
32
69
46
28
66
45
24
68
48
24
71
51
26
75
55
28
78
58
31
83
58
36
84
57
36
85
58
39
86
59
40
89
62
45
93
66
49
96
68
54
98
72
59
102
74
63
101
74
65
102
73
67
101
74
67
143
102
160
115
74
130
88
49
104
76
37
92
69
32
86
69
32
84
65
31
81
58
25
72
56
25
69
50
19
60
44
14
50
37
10
43
36
10
39
36
10
35
36
12
34
35
12
32
35
12
32
33
12
29
33
12
27
30
12
26
28
12
25
27
11
22
25
12
21
23
12
18
19
10
15
20
11
14
19
13
13
19
14
11
19
14
11
18
13
9
17
12
8
18
11
5
17
7
5
18
9
4
21
10
8
22
11
7
24
10
9
24
9
6
24
6
6
23
5
5
29
9
10
30
10
11
33
11
14
38
13
16
43
16
21
49
23
26
56
27
32
59
28
33
64
29
35
65
28
35
64
28
32
65
26
31
64
25
30
65
24
28
64
23
27
65
23
25
60
18
19
60
19
17
60
19
15
59
20
13
57
18
11
54
16
7
49
12
3
46
9
0
44
10
1
42
9
4
42
8
6
39
8
6
39
9
9
37
11
10
35
14
9
34
17
10
28
15
6
25
17
6
23
17
3
23
17
3
20
16
5
19
15
4
20
13
5
20
13
7
20
15
12
20
14
14
19
13
13
19
13
13
19
13
13
18
12
12
18
12
12
18
12
12
14
10
9
14
10
11
14
10
11
13
9
10
13
9
10
10
8
9
10
8
11
12
7
11
13
4
7
14
3
7
14
2
6
13
2
6
14
2
6
12
1
5
12
1
5
11
2
5
13
2
8
13
4
9
15
4
10
15
6
11
16
7
12
15
9
13
18
9
14
17
10
17
17
10
18
16
11
18
16
11
18
16
11
18
17
10
18
17
10
18
17
10
18
17
10
18
20
13
21
20
13
21
22
12
21
23
13
22
23
13
22
23
13
22
24
14
23
25
14
22
24
11
18
24
12
16
25
13
17
25
13
17
25
13
17
26
14
18
26
14
18
26
14
18
27
15
19
29
17
21
33
21
25
38
26
30
43
31
35
48
36
40
52
40
44
56
41
46
64
44
53
63
40
50
58
32
41
50
24
33
45
18
25
40
13
20
31
4
9
21
0
0
23
0
1
22
0
2
22
0
2
22
2
1
24
3
2
24
3
2
27
3
1
28
3
0
38
10
6
43
14
8
49
18
13
55
22
17
60
22
19
64
22
23
69
23
26
73
24
28
82
31
38
82
29
39
85
29
40
87
29
41
88
31
40
87
30
39
84
27
34
81
24
31
83
23
33
80
20
32
81
21
33
91
29
42
106
44
57
120
56
70
124
60
76
124
60
76
128
64
81
132
65
83
134
67
85
137
68
89
138
69
90
138
69
90
140
68
92
137
67
91
147
76
106
149
78
108
152
81
113
156
87
116
156
92
119
153
90
117
143
83
109
133
78
101
122
68
91
116
67
88
110
63
83
100
57
76
96
53
70
93
52
68
93
55
70
94
58
70
88
57
65
88
59
63
90
61
65
91
62
64
91
63
62
90
65
61
91
66
61
93
69
59
85
61
49
80
59
42
73
52
33
65
47
25
61
43
19
60
43
17
61
44
18
64
44
19
70
45
23
72
47
27
74
49
29
79
54
34
84
58
41
89
63
46
94
68
53
95
72
58
96
70
57
94
70
58
96
69
58
93
69
59
171
130
186
136
95
151
98
59
114
76
37
92
67
28
83
68
31
85
69
32
84
60
26
76
59
26
73
52
21
63
45
15
53
40
10
44
37
10
41
37
11
38
36
12
36
36
12
34
35
12
32
34
11
29
33
12
29
30
12
26
28
12
25
25
12
22
25
12
21
23
12
18
20
11
14
19
10
11
17
12
9
17
12
8
16
11
7
17
10
4
16
9
3
17
8
1
20
9
5
22
9
3
24
9
6
28
10
8
32
14
12
37
17
16
43
22
21
47
23
23
42
18
18
47
21
24
55
26
30
61
30
35
64
33
38
65
33
38
66
31
37
64
29
35
65
25
33
66
25
31
66
25
31
67
26
30
67
26
30
68
26
28
68
26
28
68
26
27
61
19
20
62
21
19
63
22
18
61
20
16
56
17
10
52
13
6
48
11
3
47
10
2
44
9
3
43
8
2
42
8
6
39
8
5
38
8
6
35
9
8
32
11
6
30
13
6
22
12
3
20
14
2
17
13
1
16
12
0
14
12
0
14
11
2
14
9
3
14
9
5
13
9
6
13
9
8
12
8
7
12
8
7
12
8
5
11
7
4
11
7
4
11
7
4
8
7
3
7
6
2
7
6
4
7
6
4
6
5
3
6
5
3
6
4
5
5
3
4
7
1
3
8
0
2
9
0
2
8
0
2
8
0
1
7
0
1
7
0
1
4
0
0
8
0
4
7
1
5
9
0
5
8
2
6
9
3
7
9
4
8
11
5
9
10
5
9
13
8
14
13
8
14
13
8
15
13
8
14
14
7
15
14
7
14
14
7
15
14
7
14
17
10
18
17
10
17
19
9
18
19
9
17
20
10
19
20
10
18
21
11
20
21
11
19
24
13
19
24
13
17
25
13
17
24
13
17
26
14
18
25
14
18
27
15
19
26
15
19
39
27
31
39
28
32
40
28
32
39
28
32
41
29
33
40
29
33
41
29
33
41
29
33
41
24
32
40
19
28
34
11
19
29
6
14
29
3
12
29
4
10
25
2
8
23
1
4
19
0
1
19
0
0
19
1
1
20
2
2
22
2
1
22
2
1
24
3
0
26
2
0
34
9
4
40
13
6
45
16
10
49
19
11
54
19
13
57
20
14
61
20
16
66
21
18
77
29
29
79
29
30
83
31
33
89
34
37
93
39
39
96
42
40
98
42
41
99
44
41
101
43
42
94
36
35
89
29
29
93
33
33
106
44
45
119
57
58
127
65
66
131
66
70
130
65
69
134
68
72
137
71
75
142
73
78
142
72
80
141
71
79
139
68
76
137
65
76
154
82
96
157
84
101
159
86
103
160
89
105
163
95
110
164
100
114
161
99
112
153
95
107
149
93
104
147
95
107
140
93
103
124
81
90
107
64
73
92
52
60
90
50
58
89
54
60
90
59
64
89
60
64
90
61
65
90
61
63
92
64
63
96
71
67
105
80
75
112
88
78
105
83
70
100
78
64
92
71
54
82
64
44
76
58
36
73
55
31
72
54
30
75
55
31
79
57
36
82
57
37
84
59
39
86
61
41
88
62
45
89
66
48
91
68
50
93
70
54
91
68
52
90
69
52
90
67
53
89
67
53
192
152
205
156
116
169
114
74
127
82
43
96
67
28
83
68
31
85
70
33
87
62
28
79
61
28
75
55
22
67
47
16
57
42
12
48
38
11
44
38
12
41
38
12
37
38
13
35
35
12
32
34
11
29
33
12
29
30
12
26
28
12
25
25
12
22
25
12
21
23
12
18
21
12
15
20
11
12
19
11
9
18
10
7
17
10
4
18
9
2
17
8
1
18
8
0
20
2
0
24
5
0
30
9
6
38
17
14
50
26
24
62
36
35
73
45
44
79
49
49
71
39
40
72
37
41
71
36
40
69
33
37
69
30
35
66
27
32
64
23
29
63
22
28
71
30
36
74
31
38
75
32
39
75
33
37
73
31
35
71
26
29
67
22
25
64
20
21
66
22
23
66
22
21
65
24
20
63
22
18
59
20
15
56
17
12
53
16
10
53
16
10
46
11
5
45
10
4
44
10
8
41
10
7
39
9
7
36
8
5
30
9
6
27
9
5
18
7
1
16
9
1
13
9
0
12
9
0
11
8
1
10
7
0
10
5
1
10
5
2
8
4
3
8
4
5
8
4
3
7
3
2
7
3
0
7
3
0
6
2
0
6
2
0
8
4
1
7
3
0
7
3
2
7
3
2
6
2
1
4
3
1
4
2
3
4
2
3
7
1
1
7
1
1
8
0
0
6
0
0
7
0
0
5
0
0
5
0
1
4
0
1
6
0
2
5
1
2
6
0
4
4
0
3
4
0
3
2
0
3
4
0
3
4
0
3
6
1
5
6
1
5
6
1
7
6
1
5
6
1
7
6
1
5
6
1
7
6
1
5
10
3
10
10
4
8
11
4
11
11
5
9
11
4
11
12
6
10
12
5
12
14
5
10
19
10
15
19
10
15
21
10
16
20
11
16
21
10
16
21
12
17
22
11
17
21
12
17
30
19
25
29
20
25
30
19
25
29
20
25
30
19
25
29
20
25
30
19
25
30
19
25
28
13
20
26
9
17
25
5
14
25
6
12
25
4
11
24
3
8
23
2
7
21
2
4
15
0
0
15
0
0
16
0
0
16
0
0
19
1
0
20
2
0
22
2
1
22
3
0
28
7
2
34
11
5
39
14
7
43
16
7
46
16
6
50
16
7
55
16
9
58
17
11
68
23
18
74
26
22
82
33
29
91
40
37
98
47
43
105
55
48
112
59
53
115
62
54
118
61
52
113
55
44
107
47
37
106
46
36
114
51
42
122
59
50
127
64
55
130
65
59
134
69
63
136
69
63
138
71
65
141
72
67
143
74
69
145
76
71
147
76
74
148
77
75
162
88
89
166
91
95
167
92
96
165
93
96
167
96
100
170
104
106
167
105
108
161
102
104
160
104
105
161
109
111
162
112
113
150
104
104
131
85
87
108
66
67
93
51
53
84
45
46
86
54
55
88
58
58
91
61
61
92
64
61
94
66
63
102
74
70
110
85
78
119
95
85
116
92
80
112
90
76
106
84
70
100
79
62
96
75
58
93
72
53
90
72
52
92
71
50
96
73
55
96
73
55
96
74
53
95
73
52
94
72
51
92
71
50
91
70
49
91
70
49
90
69
48
88
70
48
89
68
47
86
68
46
199
159
211
173
133
185
139
99
151
107
67
120
84
45
100
79
40
95
77
40
94
70
33
85
62
28
78
57
24
71
48
17
59
43
13
51
39
12
45
39
13
42
39
13
40
38
12
37
35
11
33
33
12
31
31
12
31
30
12
28
28
12
25
25
12
22
24
13
21
23
12
18
22
13
16
21
13
11
20
12
9
21
12
7
22
13
6
24
14
5
25
15
6
29
14
7
36
15
10
42
18
14
50
25
21
57
32
28
67
37
37
72
42
42
78
44
45
80
46
47
79
40
43
74
35
38
67
26
32
62
19
26
64
19
26
68
23
30
76
29
37
82
35
43
97
52
59
90
48
52
85
40
45
77
32
35
70
25
28
67
23
24
66
20
22
66
20
22
68
24
23
67
23
22
65
24
20
66
25
21
66
27
22
66
27
22
64
27
21
63
26
20
53
18
12
53
18
12
50
17
12
46
15
12
43
12
10
38
10
7
29
8
5
26
8
4
18
5
0
13
6
0
11
6
0
9
6
1
8
5
0
8
3
0
8
2
2
8
2
2
6
2
3
6
2
3
5
1
2
5
1
0
5
1
0
4
0
0
4
0
0
4
0
0
7
3
2
4
3
1
6
2
1
4
3
1
5
1
2
3
1
2
3
1
2
2
0
1
7
3
2
7
1
1
7
1
1
6
2
1
6
0
0
5
1
0
5
1
2
5
1
2
4
0
1
4
0
1
4
0
3
1
0
2
1
0
2
1
0
2
1
0
2
1
0
2
3
0
2
3
0
0
3
0
2
3
0
0
3
0
2
3
0
0
3
0
2
3
0
0
5
0
3
5
0
1
6
0
4
6
0
2
7
1
5
7
1
3
7
1
5
7
1
5
14
5
10
15
6
11
15
6
11
15
6
11
16
7
12
16
7
12
16
7
12
16
7
12
16
7
12
17
8
13
17
8
13
18
9
14
19
10
15
20
11
16
21
12
17
21
12
17
19
6
13
19
4
11
19
4
11
22
5
13
20
3
9
15
0
4
11
0
0
11
0
0
13
0
0
11
0
0
12
1
0
12
1
0
15
1
0
16
2
0
17
2
0
20
2
0
24
5
1
29
8
3
35
12
6
38
14
4
41
13
2
43
13
2
49
12
3
52
14
5
62
19
12
69
24
18
79
32
26
88
39
34
95
46
41
101
51
44
106
56
47
111
59
48
112
56
43
113
55
41
114
55
41
114
55
41
117
55
42
118
56
43
119
55
43
119
55
43
121
55
43
119
53
39
118
50
39
119
51
38
125
55
45
132
62
52
140
70
60
147
74
65
153
80
73
161
88
81
166
93
86
165
94
88
169
100
93
176
109
103
175
112
105
168
107
102
163
105
101
161
106
101
162
109
105
162
111
107
156
107
103
141
93
89
118
73
70
100
59
57
89
55
53
88
58
56
90
61
57
93
64
60
96
67
63
100
73
66
106
79
72
108
84
74
108
84
72
108
84
72
106
83
69
103
81
67
101
79
65
100
79
62
98
77
60
98
77
58
99
78
59
100
77
59
100
78
57
99
77
56
97
76
55
95
74
53
93
73
49
92
72
48
88
70
46
88
71
45
88
71
45
87
70
44
195
155
205
186
146
196
169
129
181
143
103
156
115
76
131
100
61
116
89
52
106
78
41
95
64
30
81
58
24
74
49
18
62
44
13
54
42
12
48
41
12
43
39
13
42
38
12
37
35
11
33
33
12
31
31
12
31
30
12
28
28
12
25
25
12
22
24
13
21
23
12
18
23
12
16
23
13
12
24
14
12
26
15
11
29
18
12
35
22
14
39
26
18
44
27
19
62
37
32
66
37
33
68
38
36
69
39
37
72
38
37
71
37
36
72
33
34
71
32
33
72
30
32
69
27
29
68
23
28
69
22
28
76
27
33
85
34
41
96
43
51
101
50
57
102
55
61
94
49
54
84
37
43
74
28
31
68
22
25
67
21
23
70
24
26
73
27
27
71
25
25
68
24
23
65
24
20
69
28
24
73
34
29
77
38
33
76
39
33
75
38
32
66
31
25
65
30
24
61
28
23
55
24
19
49
18
15
40
12
9
32
8
6
25
7
3
16
2
0
13
3
1
11
3
0
9
4
1
8
2
2
9
0
1
8
0
2
8
0
2
5
0
4
3
1
4
3
1
4
2
0
1
2
0
1
1
0
0
1
0
0
1
0
0
3
1
2
2
2
2
3
1
2
1
1
1
2
0
3
1
1
3
0
0
2
1
0
2
5
1
0
5
1
0
5
1
0
3
2
0
4
0
0
2
1
0
2
1
0
1
0
0
1
0
0
1
0
0
1
0
2
0
0
2
0
0
2
1
1
3
1
1
3
1
1
3
2
0
1
2
1
0
4
0
1
4
0
0
4
0
1
4
0
0
4
0
1
4
0
0
4
0
1
4
0
0
5
0
1
5
0
0
6
0
2
6
0
0
6
0
2
7
1
3
9
3
7
9
3
7
9
3
7
10
4
8
10
4
8
10
4
8
11
5
9
11
5
9
11
5
9
11
5
9
11
5
9
11
5
9
10
4
8
10
4
8
10
4
8
12
3
8
15
6
11
14
3
9
15
2
9
20
5
12
19
4
9
14
0
4
13
0
1
13
1
3
10
0
0
9
0
0
10
0
0
10
0
0
12
1
0
13
2
0
16
2
0
16
2
0
21
3
1
26
7
3
30
10
3
34
11
3
37
10
1
38
10
0
44
10
0
47
10
1
57
16
10
65
22
16
74
29
24
82
34
30
85
38
32
87
38
31
89
40
33
94
42
31
94
38
25
102
43
29
112
50
35
115
53
38
114
52
37
112
50
35
114
51
36
118
52
38
116
48
35
116
49
33
116
46
34
117
48
33
124
52
40
130
58
46
136
64
52
140
68
56
151
79
65
157
88
73
161
92
77
160
90
78
164
96
83
175
109
97
179
115
105
175
112
103
169
109
101
159
100
92
151
94
87
150
95
90
155
102
98
156
103
99
147
96
93
137
89
85
110
75
69
99
68
63
91
60
55
89
60
54
93
64
58
98
69
61
100
71
63
97
70
61
97
70
59
99
72
61
101
74
63
100
77
63
100
77
63
98
75
61
95
72
58
92
71
54
94
73
54
95
74
53
96
75
54
97
76
55
97
77
53
95
75
51
92
75
49
90
73
45
87
70
42
88
71
43
87
72
41
87
72
41
189
149
199
192
152
202
191
151
203
171
131
184
140
101
154
117
78
133
100
61
114
83
46
98
66
29
81
61
24
75
51
18
65
45
12
57
43
11
52
43
11
48
41
11
45
39
12
43
35
10
39
33
10
36
33
11
34
30
11
31
28
11
27
25
11
24
25
12
21
24
11
18
25
10
15
26
12
12
29
13
13
35
17
15
40
22
18
47
28
22
52
33
27
58
35
29
72
41
39
73
37
37
72
36
36
71
35
35
73
34
35
75
35
35
76
36
36
78
36
37
76
32
33
79
33
35
86
37
41
92
41
46
96
43
49
98
45
51
100
45
51
98
45
51
84
35
39
81
35
37
79
33
35
77
31
33
75
29
31
73
27
27
72
26
26
72
26
26
72
26
26
68
24
23
65
24
22
70
31
26
79
40
35
85
46
41
84
47
41
82
45
39
78
41
35
76
38
35
72
34
31
64
29
25
55
21
19
45
14
11
35
7
4
26
5
2
19
1
0
13
2
0
11
3
0
8
3
0
7
1
3
6
0
4
8
0
4
6
0
4
5
0
4
3
1
4
3
1
4
2
0
3
2
0
1
1
0
0
1
0
0
1
0
0
1
1
3
1
1
3
0
0
2
0
0
0
0
0
2
0
0
2
0
0
2
1
0
2
1
0
0
1
0
0
1
0
0
1
0
0
1
0
0
1
0
0
1
0
0
1
0
0
1
0
0
1
0
0
0
0
2
0
0
2
1
1
3
2
2
4
3
3
5
3
3
5
4
2
3
4
3
1
6
2
1
6
2
1
6
2
1
6
2
1
6
2
1
6
2
1
5
1
0
5
1
0
6
0
0
7
1
1
7
1
1
7
1
1
8
2
2
8
2
4
7
1
5
6
1
5
8
2
6
7
2
6
7
2
6
8
3
7
8
3
7
8
3
7
11
6
10
10
5
9
10
5
9
8
4
5
7
2
6
6
2
3
5
1
2
5
1
2
9
3
7
7
0
3
7
0
2
10
0
5
11
0
3
8
0
0
9
0
0
15
5
6
7
0
0
8
0
0
8
0
0
9
1
0
10
2
0
11
3
1
12
2
0
13
2
0
17
3
0
21
6
3
27
10
3
30
11
4
32
9
1
33
9
0
37
9
0
42
9
0
53
16
8
60
21
14
69
28
22
76
33
27
77
32
26
77
30
22
76
29
21
79
29
20
81
27
15
93
35
21
104
45
31
108
49
35
107
48
34
108
49
33
117
54
39
122
59
44
120
54
40
123
56
40
126
59
43
130
61
46
132
63
48
135
63
49
134
62
48
134
62
47
132
63
47
139
70
54
141
72
56
138
71
54
146
80
64
165
99
83
176
113
98
176
114
101
172
113
99
157
97
86
137
79
68
128
71
60
134
77
68
146
92
82
161
104
97
162
112
103
139
99
91
118
81
73
95
61
52
87
53
44
92
59
50
98
68
58
98
68
58
94
66
55
90
64
51
93
67
54
95
72
58
98
75
61
98
75
61
95
72
58
91
68
54
88
65
49
91
70
51
93
72
51
94
73
54
96
75
54
96
75
54
95
75
51
91
74
48
90
73
47
86
69
41
87
70
42
86
71
40
87
72
41
193
153
205
187
147
200
188
148
201
191
151
204
181
141
194
148
108
161
110
70
122
84
46
97
72
33
86
69
30
83
63
24
79
55
16
71
50
12
63
47
9
58
46
9
53
41
9
50
36
8
46
34
10
44
34
11
40
31
11
36
31
12
32
30
12
26
30
13
23
31
11
20
33
12
19
40
15
21
48
21
26
56
27
31
61
32
34
64
34
34
64
34
34
64
33
31
70
31
34
75
33
35
78
36
38
77
35
37
77
33
34
76
32
31
78
34
33
81
35
35
79
34
31
83
35
33
85
37
37
88
38
39
89
37
39
87
35
37
86
31
36
82
30
32
85
34
33
84
34
33
83
33
32
80
32
30
77
29
27
72
26
26
69
23
23
66
22
23
66
22
23
64
22
23
66
24
25
70
30
28
76
36
34
79
41
38
78
40
37
76
38
35
79
38
36
79
38
36
79
38
36
77
36
34
72
31
29
60
22
19
45
11
9
34
5
1
19
0
0
17
2
0
15
4
2
10
2
0
3
0
0
3
0
2
1
0
4
1
0
4
3
1
4
3
1
4
3
1
4
3
1
4
3
1
2
3
1
2
3
1
2
3
1
2
1
0
0
1
0
0
1
0
0
1
0
0
1
0
0
1
0
0
1
0
0
1
0
0
2
0
1
1
1
1
1
1
1
0
0
0
0
0
0
0
0
0
0
0
0
0
0
0
0
0
0
0
0
0
0
0
2
0
0
2
0
0
2
0
0
2
0
0
2
0
0
2
3
1
2
6
2
3
6
2
3
6
2
3
7
3
4
7
3
4
7
3
4
8
4
5
9
5
6
8
4
5
8
4
5
8
4
5
7
3
4
7
3
4
7
3
4
6
2
3
3
0
2
2
0
5
4
0
5
2
0
5
3
1
4
3
1
4
3
1
4
3
1
4
2
2
2
2
2
2
1
1
1
1
1
0
0
2
1
0
1
0
0
1
0
0
0
0
6
2
3
7
1
3
7
1
3
7
1
3
7
1
3
7
1
3
7
1
3
7
1
3
4
0
0
4
0
0
4
0
0
5
0
0
6
0
0
6
0
0
7
1
1
7
2
0
12
4
1
13
4
0
14
3
0
17
4
0
22
5
0
26
7
0
31
8
0
36
9
2
45
15
7
50
17
8
56
19
11
59
21
12
60
20
12
64
21
12
68
24
15
74
27
17
75
26
12
83
31
17
91
38
24
92
39
25
93
37
24
96
40
25
107
48
34
115
56
40
122
60
45
130
67
52
141
75
59
151
84
68
154
87
70
151
82
66
144
75
59
138
69
53
128
59
43
126
58
39
121
54
35
119
52
33
122
57
39
136
71
53
153
90
73
166
105
87
161
102
84
153
94
76
143
84
68
137
80
63
139
82
65
142
86
69
146
89
72
144
91
75
147
97
86
135
88
78
117
73
62
102
60
48
92
54
41
90
57
42
95
63
50
96
68
54
91
65
50
89
66
50
89
68
51
90
69
52
91
70
53
91
70
53
92
69
53
92
69
53
98
75
59
96
73
55
94
71
55
95
72
54
96
75
56
95
74
53
91
70
49
88
67
46
91
73
49
91
73
49
90
74
49
91
75
50
194
154
207
192
152
205
190
149
205
189
148
204
185
144
200
167
127
180
139
99
151
116
76
128
95
55
108
88
47
103
80
39
99
74
33
93
71
30
88
70
30
83
72
32
82
74
36
83
57
26
70
51
25
64
47
21
56
41
18
47
37
15
38
34
13
30
33
11
24
33
10
20
44
17
26
49
19
27
56
23
30
62
27
34
64
29
35
65
29
33
64
28
32
65
26
29
71
29
33
74
29
32
77
31
34
77
31
33
77
31
31
77
32
29
78
33
30
80
35
30
81
33
29
82
34
30
85
36
32
86
37
33
86
35
32
85
34
31
85
31
31
82
31
30
84
33
30
82
33
28
80
31
27
77
29
25
74
26
24
69
23
23
65
21
22
62
20
21
58
16
17
58
18
18
62
22
22
67
27
27
72
34
31
75
37
34
76
38
35
77
37
35
81
39
40
80
36
35
80
34
34
79
35
34
78
34
33
69
28
26
55
17
14
40
9
4
22
0
0
18
0
0
14
0
0
10
2
0
6
2
3
3
1
4
1
0
5
1
0
5
2
0
3
2
0
3
2
0
3
2
0
1
2
0
1
2
0
1
2
0
1
2
0
1
1
0
0
1
0
0
1
0
0
1
0
0
1
0
0
1
0
0
1
0
0
1
0
0
1
1
1
1
1
1
1
1
1
0
0
0
0
0
0
0
0
0
0
0
0
0
0
0
0
0
0
0
0
0
0
0
2
0
0
2
0
0
2
0
0
2
0
0
2
0
0
2
3
1
2
5
1
2
5
1
2
5
1
2
6
2
3
6
2
3
6
2
3
7
3
4
8
4
5
7
3
4
7
3
4
7
3
4
6
2
3
6
2
3
6
2
3
5
1
2
1
0
4
1
0
4
1
0
4
2
0
3
1
1
3
1
1
3
2
2
4
2
2
2
1
3
2
1
3
0
1
3
0
1
3
0
0
3
0
0
3
0
0
2
0
0
1
0
3
2
0
5
1
2
5
1
2
5
1
2
5
1
2
5
1
2
5
1
2
5
1
2
3
0
0
3
0
0
3
0
0
4
0
1
4
0
1
5
1
2
5
1
2
5
1
0
10
5
2
10
5
1
12
4
1
14
5
0
18
4
1
22
7
2
27
8
2
30
10
3
38
13
6
43
14
6
47
17
7
50
16
6
52
15
6
54
16
5
57
17
7
62
20
8
69
23
10
76
28
14
84
35
21
85
36
22
87
35
21
92
39
25
102
46
31
111
54
37
120
61
45
124
63
45
130
67
50
139
74
56
147
82
64
152
85
68
152
83
67
150
82
63
140
72
53
135
68
49
128
61
42
119
52
33
110
45
27
110
45
27
120
57
39
131
70
51
142
81
62
139
81
61
136
78
58
135
77
57
137
79
59
144
87
67
155
97
77
161
104
87
156
103
89
137
85
74
113
65
53
99
55
42
96
57
42
97
61
45
93
61
46
87
60
43
91
65
48
88
67
48
86
67
50
87
68
51
90
69
52
91
70
53
94
71
55
94
71
55
93
70
54
94
71
55
96
73
57
96
73
57
94
73
56
92
71
52
91
70
53
91
70
51
89
71
51
89
71
49
87
70
50
87
71
48
179
138
194
187
146
202
193
152
210
190
149
205
187
146
202
183
143
196
171
131
183
159
119
171
137
97
150
122
81
137
107
66
126
99
58
118
93
52
110
85
44
100
82
42
94
82
44
91
65
32
77
60
29
71
53
23
61
45
18
49
41
15
40
38
15
33
39
15
29
42
16
27
52
22
32
55
24
32
60
25
32
64
27
35
67
27
35
66
27
32
65
26
31
64
25
28
69
27
29
70
26
25
71
25
25
73
28
25
75
30
27
77
32
27
78
33
27
77
32
26
81
34
28
81
34
28
82
35
29
82
35
29
82
33
28
81
32
27
81
30
27
81
30
27
82
31
28
79
30
26
75
27
23
70
25
20
65
21
18
61
20
18
58
18
18
56
18
17
47
8
9
51
12
13
57
19
18
63
25
24
67
29
28
71
33
32
75
35
33
77
37
35
82
41
39
78
37
35
78
34
33
81
37
34
84
40
37
78
39
34
66
29
23
51
20
15
27
2
0
19
0
0
12
0
0
8
0
0
10
4
4
8
6
7
4
3
8
1
0
5
2
0
3
2
0
1
2
0
1
2
0
1
2
0
1
2
1
0
2
1
0
2
1
0
2
1
0
2
1
0
2
1
0
2
1
0
2
1
0
2
1
0
2
1
0
2
1
0
1
1
1
1
1
1
1
1
1
1
1
1
0
0
0
0
0
0
0
0
0
0
0
0
0
0
0
0
0
0
0
0
0
0
0
0
0
0
0
0
0
0
0
0
0
0
0
0
1
0
0
2
0
1
2
0
1
2
0
1
3
1
2
3
1
2
3
1
2
3
1
2
4
2
3
4
2
3
4
2
3
3
1
2
3
1
2
2
0
1
2
0
1
2
0
1
1
0
4
1
0
4
1
0
2
1
0
2
0
0
2
1
1
1
1
1
1
1
1
0
3
3
1
3
3
1
2
4
1
1
3
0
1
3
0
1
3
0
0
2
0
1
1
0
2
1
0
4
0
0
4
0
0
4
0
0
4
0
0
4
0
0
4
0
0
4
0
0
3
0
0
3
0
0
3
0
0
3
0
0
3
0
0
4
0
0
4
0
0
4
0
0
8
4
1
9
4
0
9
4
0
12
5
0
14
5
0
18
7
1
23
8
1
27
8
1
30
10
3
35
10
3
38
11
2
41
11
1
42
9
0
43
9
0
45
11
1
48
12
0
58
19
4
66
24
8
73
30
14
77
31
16
79
32
16
84
35
20
95
44
27
104
51
33
109
53
36
109
52
33
113
52
34
124
61
43
139
74
56
150
85
65
155
88
69
155
88
69
153
86
67
149
82
63
141
74
55
127
62
42
107
42
24
93
28
10
94
31
13
104
41
23
121
58
41
121
60
42
119
58
40
117
56
38
119
58
40
130
71
53
153
92
74
166
109
92
173
120
106
154
105
91
130
82
68
109
66
50
97
58
43
91
58
41
90
61
43
89
64
44
91
68
50
89
68
49
86
68
48
86
68
48
90
69
50
93
72
53
96
75
58
98
77
60
109
86
72
111
88
74
111
89
75
107
85
71
99
77
63
93
72
55
89
70
55
89
70
53
90
71
54
90
72
52
88
71
53
88
71
51
145
104
162
167
126
184
189
148
206
194
153
211
189
148
206
185
144
200
187
147
200
189
149
202
170
129
185
145
104
162
120
78
141
109
67
130
100
59
119
84
43
101
70
30
83
65
27
76
60
22
71
55
19
63
48
16
55
44
13
47
42
13
41
43
15
37
48
19
37
52
21
36
56
24
37
58
25
36
62
24
35
66
26
35
68
26
36
68
27
35
68
27
35
68
27
31
67
25
26
66
22
19
66
21
18
68
23
18
73
28
23
77
32
26
77
33
24
76
32
23
81
34
26
81
34
24
81
34
26
80
33
25
81
32
25
80
31
24
79
30
25
79
30
25
78
29
25
75
27
23
68
23
18
60
19
15
55
15
13
52
14
11
49
14
12
49
14
12
38
4
3
44
10
9
52
16
16
58
23
21
63
25
24
67
29
28
74
34
32
78
38
36
81
40
38
79
38
34
81
37
34
85
41
38
86
45
41
84
45
38
77
40
34
68
35
28
44
17
10
30
10
3
15
2
0
9
0
0
9
4
1
10
6
5
5
3
6
0
0
2
2
0
1
2
1
0
2
0
1
2
1
0
2
1
0
2
1
0
2
1
0
2
1
0
3
2
0
3
2
0
3
2
0
3
2
0
3
2
0
3
2
0
3
2
0
3
2
0
2
2
2
2
2
2
1
1
1
1
1
1
1
1
1
0
0
0
0
0
0
0
0
0
0
0
0
0
0
0
0
0
0
0
0
0
0
0
0
0
0
0
0
0
0
0
0
0
1
0
0
1
0
0
1
0
0
1
0
0
2
0
1
2
0
1
2
0
1
3
1
2
3
1
2
3
1
2
2
0
1
2
0
1
2
0
1
1
0
0
1
0
0
1
0
0
1
0
2
1
0
2
1
0
2
1
0
0
0
0
0
1
1
0
1
1
0
1
2
0
4
5
0
4
5
0
3
5
0
3
5
0
2
4
1
2
4
1
1
3
0
2
2
0
1
0
0
3
0
0
3
0
0
3
0
0
3
0
0
3
0
0
3
0
0
3
0
0
3
0
0
3
0
0
3
0
0
3
0
0
3
0
0
3
0
0
3
0
0
3
0
0
7
3
0
7
3
0
7
3
0
8
3
0
12
4
1
15
6
1
18
7
1
22
7
0
25
8
1
27
8
1
31
8
0
32
8
0
35
8
0
36
8
0
37
9
0
39
9
0
47
14
0
54
19
0
60
23
5
65
26
9
68
26
10
74
31
14
85
38
20
93
45
25
93
42
21
94
39
19
96
39
19
111
50
29
129
67
46
144
79
57
148
83
61
147
82
60
152
87
67
151
86
66
149
84
64
136
74
53
115
50
32
90
27
9
85
22
4
90
29
10
99
36
19
100
39
21
100
39
21
96
37
19
96
37
19
107
48
32
125
66
50
139
81
67
156
104
90
156
108
94
151
105
90
130
88
72
104
67
51
88
55
38
88
59
41
94
69
49
91
68
50
88
67
48
85
67
47
84
66
46
88
67
48
92
71
52
96
75
56
99
78
61
106
83
69
107
85
72
110
88
74
110
88
74
108
86
72
105
86
71
105
86
71
106
87
72
101
82
67
99
82
64
98
81
63
97
80
62
114
73
133
138
97
157
170
129
189
191
150
210
192
151
211
186
145
203
188
147
203
196
155
211
177
136
192
144
103
161
111
69
132
97
55
118
90
48
111
76
35
95
62
21
77
55
15
68
53
13
63
52
13
60
49
12
55
48
12
48
48
15
44
52
20
44
56
23
44
60
26
43
66
30
44
66
28
41
68
26
40
67
23
36
66
23
33
66
23
32
66
23
32
66
24
28
65
21
22
63
19
16
61
17
14
64
21
15
69
26
19
74
31
22
77
33
24
77
33
22
82
35
25
82
36
23
82
35
25
82
35
25
81
34
24
80
33
23
78
31
23
75
30
24
72
27
22
68
24
21
59
18
14
51
13
10
45
10
6
42
8
6
40
9
7
39
9
7
31
1
1
37
7
5
46
15
13
54
20
19
59
24
22
66
28
27
72
32
32
78
37
35
77
37
35
79
40
35
83
42
38
85
44
38
85
44
38
84
46
37
82
45
37
79
46
37
63
34
26
46
23
15
26
9
2
12
1
0
8
0
0
6
2
0
2
1
0
1
0
0
2
1
0
2
1
0
2
1
0
2
1
0
2
1
0
2
1
0
2
1
0
2
1
0
3
2
0
3
2
0
3
2
0
3
2
0
3
2
0
3
2
0
3
2
0
3
2
0
2
2
2
2
2
2
2
2
2
1
1
1
1
1
1
1
1
1
0
0
0
0
0
0
0
0
0
0
0
0
0
0
0
0
0
0
0
0
0
0
0
0
0
0
0
0
0
0
0
0
0
0
0
0
0
0
0
0
0
0
1
1
0
1
1
0
1
1
0
2
2
0
1
1
0
1
1
0
1
1
0
1
1
0
0
0
0
0
0
0
0
0
0
0
0
0
1
0
2
1
0
2
1
0
0
2
1
0
2
1
0
3
2
0
3
2
0
3
2
0
6
7
1
6
7
1
5
6
0
5
6
0
4
5
0
4
5
0
4
4
2
4
4
2
2
1
0
4
0
0
4
0
0
4
0
0
4
0
0
4
0
0
4
0
0
4
0
0
4
0
0
4
0
0
4
0
0
4
0
0
4
0
0
4
0
0
4
0
0
4
0
0
4
3
1
4
3
0
3
2
0
6
3
0
7
4
0
10
5
0
14
7
1
17
6
0
20
7
1
21
6
0
24
7
0
26
7
0
30
10
3
33
10
2
34
11
3
35
11
0
36
8
0
41
12
0
48
17
0
51
20
0
57
22
3
63
26
7
73
32
12
80
38
16
85
39
16
84
33
12
87
32
11
98
42
19
115
57
35
131
71
47
137
75
52
137
75
52
138
76
55
142
80
59
146
84
63
140
79
58
121
58
40
95
34
15
80
19
1
75
16
0
79
17
2
83
24
8
90
31
15
92
35
18
93
36
19
95
37
23
98
40
26
98
45
29
104
57
41
119
76
60
135
93
77
134
95
78
117
82
63
97
66
46
86
59
38
83
61
38
84
63
42
80
62
40
78
60
38
78
60
38
79
61
39
83
65
43
87
69
47
89
71
51
89
67
53
90
68
55
93
71
58
96
77
63
102
83
69
105
86
72
106
87
73
104
87
71
92
75
59
92
75
59
91
74
58
89
73
57
95
54
114
110
69
129
139
97
160
171
129
192
186
144
207
187
146
206
186
145
203
189
148
204
176
135
193
143
102
162
107
65
128
88
46
110
80
38
102
72
30
93
63
22
80
58
17
73
53
10
63
55
13
61
58
16
62
61
23
62
65
28
61
69
33
59
71
36
60
74
36
57
76
37
55
75
34
50
71
28
45
67
23
38
65
19
32
62
16
27
61
15
26
61
16
23
62
18
19
61
17
14
60
16
13
62
19
13
67
24
17
73
30
21
77
33
24
79
35
24
83
36
26
84
38
25
86
40
27
87
41
28
86
39
29
81
37
26
77
33
24
74
31
24
67
26
22
61
21
19
52
14
11
41
7
5
35
4
1
31
3
0
30
5
1
31
5
4
26
0
0
33
5
4
41
11
11
48
17
15
57
21
21
64
26
25
71
29
30
73
32
30
72
33
28
75
36
29
80
39
33
81
41
33
80
40
32
80
40
32
82
44
35
83
46
37
73
43
33
58
34
24
40
20
13
21
6
0
9
0
0
4
0
0
4
0
0
3
2
0
4
3
0
4
3
0
4
3
0
4
3
0
4
3
0
4
3
0
4
3
0
4
3
0
4
3
0
4
3
0
4
3
0
4
3
0
4
3
0
4
3
0
4
3
0
4
3
0
3
3
1
2
2
2
2
2
2
2
2
2
1
1
1
1
1
1
1
1
0
1
1
0
0
0
0
0
0
0
0
0
0
0
0
0
0
0
0
0
0
0
0
0
0
0
0
0
0
0
0
1
1
0
1
1
0
1
1
0
2
2
0
2
2
0
2
2
0
2
2
0
2
2
0
2
2
0
1
1
0
1
1
0
1
1
0
0
0
0
0
0
0
0
0
0
3
1
2
3
1
2
3
2
0
3
2
0
4
3
0
4
3
0
4
3
0
5
5
0
8
8
0
7
8
0
6
7
0
6
7
1
6
7
2
5
6
1
5
5
3
6
5
3
7
3
0
7
3
0
7
3
0
7
3
0
7
3
0
7
3
0
7
3
0
7
3
0
7
3
0
6
2
0
6
2
0
6
2
0
5
1
0
5
1
0
5
1
0
3
2
0
3
2
0
2
2
0
2
1
0
2
1
0
5
1
0
7
4
0
10
5
1
13
6
0
15
6
1
16
5
0
18
5
0
20
7
0
24
9
2
28
11
3
28
11
3
29
11
1
25
6
0
31
8
0
35
12
0
40
14
0
45
16
0
51
20
0
61
26
7
67
29
8
81
38
19
79
33
10
80
30
7
86
34
10
101
47
23
114
58
33
125
65
41
127
67
43
127
66
45
134
76
54
146
85
64
146
88
66
137
76
57
112
54
34
86
27
9
68
11
0
73
16
0
75
19
2
81
25
8
85
32
16
87
36
19
87
36
19
85
34
17
81
32
17
78
35
18
83
44
27
96
57
40
108
73
54
111
80
60
105
77
56
90
65
43
77
55
32
76
56
32
73
55
31
72
54
32
71
53
29
72
54
32
74
56
32
77
59
37
78
60
38
83
64
47
81
62
47
81
62
47
84
65
50
88
69
54
88
71
55
86
69
53
83
66
50
77
60
44
75
60
41
75
59
43
74
59
40
81
39
102
89
47
110
109
67
131
137
95
158
163
121
184
179
138
198
184
143
201
185
144
202
180
139
197
157
116
176
126
84
147
101
59
123
85
43
107
74
32
96
67
26
86
64
20
79
61
16
71
66
22
73
73
29
78
79
38
80
83
43
78
84
45
74
83
44
71
82
44
67
80
41
60
78
37
55
72
29
48
66
22
39
62
15
31
59
13
26
59
11
25
59
12
22
59
15
16
60
16
13
61
17
14
62
19
13
66
23
16
71
28
19
78
34
25
83
39
28
82
38
27
85
41
30
88
44
33
90
46
35
89
45
36
83
40
31
76
36
26
71
33
24
63
26
20
55
20
18
45
11
9
33
3
1
25
0
0
23
0
0
23
2
0
23
3
2
21
0
0
26
2
0
32
6
5
42
12
10
53
19
18
62
23
24
66
24
25
67
26
24
68
29
24
69
30
23
71
30
24
72
32
24
74
31
24
76
33
24
78
35
26
77
39
28
73
39
29
65
37
26
52
27
20
34
15
8
16
3
0
7
0
0
7
2
0
11
8
3
6
5
0
6
6
0
6
5
0
6
5
0
6
5
0
6
5
0
6
5
0
6
5
0
5
4
0
5
4
0
5
4
0
5
4
0
5
4
0
5
4
0
5
4
0
5
4
0
3
3
1
3
3
1
2
2
0
2
2
0
2
2
0
1
1
0
1
1
0
1
1
0
0
0
0
0
0
0
0
0
0
0
0
0
0
1
0
0
1
0
0
1
0
0
1
0
2
3
0
2
3
0
2
3
0
2
3
0
3
4
0
3
4
0
3
4
0
4
5
0
3
4
0
3
4
0
2
3
0
2
3
0
2
3
0
1
2
0
1
2
0
1
2
0
4
3
1
6
2
0
7
3
0
7
4
0
8
5
0
8
5
0
8
5
0
6
6
0
9
9
0
9
9
0
8
8
0
8
8
0
7
6
1
7
6
2
7
6
4
7
6
4
10
6
3
10
6
3
10
6
3
10
6
3
10
6
3
10
6
3
10
6
3
10
6
3
9
5
2
9
5
2
8
4
1
8
4
1
7
3
0
7
3
0
6
2
0
4
3
0
3
2
0
1
1
0
0
0
0
0
1
0
2
1
0
5
1
0
7
3
0
9
4
0
10
5
1
11
4
0
11
2
0
13
4
0
16
5
0
18
8
0
17
7
0
18
5
0
18
4
0
22
6
0
26
8
0
29
10
0
35
12
0
41
15
0
48
19
3
55
22
3
67
30
12
68
27
7
70
25
4
77
29
7
87
36
15
97
45
23
105
48
28
108
52
29
110
54
31
125
69
46
143
85
63
154
98
75
158
100
80
142
85
65
108
53
33
76
24
3
68
15
0
68
17
0
67
18
1
68
21
5
70
24
8
71
28
11
73
32
14
75
34
16
77
39
20
69
34
14
68
33
13
73
42
21
85
57
35
93
67
44
89
67
43
83
63
38
74
57
31
73
56
30
72
56
31
71
55
29
71
55
30
71
55
29
72
56
31
72
56
31
70
53
33
71
54
36
72
55
37
73
56
38
75
58
40
75
58
40
73
56
38
71
56
37
73
58
39
71
59
37
71
58
39
71
59
37
69
27
90
78
36
100
92
50
114
111
69
133
138
96
160
166
124
187
182
141
201
185
144
202
182
141
199
170
129
189
149
107
170
122
80
144
98
56
122
82
40
104
71
29
92
68
24
85
74
29
86
81
34
88
87
43
94
92
49
94
92
52
89
87
48
79
81
42
71
76
38
63
78
39
60
75
33
53
69
27
47
63
20
39
59
15
32
59
12
28
59
12
28
60
14
25
57
12
15
60
16
15
62
18
15
63
20
14
65
22
16
70
27
20
79
35
26
85
41
32
83
39
28
86
42
31
91
47
36
93
51
39
91
48
39
84
44
34
76
38
27
70
33
24
59
26
21
51
20
18
40
10
8
28
3
0
19
0
0
16
0
0
16
1
0
18
3
0
18
0
0
20
0
0
24
3
2
37
9
8
48
16
17
57
21
21
63
21
23
62
21
19
65
26
21
63
26
17
63
23
15
66
23
14
70
26
17
73
29
18
73
29
18
72
30
18
70
32
21
69
35
25
61
32
24
44
21
13
23
6
0
10
0
0
12
5
0
17
12
6
9
6
0
7
7
0
7
7
0
7
7
0
7
6
1
7
6
1
7
6
1
7
6
1
5
4
0
5
4
0
5
4
0
5
4
0
5
4
0
5
4
0
5
4
0
5
4
2
4
3
1
3
3
1
3
3
1
2
2
0
2
2
0
1
1
0
1
1
0
1
1
0
0
0
0
0
0
0
0
0
0
0
1
0
0
1
0
0
1
0
0
1
0
0
1
0
2
3
0
3
4
0
3
4
0
3
4
0
4
5
0
4
5
0
4
5
0
5
6
1
3
4
0
3
4
0
3
4
0
3
4
0
2
3
0
2
3
0
2
3
0
1
2
0
8
4
1
8
5
0
8
5
0
8
5
0
9
6
0
9
6
0
9
7
0
10
8
0
11
9
0
9
9
0
11
8
1
8
8
0
10
7
2
8
7
3
9
5
4
9
5
4
13
9
6
13
10
5
13
9
6
13
10
5
13
9
6
13
10
5
13
9
6
13
10
5
10
6
3
10
7
2
10
6
3
9
6
1
8
4
1
8
5
0
7
3
0
7
3
0
2
1
0
1
1
0
0
0
0
1
0
0
1
0
0
3
2
0
6
2
0
7
3
0
9
4
0
7
2
0
7
0
0
8
1
0
10
3
0
11
4
0
10
1
0
8
0
0
13
4
0
16
6
0
20
7
0
23
9
0
28
10
0
35
13
0
42
16
3
47
18
4
49
16
1
54
17
0
62
21
3
70
27
8
78
31
13
83
35
15
87
36
17
88
36
15
91
36
15
112
56
33
136
79
59
156
99
79
171
114
94
164
109
89
127
75
54
89
38
19
56
7
0
56
9
0
56
13
0
56
15
0
54
17
0
56
21
1
58
25
6
60
27
8
64
32
11
61
29
8
57
26
5
55
27
5
61
35
12
73
49
25
83
63
38
90
73
47
78
61
35
77
61
35
77
61
35
77
61
35
76
60
34
75
59
33
74
58
32
73
57
31
60
44
19
64
48
25
67
51
28
66
50
27
64
48
25
61
46
23
61
46
23
61
49
25
64
52
28
64
52
28
64
52
28
64
54
29
64
22
86
70
28
92
81
39
105
88
46
112
103
61
125
145
103
166
179
138
198
182
141
199
179
138
196
179
138
198
176
134
197
165
123
187
147
105
171
125
83
149
106
64
128
97
53
116
96
51
110
94
49
104
88
44
97
82
39
85
73
32
72
66
26
60
61
22
53
58
19
46
60
22
45
58
19
40
56
17
38
57
15
35
58
17
35
59
16
33
57
13
30
56
10
21
59
14
17
62
18
17
63
22
18
66
25
19
68
27
21
72
32
24
79
36
27
82
39
30
86
42
31
89
45
34
91
49
37
91
49
37
83
45
34
72
36
24
59
25
13
51
18
9
41
12
8
33
7
6
26
2
0
20
1
0
16
1
0
16
2
0
14
3
1
12
2
0
13
2
0
14
0
0
18
0
0
26
2
0
39
9
9
51
17
16
60
20
21
62
22
22
62
25
17
59
22
13
60
20
12
64
21
12
70
26
17
77
30
20
79
32
22
79
32
22
72
29
20
67
29
20
69
36
27
64
37
28
39
19
12
17
2
0
12
1
0
13
6
0
12
9
0
12
9
0
12
9
0
13
10
1
13
10
3
14
11
4
14
11
6
14
11
6
12
8
5
11
7
4
11
7
6
9
5
4
7
3
2
6
2
1
4
0
0
1
0
0
5
4
2
5
4
2
4
3
1
4
3
1
4
3
1
3
2
0
3
2
0
3
2
0
3
2
0
3
2
0
3
2
0
3
2
0
3
2
0
3
2
0
3
2
0
3
2
0
4
5
0
4
5
0
5
6
0
5
6
0
5
6
0
6
7
1
6
7
1
6
7
1
12
13
7
11
12
6
11
12
6
10
11
5
8
9
3
7
8
2
7
8
2
6
7
1
13
10
5
13
10
3
12
9
2
11
8
0
11
8
0
11
8
0
12
10
0
13
11
0
19
16
7
20
17
8
19
14
8
15
12
5
17
12
8
19
15
12
19
13
13
14
10
7
22
19
14
22
19
12
22
19
14
22
19
12
22
19
14
22
19
12
22
19
14
22
19
12
21
18
13
20
17
10
19
16
11
18
15
8
17
14
9
16
13
6
15
12
7
14
11
6
10
9
5
10
9
5
9
8
4
10
6
3
9
5
2
9
5
2
8
5
0
8
5
0
4
1
0
4
1
0
6
1
0
7
2
0
8
3
0
8
3
0
11
4
0
9
4
0
11
6
0
13
6
0
16
7
0
18
8
0
23
9
0
27
10
0
30
10
0
34
10
0
35
7
0
42
10
0
51
15
0
59
22
4
66
24
8
70
27
10
72
26
10
73
24
7
83
28
8
83
26
6
102
45
26
126
69
50
147
92
72
169
113
96
159
108
89
123
74
57
57
12
0
44
1
0
47
9
0
53
18
0
42
11
0
37
10
0
42
17
0
41
16
0
43
15
0
46
18
0
48
22
0
48
24
0
48
27
0
55
35
8
68
48
21
76
59
31
87
70
42
84
69
40
82
67
38
78
64
35
76
62
33
75
61
32
75
61
32
75
61
32
59
45
18
59
45
18
59
45
18
58
44
17
58
44
17
55
44
16
55
44
16
55
44
16
55
44
16
54
45
16
53
44
15
51
44
15
63
21
85
66
24
88
75
32
101
81
38
107
97
55
121
140
98
161
177
136
196
183
142
200
182
141
199
182
141
199
176
134
197
161
119
183
140
98
164
119
77
143
104
62
128
97
55
119
84
40
101
83
38
95
78
33
88
71
29
77
64
23
65
58
18
53
54
14
48
49
13
41
51
16
40
49
14
36
49
11
34
49
11
32
53
14
33
58
17
35
59
16
35
59
15
28
64
19
24
67
23
22
68
27
25
70
29
25
71
30
24
73
33
25
77
34
27
80
37
28
82
38
29
85
41
30
86
44
32
84
44
32
77
41
29
65
31
19
54
22
9
44
16
5
35
10
6
28
7
4
21
2
0
15
0
0
12
1
0
11
1
0
10
2
0
7
2
0
11
3
0
10
0
0
15
0
0
24
3
2
37
8
10
47
15
16
56
20
22
60
22
21
61
24
16
59
22
13
58
20
9
63
20
11
69
25
14
77
30
20
80
32
20
81
33
21
76
29
19
71
28
19
72
35
26
66
36
28
42
19
11
20
3
0
13
2
0
14
7
0
14
10
1
13
10
1
13
10
1
14
11
2
14
11
4
15
12
5
15
12
7
15
12
7
17
13
10
17
13
10
17
13
12
17
13
12
15
11
10
13
9
10
11
7
8
9
5
6
6
5
3
6
5
3
5
4
2
5
4
2
5
4
2
4
3
1
4
3
0
4
3
0
3
2
0
3
2
0
3
2
0
3
2
0
3
2
0
3
2
0
3
2
0
3
2
0
5
6
0
5
6
0
6
7
1
6
7
1
6
7
1
7
8
2
7
8
2
7
8
2
14
15
9
13
14
8
13
14
8
12
13
7
11
12
6
10
11
5
9
10
4
10
9
4
13
10
3
13
10
3
13
10
1
14
11
2
16
13
4
18
15
6
20
17
8
21
18
9
18
13
7
22
17
11
26
21
17
25
20
16
23
18
15
22
16
16
20
14
14
18
12
12
23
20
15
23
20
13
23
20
13
23
20
13
23
20
13
23
20
13
23
20
13
23
20
13
21
18
11
21
18
11
20
17
10
18
15
8
17
14
7
16
13
6
15
12
5
15
12
5
11
10
5
11
10
5
13
9
6
12
9
4
11
7
4
10
7
2
10
7
2
10
7
2
8
5
0
8
5
0
9
4
0
9
4
0
10
5
0
10
5
0
10
5
0
10
5
0
8
5
0
9
6
1
11
6
2
14
7
1
17
6
0
21
8
0
25
8
0
27
7
0
33
9
0
38
12
0
45
16
2
53
21
6
60
24
10
64
27
11
66
27
12
70
27
11
74
23
6
77
22
2
87
31
14
102
46
29
119
66
48
148
97
80
163
114
97
157
110
92
86
43
24
55
17
0
45
10
0
50
22
0
47
20
0
41
19
0
41
21
0
40
20
0
42
21
0
45
21
0
45
24
0
45
24
0
46
26
0
51
34
6
61
44
16
68
53
24
78
63
34
76
63
31
75
61
32
75
62
30
75
61
32
76
63
31
78
64
35
79
66
34
72
59
27
71
58
26
69
56
24
66
55
23
64
53
21
62
51
19
60
49
17
58
49
16
52
43
10
50
44
10
49
43
11
49
43
9
61
19
83
61
19
83
67
24
93
72
29
98
88
46
112
133
91
155
174
133
193
183
142
200
181
140
196
179
138
196
168
126
189
145
103
167
115
73
139
91
49
115
79
37
103
77
35
101
68
26
89
68
24
83
64
21
77
59
17
67
54
13
57
47
9
46
43
6
40
40
5
35
42
8
33
39
5
29
37
3
27
39
6
27
45
10
30
53
16
34
60
21
40
66
24
38
69
27
31
74
30
29
76
35
33
77
36
32
75
36
29
74
34
26
75
32
25
76
33
24
77
33
24
79
35
26
79
36
27
76
36
26
69
32
23
57
25
14
45
17
5
36
12
0
28
7
2
22
4
2
16
1
0
12
0
0
9
0
0
6
1
0
4
0
0
4
0
0
8
3
0
9
1
0
13
0
0
21
3
1
32
8
8
42
14
13
50
18
19
54
20
18
58
24
15
58
21
12
57
19
8
60
20
10
68
24
13
76
28
18
82
32
21
83
33
22
79
31
21
72
28
19
74
34
26
68
35
28
44
19
12
22
5
0
15
4
0
16
9
1
15
11
2
15
12
3
15
12
3
15
12
3
16
13
6
16
13
6
16
13
8
17
14
9
17
13
10
18
14
13
18
14
15
18
14
15
17
13
14
15
10
14
13
8
12
11
7
8
8
7
5
7
6
4
7
6
4
7
6
4
6
5
1
6
5
1
6
5
1
5
4
0
5
4
0
5
4
0
5
4
0
5
4
0
5
4
0
5
5
0
5
5
0
5
5
0
8
8
0
8
8
0
8
8
0
9
9
1
9
9
1
10
10
2
10
10
2
10
10
2
17
17
9
16
16
8
16
16
8
15
15
7
14
14
6
14
14
6
13
13
5
13
13
5
15
12
5
16
11
5
15
10
4
15
10
4
16
11
5
19
14
10
21
16
12
22
17
13
28
20
18
26
18
16
24
15
16
23
14
15
22
13
16
21
12
15
23
14
17
24
18
18
23
20
15
23
20
13
23
20
13
23
20
13
23
20
13
23
20
13
23
20
13
23
20
13
22
19
12
21
18
11
21
18
11
19
16
9
18
15
8
17
14
7
16
13
6
16
13
6
15
12
5
15
12
5
15
12
7
14
11
4
15
10
6
15
10
4
14
9
3
14
9
3
15
10
4
14
9
3
14
9
3
14
9
3
14
10
1
13
9
0
13
9
0
13
8
2
7
4
0
8
5
0
8
5
0
9
4
0
12
5
0
14
3
0
17
4
0
20
3
0
25
7
0
30
8
0
37
10
0
42
14
2
48
18
7
53
21
8
56
24
11
61
24
8
66
19
3
71
20
1
73
22
5
75
24
7
82
33
16
104
55
40
130
83
67
148
102
86
124
83
65
78
41
22
54
22
1
58
32
9
61
36
14
55
35
11
50
34
9
47
31
5
49
32
4
49
32
2
49
32
2
49
32
2
51
34
4
55
40
9
60
45
14
63
50
18
69
56
24
69
56
22
69
56
24
67
57
22
69
58
26
72
62
27
74
63
31
76
66
31
78
68
33
77
67
32
74
64
29
72
62
27
69
59
24
65
57
21
63
55
19
60
54
18
55
49
13
54
48
12
54
48
14
53
49
12
59
17
81
57
15
79
61
19
85
66
23
92
82
40
106
127
85
149
170
129
189
183
142
198
180
139
195
177
136
192
163
122
182
133
91
154
95
53
117
69
27
93
60
17
86
62
20
86
58
16
80
56
15
75
55
12
68
52
9
62
45
6
51
42
4
43
38
3
36
35
2
33
35
2
29
30
0
24
30
0
22
31
0
22
38
5
26
49
14
34
60
22
43
69
28
44
77
34
43
82
37
40
83
41
43
82
40
41
78
38
36
74
35
30
72
31
27
72
29
23
74
29
24
75
30
24
74
31
24
69
31
22
61
27
18
50
20
10
40
13
2
30
10
1
24
5
1
18
2
2
12
0
0
7
0
0
4
0
0
4
0
0
1
0
0
1
0
0
4
3
0
6
1
0
10
0
0
16
2
1
26
6
5
35
11
11
44
16
15
48
18
16
54
21
14
53
19
9
54
17
8
57
19
8
64
22
10
73
26
16
81
31
20
84
34
23
81
31
22
75
28
20
73
33
25
69
34
28
45
20
13
24
7
0
17
6
0
18
11
3
17
13
4
16
13
4
16
13
4
17
14
5
17
14
7
17
14
7
18
15
10
18
14
11
17
13
12
17
13
12
17
13
14
16
11
15
16
11
15
15
10
14
14
9
15
13
8
12
10
8
9
10
9
7
9
8
6
9
8
6
9
8
4
8
7
3
8
7
3
8
7
3
10
9
4
10
9
4
10
9
4
10
10
2
10
10
2
10
10
2
10
10
2
10
10
2
10
10
2
10
10
2
13
10
3
11
11
3
13
10
3
12
12
4
14
11
4
12
12
4
19
16
9
17
17
9
18
15
8
16
16
8
17
14
7
15
15
7
16
13
6
16
13
6
20
15
9
18
13
9
16
11
7
15
10
6
15
10
7
17
11
11
19
13
13
21
15
17
23
14
19
22
13
18
25
16
21
32
22
30
36
26
34
34
24
32
31
21
29
30
21
24
25
20
16
24
21
14
24
21
14
24
21
14
24
21
14
24
21
14
24
21
14
24
21
14
23
20
13
23
20
13
22
19
12
21
18
11
19
16
9
18
15
8
17
14
7
17
14
7
17
14
5
17
14
5
17
14
5
17
14
5
18
14
5
18
14
5
18
14
5
18
14
5
20
16
7
20
16
7
20
15
9
19
15
6
18
14
5
17
13
4
17
13
4
16
12
3
9
6
1
7
6
1
8
5
0
8
5
0
11
4
0
12
3
0
13
3
0
14
1
0
23
6
0
25
7
0
28
9
0
33
11
0
38
15
1
43
17
4
47
21
6
52
20
5
60
21
4
68
25
8
68
25
8
66
23
6
68
25
8
69
26
9
81
40
22
101
63
44
129
92
73
89
57
36
63
35
13
64
40
16
65
45
21
64
46
22
60
46
20
56
42
15
61
47
18
60
47
15
58
45
13
59
46
14
60
47
15
62
49
17
63
50
18
63
50
16
64
51
17
64
51
17
61
51
16
62
52
17
63
53
18
65
55
20
67
57
22
69
59
23
72
62
26
71
61
25
70
60
24
68
60
23
67
59
22
64
59
21
63
58
20
62
57
19
60
54
18
59
55
18
59
55
18
58
54
17
58
16
79
55
13
77
60
18
84
67
24
93
84
42
108
126
84
147
167
126
184
180
139
195
180
140
193
180
140
193
167
126
184
136
95
155
97
55
119
70
28
94
63
20
89
67
24
93
54
13
79
53
13
75
52
11
69
49
9
61
45
6
53
42
4
45
39
3
39
36
3
34
31
1
29
28
0
25
26
0
20
26
0
19
34
2
25
45
12
33
58
23
43
69
30
48
82
38
51
86
41
48
86
43
50
84
43
47
79
39
40
73
33
33
70
28
29
71
27
26
74
28
28
74
28
28
72
28
27
66
26
24
57
22
20
46
17
13
37
12
7
28
9
3
21
3
1
15
1
1
9
0
0
7
0
0
4
0
0
2
1
0
0
0
0
0
0
0
1
1
0
5
1
0
9
1
0
12
1
0
21
3
1
29
8
7
36
12
10
41
16
12
46
17
9
47
17
6
48
16
5
52
16
4
58
18
6
68
24
13
78
30
20
84
34
25
82
32
25
75
28
20
72
32
24
67
32
26
44
19
12
25
8
0
18
7
1
18
11
3
17
13
4
16
13
4
17
14
5
17
14
5
17
14
7
18
15
10
18
14
11
18
14
11
19
15
14
19
15
16
19
14
18
19
14
18
18
13
19
18
13
19
18
13
20
18
13
19
12
10
11
12
11
9
12
11
9
11
10
8
11
10
6
11
10
6
10
9
4
10
9
4
14
13
8
14
13
8
14
14
6
14
14
6
14
14
6
14
14
4
14
14
4
14
14
4
15
12
3
15
12
3
16
12
3
16
13
4
17
13
4
16
13
4
18
14
5
17
14
5
19
15
6
18
15
6
19
15
6
18
15
6
18
14
5
17
14
5
18
14
5
18
13
7
21
16
12
20
15
12
20
14
14
21
15
17
26
17
22
31
21
29
36
26
35
40
30
39
27
17
28
41
31
42
60
48
60
70
58
70
66
54
66
53
41
53
39
27
39
31
21
29
26
21
17
25
22
13
25
22
13
25
22
13
25
22
13
25
22
13
25
22
13
25
22
13
24
21
12
24
21
12
23
20
11
22
19
10
21
18
9
19
16
7
18
15
6
18
15
6
17
15
3
18
16
4
18
16
4
19
17
5
19
17
5
20
18
6
21
17
6
22
18
7
25
21
10
24
20
9
24
20
11
23
19
8
22
18
7
21
17
6
21
17
6
21
17
8
14
11
2
13
10
1
13
10
1
12
10
0
15
8
0
14
8
0
15
7
0
16
6
0
23
11
0
25
11
0
28
12
0
31
14
0
34
15
0
36
17
0
38
19
2
43
20
2
50
23
4
56
28
7
58
27
7
61
30
10
66
33
14
60
27
8
59
26
7
73
40
21
99
68
47
80
52
30
66
42
18
61
39
15
59
42
16
61
45
19
62
48
21
57
46
18
62
51
21
61
50
18
61
50
18
62
51
19
62
52
17
61
51
16
59
49
14
57
47
12
58
48
13
57
47
11
57
47
11
57
47
11
58
48
12
60
50
14
63
53
17
64
54
18
60
52
15
61
53
16
62
54
18
63
55
19
64
56
20
64
58
22
64
58
22
64
60
23
60
56
21
60
56
21
59
55
20
58
55
20
58
16
79
56
14
78
65
23
89
76
34
100
92
50
114
129
87
150
165
124
182
177
137
190
176
136
188
178
138
191
169
128
184
140
99
159
101
59
123
72
30
96
62
19
88
64
21
90
55
14
80
54
14
77
53
12
70
50
10
63
47
8
55
43
6
49
41
5
41
37
6
38
31
0
31
28
0
27
26
0
23
26
0
21
33
1
24
43
11
34
58
23
45
69
32
50
83
39
56
85
41
54
86
42
55
83
41
51
77
36
44
72
31
37
70
27
34
69
27
31
74
27
33
72
27
32
70
25
30
63
22
26
54
20
21
44
15
17
35
11
11
29
9
8
19
3
4
14
2
2
9
1
0
7
2
0
6
2
1
3
3
1
0
2
0
0
1
0
0
0
0
2
1
0
6
1
0
10
0
0
15
1
0
22
4
2
30
9
8
37
13
9
39
14
7
41
14
3
42
12
2
46
12
2
53
15
4
63
21
9
76
28
18
83
33
24
82
32
25
73
26
18
70
29
23
64
31
24
43
18
11
25
8
0
17
8
1
16
12
3
16
13
4
16
13
4
16
13
4
16
13
6
17
14
9
17
14
9
18
14
11
18
14
13
15
11
12
18
14
15
21
16
20
23
18
24
24
19
26
22
17
24
19
14
21
17
12
18
15
13
14
14
13
11
14
13
11
14
13
11
13
12
8
13
12
8
13
12
7
12
11
6
17
16
11
17
17
9
17
17
9
17
17
9
17
17
7
17
17
7
17
17
7
19
16
7
18
14
5
18
14
5
18
14
5
19
15
6
19
15
6
20
16
7
20
16
7
20
16
7
19
15
6
19
15
6
19
15
6
19
15
6
19
15
6
19
15
6
19
15
6
19
14
8
20
15
12
21
15
15
23
17
19
29
22
29
39
29
38
49
38
52
59
48
64
64
53
70
77
66
83
92
81
98
101
88
106
87
74
92
62
49
66
44
31
48
35
22
39
31
21
30
27
22
19
26
23
14
26
23
14
26
23
14
26
23
14
26
23
14
26
23
14
26
23
14
25
22
13
25
22
13
24
21
12
23
20
11
22
19
10
21
18
9
20
17
8
19
17
5
17
15
2
18
16
1
18
16
3
19
17
2
21
19
6
22
20
7
24
20
8
24
20
8
26
22
10
26
22
11
26
22
11
26
22
11
25
21
10
25
21
10
25
21
10
25
21
10
21
19
7
21
19
7
21
19
6
21
17
5
23
17
5
23
17
3
24
16
3
24
17
1
23
14
0
26
14
0
27
16
0
29
16
0
31
16
0
31
16
0
31
16
0
31
16
0
34
17
0
34
18
0
33
15
0
40
19
0
49
27
6
49
24
2
48
23
1
57
32
10
67
42
20
66
44
20
65
45
20
60
43
17
57
41
15
59
45
18
61
50
22
60
51
20
54
45
12
57
48
15
59
50
17
60
51
18
60
50
15
57
47
12
54
44
9
52
42
7
55
45
9
55
45
9
55
45
9
56
46
10
58
48
12
61
51
15
63
54
15
64
56
17
55
47
10
56
48
12
58
50
14
61
53
17
61
55
19
64
58
22
65
61
26
66
62
27
62
58
23
62
58
23
60
57
24
60
57
22
58
16
79
59
17
81
73
31
97
88
46
112
103
61
125
134
92
155
165
124
180
173
133
186
171
131
183
176
136
188
171
130
186
146
105
165
108
66
130
77
35
101
63
20
89
60
17
86
56
15
81
55
15
78
54
13
73
51
11
64
48
9
56
44
7
50
42
6
44
37
6
38
31
0
31
29
0
28
28
0
25
28
0
23
35
3
26
45
13
36
59
24
46
71
33
54
83
38
59
84
39
59
83
38
58
79
36
53
74
33
47
71
29
41
70
26
39
71
28
38
74
26
38
71
25
36
68
22
33
61
19
29
51
16
23
42
12
20
34
9
15
28
9
13
19
4
7
14
4
5
11
2
3
8
4
3
7
5
6
5
5
5
2
4
3
0
2
1
0
1
0
1
1
0
5
1
0
8
0
0
11
0
0
16
2
0
25
7
5
31
12
6
34
11
3
35
11
0
38
10
0
41
9
0
48
12
0
57
17
7
73
26
16
81
33
23
80
31
24
72
25
17
67
26
20
62
29
22
41
18
10
22
8
0
15
8
0
14
11
2
15
12
3
15
12
3
15
12
5
16
13
6
16
13
8
16
13
8
17
13
10
17
13
12
11
7
8
18
13
17
27
22
28
34
29
35
35
30
37
29
23
33
21
15
25
15
10
17
16
14
15
16
15
13
16
15
13
15
14
12
15
14
10
15
14
10
14
13
8
14
13
8
16
16
8
16
16
8
16
16
8
16
16
6
16
16
6
16
16
6
16
16
4
18
16
4
20
16
7
22
15
7
22
15
7
23
16
8
23
16
8
23
16
8
24
17
9
24
17
9
23
16
8
23
16
8
23
16
8
24
17
9
24
17
9
24
17
9
24
17
9
24
17
11
22
17
14
22
16
18
24
17
24
29
22
30
39
28
42
49
38
55
59
47
67
64
52
74
99
85
110
106
92
117
97
83
108
66
52
75
39
24
45
31
16
37
32
17
36
31
19
31
27
22
19
26
24
12
26
24
12
26
24
12
26
24
12
26
24
12
26
24
12
26
24
12
26
24
12
26
24
12
25
23
11
24
22
10
23
21
9
21
19
7
21
19
7
20
18
6
14
15
0
15
16
0
16
17
1
18
19
1
21
19
4
23
21
6
24
22
7
24
22
7
25
23
8
25
23
10
27
23
11
27
23
11
27
23
11
28
24
12
28
24
12
28
24
12
30
27
12
30
27
12
30
27
12
30
27
10
32
26
10
33
28
9
33
28
9
34
27
8
31
24
5
33
25
4
34
26
5
37
26
4
35
24
2
33
22
0
31
19
0
29
18
0
24
20
0
24
20
0
24
18
0
27
20
0
32
20
0
33
18
0
36
20
0
42
24
0
50
32
8
54
36
12
58
42
16
60
46
19
58
47
17
56
47
16
57
48
17
59
53
21
51
45
11
56
50
14
62
56
20
64
58
22
62
54
18
58
50
14
55
47
10
54
46
9
61
53
16
60
52
15
59
51
12
59
51
12
59
51
12
60
52
13
62
54
15
63
55
18
55
47
11
54
48
14
56
50
16
58
52
18
60
54
20
61
55
21
62
57
25
63
58
26
61
58
25
61
58
25
60
57
26
60
57
24
59
18
78
60
20
80
79
37
100
95
55
118
110
68
132
138
96
159
164
123
181
170
129
185
172
132
185
179
139
192
178
137
193
158
117
175
125
83
146
94
52
116
78
36
102
74
32
98
56
15
81
55
15
78
53
13
75
49
10
67
47
7
59
43
5
52
40
5
47
38
3
43
30
0
33
29
0
31
30
0
31
30
0
30
37
4
33
46
13
40
60
26
53
73
34
61
80
37
65
81
37
64
80
36
63
76
34
58
71
29
51
69
27
47
70
27
47
71
28
47
70
25
45
68
24
41
64
21
40
56
17
35
47
13
27
38
10
22
33
7
20
27
7
16
18
6
10
14
5
8
11
5
7
10
6
7
9
7
8
8
6
7
5
5
5
3
3
3
0
0
0
0
0
0
3
2
0
5
0
0
7
0
0
12
1
0
20
6
3
26
11
6
27
10
2
30
10
1
32
9
1
35
8
0
42
9
0
53
16
7
66
26
18
76
33
26
77
32
26
68
25
19
64
27
19
58
28
20
38
18
9
22
8
0
15
8
0
15
11
2
15
11
2
15
11
2
15
10
4
15
12
5
15
12
7
16
12
9
16
12
11
17
11
13
14
8
12
24
17
24
39
32
39
49
42
50
50
42
53
41
33
44
27
21
31
17
12
19
19
14
18
17
16
14
19
15
14
16
15
13
18
14
13
18
14
11
17
13
10
17
14
9
17
14
9
17
14
7
17
14
7
17
14
5
17
14
5
17
14
5
17
14
5
17
14
5
23
16
8
23
16
10
23
16
10
24
17
11
24
17
11
24
17
11
25
18
12
25
18
12
25
18
12
25
18
12
26
19
13
26
19
13
26
19
11
26
19
11
27
20
12
27
20
14
28
20
18
25
19
21
23
17
21
24
17
25
29
18
32
36
25
41
42
30
50
47
35
57
58
46
70
67
55
79
62
50
74
43
29
52
32
19
39
37
22
43
36
21
40
26
14
26
30
22
20
28
24
13
28
24
13
28
24
13
28
24
15
27
24
15
28
24
15
27
24
15
27
24
15
26
24
12
25
23
11
24
22
10
23
21
9
22
20
8
21
19
7
21
19
6
16
15
0
14
15
0
18
17
0
19
18
0
21
20
2
23
22
4
24
23
5
25
24
6
25
23
8
26
23
8
27
24
9
28
25
10
28
25
10
29
26
11
30
27
12
30
27
12
35
32
15
35
32
13
35
32
13
36
33
14
39
34
14
39
34
14
39
34
12
40
35
13
46
40
16
47
41
17
49
42
16
50
43
17
48
41
15
43
36
10
39
32
4
35
30
1
32
31
3
35
35
7
41
40
12
41
37
10
36
31
2
35
25
0
37
25
0
40
26
0
44
30
3
42
28
1
47
33
6
55
44
14
59
48
18
52
43
12
50
41
10
54
48
14
55
49
13
62
58
20
71
65
29
73
67
31
70
62
26
65
57
21
63
55
18
64
56
19
71
61
25
68
60
23
66
58
21
63
55
18
61
53
16
60
52
15
60
52
15
60
52
16
55
49
15
55
49
17
56
50
18
56
50
18
57
50
21
57
50
21
56
51
21
57
52
22
55
52
21
55
52
21
55
51
22
55
52
21
56
17
70
66
29
81
79
40
97
86
48
109
95
55
118
113
73
136
139
99
162
160
120
182
170
130
190
169
130
187
172
133
190
172
133
188
152
113
170
117
78
135
88
47
107
74
32
95
64
23
89
57
18
83
49
10
73
44
6
67
43
3
63
42
5
59
41
4
56
41
4
55
41
5
53
32
0
44
32
0
40
33
0
40
35
0
40
48
14
51
63
29
66
68
32
68
73
33
70
80
38
76
79
37
75
74
32
68
74
33
67
74
33
65
72
31
63
72
31
61
67
27
53
63
25
50
58
20
43
49
14
36
41
10
28
35
6
24
32
5
20
28
8
20
19
6
15
15
8
15
16
10
14
17
11
15
15
10
14
13
8
12
10
6
7
9
5
6
1
0
0
1
0
0
4
0
0
5
1
0
8
3
0
9
4
0
12
5
0
13
6
0
21
12
5
22
9
3
22
7
2
26
9
2
32
8
4
41
13
9
56
25
22
72
37
33
76
38
35
67
29
26
57
24
19
48
21
14
36
16
9
22
8
0
15
5
0
16
9
0
17
10
2
17
10
4
17
9
6
16
11
7
17
12
9
17
12
9
18
12
12
20
11
14
20
11
16
18
8
16
46
36
45
79
69
80
75
65
76
48
37
51
32
24
37
33
25
36
31
24
31
28
24
25
27
21
23
23
19
18
22
16
16
21
16
13
21
16
13
22
17
13
18
13
9
19
14
8
19
14
8
20
15
9
23
16
10
23
16
8
24
17
9
24
17
9
21
14
8
21
13
10
21
13
10
21
13
10
23
15
13
24
16
14
24
16
14
25
17
15
25
17
15
27
19
17
29
21
18
30
22
19
30
21
16
29
20
15
29
20
15
29
20
15
32
22
21
31
22
23
31
22
25
31
22
27
29
22
29
29
22
30
29
21
32
29
21
34
34
26
41
34
25
42
33
24
41
34
23
39
33
22
38
33
20
37
33
20
37
32
20
30
30
20
19
29
22
14
29
22
14
29
22
14
29
22
16
27
22
16
29
22
16
27
22
16
30
25
19
30
26
17
29
25
16
28
24
13
27
25
13
26
24
11
26
24
11
25
23
8
22
21
3
22
21
1
23
20
1
23
20
1
23
20
1
23
20
1
23
20
1
23
20
1
29
26
9
31
25
9
30
24
8
31
25
9
31
25
9
33
27
11
35
29
13
36
31
12
35
33
12
33
31
8
32
30
7
34
32
9
40
36
11
44
40
15
45
41
14
45
41
14
47
43
14
50
46
17
56
51
21
59
54
24
60
55
23
60
55
23
62
57
25
63
58
26
61
58
25
60
57
24
60
55
23
58
53
21
57
51
19
55
49
17
55
46
15
55
44
14
54
43
13
55
44
14
57
46
16
58
47
15
60
49
17
60
49
17
61
50
18
61
50
18
69
64
26
66
61
21
64
56
19
63
55
18
64
54
18
65
55
19
65
55
19
64
54
18
63
50
16
62
52
17
63
53
18
63
53
18
62
54
18
61
53
17
58
52
16
57
51
17
54
47
18
52
45
17
50
43
15
48
41
13
47
42
13
48
43
14
49
44
15
51
46
17
48
44
15
47
43
14
46
42
15
44
40
11
54
18
66
60
23
74
66
29
83
69
31
90
74
35
98
88
49
114
113
72
138
131
91
154
158
118
180
162
122
182
168
129
186
171
132
187
167
128
183
149
110
165
121
80
138
95
55
115
70
31
94
63
24
89
55
16
81
51
12
75
51
13
74
51
13
72
48
10
67
45
8
62
44
7
61
37
0
52
37
0
51
40
4
52
44
8
54
56
20
64
69
33
77
72
35
79
70
31
76
75
33
79
73
32
76
73
32
76
81
38
81
83
41
81
74
34
71
67
27
62
58
21
54
56
19
50
51
17
44
45
12
39
41
9
33
36
7
29
34
6
28
31
8
26
23
9
22
19
12
20
20
13
21
20
13
21
19
12
20
17
10
17
15
9
13
13
7
9
8
2
4
7
3
2
7
3
2
7
3
0
7
3
0
7
4
0
7
4
0
9
4
0
19
11
8
18
8
6
18
7
5
21
7
6
27
7
6
35
11
11
50
22
21
64
34
34
69
35
36
61
27
26
49
19
17
43
15
12
31
10
5
23
6
0
17
7
0
20
11
4
18
9
4
18
9
4
18
10
7
18
10
7
17
12
9
17
11
11
20
11
14
20
11
16
22
11
19
24
13
21
47
35
47
72
60
72
66
54
68
44
32
46
32
21
37
30
22
35
31
24
31
29
23
27
28
22
26
25
19
21
23
17
19
22
16
16
23
14
15
23
15
13
20
12
10
20
12
9
20
12
9
20
13
7
21
12
7
21
12
7
21
12
7
21
12
7
14
6
3
16
8
5
18
10
8
19
11
9
21
12
13
22
13
14
25
16
17
26
17
18
25
16
17
25
16
17
24
16
14
25
17
15
28
18
16
31
22
17
32
23
18
33
24
19
31
21
19
31
21
20
30
22
20
30
21
22
28
22
24
28
22
26
27
22
28
27
22
29
31
25
35
31
25
35
31
23
34
30
22
33
32
22
33
31
21
32
32
20
32
31
20
26
31
21
19
31
22
15
30
21
16
30
21
16
29
22
16
29
22
16
28
20
17
28
21
15
29
24
18
29
25
16
29
25
16
28
24
13
26
24
11
26
24
9
26
24
9
25
24
6
28
25
6
28
25
6
28
25
6
28
25
6
28
25
6
28
25
6
28
25
6
28
25
6
33
28
9
32
27
8
31
26
7
31
26
7
31
26
7
33
28
9
34
29
10
36
31
11
34
32
9
33
31
6
33
31
6
35
33
8
42
38
11
47
43
16
49
45
16
49
45
16
48
45
14
52
49
18
57
52
20
60
55
23
60
56
21
61
57
22
62
58
23
64
60
25
66
62
27
65
61
26
65
59
25
63
57
23
61
55
21
59
53
19
60
51
18
59
50
17
60
51
18
61
52
19
63
52
20
64
53
21
65
54
22
66
55
23
69
56
24
67
57
22
70
62
25
65
60
20
64
56
17
63
55
16
65
55
19
66
56
20
67
54
19
66
53
18
61
48
14
62
49
15
60
50
15
60
50
15
57
48
15
55
46
13
51
45
11
50
44
12
47
40
12
47
40
14
46
39
13
46
39
13
45
39
13
45
39
13
46
40
14
47
41
15
47
43
16
46
42
15
45
41
14
43
39
12
50
14
62
52
15
66
53
16
70
53
15
74
59
20
83
74
35
100
97
58
123
113
74
137
145
105
167
156
116
176
161
122
179
159
120
175
163
124
179
164
125
180
147
108
165
123
83
143
90
52
113
78
40
101
65
27
88
59
21
82
59
21
80
58
20
79
52
14
71
46
9
63
44
7
61
39
2
54
40
3
54
45
8
59
51
15
63
61
25
73
69
33
81
70
32
79
72
32
82
74
32
82
70
28
78
77
35
83
98
55
101
101
58
103
82
41
83
67
26
66
60
22
59
57
20
54
52
17
49
46
13
44
43
10
39
37
7
33
34
6
31
30
6
28
26
12
27
24
14
25
24
14
25
24
14
25
22
12
23
20
10
19
19
9
17
17
8
13
16
7
12
13
7
9
12
6
8
11
5
5
10
4
4
9
4
1
8
3
0
8
3
0
17
8
9
16
6
7
17
5
7
21
5
8
23
4
6
29
7
10
43
16
21
57
26
31
61
29
34
53
21
26
43
13
15
34
8
9
26
5
4
22
4
2
21
7
4
24
13
9
20
9
7
19
9
7
18
10
8
19
11
9
17
11
11
17
11
11
20
11
14
20
11
16
24
13
21
32
21
29
51
37
50
62
48
61
52
40
54
37
24
41
30
19
35
30
19
33
29
22
30
29
23
27
28
22
26
27
21
23
27
18
21
25
16
19
23
14
17
22
13
14
25
17
15
24
16
14
25
15
14
24
14
12
24
14
12
23
14
9
23
14
9
23
14
9
22
14
11
23
15
13
22
14
12
19
11
9
19
10
11
22
13
14
29
20
23
35
26
29
37
28
29
31
22
23
26
18
16
25
17
15
29
19
17
33
23
21
35
26
21
36
27
22
30
21
16
30
20
18
29
21
18
29
21
19
27
21
21
27
21
23
26
22
23
26
21
25
28
23
29
27
22
28
28
21
28
28
21
28
30
21
26
29
20
25
30
19
25
30
20
21
31
22
17
31
22
13
31
22
15
30
21
14
29
22
14
28
21
13
28
21
15
28
21
15
28
23
17
28
24
15
28
24
15
27
23
12
26
24
11
26
24
9
25
23
8
25
24
6
34
31
12
34
31
12
34
31
12
34
31
12
34
31
12
34
31
12
34
31
12
34
31
12
34
29
10
33
28
9
32
27
8
31
26
7
31
26
7
32
27
8
34
29
10
35
30
10
33
31
8
32
30
5
35
31
6
38
34
9
44
40
13
49
45
18
52
48
19
53
49
20
50
47
16
53
50
19
57
52
20
59
54
22
59
55
20
60
56
21
61
57
22
63
59
24
66
62
27
65
61
26
65
59
25
64
58
24
62
56
22
61
55
21
62
53
20
61
52
19
63
54
21
63
54
21
65
54
22
65
54
22
66
55
23
67
56
24
70
57
25
68
58
23
68
60
23
63
58
18
63
55
16
62
54
15
65
55
19
66
56
20
67
54
19
66
53
18
60
47
13
60
47
13
57
47
12
55
45
10
52
43
10
48
39
6
43
37
3
41
35
3
39
32
4
40
33
7
41
34
8
42
35
9
42
36
10
42
36
10
42
36
10
42
36
10
45
41
14
44
40
13
42
38
11
40
36
9
46
10
58
46
9
60
46
9
63
50
12
71
62
23
86
82
43
108
103
64
129
118
79
142
135
95
157
154
115
172
165
126
183
161
122
177
160
121
176
164
125
180
159
120
177
148
109
166
120
82
141
103
65
124
84
46
103
74
36
93
72
34
91
69
31
88
59
21
78
49
12
66
53
16
70
50
13
65
51
14
66
54
17
69
59
22
74
65
28
80
68
31
82
69
31
82
68
28
81
68
25
79
63
20
74
76
33
87
107
63
116
111
67
118
84
42
90
63
21
67
60
21
65
57
19
60
51
15
53
46
12
47
44
10
45
39
8
40
36
7
38
31
7
33
30
13
32
26
13
30
26
13
30
24
13
27
23
11
25
20
10
21
20
8
18
18
8
17
20
10
18
20
11
16
19
10
15
15
9
11
16
7
10
13
7
9
14
5
6
14
5
8
18
7
13
17
4
11
19
3
13
21
4
12
22
2
11
26
3
11
38
10
22
50
20
30
52
20
31
47
16
24
39
9
17
32
5
12
26
3
9
24
5
7
23
9
9
25
13
13
22
10
10
22
11
9
21
11
10
20
12
10
20
11
12
18
12
14
21
12
17
21
12
17
29
18
26
41
29
39
54
40
53
52
38
51
40
27
44
33
20
37
30
19
35
29
18
32
27
20
28
27
20
27
27
20
27
27
21
25
27
18
23
25
16
19
24
15
18
22
13
16
27
18
19
26
18
16
27
17
16
27
17
16
26
16
15
26
16
14
25
15
13
25
15
13
23
15
13
22
14
12
19
11
9
17
9
7
20
11
12
31
22
23
47
38
41
60
51
54
55
46
47
45
36
37
34
25
26
29
21
19
32
22
20
35
25
23
36
27
22
35
26
21
29
20
15
29
20
15
28
21
15
28
20
17
26
21
18
26
21
18
25
21
20
25
21
20
24
20
21
24
20
21
25
19
21
25
19
19
27
18
19
28
19
20
29
19
20
29
19
17
32
23
16
31
22
13
31
22
13
30
21
12
29
22
14
28
21
13
28
21
13
27
20
12
27
23
14
27
23
12
27
23
12
26
22
10
25
23
8
25
24
6
25
24
6
25
24
4
37
34
15
37
34
15
37
34
15
37
34
15
37
34
15
37
34
15
37
34
15
37
34
15
35
30
11
34
29
10
33
28
9
32
27
8
32
27
8
33
28
9
34
29
10
34
29
9
34
32
9
33
31
6
35
31
6
38
34
9
43
39
12
48
44
17
50
46
17
50
46
17
49
46
15
51
48
17
55
50
18
56
51
19
56
52
17
56
52
17
58
54
19
60
56
21
61
57
22
61
57
22
61
55
21
60
54
20
59
53
19
58
52
18
59
50
17
58
49
16
58
49
16
58
49
16
58
47
15
57
46
14
58
47
15
59
48
16
62
49
17
60
50
15
65
57
20
61
56
16
61
53
14
62
54
15
65
55
19
66
56
20
67
54
19
66
53
18
61
48
14
61
48
14
57
47
12
54
44
9
49
40
7
45
36
3
39
33
0
36
30
0
34
27
0
36
29
3
38
31
5
41
34
8
41
35
9
41
35
9
40
34
8
39
33
7
41
37
10
40
36
9
38
34
7
36
32
5
43
10
55
42
9
56
43
9
60
52
17
73
68
32
94
87
51
115
104
65
130
113
74
137
116
78
139
138
100
157
160
122
179
168
131
185
168
129
182
167
128
181
166
127
182
164
125
180
146
109
163
132
95
149
116
79
133
109
72
126
106
69
123
99
62
116
82
45
99
68
31
85
65
28
82
65
28
82
63
26
80
61
24
78
61
24
78
62
25
79
62
25
79
65
26
83
67
26
86
68
24
85
63
19
80
78
34
93
112
67
126
117
72
129
87
44
98
64
21
74
62
22
72
57
18
65
51
14
58
47
12
54
47
12
52
46
14
51
44
14
50
40
15
47
36
18
42
33
18
39
31
16
35
28
15
33
28
13
32
25
12
29
25
11
26
24
12
26
24
12
24
24
12
22
24
12
22
22
12
20
23
12
20
22
13
18
23
12
18
22
11
19
20
8
20
20
6
19
23
6
22
24
6
20
24
3
18
25
3
16
34
7
24
44
16
31
46
15
31
45
14
29
41
10
25
33
7
20
29
5
18
28
8
17
27
10
18
26
11
16
25
13
15
25
13
13
24
14
13
23
15
13
23
14
15
23
14
17
22
13
18
22
13
18
33
22
30
50
37
47
56
42
55
46
32
45
35
22
39
33
20
37
32
21
37
31
20
34
29
19
30
29
19
28
29
19
28
29
19
27
28
18
26
28
19
24
28
19
24
27
18
21
27
16
20
27
17
18
26
16
17
26
16
15
26
16
15
25
15
14
25
15
14
25
15
14
23
13
12
24
14
13
26
16
17
31
21
22
42
31
35
60
49
53
80
69
73
93
82
86
60
51
54
50
41
42
38
29
30
31
23
21
32
24
21
33
25
22
33
26
20
31
24
18
27
20
12
27
20
12
27
20
12
27
20
14
25
20
14
24
21
16
24
21
16
24
21
16
21
18
13
21
18
13
22
19
14
23
18
14
26
18
15
27
20
14
27
20
14
27
20
12
32
24
13
32
24
13
31
23
12
30
22
11
29
22
12
28
21
11
27
20
10
27
20
10
25
21
10
25
21
10
25
21
10
26
22
10
25
23
8
25
24
6
25
24
6
25
24
4
35
32
13
35
33
12
35
33
12
35
33
12
35
33
12
35
33
12
35
33
12
35
33
12
35
30
10
34
29
9
33
28
8
32
27
7
32
27
7
33
28
8
35
30
10
36
31
11
39
34
12
37
33
8
36
32
7
37
33
8
40
36
9
43
39
12
44
40
11
44
40
11
48
43
13
50
45
15
52
47
15
52
47
15
51
47
12
51
47
12
54
50
15
56
52
17
57
53
18
57
53
18
58
52
18
57
51
17
57
51
17
56
50
16
58
49
16
58
49
16
53
44
11
52
43
10
51
40
8
50
39
7
50
39
7
51
40
8
54
41
9
53
43
8
62
54
17
59
54
14
60
52
13
62
54
15
65
55
19
66
56
20
67
54
19
66
53
18
64
51
17
63
50
16
59
49
14
56
46
11
51
42
9
46
37
4
40
34
0
37
31
0
34
27
0
36
29
3
38
31
5
41
34
8
41
35
9
41
35
9
40
34
8
39
33
7
37
33
6
36
32
5
34
30
3
32
28
1
44
11
56
41
8
55
43
9
60
54
19
75
69
33
95
81
45
109
87
48
113
87
48
111
86
48
109
100
62
119
121
84
138
140
103
157
154
115
168
160
121
174
165
126
181
168
129
184
159
122
174
153
116
168
147
110
162
148
111
163
148
111
165
138
101
155
117
80
134
99
62
116
90
53
107
91
54
108
85
48
102
76
39
93
70
32
89
66
28
85
67
29
86
74
34
94
91
49
113
95
50
115
90
45
110
102
58
121
135
89
153
138
92
154
110
66
125
92
49
105
86
46
99
78
38
90
67
29
78
60
24
70
58
22
66
57
25
66
55
24
65
52
25
60
46
26
54
42
27
50
41
23
47
37
22
43
37
19
41
33
18
37
33
18
37
33
19
36
29
15
30
28
16
30
29
15
28
29
17
27
30
17
27
30
18
28
30
18
28
31
17
30
26
12
29
28
11
30
28
11
30
29
12
31
26
7
26
26
5
24
32
7
28
41
13
35
47
18
40
47
18
38
43
14
34
37
10
29
33
9
25
33
10
26
32
12
24
28
11
21
31
16
19
29
17
17
27
17
16
27
17
18
26
17
20
25
16
19
25
16
21
26
15
23
35
22
32
52
39
49
56
42
55
43
29
44
37
23
40
36
23
40
35
22
39
31
20
34
32
22
33
32
22
31
31
21
30
31
21
30
32
22
31
34
24
32
37
27
35
38
29
34
36
25
31
36
25
29
35
24
28
34
24
25
33
23
24
32
22
21
31
21
20
30
20
19
33
23
22
36
26
25
40
30
31
48
38
39
58
47
51
69
58
62
78
67
71
83
72
76
50
41
44
43
34
37
35
26
27
31
22
23
31
23
21
32
24
21
32
24
21
31
24
18
26
19
9
26
19
9
26
19
11
24
20
11
23
20
11
23
20
11
23
20
13
23
20
11
19
16
9
20
17
8
20
17
8
21
18
9
24
20
9
27
20
10
28
22
10
28
22
10
33
25
12
33
25
12
32
24
11
31
23
12
28
22
10
27
21
9
26
20
8
26
20
8
24
20
9
24
20
8
24
20
8
25
22
7
24
23
5
24
23
3
25
24
4
25
24
4
31
29
8
31
29
8
31
29
8
31
29
8
31
29
8
31
29
8
31
29
8
31
29
8
33
28
8
33
28
8
32
27
7
32
27
7
33
28
8
35
30
10
37
32
12
38
33
11
42
37
15
40
36
11
37
33
8
37
33
8
39
35
8
40
36
9
40
36
7
40
36
7
48
43
13
49
44
14
49
44
12
48
43
11
47
43
8
48
44
9
50
46
11
53
49
14
58
54
19
58
54
19
59
53
19
59
53
19
59
53
19
59
53
19
61
52
19
61
52
19
55
46
13
53
44
11
52
41
9
49
38
6
49
38
6
50
39
7
53
40
8
52
42
7
59
51
14
57
52
12
59
51
12
62
54
15
65
55
19
67
57
21
67
54
19
65
52
17
65
52
18
65
52
18
61
51
16
59
49
14
54
45
12
50
41
8
45
39
5
42
36
4
37
30
2
38
31
5
39
32
6
40
33
7
40
34
8
40
34
8
40
34
8
40
34
8
37
33
6
35
31
4
33
29
2
31
27
0
39
8
52
38
6
53
43
9
60
57
22
78
72
36
97
77
41
103
70
34
98
61
25
87
62
24
85
70
32
89
86
49
103
107
70
122
129
92
144
147
110
162
158
121
175
164
127
181
163
126
178
160
123
174
160
123
174
165
128
179
168
131
183
159
122
174
140
103
157
124
87
141
121
84
138
123
86
140
114
76
133
98
60
117
87
49
108
80
42
101
84
46
105
96
56
118
116
74
140
125
80
147
120
75
142
128
83
148
155
109
174
156
110
174
133
89
150
122
78
137
114
73
129
102
62
115
85
47
98
72
36
84
67
31
77
63
30
73
61
30
72
57
29
67
54
30
62
49
30
58
47
27
55
43
25
51
41
21
48
39
21
45
39
21
45
39
21
43
36
19
38
34
19
38
36
19
37
35
21
36
37
20
36
36
22
35
36
22
35
36
22
37
34
17
36
33
15
37
35
17
39
35
17
39
31
11
36
29
6
32
33
9
35
40
14
39
53
25
50
53
25
50
48
20
43
39
11
34
34
9
30
36
13
33
36
15
32
32
14
26
34
19
24
32
20
22
31
21
22
30
20
21
29
20
23
28
19
24
29
18
26
28
17
25
34
21
31
50
37
47
54
38
51
41
27
42
39
25
42
39
26
43
36
23
40
32
19
36
38
27
41
37
27
38
35
25
36
35
25
34
39
27
37
44
33
41
49
38
46
52
41
47
51
40
46
50
39
43
49
37
41
46
34
38
43
31
35
40
28
30
38
26
28
37
25
27
38
28
29
38
28
29
41
31
32
47
37
38
53
42
46
55
44
48
51
40
46
48
37
43
40
29
33
38
27
31
35
26
27
34
25
26
33
25
23
33
25
22
33
25
22
32
25
19
25
18
8
25
19
7
23
19
8
23
19
8
22
20
8
22
20
8
20
20
10
20
20
8
16
16
6
17
17
5
20
18
6
21
19
6
24
21
6
25
22
7
28
22
6
29
23
7
34
27
11
33
26
10
32
25
9
31
23
10
28
22
8
27
21
7
26
20
6
25
19
5
23
19
7
23
20
5
23
20
5
24
21
4
24
23
5
24
23
3
24
23
3
25
24
3
28
26
5
28
26
5
28
26
5
28
26
5
28
26
5
28
26
5
28
26
5
28
26
5
31
26
6
31
26
6
31
26
6
32
27
7
34
29
9
36
31
11
39
34
14
40
35
13
45
40
18
42
38
13
39
35
10
39
35
10
40
36
9
41
37
10
41
36
7
40
35
6
49
44
14
50
45
15
49
44
12
48
43
11
47
41
7
48
42
8
50
44
10
53
47
13
58
54
19
58
54
19
59
53
19
60
54
20
60
54
20
60
54
20
62
53
20
62
53
20
61
52
19
58
49
16
56
45
13
53
42
10
52
41
9
53
42
10
56
43
11
56
46
11
57
49
12
55
50
10
58
50
11
61
53
14
66
56
20
67
57
21
67
54
19
65
52
17
65
52
18
65
52
18
62
52
17
61
51
16
57
48
15
54
45
12
49
43
9
48
42
10
41
34
6
40
33
7
40
33
7
39
32
6
38
32
6
39
33
7
40
34
8
40
34
8
39
35
8
38
34
7
35
31
4
33
29
2
