P3
# Generado por NetPBM Image Processor - Diseno 1
236 295
255
8 0 0 9 0 0 10 0 0 11 1 0 11 2 0
13 3 0 13 3 0 14 3 0 14 3 0 15 4 0
17 4 0 19 5 0 20 6 0 22 7 0 22 8 1
23 10 2 23 13 3 23 14 4 22 14 3 23 13 3
24 13 3 25 12 2 25 11 1 27 12 1 29 12 2
31 13 4 32 12 6 34 12 9 36 11 12 38 11 16
39 11 20 41 10 25 45 12 32 50 14 39 54 17 41
54 16 38 52 13 33 52 12 30 55 15 31 60 19 36
65 24 42 71 30 52 79 38 65 89 48 80 96 55 92
97 57 99 92 52 98 80 42 94 70 33 92 65 30 93
60 27 89 53 23 80 47 18 67 42 16 52 41 17 40
39 17 27 38 18 19 37 16 12 36 16 10 37 15 10
38 15 10 40 16 11 42 17 11 45 18 11 48 18 10
52 18 10 58 20 11 69 26 17 82 36 25 92 44 31
98 50 34 102 52 35 104 52 34 106 52 34 107 51 33
104 47 31 98 41 26 93 38 23 93 40 26 95 45 32
94 47 38 96 49 50 114 67 80 145 98 125 172 125 164
184 136 185 183 136 189 182 137 191 181 137 191 181 139 191
181 140 193 183 142 195 186 144 197 188 145 198 189 147 201
188 146 204 185 145 207 182 143 209 173 135 203 155 118 187
133 97 166 115 81 151 105 72 143 100 69 142 97 68 142
95 67 144 92 67 144 91 67 147 92 69 150 94 72 155
95 74 156 97 74 158 98 74 158 100 75 159 100 75 159
100 75 159 99 75 159 99 75 159 99 75 159 99 74 159
99 75 160 100 76 164 101 78 167 103 79 171 103 80 172
104 79 174 103 79 174 104 78 176 104 77 177 106 78 179
106 78 179 106 78 178 107 79 179 107 79 179 107 79 179
108 81 180 109 82 180 110 83 180 110 83 180 110 83 180
110 83 179 110 83 178 110 83 179 110 84 180 110 84 182
111 84 184 111 85 184 112 85 185 113 85 187 115 86 189
117 86 190 118 86 191 119 86 191 120 86 191 122 87 190
124 89 188 124 90 184 130 96 185 144 110 194 169 131 213
189 148 229 202 158 239 206 161 241 207 161 242 206 160 240
205 157 237 203 155 234 202 152 229 200 150 226 198 147 222
198 146 220 197 145 219 197 145 218 198 146 218 200 147 219
202 149 220 203 151 221 204 153 222 204 153 222 206 155 223
207 156 224 209 158 225 210 159 226 211 160 227 213 162 229
214 163 230 216 165 232 216 165 232 215 164 231 214 163 230
213 162 229 215 163 230 217 164 231 219 164 232 220 165 231
218 164 229 216 163 227 213 161 226 211 158 225 208 155 224
207 154 224 207 154 222 207 154 216 198 145 199 174 123 165
142 93 123 120 70 91 109 59 72 109 58 65 107 57 61
104 57 59 93 49 50 73 35 34 53 19 17 39 11 7
32 8 3 28 8 2 25 6 0 22 6 0 21 5 0
20 5 0 20 5 0 21 6 1 33 18 15 54 39 39
79 62 64 94 73 76 100 73 77 102 70 75 101 62 68
90 45 50 81 29 36 77 21 27 84 25 30 91 31 35
95 35 38 9 0 0 9 0 0 10 1 0 11 1 0
12 3 0 13 3 0 14 3 0 15 3 0 15 4 0
16 4 0 17 5 0 19 6 0 21 6 0 22 7 1
23 8 1 23 10 2 23 12 3 23 14 3 22 14 3
23 13 3 24 12 3 25 12 2 26 12 2 28 12 2
29 12 3 31 12 5 32 12 7 35 11 10 36 11 14
38 11 18 39 10 22 41 10 27 47 13 36 55 18 45
60 21 49 59 19 45 54 15 37 54 13 34 57 16 36
64 22 43 72 30 52 81 39 64 92 50 79 102 60 95
109 67 107 110 69 113 104 64 112 92 53 107 79 42 101
70 35 98 64 30 93 59 27 85 54 24 73 48 21 57
44 20 43 40 18 28 39 18 19 38 16 13 38 15 11
38 15 10 39 15 10 41 16 11 43 17 11 46 18 11
48 18 10 52 18 10 59 20 12 69 26 18 82 36 25
93 45 32 99 50 35 102 52 35 104 52 35 107 52 34
107 51 34 105 47 31 99 41 26 94 38 24 93 41 26
96 46 33 95 47 39 97 49 51 115 67 80 146 98 126
173 126 165 184 137 185 183 137 190 183 138 192 182 138 192
182 140 193 183 141 194 185 143 196 188 145 198 190 147 200
190 148 202 189 148 205 187 147 209 185 145 211 179 140 208
165 127 196 146 110 179 130 95 166 119 85 157 110 79 152
103 74 148 99 71 147 95 69 146 94 69 149 94 71 152
96 73 156 97 75 158 99 76 159 101 76 160 103 76 161
103 76 161 102 76 160 101 76 160 101 76 160 100 76 160
100 75 160 100 75 161 102 76 164 103 79 168 105 80 172
105 81 174 106 80 175 105 80 175 105 79 177 106 78 178
107 79 179 107 79 179 107 79 179 108 80 180 108 80 180
108 81 180 109 82 180 110 83 181 111 84 181 111 84 181
111 84 181 111 84 180 111 84 180 111 84 180 111 84 181
111 84 183 112 85 185 113 85 186 114 85 187 115 86 188
117 86 190 118 86 191 120 87 192 121 86 192 122 87 192
124 88 190 126 90 188 127 92 185 133 99 187 147 112 196
171 133 214 189 148 228 202 157 238 205 159 240 206 160 240
204 158 237 202 155 234 201 153 231 200 150 227 199 149 224
198 147 222 198 146 220 197 145 219 198 146 219 199 146 219
200 148 220 202 150 221 203 152 222 205 153 223 206 154 224
207 156 225 209 157 226 210 159 227 211 160 228 212 161 229
214 163 230 216 165 232 217 166 234 217 166 234 215 164 232
214 163 231 213 162 230 214 163 231 216 163 231 218 163 232
218 163 231 217 163 229 215 162 227 212 160 225 210 157 224
208 155 223 207 154 222 205 151 217 198 144 204 182 129 179
157 106 145 131 82 109 117 67 86 111 61 72 110 60 66
106 56 60 99 52 54 86 43 44 68 29 29 49 16 14
37 9 5 31 7 2 28 7 1 25 6 0 23 6 0
21 5 0 21 5 0 21 6 0 22 7 1 34 19 15
55 39 39 81 63 65 96 74 78 102 75 79 104 72 77
104 65 70 95 49 55 85 34 40 80 25 30 85 26 32
91 31 35 96 35 38 10 1 0 10 1 0 11 1 0
12 2 0 13 4 0 14 4 0 15 4 0 15 4 0
16 4 0 17 5 0 19 6 0 20 7 0 22 7 0
23 8 1 23 9 2 24 11 2 23 13 2 23 14 2
23 14 3 24 13 3 25 13 3 26 12 3 27 12 3
28 12 3 30 11 4 31 11 6 33 11 9 35 10 13
37 10 17 38 10 21 39 9 25 42 9 30 51 15 42
61 22 54 67 27 59 64 23 54 58 17 46 57 15 42
62 19 46 72 28 56 84 41 69 98 54 86 111 67 103
121 77 118 126 83 128 127 84 132 122 79 131 110 69 125
94 55 117 81 43 108 73 37 101 69 35 94 64 33 82
56 27 64 48 22 45 42 18 29 41 18 20 39 17 13
39 16 11 39 15 11 41 15 11 43 16 11 45 17 11
47 19 11 49 19 10 53 19 11 59 21 12 70 27 18
83 37 26 93 45 32 100 51 35 103 52 36 105 52 35
107 52 35 108 51 34 105 48 32 100 42 27 95 39 25
95 42 28 97 47 35 97 48 41 99 50 52 117 68 82
148 99 127 175 126 166 186 137 186 185 138 191 184 139 193
184 140 194 184 141 195 185 143 196 187 145 198 189 147 200
191 148 201 192 150 204 191 149 206 190 149 210 189 148 214
187 147 214 179 140 208 166 129 197 153 117 186 140 106 177
127 95 167 115 85 159 106 77 153 102 74 152 100 74 153
100 75 156 101 77 160 103 78 162 104 79 164 106 79 164
107 78 164 107 78 163 106 77 163 105 77 162 104 77 162
103 76 161 104 76 162 104 77 163 105 78 167 107 80 170
108 82 174 109 83 176 109 82 177 109 81 178 109 81 179
108 80 180 109 80 180 109 81 181 109 81 181 110 81 181
110 82 181 110 82 181 111 83 181 112 85 182 113 85 183
113 86 183 113 85 182 113 86 182 113 85 182 113 85 182
114 85 183 114 86 185 115 86 187 116 86 188 117 86 189
118 87 190 120 87 192 121 87 192 122 88 193 123 87 192
124 88 191 127 90 189 129 92 188 133 96 188 140 104 191
154 118 201 175 135 217 190 148 228 200 156 235 203 157 237
203 157 236 201 154 233 199 151 229 197 149 226 197 148 224
197 147 223 198 147 221 198 146 220 198 146 219 198 146 219
199 147 220 201 148 221 203 151 222 205 152 224 206 154 225
207 156 227 209 157 228 211 159 229 212 160 230 213 161 230
214 163 231 216 165 233 218 167 235 219 168 236 218 167 235
216 165 233 214 163 232 213 162 231 214 162 231 215 162 232
216 162 232 215 162 231 214 161 229 212 159 227 211 157 225
209 155 224 209 154 222 206 152 218 198 143 205 180 127 181
158 105 150 135 85 118 120 70 93 114 64 79 111 61 70
108 59 63 100 52 55 90 44 46 76 34 34 60 22 21
46 12 10 36 7 3 30 6 1 28 7 1 25 6 0
23 6 0 22 6 0 22 6 0 23 6 0 24 7 1
36 19 16 57 40 40 84 65 67 99 77 80 105 78 82
108 75 79 109 69 74 102 57 62 92 40 46 83 28 33
84 26 31 90 31 34 94 34 37 11 1 0 12 2 0
12 2 0 13 3 0 14 4 1 15 5 1 16 5 1
17 5 0 18 5 0 19 6 0 20 7 0 21 8 0
23 8 1 24 9 2 25 10 3 24 12 2 23 13 2
23 13 2 23 13 3 25 13 4 26 13 4 27 12 4
28 12 5 30 12 5 31 12 6 32 11 8 34 10 12
36 10 16 37 9 21 39 9 25 40 8 30 44 9 37
55 17 50 67 26 63 72 30 68 70 26 64 64 20 57
65 20 56 71 25 62 85 39 76 101 55 93 117 70 111
128 82 126 136 90 138 139 94 145 138 93 147 134 90 147
125 83 143 111 70 134 95 55 122 85 47 112 81 44 104
75 40 91 62 30 68 49 21 45 43 17 28 42 17 19
42 17 14 42 16 12 42 15 12 43 15 12 45 16 12
46 18 11 48 19 12 50 19 11 54 19 11 60 21 13
71 28 19 84 38 27 94 46 33 101 52 36 104 53 37
106 53 36 108 53 35 109 52 35 107 49 33 101 43 28
96 41 26 96 44 29 99 48 37 98 49 42 100 51 54
118 69 84 150 100 129 177 128 168 187 139 188 187 139 192
186 140 195 186 141 195 186 143 196 188 144 197 189 146 199
191 148 201 193 149 203 194 151 205 194 151 208 192 151 212
193 151 215 193 151 218 190 149 216 183 144 212 174 136 205
162 126 197 145 111 183 130 97 171 117 85 162 111 81 159
108 79 159 107 79 161 108 81 164 110 83 167 111 83 168
112 82 168 112 81 167 112 81 167 112 81 167 112 81 167
111 81 167 111 81 167 112 82 168 113 83 170 113 84 172
112 83 173 112 83 175 112 83 176 112 83 178 113 83 180
113 83 181 112 83 182 112 82 182 112 83 182 112 83 182
113 83 183 113 84 183 113 84 183 114 85 183 115 86 184
116 87 185 116 87 185 116 87 185 116 87 185 116 87 185
116 87 185 117 87 185 117 87 187 119 87 189 120 87 190
121 88 192 122 88 193 123 89 194 125 89 194 126 89 194
126 89 192 127 89 190 129 91 188 133 94 188 139 101 191
150 111 198 164 126 209 180 140 221 192 149 228 198 153 232
201 154 232 201 153 232 199 151 229 197 149 226 196 147 223
197 147 223 197 147 222 198 146 221 198 146 220 198 146 220
198 146 221 200 148 221 202 149 222 204 151 224 206 153 226
207 155 228 209 157 230 211 159 232 213 161 233 214 162 234
214 162 233 215 164 234 217 165 235 219 168 238 220 169 239
219 168 238 217 165 235 215 163 233 213 162 232 213 162 232
214 161 232 214 161 232 213 160 231 212 159 229 210 157 227
209 155 225 209 154 223 209 154 221 204 149 212 188 134 191
162 108 157 137 84 123 122 71 98 115 65 83 112 62 72
107 57 63 100 51 54 90 42 45 78 33 35 66 25 25
54 17 16 43 11 8 35 7 3 30 6 1 28 7 1
26 7 1 24 6 0 23 6 0 23 6 0 25 7 1
26 8 2 38 20 17 60 42 41 86 67 69 102 80 83
108 81 85 111 78 83 114 74 79 109 64 69 97 46 51
85 31 35 82 25 29 87 28 31 90 30 33 13 3 1
13 3 1 13 4 1 14 5 1 15 5 1 17 6 1
17 6 1 18 6 1 19 7 1 20 7 1 21 8 1
22 9 1 24 9 2 25 10 3 26 12 4 25 13 3
24 13 2 24 13 2 24 13 3 26 13 4 27 13 5
29 13 5 30 13 6 32 13 7 33 12 9 34 11 12
36 11 16 37 10 20 39 10 26 41 9 31 42 9 35
48 11 45 60 20 59 72 29 72 77 32 77 76 31 76
76 29 75 80 32 78 88 39 86 102 53 100 118 69 117
132 83 133 139 91 143 143 95 150 144 96 154 143 96 155
140 95 155 136 91 154 124 81 147 110 68 136 100 59 125
94 54 115 82 45 97 65 30 69 49 18 43 43 15 27
43 16 19 44 17 15 44 16 13 44 15 12 45 15 13
46 16 13 48 18 12 50 19 12 52 20 12 55 20 12
61 22 14 72 28 20 85 38 27 95 47 34 102 52 37
105 54 37 107 54 36 109 53 36 110 53 36 108 50 34
103 45 30 98 42 28 98 45 31 101 50 38 100 51 44
102 53 56 120 71 86 152 101 131 179 129 170 189 140 190
189 140 194 188 141 197 188 142 198 189 144 198 190 146 199
191 147 201 193 149 203 195 151 205 196 152 207 197 153 210
196 152 213 196 153 217 197 154 219 197 154 220 194 152 220
188 147 216 178 139 209 160 123 195 142 106 181 126 92 169
119 86 164 115 83 163 114 82 164 114 83 166 116 85 170
118 86 172 120 86 172 120 85 171 122 87 173 125 90 176
127 93 179 129 96 181 131 98 183 132 99 185 131 98 185
128 95 184 123 90 180 118 85 177 115 83 176 115 83 177
116 84 180 117 84 182 116 85 183 115 84 183 115 85 184
116 85 184 116 85 185 117 86 185 117 86 185 118 87 186
118 88 186 120 89 187 119 89 187 120 89 187 119 89 187
120 89 187 120 89 187 121 89 188 122 89 189 123 89 190
124 89 192 124 89 193 126 90 194 127 91 195 128 91 195
129 91 194 129 90 191 130 90 189 133 93 188 139 98 190
148 107 197 160 120 207 175 134 219 187 144 226 194 150 228
197 151 228 199 152 228 199 151 228 197 150 225 196 148 223
197 147 222 197 147 222 198 147 222 198 146 221 198 146 221
198 146 221 199 147 221 201 148 222 203 150 224 205 151 225
206 153 227 208 156 229 210 158 231 212 160 234 214 162 235
214 162 236 214 162 235 215 163 236 217 165 237 219 167 239
220 168 239 219 167 238 217 165 236 215 163 234 213 162 233
213 161 233 213 161 233 213 160 232 211 159 231 210 157 229
209 156 228 208 154 225 208 153 223 209 154 219 201 146 206
180 125 177 150 96 139 127 74 106 117 65 88 113 63 76
107 58 65 98 49 52 87 39 41 76 30 32 66 23 24
58 18 18 51 15 13 43 11 8 36 8 4 31 7 2
28 7 1 26 7 1 25 7 0 24 7 0 24 7 1
26 8 2 27 9 4 40 21 18 62 43 43 89 69 71
105 82 85 112 84 87 115 82 86 118 78 83 113 68 73
99 48 54 86 32 36 80 24 28 84 26 29 87 27 30
14 4 1 14 5 1 14 5 1 15 6 1 17 6 2
18 7 2 18 7 2 19 8 1 20 8 1 21 8 1
22 9 1 24 10 2 25 11 3 26 12 4 27 13 4
26 13 3 25 13 3 24 12 2 25 13 3 27 13 4
28 13 5 30 13 7 32 13 8 34 13 10 35 13 12
37 13 15 38 12 19 40 11 24 42 10 31 43 10 36
45 9 41 53 14 53 66 23 69 78 32 83 85 37 90
92 44 97 100 51 106 107 56 112 112 60 117 120 68 126
132 80 138 140 89 148 144 93 154 145 94 157 145 95 159
144 95 160 143 95 161 141 94 161 135 89 157 125 80 149
116 72 140 106 64 126 89 49 101 66 29 68 49 15 41
45 14 27 46 16 20 46 16 16 46 16 14 46 15 13
47 15 13 48 17 13 50 18 12 52 19 13 54 20 12
57 20 13 62 22 15 73 29 21 86 39 28 96 48 35
103 53 38 106 54 38 108 54 37 110 54 37 111 53 37
109 50 35 104 46 31 100 43 29 100 46 32 103 51 40
102 52 46 104 54 58 122 72 88 154 103 132 180 130 171
191 141 191 190 142 196 191 143 199 191 145 200 192 147 201
193 148 202 195 150 204 197 151 207 199 153 209 200 154 211
201 155 213 200 155 215 201 156 218 201 157 220 202 157 222
200 156 223 196 152 221 187 145 216 169 129 201 150 111 186
132 94 171 124 88 166 121 85 165 120 85 167 121 86 170
124 90 175 129 93 178 132 96 181 135 97 182 140 102 187
146 109 193 152 115 200 158 122 206 163 127 211 163 128 212
159 124 209 151 115 202 141 105 193 130 95 185 123 88 179
120 84 178 120 85 179 120 85 181 120 86 183 119 86 184
119 87 185 119 87 185 120 87 185 120 88 186 120 88 186
121 89 187 122 90 188 123 90 189 123 90 189 123 90 190
123 90 190 123 90 190 123 90 190 124 90 190 125 90 190
126 90 191 127 91 192 128 91 194 129 92 195 130 92 195
132 93 195 132 92 193 133 92 190 135 94 189 140 98 191
148 106 196 159 117 205 172 130 217 184 142 227 192 148 230
197 151 229 198 151 226 200 151 226 199 151 225 198 149 224
198 148 222 198 148 222 199 148 222 198 147 222 198 146 221
198 146 221 199 146 221 200 147 222 202 149 223 204 150 225
205 152 227 206 153 228 207 155 230 210 158 233 213 161 236
215 163 237 215 163 237 214 162 236 214 162 236 216 164 237
218 166 239 219 167 239 218 166 239 216 164 236 214 162 234
213 161 233 213 162 233 213 162 233 212 161 232 211 159 231
209 157 229 208 155 228 209 154 226 209 154 222 208 152 216
197 141 197 175 119 166 147 92 129 126 72 99 115 63 81
108 57 68 99 49 55 88 39 42 76 29 31 65 21 22
58 17 17 53 15 14 48 14 12 42 11 8 35 8 4
31 7 2 28 7 1 26 7 1 25 7 1 25 7 1
26 8 1 27 9 3 29 10 5 42 23 20 65 45 44
92 70 72 108 83 86 115 86 89 118 84 88 120 80 85
114 69 74 99 49 54 86 33 37 81 25 29 83 26 30
85 27 30 15 5 1 15 6 1 15 6 2 16 7 2
18 7 3 19 8 3 19 8 3 20 9 2 21 9 2
22 9 1 23 9 2 25 10 3 26 12 4 28 13 4
29 14 5 28 13 4 26 13 3 25 12 2 26 12 3
28 13 4 30 13 6 31 14 8 33 13 9 35 14 11
38 14 14 40 14 18 41 13 23 43 12 28 44 11 35
46 11 40 47 10 45 57 15 59 69 24 75 84 35 92
97 47 106 116 65 127 134 81 144 139 85 150 135 81 146
134 79 146 139 84 151 143 88 156 145 91 159 145 92 161
146 94 163 147 95 165 147 96 165 146 96 166 142 94 164
136 88 159 130 83 152 117 72 135 93 51 105 67 27 68
50 15 41 48 15 29 49 17 22 48 16 16 48 16 14
48 15 14 49 16 14 50 17 13 52 18 13 53 20 13
55 20 13 57 20 13 63 23 15 74 29 21 86 39 28
97 48 35 104 53 38 107 54 38 109 54 37 111 54 37
112 54 37 110 51 36 105 46 32 101 44 30 102 47 33
105 52 41 104 53 48 106 55 60 124 73 89 155 104 134
182 131 173 193 142 193 192 142 198 193 144 201 195 147 203
197 150 205 197 152 206 199 153 208 201 155 211 203 156 213
205 158 215 205 158 217 205 158 218 206 159 221 207 160 223
207 161 225 205 159 225 200 155 223 192 148 217 174 131 203
154 113 186 136 96 172 130 90 168 128 89 170 130 91 173
134 95 179 140 102 186 148 109 193 155 114 198 160 119 202
166 125 208 173 133 215 181 141 223 189 149 231 195 156 237
195 156 237 190 151 233 179 140 224 164 126 211 149 110 198
137 98 187 129 90 182 126 87 180 124 86 181 123 87 183
122 87 184 121 88 185 122 88 186 122 89 186 123 89 187
123 89 187 124 90 189 125 91 190 126 91 191 125 91 191
126 91 191 125 91 192 126 91 192 126 91 192 127 91 191
128 91 191 129 92 191 130 92 192 131 93 193 132 93 194
133 94 195 134 94 194 136 95 192 138 97 191 143 101 193
152 109 198 163 120 207 175 131 217 185 142 227 193 149 233
197 152 233 200 153 229 201 153 226 202 153 225 201 152 224
199 150 222 198 149 221 199 149 222 199 148 222 199 148 222
198 146 221 198 146 221 199 146 221 200 147 223 202 149 224
204 151 226 205 152 227 206 153 229 207 154 231 210 158 234
213 161 237 214 162 238 214 162 237 213 161 236 213 161 235
214 162 236 216 164 237 217 165 238 217 165 238 215 163 236
214 162 234 213 161 233 214 162 233 214 163 233 213 162 232
211 159 231 209 156 229 209 155 228 210 154 225 211 154 221
207 150 211 193 136 188 169 113 155 144 90 121 125 72 94
112 60 74 101 50 59 92 42 47 81 33 36 70 25 26
59 17 18 54 14 14 50 13 12 46 12 10 39 9 6
33 7 3 29 6 1 27 7 1 26 7 1 26 7 1
26 7 1 27 8 2 28 9 3 30 11 6 44 24 21
67 46 45 94 71 73 110 83 87 117 86 90 120 85 90
121 81 86 112 68 73 97 48 53 85 32 38 82 26 31
84 27 31 85 28 31 15 6 1 15 6 1 16 7 2
17 7 2 18 8 3 19 8 3 20 9 3 21 9 2
22 9 2 22 8 1 24 9 2 25 10 2 26 12 3
28 12 4 29 13 5 29 13 5 28 13 4 27 12 3
27 12 4 29 12 5 31 13 6 33 14 8 35 14 10
38 15 13 40 15 16 43 15 21 45 14 26 47 15 33
50 15 40 53 16 48 56 16 55 65 21 68 78 30 86
95 44 106 116 63 128 143 89 156 164 109 178 166 110 181
154 97 170 144 87 161 144 87 162 145 88 163 146 89 164
146 91 165 148 93 166 149 95 167 148 96 168 148 96 168
146 95 168 146 96 168 143 94 164 127 79 144 96 51 106
67 25 67 54 16 44 53 17 32 52 18 24 51 18 18
50 17 15 50 16 15 51 16 14 52 17 13 53 18 12
55 20 13 57 21 14 60 22 16 66 25 18 76 31 23
88 40 30 99 49 36 106 54 39 108 55 39 110 55 38
111 54 37 112 53 37 111 51 36 107 47 33 104 46 32
104 48 35 106 52 42 105 52 48 107 56 61 127 75 93
160 108 139 188 135 179 198 147 199 197 147 203 198 149 207
200 151 209 202 154 211 203 155 212 204 157 214 206 158 216
208 159 218 209 160 219 210 161 220 210 162 221 211 163 224
212 163 225 212 163 226 209 161 226 205 157 224 198 151 221
181 136 207 164 120 192 148 105 180 144 102 179 146 103 183
150 108 189 156 115 197 164 123 206 174 132 215 182 139 220
188 144 224 192 149 228 197 155 234 203 161 240 209 167 245
213 171 249 215 173 250 212 170 248 203 161 241 189 148 230
173 131 217 157 116 202 144 102 191 135 94 184 130 90 182
127 90 184 126 90 186 126 91 187 127 91 188 127 92 189
128 92 189 127 92 189 128 92 191 128 92 192 129 93 193
129 93 193 129 93 194 129 93 195 129 92 195 129 92 195
129 92 194 131 93 194 132 94 194 133 95 194 134 95 194
134 95 195 137 97 195 140 99 196 146 105 198 153 111 201
163 120 207 173 130 215 185 142 224 195 152 234 202 158 240
206 161 242 208 162 240 210 162 236 212 162 232 210 160 230
207 157 226 203 153 223 201 151 221 200 150 221 200 149 222
200 148 222 199 147 222 200 147 222 201 148 224 202 148 225
203 149 226 204 150 227 205 151 229 205 152 230 207 154 232
210 157 235 213 160 238 215 162 239 214 162 238 213 161 236
212 160 235 213 161 235 214 162 236 215 163 237 215 163 237
215 163 235 214 162 234 214 162 234 215 163 234 214 163 233
214 163 233 212 160 231 211 158 230 211 156 228 211 154 224
211 153 218 202 144 201 183 126 173 157 101 137 136 81 107
119 65 83 106 53 65 95 44 51 87 37 42 77 30 32
67 23 24 56 16 16 51 14 13 47 12 10 42 11 8
36 8 4 31 6 1 27 6 1 26 6 1 26 7 1
26 7 1 27 8 2 28 8 3 30 9 4 31 10 6
45 23 20 69 46 46 96 72 73 112 84 88 119 87 92
122 87 92 121 81 87 110 66 71 94 46 51 83 31 36
80 26 32 83 27 32 84 28 32 15 6 1 16 6 2
17 7 2 18 7 3 19 8 3 20 9 3 21 9 3
22 9 2 22 8 1 22 8 0 23 9 1 25 10 2
27 11 3 28 12 4 29 13 5 29 13 5 29 13 4
28 12 4 29 12 4 30 12 5 32 13 7 35 14 9
37 14 11 40 15 14 42 15 17 45 15 22 48 16 28
51 17 37 56 19 46 61 23 56 67 26 67 78 33 83
93 43 103 113 60 127 137 83 152 166 111 183 185 128 202
182 124 200 164 105 183 150 90 170 147 87 168 147 88 168
147 89 168 148 90 169 149 92 169 150 94 170 150 96 170
150 95 170 150 96 170 157 103 177 157 105 176 135 85 151
97 50 106 67 23 66 56 16 45 56 19 34 55 19 25
54 19 19 53 18 16 52 17 15 52 16 15 53 17 14
55 18 13 56 20 13 59 22 15 63 24 18 69 27 20
78 32 25 90 41 31 100 49 37 107 55 41 110 56 40
111 55 39 112 54 37 112 53 37 112 51 36 109 48 34
107 48 34 106 49 37 107 51 42 105 52 48 110 56 63
131 77 96 165 111 144 194 140 185 204 151 205 203 151 209
203 152 212 205 154 214 206 157 215 207 158 216 208 159 217
210 160 219 211 161 220 212 162 221 212 163 222 213 163 224
214 164 226 215 165 227 214 164 228 212 163 227 209 159 226
204 155 223 191 143 213 178 131 203 166 121 194 165 120 195
167 122 200 173 128 207 180 135 216 188 144 225 197 152 232
203 157 235 207 161 238 210 164 240 212 167 242 215 170 245
217 173 248 219 175 250 222 177 251 221 177 252 217 173 250
208 164 243 195 151 233 179 135 218 162 118 203 147 104 191
137 95 185 131 92 185 129 92 187 129 93 189 130 94 190
131 95 192 132 95 192 131 94 192 131 94 193 131 94 194
131 94 195 131 95 196 132 94 197 132 95 197 132 94 198
132 94 198 132 94 197 133 95 197 135 96 197 136 96 197
136 96 196 138 98 196 143 103 199 151 110 203 164 122 211
175 134 219 188 146 227 198 156 234 209 166 241 217 173 246
221 177 249 222 177 249 223 177 247 225 177 244 225 176 242
223 172 239 218 168 235 213 162 230 208 157 226 204 154 223
203 152 223 202 150 223 202 149 224 202 149 224 203 150 226
204 150 227 204 150 227 204 150 229 204 150 230 205 152 231
207 154 233 210 157 236 213 160 239 214 161 239 214 162 238
213 161 237 212 160 235 212 160 235 213 161 235 214 162 235
214 162 235 214 162 234 214 162 234 214 162 234 215 163 234
214 163 234 214 162 233 213 160 232 212 158 230 212 156 227
212 154 222 209 151 212 193 134 187 170 113 155 143 87 118
125 71 92 111 58 71 100 48 57 91 40 46 84 35 38
74 27 29 63 21 22 53 15 14 49 13 12 45 12 9
40 10 6 34 8 3 30 6 1 27 6 1 26 7 1
26 7 1 27 8 2 27 8 2 29 9 3 31 9 4
32 10 6 46 22 20 70 46 46 99 72 75 115 85 89
121 88 93 124 88 93 123 82 89 111 67 74 95 46 54
83 32 39 82 28 35 84 29 35 86 30 36 16 6 1
16 6 1 17 7 2 18 7 2 19 8 2 21 9 2
22 9 3 22 8 2 22 8 1 22 7 0 23 9 0
25 10 1 27 11 2 28 11 3 29 12 4 30 13 5
30 13 5 30 12 5 30 12 5 32 12 6 34 12 7
36 14 9 39 15 11 41 15 14 44 16 18 47 16 23
50 17 31 55 19 41 62 24 53 72 31 68 83 40 84
97 50 103 115 63 126 136 80 151 160 103 177 187 129 205
202 143 221 195 135 215 174 113 195 158 96 180 152 90 175
152 89 174 150 90 173 150 90 172 150 92 171 151 93 170
151 94 170 151 94 170 155 99 174 169 114 189 171 117 190
143 90 158 96 47 105 65 20 64 57 15 45 58 19 34
56 19 26 56 20 21 55 19 18 54 18 16 54 17 15
55 17 14 56 18 13 58 21 14 61 24 16 66 27 20
72 29 22 81 34 26 92 42 32 102 51 39 110 56 42
112 57 42 113 56 40 113 54 38 113 52 37 112 51 36
111 50 36 110 50 37 109 51 39 108 52 44 107 52 49
112 58 65 135 81 100 171 116 150 199 145 191 210 156 211
208 155 215 208 156 217 208 157 218 209 159 219 210 160 219
211 161 220 212 162 221 213 162 222 214 163 223 215 164 225
216 165 226 217 165 227 216 165 228 216 165 229 214 163 228
212 161 228 210 160 227 202 153 222 195 146 217 189 141 213
188 141 215 190 143 218 194 147 224 200 153 231 205 159 237
210 163 240 214 166 241 216 168 241 217 169 242 218 170 243
219 172 244 220 174 246 221 175 247 223 176 249 223 177 251
224 177 252 220 175 251 214 168 246 201 156 235 183 136 219
163 117 201 147 103 190 137 96 187 133 95 188 133 96 190
135 97 192 136 98 194 136 98 195 135 97 194 134 95 195
134 95 196 135 96 198 135 96 199 135 96 200 136 97 201
136 97 201 136 97 202 135 96 201 136 97 201 137 97 200
139 98 200 139 98 198 143 103 199 154 113 207 170 128 218
188 146 230 202 160 239 213 170 245 220 177 249 227 184 252
232 189 254 234 191 255 235 191 254 237 191 254 239 191 253
240 190 251 237 186 249 233 182 246 226 175 241 219 167 234
211 160 228 207 155 225 205 152 225 205 152 226 205 151 227
206 152 229 206 152 229 205 150 230 204 150 230 204 150 231
205 151 232 206 153 233 210 157 236 213 160 239 214 161 239
214 161 238 213 161 237 212 160 235 212 160 235 212 160 235
213 161 235 213 161 234 214 162 234 214 162 234 215 163 234
215 163 235 216 163 235 216 163 235 215 161 233 214 158 231
214 157 226 211 153 217 202 143 200 178 119 166 153 95 131
128 72 97 115 60 76 103 50 59 94 43 48 87 37 40
80 31 33 68 23 24 58 17 17 50 13 12 46 12 10
42 11 8 38 9 5 34 8 3 30 7 1 27 7 1
26 7 1 27 8 2 28 8 2 29 8 3 30 9 4
32 9 5 33 9 6 47 21 20 73 46 47 102 73 77
118 87 92 123 89 95 126 89 96 126 85 93 116 72 80
103 55 64 95 44 53 94 42 50 97 43 51 99 44 52
16 6 1 16 6 1 17 6 1 18 7 1 20 8 2
21 9 2 22 9 2 22 9 1 22 8 1 22 8 0
23 9 1 25 10 1 27 11 3 29 12 3 29 12 4
30 13 4 31 13 5 31 12 5 31 12 6 32 11 6
34 12 7 37 13 9 40 15 12 42 15 14 44 15 18
48 16 24 53 18 34 59 21 45 68 28 60 81 39 79
96 51 99 112 63 120 129 76 142 148 91 165 171 112 189
196 136 215 212 151 232 208 145 230 189 126 212 170 106 193
160 96 183 155 91 178 154 90 176 154 91 175 153 93 174
153 94 172 153 95 171 154 96 172 165 107 183 182 125 201
181 125 199 146 92 160 96 46 104 65 19 63 57 14 44
57 18 34 56 19 25 56 20 21 56 19 18 56 18 17
56 18 16 56 18 14 57 19 13 59 21 14 62 24 17
67 27 21 73 29 22 82 34 27 93 43 33 104 52 40
111 57 43 114 59 43 115 57 41 115 55 39 114 53 38
114 51 37 113 52 38 113 53 40 112 54 42 111 54 46
110 54 52 115 59 68 138 82 103 173 117 152 202 145 193
212 156 212 210 156 216 210 156 219 210 158 220 211 160 220
211 161 221 213 162 222 214 163 223 215 164 225 216 165 226
217 165 227 218 166 228 218 167 229 218 167 230 218 166 231
217 165 230 215 163 230 213 162 229 209 159 227 207 156 226
205 155 225 204 155 227 205 156 229 207 159 233 211 162 237
213 165 240 216 166 241 217 167 240 218 168 239 219 169 240
221 171 241 222 173 243 223 175 244 224 176 246 226 177 248
226 178 250 227 179 252 228 180 253 226 179 252 217 171 246
201 153 232 179 132 213 157 112 197 143 101 190 136 96 189
136 97 191 137 98 193 138 99 195 139 99 196 137 98 195
137 97 196 137 97 197 137 97 200 138 97 201 138 98 202
138 98 203 138 98 203 139 98 204 138 97 203 138 97 203
139 97 202 141 98 201 144 102 201 152 110 205 169 127 217
189 147 231 209 166 244 221 178 251 228 185 254 232 188 254
236 192 255 239 195 254 241 197 255 242 197 254 244 197 254
245 197 254 246 196 254 245 194 254 243 192 253 238 187 250
230 178 243 219 167 234 212 160 229 208 155 227 207 153 227
206 152 228 207 152 230 206 152 231 205 151 231 205 150 232
204 150 232 205 151 232 206 153 233 209 156 235 211 158 237
213 160 238 213 160 237 212 160 236 212 160 235 213 161 235
213 161 235 214 162 235 215 163 235 216 165 236 217 166 236
218 167 237 218 166 238 219 166 239 220 165 240 220 164 237
219 162 233 217 159 224 208 149 207 190 130 180 162 103 143
139 81 110 119 64 83 110 56 67 100 49 54 92 42 43
83 34 34 72 26 25 62 18 17 53 14 12 47 11 10
43 11 8 40 10 6 36 9 4 32 7 2 29 7 1
27 7 1 27 8 2 28 8 3 29 9 3 30 9 4
32 9 5 34 10 6 35 9 7 48 21 20 74 46 48
104 74 79 121 89 95 125 91 98 128 90 98 130 89 98
125 81 91 119 71 82 115 65 75 116 64 74 118 65 75
120 65 76 16 5 1 17 6 1 17 6 1 19 7 1
20 8 2 22 9 2 22 9 2 22 9 1 23 9 1
23 8 0 24 9 1 26 10 2 27 11 2 29 12 3
30 13 3 31 13 4 31 13 5 32 12 6 32 12 6
34 11 6 36 12 8 39 13 10 41 15 12 43 14 15
45 15 20 49 16 27 57 21 39 66 27 54 78 36 72
93 48 93 108 61 113 121 70 132 135 80 150 149 90 167
166 105 185 186 124 207 206 142 227 213 148 235 206 140 229
191 124 214 176 109 199 163 98 186 157 92 180 157 93 178
157 95 177 156 95 174 155 95 173 162 102 180 178 119 196
192 135 211 182 125 200 142 88 156 95 44 103 67 20 64
58 15 45 58 18 34 57 19 26 56 20 21 57 20 19
57 20 18 57 19 17 57 19 15 58 20 13 60 22 15
63 24 17 68 27 21 74 29 23 83 35 28 95 44 35
106 54 42 113 59 45 116 61 45 117 59 43 117 57 41
116 54 39 116 53 39 116 54 40 117 56 43 116 58 46
115 58 50 113 57 55 117 61 71 140 84 106 175 118 154
203 146 194 213 157 213 211 156 217 211 157 220 212 158 221
213 161 222 213 162 223 214 163 224 216 164 226 218 165 227
219 167 229 220 167 230 220 168 230 221 169 232 221 169 232
221 169 233 220 168 233 218 166 232 216 165 231 215 163 231
214 162 231 214 162 232 214 163 233 215 164 235 216 166 237
217 167 239 218 168 240 219 168 240 220 169 239 221 169 239
222 171 240 224 172 241 225 174 242 226 176 243 227 177 245
228 178 247 229 179 249 231 181 252 231 182 253 232 183 255
228 179 252 214 165 241 192 144 223 167 121 204 149 107 194
140 99 191 139 99 192 140 99 193 141 100 195 142 100 197
140 99 197 140 98 198 140 98 199 141 99 202 141 99 202
141 98 204 141 98 204 141 98 205 141 98 205 141 97 204
141 97 204 141 97 203 144 100 203 151 108 205 165 122 214
185 142 229 207 163 243 222 179 252 231 187 255 234 191 255
237 192 254 239 195 254 242 196 254 243 197 254 244 198 254
246 198 254 247 198 254 249 197 254 249 197 254 250 197 255
247 194 254 239 186 249 227 174 241 218 165 233 212 158 230
208 155 228 206 152 229 206 152 230 206 152 231 205 150 232
205 150 232 204 150 232 205 151 232 206 153 233 208 155 234
210 157 236 212 159 237 212 160 236 212 160 235 213 161 235
214 162 235 215 163 236 217 165 237 219 168 239 222 170 240
224 173 242 226 174 243 226 174 244 228 174 246 229 173 246
231 173 244 229 171 238 220 161 221 200 139 191 173 113 155
145 85 118 127 69 92 114 58 72 107 54 60 99 48 50
89 40 39 78 31 28 65 21 17 55 14 11 48 11 8
44 10 7 41 10 6 37 9 5 34 8 3 31 7 2
28 7 0 27 7 1 28 8 2 29 9 4 30 10 4
32 10 5 33 10 6 36 10 7 37 10 8 50 21 21
76 46 50 106 75 82 124 91 99 129 94 103 131 93 102
134 93 104 134 90 102 134 87 99 134 84 96 136 84 97
137 84 97 138 84 97 16 5 0 17 6 0 17 6 1
19 7 1 20 8 2 22 9 2 22 9 2 23 9 1
23 9 1 24 9 0 25 9 1 27 10 2 28 11 2
29 12 3 30 13 3 31 13 4 32 13 5 33 12 6
33 12 6 35 12 6 37 12 8 40 13 10 43 14 13
45 15 17 48 16 24 55 20 34 65 27 49 77 36 68
91 47 88 104 58 108 115 67 124 125 72 138 135 78 152
143 83 163 152 90 173 165 101 187 183 118 205 200 133 222
209 142 231 207 139 230 195 128 218 179 112 201 166 99 188
161 96 182 159 96 179 158 95 176 159 98 177 173 113 191
190 131 208 197 138 216 175 117 192 134 80 149 94 43 102
69 22 67 61 17 47 58 18 34 57 19 26 56 20 21
57 21 20 58 21 19 58 21 18 59 21 16 59 21 14
61 23 16 64 25 18 68 27 22 74 29 23 84 35 28
97 45 36 109 55 44 115 60 47 118 62 47 119 61 45
119 59 43 118 55 40 118 54 40 119 56 43 121 59 47
121 62 50 119 61 54 116 59 58 120 63 73 143 85 108
177 119 156 205 146 195 214 156 214 212 155 217 212 157 220
213 159 222 215 162 224 215 163 225 216 165 226 218 166 228
220 168 230 222 169 231 223 170 232 223 170 233 223 171 234
223 171 235 223 171 236 223 171 236 221 169 236 220 168 234
218 166 233 218 166 234 219 166 235 219 168 236 220 169 238
221 170 239 222 171 240 222 171 240 222 171 240 223 171 240
224 172 240 225 173 240 226 174 241 227 176 242 228 177 243
228 177 244 229 179 246 231 180 248 232 181 250 232 181 252
233 183 254 231 181 253 220 170 245 200 151 229 174 127 209
155 111 198 144 102 193 143 101 194 143 101 194 144 102 196
144 102 198 143 101 198 144 101 200 144 101 202 145 101 204
144 101 205 144 100 206 143 99 206 143 99 206 143 98 206
144 98 206 144 99 205 146 100 204 151 106 206 163 118 213
182 137 226 202 158 240 219 174 250 229 184 254 234 189 254
237 191 253 240 193 253 242 196 254 244 197 254 245 198 253
245 197 252 247 198 253 249 198 253 251 199 254 251 199 254
251 199 255 250 197 255 244 190 251 234 181 246 225 171 239
217 163 234 210 156 230 207 153 229 206 152 230 206 151 232
205 150 233 205 150 233 205 150 232 205 152 233 206 153 233
208 155 234 210 157 235 212 159 236 213 160 236 213 161 236
214 162 236 215 163 236 217 166 237 220 169 239 223 172 241
227 176 244 230 179 247 233 182 249 235 182 251 237 182 252
239 182 252 240 181 249 236 176 238 217 157 210 185 125 168
154 94 128 132 73 97 121 64 79 112 57 65 106 53 56
97 47 46 85 38 34 72 27 22 59 17 12 51 11 7
45 9 5 41 9 6 38 9 5 36 9 4 33 8 3
30 8 2 28 8 1 28 9 2 29 10 3 30 11 5
31 11 5 33 11 6 35 11 7 38 11 8 39 11 9
51 21 22 77 46 51 108 75 84 127 93 103 133 96 107
134 95 107 138 96 109 141 96 110 143 96 110 144 94 108
146 94 108 145 93 107 145 92 107 16 5 0 17 6 0
17 6 0 19 7 1 20 8 2 22 9 2 23 9 2
23 9 1 23 9 1 24 9 1 26 10 1 27 10 2
29 12 2 30 13 3 31 14 4 32 14 5 33 13 6
34 13 6 34 12 6 36 12 7 38 13 8 41 14 11
43 14 15 48 17 21 54 21 31 64 28 45 76 37 63
91 48 84 103 58 104 113 65 120 119 69 132 126 72 142
134 75 152 141 79 161 145 81 166 151 86 173 162 96 184
179 111 201 196 127 218 209 140 231 209 140 232 199 130 220
181 114 203 170 104 191 163 99 183 161 98 179 166 104 184
185 123 202 198 137 216 195 135 213 165 107 182 128 72 142
93 42 101 71 24 69 63 19 49 59 19 35 57 20 26
56 20 21 57 22 20 59 23 20 60 23 19 60 23 17
59 22 15 61 24 16 64 25 19 69 27 22 74 29 23
85 36 29 99 47 38 111 57 46 117 62 48 121 64 49
121 62 47 121 60 45 120 56 42 120 56 42 122 59 46
124 62 50 125 65 54 122 64 57 118 61 61 121 64 74
144 85 109 178 119 156 205 146 195 214 155 213 212 154 217
212 156 220 214 160 223 217 163 225 218 165 227 219 166 229
221 168 231 223 170 233 225 171 234 225 172 235 225 172 236
225 173 238 226 174 238 226 174 239 225 173 239 224 172 238
223 171 237 222 170 236 222 170 237 223 170 237 224 171 238
225 173 240 226 174 241 227 176 243 228 176 243 228 176 243
227 175 243 227 174 242 228 175 242 228 176 242 228 176 243
229 177 243 228 177 243 229 178 245 230 179 246 231 180 249
231 180 250 232 180 253 231 180 253 223 171 246 204 153 231
178 130 212 158 113 200 148 105 195 146 103 195 145 102 195
146 103 197 147 103 199 146 103 200 147 102 202 147 102 204
147 103 206 147 103 207 147 102 208 147 102 209 147 102 210
147 101 210 149 103 210 151 104 209 155 108 210 164 116 213
179 132 224 199 153 237 217 171 248 229 182 253 233 187 254
236 189 253 239 191 252 243 194 253 246 197 254 248 199 254
249 199 254 248 198 253 250 199 253 251 200 253 253 200 254
253 200 254 253 199 255 251 197 255 247 192 253 241 186 251
232 177 245 223 168 239 213 159 233 209 155 231 207 153 232
207 153 234 206 151 235 206 151 234 206 151 234 207 153 234
208 155 234 209 156 234 211 158 235 212 160 236 213 161 236
214 162 237 216 164 237 218 166 238 220 169 240 223 172 241
227 176 245 231 180 248 235 184 251 238 187 253 242 189 254
244 188 255 245 187 252 242 182 245 229 169 224 201 141 186
166 106 141 139 79 105 125 66 83 118 61 71 111 57 61
103 52 51 92 43 41 79 32 28 66 22 17 55 14 9
48 10 5 43 9 5 40 9 5 37 9 5 35 9 4
33 9 3 31 9 3 29 9 2 29 10 3 30 11 5
31 12 6 33 12 6 34 12 7 37 12 8 39 12 9
41 12 10 52 21 23 77 45 51 108 75 85 130 94 106
136 99 112 138 98 112 140 98 113 143 98 114 146 99 115
147 98 113 148 96 113 147 95 111 146 93 110 17 5 0
17 6 0 18 6 0 19 7 1 21 8 2 22 8 2
23 9 2 23 9 1 23 9 1 24 9 1 26 10 2
28 11 2 29 12 3 30 13 4 31 14 4 33 14 5
34 14 5 34 13 6 35 12 6 36 12 7 38 12 9
41 13 13 44 14 18 51 19 28 61 26 41 76 38 61
90 49 80 103 60 101 113 67 117 118 69 129 121 70 136
125 71 144 132 73 152 139 77 160 144 80 166 148 83 170
154 87 176 164 96 187 179 110 202 198 128 220 211 141 233
214 144 235 200 132 221 185 118 205 172 106 191 168 103 186
177 114 195 194 131 211 200 139 218 189 129 207 159 101 177
125 70 140 93 41 101 71 23 69 64 20 50 60 19 35
58 20 26 57 20 21 58 22 21 60 23 21 61 24 21
61 24 19 60 23 16 62 24 18 65 26 19 70 28 22
75 30 24 86 36 29 100 47 38 113 58 47 119 63 49
123 65 50 123 63 48 123 61 46 121 57 43 121 57 43
125 60 48 127 65 53 129 68 58 125 65 59 121 61 62
123 63 75 145 85 110 179 118 157 205 145 196 214 154 213
211 153 216 212 156 220 214 160 223 218 164 227 219 165 228
221 167 231 223 169 233 225 171 236 227 173 237 227 173 238
227 174 239 227 174 240 227 175 241 228 175 242 227 175 241
227 174 241 225 173 240 225 173 239 225 173 240 226 174 240
227 174 240 228 176 241 229 177 242 231 179 244 232 180 246
232 180 246 231 179 246 230 178 245 230 178 244 230 177 244
229 177 243 228 177 243 228 176 242 228 177 243 230 178 245
230 179 247 230 178 248 230 179 251 230 179 252 223 172 247
206 155 232 181 132 214 162 116 202 151 107 196 148 104 196
147 103 196 148 104 198 148 104 200 148 104 201 148 104 203
148 104 205 149 104 207 150 105 209 151 105 211 152 106 213
153 106 215 154 107 215 158 110 216 162 114 215 169 120 217
179 131 222 196 148 234 215 167 246 229 181 253 235 187 254
236 188 253 237 189 252 240 191 252 243 193 253 246 196 254
248 198 255 250 198 254 250 198 254 251 199 253 252 199 253
253 200 253 253 200 254 253 200 255 252 198 255 249 195 254
245 192 253 237 183 249 228 174 243 217 163 236 212 157 233
210 155 234 210 155 236 209 154 237 208 153 236 208 153 236
208 155 235 209 156 235 210 157 235 212 159 236 213 160 237
215 162 237 216 163 238 219 166 239 222 170 241 226 174 244
229 177 245 232 181 248 236 184 250 239 188 253 242 190 254
246 192 255 247 191 253 245 186 247 234 174 231 210 150 198
178 117 155 148 88 115 131 71 89 122 63 74 116 60 65
108 55 56 98 48 46 85 37 33 70 25 21 58 16 12
51 11 7 46 9 5 42 9 6 39 9 6 37 10 6
35 10 5 33 10 4 32 10 4 31 11 4 31 11 5
31 12 6 33 12 7 34 12 7 36 12 8 39 12 9
41 13 10 42 12 11 52 21 23 77 44 51 109 74 85
132 95 108 140 101 115 141 100 115 142 99 115 142 98 114
146 99 116 148 98 116 149 98 116 148 96 114 147 94 112
18 5 0 18 6 0 19 6 0 20 7 1 21 8 1
22 8 2 23 9 2 23 8 2 24 9 2 25 9 2
27 11 3 29 11 4 29 12 4 30 13 5 32 14 6
33 15 6 35 15 6 36 14 6 36 13 7 36 12 9
39 13 13 44 15 21 51 19 31 62 28 46 75 38 63
90 50 83 101 59 100 111 66 115 117 69 125 120 70 132
121 69 137 125 70 144 130 73 151 138 77 160 143 81 166
148 84 172 152 87 177 158 91 183 166 98 190 180 110 203
196 126 217 210 141 231 212 143 233 204 136 224 191 124 210
185 120 204 193 129 212 200 138 219 196 136 217 180 122 202
156 99 176 126 71 142 94 43 102 71 23 68 64 20 49
61 19 35 59 20 26 58 20 22 59 22 22 61 23 22
62 24 22 62 24 21 62 24 19 64 25 19 67 26 20
71 27 22 76 30 23 88 37 30 104 50 40 117 60 49
123 65 51 127 66 51 127 65 50 127 62 48 124 58 44
123 57 45 127 61 51 132 67 58 136 71 64 132 68 65
126 63 65 126 63 76 146 83 109 177 115 155 202 141 194
211 151 212 209 152 216 210 155 221 214 160 225 218 164 228
219 166 230 221 167 233 223 169 236 225 171 238 227 172 240
228 173 242 228 174 243 228 174 244 229 175 244 229 175 245
229 175 244 229 175 243 228 175 242 228 175 242 228 175 241
229 176 241 229 176 241 230 177 242 232 179 243 233 180 245
235 182 246 234 181 246 233 180 246 232 179 244 231 178 243
230 177 242 229 177 242 228 176 241 228 176 242 229 177 243
230 178 245 230 178 246 229 177 247 230 178 250 230 178 252
225 173 247 211 159 236 188 138 218 169 122 206 156 111 199
152 107 197 150 106 198 151 107 200 152 108 203 152 108 204
152 108 207 152 108 208 153 108 211 154 109 212 155 110 215
157 111 217 160 113 220 165 117 224 175 126 227 183 134 229
192 142 231 201 151 235 213 163 243 225 176 250 234 185 254
238 188 254 239 189 253 239 190 252 241 191 253 244 193 253
246 195 254 248 197 254 250 198 255 251 199 255 252 199 254
252 199 253 252 199 253 252 200 254 252 199 255 251 199 255
249 197 255 248 195 255 242 189 252 233 180 248 222 169 241
216 162 237 212 158 236 212 157 237 212 156 238 211 155 238
211 156 238 211 157 238 211 158 238 211 158 237 213 159 236
216 161 238 218 164 239 221 167 241 225 171 243 229 176 246
234 181 249 236 184 250 239 187 251 241 189 252 242 190 252
244 191 253 247 192 252 246 190 248 237 179 233 214 155 204
183 122 163 154 93 124 135 74 97 127 67 81 120 62 69
111 56 58 100 49 47 87 39 36 73 28 24 61 19 14
53 12 8 47 10 6 44 9 6 41 10 7 39 10 7
37 10 7 36 10 6 34 11 5 33 11 5 32 11 5
32 11 6 33 12 6 35 13 8 36 13 9 38 13 9
40 13 9 41 13 10 43 13 11 53 21 22 77 44 49
109 73 82 133 95 106 142 102 116 143 101 117 143 101 117
144 100 117 146 99 118 146 99 118 147 98 117 146 96 115
146 95 114 19 6 0 19 6 0 20 6 0 21 7 0
22 7 1 23 8 2 23 9 3 24 8 3 25 8 3
26 9 4 28 11 5 30 12 6 30 13 6 31 13 7
32 14 7 34 15 7 36 15 7 36 14 7 36 13 8
37 12 13 42 15 21 51 21 35 62 29 51 75 39 70
88 49 87 100 58 104 108 64 116 114 68 125 118 69 131
120 69 134 121 70 138 125 72 144 129 74 151 136 77 159
140 81 165 146 84 172 151 87 177 156 91 182 160 94 186
167 100 191 179 111 201 197 128 218 212 143 233 217 148 237
213 145 232 210 143 228 213 148 231 207 145 228 193 134 217
173 117 199 154 99 178 126 73 144 94 43 102 71 24 68
64 19 48 62 20 35 60 20 26 60 20 22 61 21 22
62 22 24 63 23 24 63 24 23 63 24 21 65 25 21
68 26 21 72 26 21 78 29 23 91 38 30 108 51 42
121 62 50 128 66 52 131 67 52 132 66 51 130 63 50
126 59 47 126 57 47 130 62 54 137 69 63 143 74 71
140 72 71 134 66 70 130 63 77 145 79 107 173 108 151
196 134 189 205 146 209 205 148 215 207 153 220 211 158 225
215 162 228 217 164 231 219 165 234 221 167 237 223 169 240
226 171 242 227 172 244 227 172 245 227 172 246 228 173 246
229 174 246 229 174 246 229 175 245 229 175 244 229 175 242
229 175 241 229 175 241 230 176 241 231 177 241 232 178 243
233 179 244 235 181 245 234 181 245 234 180 244 232 179 241
231 178 241 230 177 240 229 176 240 228 176 240 229 177 242
230 178 244 230 178 245 230 177 246 229 177 246 230 178 249
231 179 251 227 175 248 216 165 239 198 147 225 182 133 215
169 122 207 164 118 205 162 116 206 162 117 208 162 117 211
161 116 212 159 114 212 157 113 212 157 113 213 158 113 214
159 113 216 162 115 218 169 121 225 179 131 232 194 144 239
205 155 241 214 163 242 219 168 244 225 175 249 232 182 252
237 186 254 239 188 254 239 189 254 240 190 253 241 191 253
243 192 253 244 194 254 246 196 254 248 197 255 249 198 255
250 199 254 250 199 253 251 199 253 251 199 254 251 199 255
250 199 255 249 199 255 248 198 255 244 193 254 236 186 250
226 175 245 219 167 239 215 162 237 214 160 238 214 158 238
213 157 237 212 157 238 212 157 239 212 158 239 213 158 237
214 159 237 218 162 238 223 166 241 227 170 243 232 176 247
236 182 249 240 187 251 242 189 251 244 191 252 245 192 252
246 192 252 247 192 250 248 193 248 243 186 238 224 166 213
192 133 173 159 98 133 137 76 102 128 66 85 123 63 75
116 59 64 105 51 52 92 42 39 77 32 27 64 21 16
54 15 10 48 11 7 44 10 6 42 10 7 39 10 8
38 11 8 37 11 8 36 11 8 35 11 7 34 11 6
33 11 6 33 11 6 34 12 7 36 13 8 38 13 10
40 13 10 41 13 9 42 13 9 44 13 11 54 21 22
78 43 46 110 72 80 133 94 104 143 102 115 144 102 117
145 102 119 146 102 120 146 101 121 145 100 119 145 99 118
145 98 117 145 98 116 20 6 0 20 6 0 21 7 0
22 7 0 23 8 1 24 8 2 25 9 3 25 9 3
26 9 4 28 10 6 30 12 7 32 13 8 31 13 8
31 13 7 32 14 7 34 15 8 36 15 8 37 14 10
38 13 13 42 16 22 51 23 37 65 33 56 78 44 76
92 53 95 101 60 109 108 64 120 112 66 127 115 67 131
118 68 134 120 69 137 122 70 140 126 73 145 130 76 152
135 78 158 138 81 164 143 83 171 148 86 176 153 89 181
157 91 183 161 94 185 166 98 189 180 111 202 200 131 222
218 149 239 229 161 246 232 165 247 228 163 243 210 148 230
188 129 214 169 113 198 153 99 179 125 73 145 93 44 103
71 24 68 64 19 47 63 20 35 62 21 26 61 20 23
61 21 23 62 21 24 63 23 25 64 24 25 65 25 24
66 25 23 69 25 22 73 26 22 79 29 24 94 39 32
111 53 44 126 64 52 132 67 54 135 68 53 135 67 53
133 64 52 129 60 49 128 58 50 133 62 57 142 70 68
150 77 77 150 77 79 142 70 77 135 65 81 143 74 104
165 99 144 187 124 182 197 137 204 199 142 213 201 147 218
206 153 223 210 157 227 212 160 230 215 161 233 216 162 235
219 163 238 221 166 240 223 167 242 224 167 244 224 168 245
225 169 246 227 170 246 228 171 245 228 172 244 228 173 243
228 173 241 228 173 240 228 173 239 229 174 240 230 175 241
232 177 242 233 178 243 234 179 244 233 179 243 233 178 241
231 177 239 230 176 238 229 176 238 229 176 239 229 177 240
230 178 243 231 179 245 231 178 245 230 177 246 231 178 247
232 180 250 233 181 252 230 179 250 224 172 244 211 160 235
200 150 228 190 141 223 186 138 222 184 137 223 183 137 226
182 137 227 178 134 226 173 128 223 168 124 219 164 119 216
163 117 215 163 117 215 168 121 219 180 132 230 197 148 241
215 165 250 227 175 252 232 181 252 234 182 252 235 183 253
237 185 254 238 187 254 240 188 254 240 189 254 241 190 254
241 191 253 242 192 253 244 193 254 246 195 255 247 197 255
249 198 255 249 199 254 249 199 254 249 198 253 249 199 254
248 199 255 248 199 255 247 198 255 247 198 255 244 196 255
239 190 253 231 182 248 224 174 243 219 168 239 218 165 238
217 163 238 215 160 237 214 159 237 214 159 238 214 160 239
215 160 238 217 161 237 222 165 239 228 170 243 233 176 247
239 182 250 242 187 252 244 190 252 246 192 252 248 194 252
249 194 252 248 193 251 248 192 249 247 191 243 233 177 223
203 146 185 165 107 141 138 78 107 126 64 88 122 60 77
118 59 70 110 53 58 98 45 45 82 34 30 67 24 18
56 16 10 49 12 6 46 11 6 42 11 7 40 10 8
38 11 8 37 11 10 36 12 9 35 11 9 35 11 7
34 11 7 33 11 6 34 11 6 35 12 7 37 13 9
40 14 10 41 14 10 42 13 9 42 13 9 45 14 11
55 22 21 78 42 45 110 72 78 133 94 103 143 102 115
144 103 118 146 104 122 148 105 125 148 104 124 146 102 123
145 101 121 145 100 120 146 100 119 21 7 0 22 8 0
22 8 0 23 9 1 24 9 1 26 9 2 26 10 3
26 10 4 27 10 5 30 11 7 32 13 9 33 14 9
32 13 8 31 13 8 32 13 8 34 14 9 36 14 12
39 15 17 43 17 25 53 25 39 67 36 59 82 48 80
93 57 97 102 62 111 107 65 121 112 67 128 115 67 133
117 68 136 119 68 138 122 70 141 125 73 144 129 75 149
132 78 154 135 79 159 139 81 165 144 84 171 148 87 177
153 89 181 157 91 183 161 94 187 165 96 189 172 103 196
185 116 209 205 136 226 226 158 243 238 171 251 230 166 244
208 147 227 183 126 209 168 113 198 152 98 180 124 72 145
92 43 103 71 24 68 64 19 48 63 20 36 62 21 27
61 21 24 62 21 24 62 21 25 63 23 26 64 24 25
65 25 24 67 25 24 70 26 24 74 26 24 81 30 26
95 40 34 113 54 47 128 64 55 134 68 57 136 68 56
137 68 55 135 65 54 131 61 52 130 59 53 135 63 60
145 71 71 153 78 80 155 80 85 148 74 84 139 66 85
140 69 103 158 90 139 180 115 177 191 130 201 193 136 209
195 140 214 200 146 218 204 151 223 206 153 227 209 154 230
210 155 232 213 157 234 215 159 236 217 160 238 218 161 240
219 162 241 221 164 243 222 166 243 224 167 243 224 168 242
224 168 240 224 169 238 224 169 237 225 170 237 226 171 237
227 172 238 228 173 239 229 174 240 230 175 241 230 176 241
231 176 240 230 176 239 230 175 238 229 175 239 229 176 240
229 177 242 231 179 244 232 179 246 232 179 247 232 179 248
234 181 249 235 183 252 235 183 253 234 182 252 230 179 249
224 173 245 219 168 242 213 163 240 211 162 240 210 162 241
209 162 243 206 160 243 201 156 241 192 148 236 184 139 229
174 130 221 169 124 215 169 122 215 177 130 222 194 145 236
212 163 248 226 176 254 234 183 255 237 185 254 238 186 254
239 186 254 239 187 255 240 187 254 240 188 255 240 189 254
241 189 254 241 190 253 242 191 253 244 193 254 245 194 255
247 196 255 247 197 255 247 198 254 247 199 253 247 198 253
247 199 253 247 199 254 247 199 254 246 199 255 246 199 255
244 198 255 241 194 254 236 189 251 230 183 247 227 178 244
225 175 243 223 172 241 221 169 239 219 166 238 218 164 239
218 164 239 219 164 239 221 166 239 226 171 241 232 176 245
238 182 249 243 187 252 246 191 253 247 193 253 248 194 252
250 195 252 251 196 253 251 195 252 250 194 248 241 185 234
217 161 202 180 123 156 146 88 117 128 67 92 121 59 79
117 56 71 114 54 64 104 48 52 91 39 39 74 27 24
61 19 14 51 13 7 45 10 5 42 10 5 40 10 6
39 10 8 37 11 9 37 12 10 36 12 10 35 12 9
34 12 8 34 12 7 33 11 7 34 11 7 35 12 8
38 13 9 40 14 11 41 14 11 42 14 10 43 14 10
46 14 12 55 22 21 78 42 44 110 71 77 134 94 103
143 103 116 145 104 120 146 104 124 148 105 126 148 105 126
147 104 125 147 103 124 147 103 123 147 103 122 24 9 1
24 9 2 25 10 2 26 10 2 27 10 2 28 10 3
28 10 3 28 10 4 29 11 5 31 12 7 33 14 9
34 14 9 33 13 9 32 13 8 33 13 10 35 13 13
39 15 20 45 19 30 56 28 44 70 39 63 85 52 84
97 61 102 105 67 115 110 69 124 113 70 130 116 70 134
118 70 138 120 70 140 122 70 142 125 72 145 128 75 150
132 78 154 135 79 158 137 80 162 141 82 167 145 84 172
150 87 177 154 90 182 158 92 185 162 94 189 165 96 191
169 99 195 175 106 200 189 120 211 212 144 229 230 164 243
227 162 238 206 145 224 182 124 207 169 113 198 152 98 180
124 71 146 92 42 104 71 23 69 64 19 49 64 20 37
63 21 29 62 21 25 63 21 25 63 22 26 64 23 27
65 24 26 65 25 25 68 25 25 71 26 26 75 27 26
82 30 29 97 41 37 116 55 50 130 65 59 137 70 61
139 69 60 139 69 59 138 67 57 134 63 55 133 61 56
138 65 62 148 72 73 156 80 84 160 84 90 153 78 89
141 67 90 138 67 103 153 84 137 175 110 176 188 126 201
190 131 209 191 135 212 194 139 216 198 144 220 200 146 223
203 147 226 205 148 228 207 150 230 209 152 232 211 154 234
212 155 235 213 156 237 216 159 239 218 161 240 220 163 240
221 164 239 221 165 237 221 165 235 221 166 234 222 167 235
223 168 235 223 168 236 224 169 237 225 170 237 226 171 238
227 172 239 229 174 239 230 175 240 229 174 239 229 175 240
229 176 242 230 178 244 232 179 246 233 180 247 234 181 249
236 183 251 238 185 252 238 186 253 237 186 253 236 185 253
236 185 253 234 183 252 233 182 252 231 180 252 230 180 252
230 181 253 229 181 253 226 179 253 222 176 252 214 169 247
205 160 241 194 148 231 184 138 223 182 135 221 192 143 229
208 160 243 222 173 252 231 181 255 236 184 254 238 185 254
239 185 254 240 186 254 240 187 254 241 187 255 241 188 255
241 189 254 241 189 254 242 190 253 243 191 253 244 192 254
245 193 254 246 195 255 247 196 255 247 198 254 246 199 253
246 199 253 246 199 253 246 199 253 246 200 254 247 200 255
246 200 255 246 200 255 244 198 255 242 196 253 238 192 251
236 189 249 235 187 248 234 184 247 231 181 245 228 177 244
226 175 243 226 174 243 227 174 242 228 176 242 233 180 244
238 185 247 243 189 251 246 192 253 248 194 253 249 196 253
251 198 253 252 199 254 253 199 254 251 197 251 246 191 242
225 170 215 193 137 173 155 98 127 132 73 98 121 61 82
118 57 74 114 54 66 109 51 58 97 42 44 82 32 30
66 21 16 56 15 9 47 11 5 42 9 4 40 9 5
39 9 6 38 10 8 37 11 9 37 12 11 36 12 10
35 12 9 34 12 8 33 12 7 33 12 7 34 12 7
35 12 8 38 14 10 40 15 11 42 15 11 43 15 11
44 15 11 47 16 13 56 22 22 78 42 45 109 70 78
134 93 104 144 103 118 146 104 122 147 104 125 148 105 128
149 105 128 148 105 128 149 105 127 149 104 125 148 104 124
27 11 4 27 11 4 27 11 4 28 11 4 29 11 4
29 11 4 30 11 4 30 11 5 30 11 6 31 12 7
33 13 9 34 13 10 34 13 11 34 14 13 37 15 16
40 16 23 46 20 33 57 29 49 72 42 68 87 55 88
99 65 105 107 69 118 111 71 127 114 71 133 117 72 137
120 73 141 122 73 144 124 73 145 125 73 147 128 75 150
132 78 154 135 80 158 138 81 161 141 82 165 144 84 170
148 86 175 152 89 180 156 91 184 159 93 187 163 95 191
167 98 195 170 100 198 172 102 199 178 109 202 196 128 216
218 152 233 225 161 238 211 150 228 188 129 212 171 115 200
154 99 182 125 72 147 93 41 105 71 22 71 65 18 51
64 20 39 63 21 31 63 21 27 63 21 27 64 22 28
65 23 28 65 24 28 66 24 26 69 25 27 73 26 28
77 27 29 84 31 31 99 41 40 118 56 53 133 67 62
139 71 65 141 71 63 142 70 62 140 68 61 137 65 59
137 63 60 141 66 66 150 74 77 160 83 88 163 86 94
156 79 94 143 68 94 139 67 108 154 84 141 175 108 179
187 124 203 188 129 210 188 131 212 190 134 215 194 138 219
196 140 222 199 142 225 200 143 226 202 145 228 205 147 229
207 149 232 208 151 233 210 153 235 213 155 237 215 158 238
217 161 238 219 162 238 220 163 237 220 164 236 220 164 234
220 165 234 220 165 234 221 166 234 222 167 234 222 167 235
223 168 236 225 170 237 227 172 239 228 173 241 229 173 241
229 174 242 229 176 243 231 178 246 233 180 247 234 182 249
237 184 251 239 186 253 241 188 254 241 189 255 239 187 254
238 187 254 238 187 254 239 189 255 239 189 255 239 188 254
238 188 254 238 188 255 238 189 255 237 189 255 235 188 255
231 184 254 225 179 251 215 169 244 205 158 236 202 154 232
208 160 238 219 171 247 228 179 253 233 182 254 236 183 254
238 184 254 239 185 253 240 186 254 241 187 254 241 188 255
241 189 255 242 190 255 242 190 254 243 191 254 243 192 254
244 193 254 245 194 254 245 195 254 246 197 254 246 198 254
246 199 253 245 200 252 245 200 252 246 200 253 247 201 254
248 201 255 248 201 255 248 201 255 247 201 254 246 199 254
244 198 253 244 197 253 244 196 252 243 194 252 241 191 250
238 189 250 237 187 249 236 186 248 236 186 248 237 187 247
240 190 247 244 193 249 248 196 252 249 197 253 250 197 253
251 198 253 253 200 254 254 201 254 254 201 253 249 195 245
233 179 226 201 145 185 166 109 140 136 77 101 123 63 83
117 57 73 116 56 69 112 53 62 102 46 51 87 34 35
71 23 20 60 16 11 52 12 7 45 9 4 41 8 4
39 8 5 37 9 6 37 10 8 37 12 10 37 13 11
37 13 11 36 13 10 35 13 9 34 13 8 33 12 7
34 12 7 36 13 8 38 14 10 40 16 12 42 16 12
43 16 12 45 16 12 48 17 14 56 23 23 78 41 46
108 69 79 134 93 106 145 103 120 147 104 124 148 105 128
149 105 129 149 105 130 148 104 129 149 105 128 149 104 127
148 104 126 30 12 7 30 12 7 30 12 6 31 12 5
31 12 5 31 12 4 31 12 5 32 12 5 32 12 7
33 13 9 34 13 10 35 13 13 37 14 16 40 17 21
45 21 28 51 25 38 60 31 53 73 42 72 87 55 91
100 65 107 107 70 119 111 71 127 113 71 133 116 72 138
120 74 143 124 76 147 127 77 149 128 77 151 130 77 152
132 77 154 135 80 157 138 82 161 142 83 165 145 84 169
148 86 173 152 88 178 155 91 183 159 93 187 162 95 190
166 97 195 169 99 199 173 102 203 173 103 203 175 106 202
187 120 210 210 146 227 228 165 241 220 159 236 198 139 220
175 118 204 157 101 184 127 72 149 94 41 107 72 21 73
66 17 53 65 19 42 65 20 34 64 20 29 65 21 29
65 22 30 66 22 31 67 23 30 68 24 28 71 25 28
74 26 29 79 27 30 86 31 33 101 42 42 120 57 55
135 68 65 142 72 67 144 72 66 144 71 65 143 69 64
141 67 63 140 64 64 144 67 69 153 75 80 163 84 92
167 88 99 160 83 101 149 74 103 147 73 118 159 88 149
177 109 184 188 123 207 188 127 214 187 128 215 189 132 217
192 135 220 195 137 223 197 138 225 198 140 226 200 142 228
203 144 229 206 147 232 208 150 233 210 152 235 211 154 236
214 156 237 216 159 238 219 162 239 221 165 239 221 165 238
220 164 236 220 164 235 220 164 234 220 165 234 221 165 234
221 166 235 222 166 235 224 168 238 226 170 240 227 172 242
228 172 242 228 174 243 230 176 245 231 178 247 233 180 249
235 182 251 238 185 253 241 188 254 243 190 255 242 190 255
240 188 254 238 187 254 239 188 254 241 190 255 242 191 254
241 190 254 241 190 254 241 190 254 241 191 255 241 191 255
241 192 255 240 192 255 236 189 254 231 183 251 225 177 247
221 172 244 223 173 245 227 177 249 232 182 252 235 184 253
237 185 254 239 185 253 240 186 253 241 187 253 241 187 253
241 188 254 241 189 254 242 191 254 243 192 254 244 193 254
244 194 253 245 195 253 245 196 253 245 197 254 246 198 254
247 199 253 246 200 252 246 201 252 246 202 252 247 202 253
248 203 254 249 203 255 250 204 255 249 203 255 249 203 254
248 202 253 248 201 253 248 201 253 249 200 253 249 199 253
248 198 253 247 197 253 246 197 253 245 197 253 244 197 251
245 197 250 246 198 250 248 200 251 251 202 253 252 202 254
252 201 254 252 200 253 253 201 253 254 201 252 252 198 247
239 184 231 212 156 199 174 117 152 143 84 110 124 64 83
118 57 72 114 54 66 113 53 62 106 49 54 92 38 40
76 26 25 63 17 13 56 13 9 50 12 7 45 10 6
41 9 5 39 9 6 37 9 8 37 11 9 37 12 11
37 13 11 37 13 11 36 13 10 35 13 9 34 13 8
34 13 8 34 12 8 36 13 9 38 14 10 41 16 12
43 17 13 44 17 13 46 17 13 50 18 16 57 23 24
78 41 46 108 68 79 134 93 107 145 103 121 147 104 126
149 105 129 149 105 131 149 105 131 148 104 130 149 105 130
148 104 128 148 104 128 32 13 10 32 13 9 32 13 8
32 13 7 33 13 6 32 13 5 32 13 5 34 13 7
35 14 9 36 14 12 36 13 14 37 13 17 40 16 23
46 21 32 54 28 43 64 36 58 75 44 74 87 54 92
97 62 106 104 67 117 108 68 124 110 69 130 114 70 136
119 73 142 123 75 147 127 78 151 130 79 154 133 80 155
134 80 156 135 80 157 137 81 159 141 83 163 145 85 168
148 86 173 151 88 177 155 90 182 159 92 186 162 95 190
165 96 194 168 98 199 171 100 203 173 101 207 174 102 207
175 105 205 186 118 211 209 144 228 231 168 245 226 165 242
204 145 227 180 122 207 160 103 187 129 73 151 95 41 109
73 21 75 66 16 56 66 18 45 65 19 37 65 19 32
66 20 32 66 21 33 67 22 33 68 23 32 69 24 30
72 25 30 76 26 30 81 27 31 88 32 34 103 43 44
122 58 57 137 69 67 144 73 69 145 72 67 146 72 67
145 70 66 144 68 66 143 66 67 147 68 72 156 76 84
166 86 96 171 91 106 168 89 111 161 84 117 158 84 133
168 96 162 182 113 192 190 124 212 190 127 219 189 128 220
190 131 221 192 134 223 194 136 226 196 137 228 198 139 229
200 141 230 202 143 231 206 147 234 209 151 236 211 153 238
211 154 237 213 156 237 216 159 238 220 163 241 224 167 243
224 167 242 222 166 239 220 164 236 221 165 236 221 165 235
221 165 235 221 166 236 221 166 236 223 167 239 225 169 241
227 171 244 227 172 244 228 173 245 230 176 246 232 179 249
234 181 251 236 183 252 237 184 253 240 187 254 243 190 255
243 190 255 241 189 255 239 188 255 240 189 255 242 190 255
243 191 254 244 192 254 243 191 254 243 191 254 243 191 255
243 192 255 244 194 255 243 194 255 242 193 255 239 190 254
236 188 253 234 185 251 233 183 249 232 182 249 234 183 250
236 185 251 238 186 252 239 186 252 239 187 252 240 187 252
240 188 252 241 189 252 241 190 251 242 192 252 243 194 252
244 196 253 244 197 253 245 198 253 245 199 252 245 200 252
246 200 252 247 201 253 247 201 252 247 202 252 248 203 252
248 204 253 249 205 254 250 205 255 250 206 255 250 206 255
250 206 254 250 205 254 250 205 253 250 204 253 251 203 253
251 203 253 252 203 253 251 204 254 250 204 254 249 204 254
249 204 253 249 204 252 250 204 251 252 205 252 253 206 253
254 205 254 254 204 254 253 202 253 254 201 252 254 199 249
247 191 238 224 167 210 188 129 168 151 92 123 129 69 91
120 59 73 116 56 66 113 53 62 107 49 55 96 40 44
81 29 30 68 20 18 59 15 11 54 13 9 49 12 8
45 11 8 41 10 7 39 9 8 37 10 9 37 11 11
37 13 11 38 14 12 37 13 11 37 13 10 35 13 9
34 13 8 34 13 8 35 13 8 36 13 9 39 14 10
41 16 12 43 17 13 45 17 13 47 18 14 50 19 16
58 23 24 78 40 46 108 67 79 134 92 108 146 103 123
148 105 127 149 105 130 149 105 132 149 105 132 149 105 131
149 105 131 149 105 130 149 105 129 35 13 12 34 13 11
34 12 9 33 12 7 33 12 6 33 12 5 34 13 5
35 13 8 37 14 11 38 14 14 39 14 19 43 16 26
49 22 37 59 31 50 68 39 63 78 47 78 87 53 92
96 60 106 101 64 114 104 66 120 106 66 125 110 67 130
115 70 138 120 73 144 125 75 149 129 78 153 132 80 156
135 81 157 136 81 157 138 81 158 140 82 160 144 85 165
148 87 171 152 88 177 156 90 182 159 92 185 162 94 189
166 96 194 168 98 198 171 99 203 172 99 206 173 100 209
174 102 210 176 106 210 187 119 215 208 143 229 231 168 245
230 170 245 211 152 231 185 126 211 162 104 188 130 73 152
96 40 111 74 20 78 67 15 60 67 17 50 67 18 41
66 19 37 67 20 36 68 20 36 69 22 36 70 23 35
71 25 34 74 26 32 78 26 32 82 27 32 90 31 34
105 42 44 124 58 58 139 69 68 146 73 70 148 73 69
149 73 69 149 72 70 149 70 71 148 69 72 151 71 77
159 78 88 169 87 101 177 96 114 178 98 123 174 96 133
172 96 149 178 105 174 187 117 200 192 125 217 192 128 224
190 129 225 190 130 225 191 132 226 194 134 228 196 136 229
198 137 230 200 139 231 203 142 232 206 146 234 209 150 236
211 153 238 212 154 238 214 156 238 216 159 239 220 164 241
225 169 245 227 171 245 226 170 243 223 167 239 222 166 237
221 165 236 221 165 236 221 165 236 222 166 238 223 167 240
225 169 243 226 169 244 227 170 245 228 172 246 229 175 248
232 178 250 234 181 252 235 182 253 237 184 254 239 186 254
241 188 255 241 189 255 241 189 255 240 189 255 240 189 255
242 190 255 244 191 255 246 192 255 246 192 254 245 192 255
245 192 255 245 193 255 245 194 255 245 194 255 245 194 255
244 193 255 242 192 254 240 189 253 237 187 250 235 184 248
235 185 248 237 186 249 238 188 250 238 188 249 239 189 249
239 189 249 240 190 249 241 191 249 241 192 249 243 195 250
244 198 251 245 200 252 245 201 252 246 201 252 246 202 251
246 203 252 246 203 252 248 204 252 249 204 253 250 205 253
250 206 253 249 207 254 249 208 255 250 209 255 251 210 255
250 210 254 250 209 253 249 208 253 250 208 253 251 208 253
251 207 253 252 206 252 252 206 252 252 207 253 250 208 253
249 208 253 250 207 252 251 208 251 253 208 252 254 208 252
254 208 253 254 206 253 253 205 253 254 203 252 254 201 250
250 195 242 233 175 219 200 140 180 163 101 137 136 74 101
125 62 81 120 58 70 117 56 65 110 51 58 98 42 47
84 30 34 72 22 22 62 16 15 56 14 12 52 13 10
48 13 10 45 12 9 41 11 9 40 10 10 39 11 11
39 12 12 39 13 13 39 14 12 39 14 12 38 14 12
37 14 10 36 14 9 35 13 8 36 13 9 37 14 10
40 15 11 42 17 13 45 17 14 46 18 14 49 19 15
52 20 17 58 23 24 78 39 46 108 67 79 135 92 109
147 104 124 149 105 128 150 106 131 150 106 133 150 106 133
150 105 132 149 105 132 149 105 130 149 105 129 37 13 15
36 13 13 35 12 10 34 12 8 34 12 6 35 12 6
35 13 7 37 13 10 39 14 14 41 14 19 44 17 27
50 22 38 60 30 53 70 39 68 79 46 81 87 53 93
94 57 104 99 62 113 102 63 118 104 64 122 106 64 125
110 66 131 116 70 138 121 73 145 125 75 150 130 77 154
133 80 157 136 81 159 138 81 158 139 82 159 142 84 161
146 86 167 151 88 174 156 89 181 159 91 185 161 92 188
164 94 192 168 97 196 171 99 201 172 100 205 172 98 208
173 99 212 174 101 213 177 107 214 187 119 218 207 141 230
230 166 244 234 173 248 217 157 235 190 131 215 164 105 189
131 73 154 98 41 114 76 20 83 69 15 66 69 17 56
68 18 47 68 18 43 68 19 41 69 20 41 70 22 41
72 24 40 74 26 38 77 27 36 80 27 34 84 27 33
92 32 36 107 43 46 127 59 60 143 71 71 150 75 74
152 75 73 154 76 74 154 76 76 154 74 77 153 72 78
155 73 82 162 79 92 171 88 104 180 97 118 182 101 129
180 101 140 179 102 158 183 109 181 189 118 204 193 124 219
192 127 226 191 129 228 191 130 228 191 131 228 194 133 230
196 135 231 198 136 232 201 138 233 204 142 234 207 146 235
209 150 237 211 153 238 213 155 239 215 157 239 217 160 239
221 164 242 226 170 246 230 174 249 230 174 248 227 171 243
223 167 239 221 165 236 220 164 236 221 165 237 222 166 238
223 167 241 224 168 243 225 168 244 226 169 245 227 172 247
229 175 249 231 177 251 233 180 252 235 181 253 236 183 254
237 184 255 239 186 255 240 187 255 240 188 255 239 188 255
239 188 255 242 190 255 244 191 255 246 192 255 247 192 255
246 192 255 246 192 255 247 193 255 247 193 255 247 194 255
246 194 255 245 193 255 243 192 254 241 190 252 238 187 249
236 186 247 236 186 247 237 187 248 238 189 247 239 190 247
239 191 247 240 193 248 241 194 249 242 195 249 242 196 249
244 199 250 245 202 251 246 204 252 246 205 252 247 205 251
246 206 251 247 207 251 247 207 251 248 207 252 249 207 252
250 207 253 249 208 254 248 209 254 248 210 254 249 212 255
250 213 255 250 214 254 249 214 253 249 214 253 250 213 254
250 213 254 251 212 253 251 211 253 251 210 252 250 210 252
249 210 251 249 210 251 251 210 251 253 210 251 254 210 251
254 209 252 254 208 252 254 207 253 253 206 253 254 203 251
251 198 245 240 184 229 214 154 195 178 115 152 147 82 115
130 65 90 125 61 77 122 59 70 117 57 64 106 48 54
90 35 40 74 23 27 65 17 19 58 14 15 54 13 13
50 12 11 47 12 11 44 11 10 41 11 10 40 10 10
40 12 13 40 13 14 40 14 14 40 14 13 40 15 13
40 15 13 39 15 12 38 14 10 37 13 9 38 14 10
39 15 11 42 16 13 44 17 14 46 18 15 48 18 15
50 19 16 53 20 18 59 22 24 78 38 44 107 66 77
135 93 108 148 105 124 150 106 128 149 105 130 149 105 131
149 105 131 149 105 131 149 105 131 149 105 130 149 105 128
38 13 16 38 13 14 36 12 12 36 11 9 36 11 8
37 12 9 38 13 11 39 13 14 41 13 19 44 16 27
52 23 40 62 31 55 73 41 72 82 48 86 88 53 96
93 56 104 96 58 111 100 61 117 102 62 120 105 64 123
108 65 127 112 67 132 117 70 139 122 72 145 126 74 150
130 76 155 134 79 159 137 80 160 138 80 159 140 81 159
144 84 163 149 86 169 153 88 177 157 89 183 160 90 187
163 92 190 167 95 194 171 99 200 173 100 204 174 100 207
172 98 209 173 99 213 175 102 215 178 107 216 187 118 219
205 139 230 228 165 243 237 176 250 224 164 239 196 135 218
166 106 190 132 72 155 100 41 118 78 21 89 72 16 73
72 17 64 70 17 54 70 18 50 70 19 48 71 20 47
72 22 46 74 24 45 77 27 44 80 28 41 83 29 38
86 28 36 94 32 38 111 45 50 132 62 65 148 74 76
155 79 80 158 80 80 160 81 82 162 81 84 161 80 85
160 78 86 161 77 89 166 81 96 173 89 107 179 95 118
181 99 128 178 98 139 179 101 158 183 107 181 188 115 203
191 122 219 191 125 226 191 127 229 190 128 229 192 130 229
194 132 230 196 133 231 198 135 232 201 137 233 204 141 234
206 145 235 207 148 236 210 151 237 213 155 238 215 157 239
216 159 239 220 163 241 225 168 245 232 176 250 234 178 251
231 175 247 225 169 241 221 165 237 220 164 236 221 165 237
222 166 239 223 167 240 223 167 243 224 167 244 225 169 246
227 171 247 228 174 249 230 176 250 231 178 252 233 180 253
235 182 254 236 183 255 237 184 255 237 185 255 238 186 255
238 187 255 238 187 255 240 188 255 242 189 255 244 190 255
245 190 255 246 191 255 246 191 255 247 192 255 247 193 255
247 193 254 247 193 254 246 193 254 244 191 252 240 189 250
237 187 247 236 186 246 237 187 246 239 190 248 241 193 248
243 196 249 243 197 249 244 199 250 245 201 251 246 202 251
246 203 251 247 205 252 248 207 252 249 209 253 248 210 252
249 210 252 248 211 251 249 212 251 248 212 251 249 212 251
250 211 252 251 211 253 250 211 253 249 212 253 249 214 254
249 216 255 248 216 254 248 216 253 247 216 252 247 216 253
247 215 253 248 216 254 250 215 254 250 215 253 250 213 252
248 212 251 248 211 249 249 211 249 252 212 250 254 212 250
254 211 250 254 209 251 254 208 251 254 206 252 253 205 252
252 201 249 243 189 236 221 163 207 188 126 165 156 90 126
137 69 100 129 61 85 126 60 76 122 59 69 114 54 61
98 41 49 80 27 33 67 18 23 60 14 18 55 13 15
51 12 14 49 12 13 47 12 13 44 11 12 42 10 11
41 11 12 41 13 14 42 14 15 42 15 15 42 15 14
43 16 15 43 16 14 42 16 13 41 15 12 39 14 10
40 14 11 42 16 12 44 17 14 46 18 15 48 18 16
50 19 16 52 20 17 54 20 18 59 22 24 77 38 43
107 65 76 136 93 107 150 107 125 152 109 129 150 107 130
149 105 130 149 105 130 149 105 129 149 106 129 149 105 128
149 105 127 38 12 15 37 12 14 37 12 13 37 12 12
38 12 12 39 13 14 41 14 17 42 13 20 44 15 27
51 20 39 62 31 56 74 41 73 83 48 87 88 52 97
91 54 104 95 56 110 98 58 116 101 60 120 103 62 123
106 63 126 109 65 129 114 67 135 119 70 141 123 72 146
127 74 151 131 76 157 135 78 161 138 79 162 139 80 162
141 81 162 145 84 165 150 86 171 155 87 179 159 88 186
162 90 190 166 93 193 171 98 199 177 103 205 179 105 209
178 104 211 176 101 212 174 101 213 176 103 215 179 108 217
188 120 220 205 139 230 228 164 243 238 177 251 228 167 241
202 141 222 171 110 193 137 76 159 104 44 124 83 23 96
76 18 81 74 18 71 72 17 62 71 17 57 72 18 54
72 19 53 74 21 52 76 24 50 79 27 49 82 29 46
85 30 44 89 30 41 97 34 44 115 48 56 138 66 73
155 80 85 163 85 89 166 86 90 168 87 91 169 87 93
167 85 93 166 82 93 166 81 95 169 83 100 174 88 108
176 91 115 175 93 123 172 91 133 173 94 152 178 102 177
184 111 201 188 118 218 189 122 226 191 126 230 191 128 231
194 131 231 195 132 232 197 133 232 198 134 232 201 137 232
204 141 234 206 144 234 207 147 235 209 150 236 212 154 237
214 156 238 215 158 238 218 161 239 223 166 242 231 174 248
234 178 251 234 178 249 227 171 243 223 167 238 221 165 237
222 166 238 222 166 238 222 166 240 223 166 242 224 167 244
225 168 245 226 170 247 227 172 248 228 174 250 230 176 251
231 178 252 233 179 253 234 181 254 235 182 254 235 183 254
236 184 254 236 185 254 237 185 254 238 186 255 239 187 255
241 187 255 243 188 255 244 189 255 245 190 255 246 191 255
247 191 254 247 192 253 246 192 253 245 191 252 243 191 251
240 189 249 237 187 247 236 186 246 237 188 246 241 192 248
244 197 249 246 201 251 247 203 251 248 205 252 250 207 253
251 209 253 251 211 253 251 212 254 251 213 253 250 213 253
250 214 253 250 215 253 250 215 252 251 216 252 250 216 252
250 215 251 250 215 251 251 215 252 251 215 252 250 216 252
250 217 252 251 218 254 250 220 253 250 221 254 250 221 254
250 220 254 249 218 253 249 217 253 251 218 254 251 217 254
250 215 253 249 213 250 249 212 248 251 213 248 253 213 248
254 212 249 254 211 250 254 210 251 254 209 253 254 207 253
254 205 252 249 196 244 231 175 221 199 138 182 165 101 140
143 74 110 134 63 94 131 61 85 128 61 78 121 58 70
109 49 59 91 35 44 73 22 30 62 15 22 57 12 19
53 12 17 50 11 16 49 12 16 48 12 16 46 12 15
43 11 14 42 11 14 43 13 15 44 15 16 44 15 16
44 16 15 45 16 16 45 17 15 44 17 14 43 16 13
42 15 11 42 15 12 44 16 13 46 18 15 48 18 16
50 19 17 52 20 17 54 20 18 55 20 19 60 23 24
78 38 42 107 65 74 137 94 106 152 108 124 154 110 129
152 109 130 150 106 129 150 106 129 150 106 128 151 107 129
151 107 128 150 107 127 37 10 14 38 11 14 38 11 15
39 12 16 40 13 18 42 14 21 44 14 25 45 13 29
49 16 37 58 25 52 72 37 71 83 47 87 90 52 99
93 54 106 94 54 110 97 56 115 99 58 119 102 60 123
104 61 125 107 63 128 111 65 133 115 68 138 120 70 143
124 72 149 127 73 154 132 76 159 136 78 164 139 79 165
140 79 165 142 80 165 146 83 168 152 86 175 158 89 185
164 92 193 169 95 198 174 99 202 180 105 208 186 111 215
191 115 220 188 113 220 183 108 217 178 104 214 178 105 215
181 111 216 191 123 221 207 142 231 227 164 243 240 178 251
233 172 244 211 149 227 180 118 200 144 82 166 111 49 132
90 28 106 82 22 91 79 20 80 75 18 70 73 17 64
74 18 60 74 19 58 76 21 57 78 24 55 81 27 54
84 29 52 88 30 50 93 31 48 101 36 52 121 51 65
145 71 83 164 87 97 172 92 101 176 94 102 178 95 103
178 94 103 175 90 101 172 87 100 171 84 101 173 85 104
174 87 108 174 88 113 172 88 119 168 86 128 169 90 148
175 97 174 181 107 198 186 115 216 187 119 224 191 125 230
193 129 232 197 133 234 198 133 234 199 134 233 199 134 232
200 136 230 202 139 230 204 142 231 205 146 232 208 149 234
211 153 237 213 156 237 214 157 236 216 159 237 220 163 239
227 171 245 233 177 249 235 179 250 230 174 245 225 169 240
222 167 237 222 166 237 222 166 238 222 166 240 222 166 242
224 167 244 225 168 245 225 169 246 226 171 247 227 173 248
228 174 249 229 175 250 230 176 251 232 178 252 232 179 252
233 180 253 233 181 253 234 182 254 234 183 254 235 183 254
236 184 253 238 184 254 239 185 254 241 186 254 243 188 254
244 189 254 246 190 253 246 190 252 245 190 251 244 190 250
242 190 249 240 189 248 238 188 246 238 188 246 239 190 247
243 195 250 246 200 251 250 205 253 250 207 253 252 209 254
253 211 255 254 214 255 254 216 255 254 217 255 253 217 255
253 217 254 253 218 254 253 218 254 253 219 254 253 219 253
253 220 253 251 219 251 252 218 251 252 218 250 253 219 252
253 220 252 253 220 252 252 218 251 249 215 248 247 214 247
247 213 246 247 212 246 246 210 245 248 210 246 251 212 249
252 214 251 252 214 251 251 213 249 252 212 247 253 211 245
253 211 245 254 211 247 254 211 249 254 211 252 255 210 254
254 207 254 252 201 250 240 186 234 215 156 203 180 117 162
150 84 125 135 66 102 132 60 92 132 61 87 128 61 80
119 56 70 103 44 56 84 29 40 68 17 28 59 13 23
54 12 21 51 11 20 48 10 18 47 11 18 48 12 18
47 12 17 45 12 16 45 13 15 45 14 17 46 15 17
46 16 17 47 16 16 47 17 17 48 18 17 47 18 16
46 17 14 44 16 13 45 16 13 46 17 14 48 18 16
50 19 17 52 19 18 54 20 18 56 21 19 58 21 20
62 23 24 79 38 42 108 66 72 138 94 104 153 109 122
155 112 128 154 111 129 153 109 129 152 108 129 151 108 128
151 108 127 151 108 126 151 108 125 38 10 14 39 11 16
41 13 18 43 14 22 45 16 26 47 16 30 48 16 35
49 16 40 54 20 49 64 29 64 77 41 82 88 50 97
93 53 105 94 54 110 95 55 114 98 57 118 101 59 122
103 60 125 105 61 128 108 63 131 112 65 136 117 68 142
121 70 147 125 71 152 128 73 156 133 76 162 137 78 166
140 79 168 141 79 169 143 79 170 147 82 173 153 86 181
162 91 191 172 98 202 179 103 209 184 108 213 189 112 218
195 119 224 202 125 230 200 124 230 194 119 225 186 112 219
184 112 217 186 116 218 194 127 221 208 144 229 226 164 240
240 179 249 238 177 247 221 160 234 192 129 210 155 92 177
120 57 143 98 35 117 89 27 102 84 24 91 80 21 79
76 18 71 76 19 68 77 20 65 78 22 63 81 25 61
83 28 59 87 31 58 91 31 57 95 32 56 105 38 60
126 55 75 152 77 95 173 94 109 181 100 114 185 102 114
186 101 113 185 99 112 179 94 107 176 89 105 174 86 104
174 86 106 174 86 109 173 86 112 170 86 117 167 85 127
168 88 147 173 96 172 180 105 196 184 112 214 185 116 222
189 123 228 193 128 231 197 133 235 199 134 235 200 135 233
199 135 232 200 135 229 200 137 227 202 140 227 204 144 229
207 149 233 211 153 235 212 155 236 213 156 234 214 157 234
217 161 235 223 167 240 229 173 245 234 178 250 234 178 248
229 174 243 225 169 238 223 167 237 222 167 238 223 167 240
223 166 242 223 167 243 224 167 244 224 168 245 225 170 246
225 171 247 225 171 247 226 172 248 228 174 249 229 175 250
229 176 250 230 177 251 230 178 251 231 179 252 231 180 252
232 180 252 232 180 252 234 181 252 235 182 252 238 184 252
240 186 252 243 188 252 244 189 251 245 189 250 245 190 249
243 190 249 243 191 248 241 190 247 240 190 247 240 191 247
241 193 249 245 198 251 248 202 252 251 206 253 252 208 254
254 210 254 255 212 255 255 215 255 255 217 255 255 218 255
255 218 255 254 219 255 254 219 255 254 220 254 254 220 254
254 221 254 254 222 254 253 221 253 253 221 252 253 220 251
254 219 251 252 217 249 248 210 243 239 198 232 229 187 220
223 179 212 222 177 210 222 174 209 223 174 209 226 176 212
232 182 218 238 189 225 242 194 229 247 200 234 252 205 238
254 209 241 254 210 244 254 212 247 254 212 251 255 212 254
255 210 255 255 207 254 247 195 244 228 171 220 199 137 185
170 105 150 148 80 122 136 66 104 132 61 95 131 61 89
126 59 81 114 51 68 96 37 53 78 24 38 64 15 29
56 12 25 53 11 24 49 10 22 46 8 20 46 9 19
47 11 19 47 12 19 47 13 17 46 13 16 47 15 17
48 16 17 49 17 18 49 17 18 50 18 19 50 19 19
49 19 17 48 18 16 47 17 14 47 17 15 48 18 16
51 19 17 53 19 18 55 20 19 57 21 19 58 21 20
60 22 21 64 24 24 80 39 41 108 66 70 137 94 101
152 109 119 155 112 126 155 112 128 155 112 130 154 111 129
153 110 128 152 109 126 151 110 125 151 110 124 44 14 18
45 15 21 48 17 25 51 20 31 53 21 37 55 22 43
56 22 48 57 22 53 61 24 62 69 31 74 80 42 90
90 50 102 94 54 109 95 55 113 96 55 116 99 58 120
102 59 123 104 60 127 105 61 130 109 62 134 113 65 140
119 68 146 122 70 151 126 71 155 129 73 159 134 75 164
138 78 169 140 78 171 141 78 172 144 79 174 147 81 178
155 85 186 164 92 196 176 100 207 184 107 215 190 112 220
195 118 225 202 125 230 210 133 237 211 135 239 207 132 236
199 126 229 194 123 224 194 125 222 200 134 224 211 148 230
225 164 238 240 179 247 242 182 250 232 170 242 205 142 222
168 104 190 131 66 154 106 42 127 96 33 113 90 29 101
85 25 90 80 21 80 80 21 76 81 23 73 83 25 71
85 29 68 87 31 65 91 33 65 95 34 65 100 34 65
110 41 70 132 59 85 160 83 107 182 101 122 191 108 127
194 109 126 194 107 123 189 102 118 182 95 111 177 89 106
175 86 105 175 85 107 174 85 108 173 85 111 170 85 116
167 84 127 168 88 146 173 95 171 179 104 195 183 111 212
184 114 220 187 120 226 190 125 229 195 130 232 199 135 235
202 137 235 203 138 234 203 138 231 203 139 228 203 141 228
205 145 230 209 150 234 212 155 236 214 157 236 214 157 235
214 158 234 217 160 234 221 165 238 228 172 243 235 179 249
238 183 251 236 181 248 229 174 242 224 169 238 223 167 237
223 167 239 223 167 242 223 167 243 224 167 244 223 167 244
223 168 245 223 169 245 223 169 245 224 170 246 225 171 247
226 172 248 227 173 248 227 174 249 228 175 250 228 176 251
229 177 251 229 177 250 229 177 249 230 178 249 232 180 249
235 182 250 238 184 250 241 186 250 243 188 249 244 189 249
244 190 248 244 191 247 243 192 247 242 192 247 242 193 247
242 194 249 244 197 251 248 201 253 250 204 253 252 206 254
253 207 254 254 209 254 255 212 255 255 214 255 255 215 255
255 217 255 255 218 255 254 218 255 254 219 255 254 220 254
255 220 254 254 221 254 254 221 254 254 221 254 254 222 253
252 217 250 244 207 241 232 192 227 217 172 209 201 151 188
188 132 171 181 122 160 183 121 158 185 121 158 188 122 159
193 127 162 201 135 170 210 144 179 217 154 187 228 169 200
239 184 214 248 197 228 251 205 238 254 211 246 255 214 252
255 213 254 255 210 255 252 203 252 238 184 235 213 153 205
186 121 172 167 99 146 153 84 128 142 72 112 134 65 100
129 61 91 120 55 79 104 42 62 87 29 48 72 19 37
61 13 30 55 11 28 51 10 26 48 9 24 46 9 23
47 11 23 49 13 23 50 14 21 49 14 20 49 14 18
49 15 17 50 16 18 51 18 19 52 19 20 53 19 20
53 20 20 52 20 19 51 19 17 49 18 16 50 18 16
51 18 17 53 19 18 55 19 19 57 20 20 59 21 20
60 22 21 62 22 22 64 24 24 78 37 37 102 60 62
127 85 89 141 98 106 146 102 114 148 105 119 150 107 122
149 106 123 147 105 121 146 105 119 146 105 117 145 105 117
51 20 28 53 22 31 56 25 37 60 28 44 63 30 51
65 31 57 66 31 64 65 28 68 67 29 74 72 33 83
83 43 96 91 51 107 95 54 113 97 55 116 97 56 117
100 58 121 103 60 125 105 61 129 106 60 132 109 62 137
115 65 143 120 68 150 123 70 154 126 71 158 130 72 162
135 75 167 139 77 171 141 78 174 142 77 176 145 78 179
148 80 183 155 84 189 164 89 197 174 97 207 184 106 215
191 114 222 199 122 227 209 132 234 217 141 241 222 147 245
221 147 244 215 142 239 208 138 232 206 138 229 210 145 230
219 156 234 230 170 240 242 183 248 247 188 252 240 180 249
216 154 232 179 115 200 139 75 163 112 48 135 102 38 121
96 33 110 90 29 99 85 24 90 86 25 86 86 27 83
88 29 80 90 32 77 93 35 74 97 38 74 102 38 75
107 39 77 117 46 82 140 66 98 170 91 120 193 110 136
203 118 141 204 117 137 200 111 131 192 103 121 183 93 112
177 87 106 175 85 105 175 84 107 174 84 108 172 84 110
170 84 115 167 84 126 168 87 145 172 94 170 178 103 193
182 110 211 183 114 219 185 118 223 187 122 225 193 128 230
201 136 235 207 142 240 211 146 241 212 147 240 212 148 237
211 149 235 211 152 236 214 156 238 217 160 241 219 162 241
219 162 239 219 162 237 220 164 237 224 168 240 230 175 245
238 182 250 243 188 253 243 188 252 236 181 247 228 172 240
223 168 237 222 166 238 223 167 240 223 167 242 223 167 243
222 167 243 222 167 243 222 168 244 222 168 244 222 169 245
223 170 246 224 171 247 225 171 247 225 172 248 226 173 248
226 174 249 227 175 249 227 175 248 227 175 247 228 175 246
230 177 246 233 180 247 237 183 248 240 185 248 242 187 248
244 189 247 244 190 247 244 192 247 244 193 247 244 194 248
244 195 248 245 197 250 247 200 253 250 203 254 252 205 254
253 206 254 254 207 254 255 209 255 255 210 255 255 212 255
255 213 255 255 215 255 254 216 255 254 217 255 254 218 254
254 219 254 254 219 253 254 220 253 254 220 254 254 221 254
253 220 254 243 207 243 220 178 218 191 143 185 168 114 156
153 93 134 143 77 118 140 69 108 145 71 108 152 75 110
158 79 112 164 83 115 171 90 120 180 98 127 187 107 135
199 124 151 211 144 171 225 165 193 236 183 214 247 199 232
253 208 245 254 210 250 253 206 251 246 194 244 227 170 223
200 137 191 178 111 163 166 96 145 158 88 133 147 77 119
137 69 106 127 60 92 113 49 76 94 33 56 78 21 43
67 15 36 59 12 32 53 10 29 48 9 27 48 10 27
50 13 29 54 17 31 56 19 30 56 19 28 55 19 25
53 18 22 52 18 20 53 18 20 53 19 20 54 19 21
54 20 21 54 21 21 54 21 20 53 20 18 51 18 17
52 18 17 53 19 18 55 20 19 56 20 19 58 21 20
60 22 21 62 22 22 63 23 22 64 23 23 73 32 31
89 47 48 106 64 66 115 73 78 121 78 87 126 83 95
130 87 100 130 87 101 128 86 99 127 86 98 127 86 96
126 86 96 61 27 43 63 29 46 66 32 51 69 34 58
72 37 66 75 38 73 76 38 79 74 34 81 74 33 85
77 36 91 87 45 103 94 52 113 98 56 118 100 57 121
100 57 121 103 59 125 105 60 129 108 61 134 109 61 136
112 63 140 117 66 146 121 69 152 125 71 157 128 72 161
131 73 164 135 74 169 139 76 173 143 76 177 145 76 181
148 77 185 153 80 190 159 83 195 167 89 200 175 96 206
184 106 213 195 119 221 209 134 231 223 149 241 232 159 247
237 165 251 237 166 251 233 164 248 227 159 243 225 158 240
228 163 241 234 172 243 240 181 247 246 190 251 249 193 254
246 188 252 229 169 242 197 134 214 157 92 178 126 60 147
112 46 131 104 38 119 98 33 110 93 29 102 94 30 101
94 31 98 95 32 93 96 34 88 100 38 86 107 43 88
114 46 90 121 50 94 133 59 101 158 81 118 188 106 140
208 122 154 215 126 155 211 120 146 204 112 136 194 102 125
184 92 114 176 85 107 173 81 104 173 81 104 173 82 106
172 82 108 170 82 113 167 83 124 168 87 144 173 95 170
179 104 194 182 111 211 183 115 219 183 117 221 186 121 223
193 129 228 203 139 237 212 147 244 217 152 248 220 155 248
221 158 247 222 160 245 223 163 245 225 166 246 228 169 248
230 171 248 229 171 246 229 172 245 230 173 245 234 178 247
239 183 249 244 189 252 248 193 254 248 193 254 243 188 251
234 179 246 228 173 241 225 170 239 225 169 239 224 168 240
224 169 242 224 169 243 223 169 244 222 169 244 222 169 245
222 169 245 222 169 245 222 170 246 223 170 247 223 171 247
224 172 247 224 172 248 225 172 247 225 172 246 225 172 244
226 173 243 228 175 243 232 178 244 236 182 246 240 185 248
242 187 248 243 189 248 244 190 247 244 192 247 244 194 247
245 195 248 246 197 249 247 199 251 249 202 253 252 204 254
253 206 254 254 206 254 254 207 254 254 208 254 254 209 254
254 210 254 253 211 254 253 212 253 252 213 253 251 214 253
251 216 253 252 217 253 252 218 253 252 219 253 252 219 254
253 221 254 249 215 251 226 188 229 185 140 187 144 91 140
120 60 109 113 47 92 112 41 82 116 40 77 125 46 79
137 54 83 146 60 87 153 65 89 159 68 91 165 72 94
170 77 98 178 89 111 187 105 127 198 124 147 210 142 168
226 163 193 241 185 219 251 199 237 251 199 243 237 181 231
215 153 207 192 125 180 177 106 160 170 96 148 164 90 138
153 82 126 140 72 112 121 56 92 102 40 71 82 23 51
70 15 41 62 12 37 56 10 34 51 9 31 49 10 31
55 17 36 60 23 41 65 28 43 65 28 40 64 26 36
61 24 32 58 22 27 56 21 24 55 20 22 55 19 21
55 20 21 56 21 22 57 22 22 56 22 21 55 20 19
53 19 17 54 19 18 55 20 18 57 20 19 58 21 20
60 22 21 62 22 21 63 23 21 63 23 21 64 23 21
68 27 25 74 33 32 81 40 40 85 43 46 89 46 52
94 52 60 98 55 65 98 56 66 98 55 65 97 55 65
97 56 64 96 56 64 71 34 61 73 35 63 75 37 68
78 40 74 81 42 81 83 43 88 85 44 93 81 39 93
80 37 95 82 39 100 91 47 111 98 54 120 102 57 124
103 58 126 104 59 128 106 60 132 108 61 136 110 62 139
111 62 141 115 64 144 119 67 149 123 70 154 127 72 159
130 73 163 132 73 166 136 73 171 141 74 176 145 75 181
148 75 185 152 77 190 158 80 195 165 84 200 173 91 204
182 101 209 194 115 217 208 133 227 224 150 236 234 163 241
238 167 241 239 170 241 240 172 242 242 175 246 241 176 248
241 177 248 243 181 249 245 186 250 246 190 251 245 191 249
244 190 249 243 188 249 236 178 246 215 153 229 181 117 199
149 82 167 129 60 145 116 48 132 109 40 123 102 34 116
102 34 115 105 37 115 109 41 114 112 45 110 117 49 108
125 56 110 133 62 113 142 68 118 155 78 125 177 96 139
201 115 154 215 125 161 216 124 158 211 116 148 205 110 139
196 101 128 186 92 117 176 83 108 171 78 103 171 78 102
172 80 104 172 81 105 169 81 110 167 81 121 168 86 143
174 96 170 179 106 195 182 112 212 182 116 220 183 119 222
186 123 224 194 131 229 204 140 237 212 147 244 216 151 247
218 153 248 220 156 247 222 160 247 225 164 247 228 168 249
230 171 249 232 172 249 232 173 248 232 173 247 233 175 247
236 179 248 239 182 249 242 186 250 245 189 252 246 191 253
244 189 253 240 185 250 236 181 247 233 178 244 231 176 242
229 173 241 227 172 241 225 171 242 223 170 242 222 170 243
221 170 245 221 170 245 220 170 245 220 170 246 221 170 246
221 171 247 222 171 246 222 171 246 223 171 245 224 170 243
224 170 241 225 170 240 228 173 240 232 177 243 236 182 246
240 186 249 242 188 249 243 189 249 243 191 248 244 192 248
245 194 248 246 196 249 247 198 250 249 200 251 250 202 253
252 205 254 254 206 254 254 207 254 254 207 254 253 207 254
253 208 254 252 209 253 251 209 253 250 210 252 249 211 252
249 212 252 249 213 253 250 214 253 250 216 253 250 217 253
251 217 254 253 219 255 243 206 246 208 166 212 155 106 160
113 56 112 95 33 87 96 27 75 98 26 66 102 28 59
111 35 59 124 45 64 136 53 69 145 57 72 153 60 74
161 63 77 167 66 80 173 72 87 177 80 97 182 91 109
190 104 125 206 124 148 226 151 181 241 174 210 244 180 223
229 165 214 208 140 194 190 118 174 181 105 160 175 97 150
168 91 141 156 82 129 140 70 114 115 51 90 92 32 68
74 18 50 64 13 44 58 10 40 53 9 36 50 9 35
53 13 37 61 23 44 68 30 49 71 33 50 70 32 46
67 30 41 64 27 35 60 25 30 57 23 26 56 21 23
55 20 21 56 20 21 58 22 22 59 24 23 58 23 22
56 21 19 55 19 17 56 19 17 57 20 18 59 21 19
60 22 19 62 23 20 63 23 20 63 24 20 63 23 19
63 23 19 64 23 21 65 24 23 65 23 24 64 22 24
66 23 27 70 28 32 73 31 36 73 31 37 72 30 37
72 30 36 72 30 36 71 30 36 82 41 80 82 41 81
82 41 83 84 42 87 86 44 93 88 45 98 88 45 102
86 41 102 86 41 105 89 43 110 97 51 120 103 56 127
105 58 131 107 59 133 108 61 136 111 62 139 112 63 143
114 63 145 115 64 147 118 66 150 122 69 153 126 72 158
130 74 163 133 74 166 136 74 170 139 74 174 144 75 179
149 76 184 152 76 188 157 78 193 163 82 199 172 88 205
182 99 211 195 114 219 211 133 229 224 150 235 231 159 235
231 160 227 226 155 217 224 155 213 227 159 217 237 170 230
246 181 242 251 188 250 253 193 254 252 195 254 246 192 249
238 186 243 233 182 239 235 182 242 237 180 246 231 170 243
210 146 225 180 112 194 153 83 167 136 64 150 127 55 142
124 51 140 126 53 142 131 58 145 134 61 143 135 62 137
137 65 132 143 69 131 149 74 133 156 79 134 166 87 139
184 100 148 202 113 157 212 119 159 211 116 153 207 110 145
204 106 138 198 101 131 188 92 120 177 82 109 169 75 101
168 74 99 170 77 101 171 79 103 168 79 107 166 80 119
169 86 142 175 97 171 180 107 197 183 114 214 183 117 222
183 119 224 186 123 225 192 129 229 199 136 234 205 140 238
206 141 238 207 142 238 208 144 237 213 150 239 218 156 241
223 161 243 225 164 244 226 165 244 226 166 244 227 167 243
228 169 244 230 172 244 232 175 244 234 177 244 235 179 245
238 182 248 240 185 250 242 187 253 243 188 253 242 187 250
241 185 248 237 181 245 233 179 244 229 176 243 225 173 242
223 171 242 221 171 242 220 171 243 220 171 243 220 171 244
220 171 244 220 171 244 221 171 244 221 170 244 221 170 242
222 169 241 224 169 239 225 170 238 228 173 240 233 178 244
238 183 248 242 188 251 244 190 251 244 191 251 244 192 250
244 193 249 245 195 250 247 197 250 249 199 251 250 201 252
251 203 253 252 204 254 253 205 254 253 206 254 253 206 254
252 206 254 251 206 253 250 206 253 249 207 252 248 207 252
247 207 252 246 208 251 246 209 252 247 210 252 248 212 253
249 214 254 251 215 254 252 215 254 234 194 238 191 146 198
136 84 144 99 40 102 87 22 81 86 18 68 87 17 56
88 18 46 94 23 42 105 31 44 118 39 49 130 46 53
142 51 58 155 57 64 166 62 70 175 68 78 181 74 86
185 80 93 186 83 99 192 93 113 206 115 141 223 140 173
230 154 194 222 148 196 207 132 185 195 118 174 187 107 164
180 98 154 170 90 143 156 79 129 136 64 112 108 42 86
84 25 65 68 14 52 61 11 47 56 9 42 51 7 38
51 10 39 57 18 44 66 27 50 70 32 52 71 32 50
69 30 45 66 28 40 63 26 34 60 24 30 57 23 26
56 21 23 55 20 21 57 21 21 60 23 23 62 25 25
60 24 23 57 21 19 56 19 17 57 20 17 59 21 18
60 22 19 62 23 19 63 24 20 64 24 20 64 24 19
63 23 18 63 23 19 63 23 20 63 22 20 61 19 19
58 17 17 58 17 17 61 19 20 63 21 23 63 20 24
61 19 23 61 18 23 61 18 23 60 19 23 91 47 95
90 47 95 89 46 97 90 46 99 90 46 103 91 45 106
90 44 109 90 43 111 91 44 114 96 48 121 103 54 129
108 58 135 109 60 138 110 60 139 112 61 142 114 63 146
115 64 149 117 64 151 118 65 153 121 67 155 125 70 159
129 73 163 134 75 167 137 75 171 142 77 176 147 79 181
153 81 187 156 81 190 159 80 193 163 82 198 170 87 203
180 96 210 194 111 219 212 132 231 229 152 241 232 158 236
221 147 217 206 132 193 196 121 177 196 122 175 202 129 182
216 145 198 231 163 217 244 179 235 252 191 247 251 194 250
241 189 244 231 180 236 225 174 231 226 173 234 231 174 241
235 173 246 229 164 242 209 140 221 180 109 193 157 85 171
146 72 161 144 70 161 147 73 165 152 77 168 152 78 164
149 74 154 147 72 144 148 73 140 151 75 138 154 76 136
162 81 137 176 91 142 193 102 149 203 108 151 204 108 146
204 106 142 203 105 138 200 101 132 189 92 121 176 81 108
169 74 100 167 73 98 168 75 99 169 77 101 166 77 105
165 78 117 167 85 141 174 96 171 180 107 198 183 114 216
183 118 224 184 120 226 185 123 227 189 126 228 193 130 230
196 131 231 196 130 230 196 130 228 196 132 227 201 138 230
207 144 233 212 150 236 214 152 237 215 153 237 216 154 237
216 155 237 217 158 238 219 161 239 221 163 239 222 164 239
223 166 240 226 170 242 231 175 245 236 180 249 240 185 251
244 189 252 245 190 252 244 188 251 240 185 249 235 182 246
230 178 244 226 176 242 224 174 241 223 175 241 223 176 242
223 176 243 222 175 242 222 174 242 222 173 242 222 172 241
222 171 240 222 170 239 224 170 238 226 171 239 231 176 241
236 181 246 241 187 250 244 191 253 245 193 253 245 193 252
245 194 252 246 195 252 247 197 252 249 198 253 250 200 253
251 202 254 252 203 254 252 204 254 252 204 255 252 204 255
251 204 255 250 204 254 249 204 254 247 204 253 247 204 253
246 204 252 245 205 252 245 205 252 244 205 251 245 205 251
247 207 252 249 210 254 252 212 255 250 209 253 225 181 230
178 129 187 124 70 134 92 32 98 82 16 79 79 12 65
79 11 51 78 11 38 82 14 31 89 18 29 100 25 32
112 31 36 126 38 42 143 47 51 158 55 61 172 64 71
183 71 80 190 77 88 192 79 92 192 82 99 197 92 114
205 108 137 214 124 161 217 133 177 214 132 183 205 123 178
194 111 168 181 98 156 167 85 141 149 70 125 127 54 106
102 35 84 81 21 67 67 13 55 60 10 50 55 7 44
52 7 41 54 11 42 60 19 47 64 25 49 66 27 48
65 25 43 64 25 39 63 24 35 61 23 31 59 23 28
57 22 26 57 21 23 57 21 21 58 21 22 61 23 24
63 25 25 61 24 23 58 21 20 57 19 18 58 20 18
60 21 19 61 22 18 62 23 19 64 24 19 64 24 20
64 24 19 63 23 19 63 22 18 63 22 19 63 22 20
61 20 18 59 17 16 59 17 16 61 19 19 63 21 22
62 20 22 61 19 21 59 17 20 59 17 20 59 17 20
97 51 108 97 51 109 97 50 110 96 50 112 96 49 113
96 47 116 95 46 118 97 47 122 100 50 127 105 54 134
110 59 140 113 61 144 113 61 145 114 60 146 115 62 149
118 63 152 119 65 155 121 66 157 123 67 159 125 69 162
129 71 165 134 74 170 139 76 174 144 78 178 151 82 185
159 87 192 165 90 198 167 89 200 167 88 200 171 90 204
179 96 210 191 109 219 207 127 230 228 151 242 239 165 245
226 153 224 198 123 187 177 100 155 173 94 144 181 100 148
189 109 156 200 121 169 213 137 187 228 158 209 243 178 231
248 191 243 242 189 241 232 181 235 225 173 230 225 170 232
226 168 236 231 169 243 234 168 247 226 157 238 203 132 216
179 106 193 163 89 178 158 83 175 157 82 175 157 81 174
153 77 166 147 71 152 143 67 141 143 66 136 144 67 134
146 66 130 152 69 129 167 80 135 185 94 144 199 104 148
203 107 146 205 106 142 205 106 138 200 102 132 189 92 120
176 81 107 168 73 98 165 71 95 166 73 96 167 75 98
165 75 103 163 77 116 166 83 140 173 94 171 180 106 198
183 114 217 183 118 226 183 119 228 184 121 228 186 122 227
188 124 228 190 124 228 190 124 226 190 125 225 192 127 225
196 132 227 201 138 230 206 143 233 208 145 234 209 146 235
210 148 236 210 149 236 212 152 237 214 154 238 215 156 238
216 158 238 217 159 238 220 163 240 224 167 242 229 173 246
234 178 248 238 183 250 242 186 251 244 188 253 245 189 253
243 190 252 241 189 249 237 187 247 234 185 244 233 185 244
233 186 245 232 186 246 231 185 245 229 182 243 227 179 242
225 176 240 224 174 238 223 172 237 224 172 237 228 175 240
233 180 244 239 186 249 244 191 252 246 194 254 246 195 254
247 196 254 247 197 254 248 198 254 249 199 254 250 200 254
252 201 254 252 202 255 253 203 255 252 203 255 251 203 255
250 202 255 249 202 255 248 202 254 246 201 254 245 201 253
244 201 252 244 201 252 243 201 252 243 201 251 242 200 250
243 200 250 245 202 251 249 205 253 252 208 255 249 203 252
218 170 225 169 116 180 118 61 130 90 28 99 80 14 81
75 8 64 74 7 50 72 6 35 73 8 26 77 10 22
85 14 21 95 18 23 109 25 28 127 35 38 145 46 50
163 56 61 178 65 72 189 71 81 195 75 87 195 77 92
194 80 100 195 88 114 200 101 133 211 118 159 219 131 178
216 130 184 201 116 174 182 96 157 161 77 138 139 59 119
118 43 100 97 28 82 80 19 69 67 11 58 61 8 52
56 6 47 54 8 45 57 13 46 61 19 49 64 23 48
63 23 45 62 22 40 62 22 36 61 22 32 60 22 29
59 22 27 58 22 25 58 22 23 58 21 22 60 22 23
63 24 25 65 25 26 63 24 24 59 21 20 58 19 18
59 19 18 60 21 19 62 22 19 63 23 20 64 24 20
65 24 20 65 24 20 64 23 19 64 23 19 64 23 19
63 22 19 61 20 17 59 18 15 59 18 15 61 20 18
63 22 21 62 20 20 60 18 19 58 16 18 58 16 18
58 16 18 101 53 118 102 53 120 102 53 122 103 53 124
102 52 126 103 52 128 103 52 131 106 54 136 110 57 142
115 61 148 117 63 151 118 63 153 117 62 152 117 61 152
119 63 154 122 65 157 124 67 160 125 68 163 127 69 165
130 70 168 134 73 172 139 75 177 145 78 181 150 80 186
159 87 194 170 95 204 177 99 210 177 98 210 175 95 208
178 97 212 186 105 218 200 120 228 219 142 239 238 166 249
240 169 242 213 141 205 177 100 159 159 78 128 166 81 126
181 94 136 193 105 146 200 114 156 205 123 167 215 137 184
231 161 210 245 184 233 245 192 242 238 187 239 230 177 233
227 170 233 223 163 232 221 157 233 224 157 238 228 158 240
221 148 233 204 130 217 185 111 200 174 99 192 165 90 184
157 80 174 147 70 161 138 60 145 133 56 134 135 56 130
138 58 130 140 59 128 147 63 127 164 76 134 185 93 145
200 105 150 206 108 148 206 108 143 205 106 138 200 102 131
189 92 119 175 81 105 167 72 96 164 71 93 165 73 94
165 74 97 163 75 102 163 76 116 165 83 139 172 94 170
179 105 198 182 112 218 182 116 227 181 118 229 182 119 228
183 120 227 185 121 227 187 121 227 188 122 227 190 124 227
192 127 227 195 131 228 198 135 230 202 139 232 204 141 234
206 143 235 206 144 236 207 146 238 209 148 239 211 151 241
213 153 241 214 155 241 216 157 241 218 160 242 221 164 243
224 168 244 227 171 246 230 174 246 234 177 247 238 181 250
243 187 252 247 193 254 249 197 254 248 198 253 246 198 251
245 198 250 244 199 251 244 200 251 243 198 250 240 194 248
236 189 245 232 184 242 227 179 238 226 176 237 227 177 238
231 180 242 237 185 246 242 191 251 245 195 253 247 197 255
248 198 255 248 199 255 249 199 255 250 200 255 251 200 255
251 201 255 252 201 255 252 202 255 253 203 255 251 202 255
250 201 255 248 200 255 248 199 255 246 199 254 244 198 254
243 198 253 241 198 251 241 198 251 241 198 251 241 197 250
241 196 249 242 196 249 244 197 250 248 200 252 251 202 254
248 198 252 218 166 226 170 115 184 122 62 137 95 31 107
83 18 88 76 10 69 72 7 52 69 6 37 69 7 27
71 8 20 76 9 17 84 11 15 96 16 18 112 25 26
131 36 38 150 47 50 168 56 61 183 64 71 193 70 80
199 75 88 199 78 94 196 82 103 195 88 115 205 106 140
220 127 169 225 135 186 210 122 180 184 96 159 155 70 135
131 50 114 111 35 98 93 24 83 80 17 73 68 10 62
62 8 57 59 7 52 58 10 50 60 15 50 63 19 50
64 21 48 63 22 44 63 21 39 63 22 35 62 22 31
61 22 28 60 22 26 59 22 24 60 22 23 60 22 23
62 23 24 65 25 26 66 26 27 64 24 25 61 21 21
59 19 19 60 19 19 61 21 19 63 22 20 64 23 21
65 24 21 65 25 21 65 24 20 64 23 19 64 23 19
64 23 18 64 23 18 62 21 16 59 18 14 59 18 15
62 20 18 64 22 21 62 21 20 60 18 18 58 16 17
58 16 17 58 16 17 103 52 126 104 53 127 106 54 130
108 56 134 111 58 139 114 60 143 115 61 147 118 63 152
122 66 156 125 69 161 126 69 163 125 67 162 122 64 160
122 63 159 123 65 161 126 67 163 128 69 166 129 70 167
131 70 170 134 72 173 139 74 178 144 76 183 149 79 188
155 81 192 166 89 202 178 99 213 185 106 220 183 103 218
180 99 214 182 102 217 191 111 224 206 128 234 227 153 244
244 175 252 237 168 235 202 130 190 164 86 139 153 67 113
167 76 116 187 93 129 204 109 145 214 120 157 213 123 163
211 128 170 220 146 190 238 174 219 248 192 239 245 193 243
235 181 238 229 171 234 220 159 229 209 145 222 207 139 221
217 146 230 227 155 238 227 153 236 213 139 225 200 124 215
185 109 203 172 94 189 157 79 171 144 65 152 137 57 139
137 56 134 140 59 134 144 61 133 152 66 133 169 80 140
190 98 151 205 109 155 209 111 151 208 109 143 205 106 136
199 101 128 188 92 116 175 80 102 166 72 93 163 71 90
164 73 92 165 75 95 163 75 101 163 77 115 165 83 139
172 93 170 178 104 198 180 111 217 180 115 227 180 117 229
180 118 229 182 118 228 184 119 228 186 120 229 188 122 229
189 124 229 191 126 229 193 129 229 195 132 230 199 135 233
201 138 235 202 139 236 203 141 237 204 143 239 207 145 241
209 148 242 211 150 242 213 153 242 215 155 243 218 159 244
221 162 245 222 165 245 224 166 245 224 167 244 226 169 244
230 173 246 236 180 249 241 187 252 246 193 252 248 197 252
248 199 252 249 202 253 251 205 254 252 208 255 252 207 254
250 205 253 246 199 250 239 193 245 233 186 239 230 183 238
231 183 240 235 187 245 240 191 248 244 194 252 246 197 253
247 198 255 248 200 255 250 201 255 250 201 255 251 201 255
251 201 255 251 201 255 252 201 255 252 201 255 252 201 255
250 200 255 249 199 255 247 197 255 246 197 254 244 196 253
242 196 252 240 195 251 239 195 250 239 195 249 239 195 249
240 195 249 240 194 248 241 193 248 243 194 249 246 195 250
249 197 252 247 193 252 223 168 233 181 123 197 134 73 153
104 41 121 90 25 99 80 16 78 72 10 58 68 9 41
68 9 30 70 10 23 72 10 17 78 10 13 88 12 13
102 18 19 119 28 29 138 39 40 157 48 51 173 56 60
186 64 70 197 72 81 202 79 90 202 84 98 197 86 106
200 97 124 214 117 154 227 134 182 219 128 186 191 101 167
155 68 138 126 44 115 107 31 99 92 22 87 81 16 78
71 10 69 67 10 64 65 12 62 65 15 60 65 18 56
64 20 52 64 20 48 65 21 44 65 22 40 65 22 35
64 23 31 63 23 28 62 23 26 62 23 25 62 23 24
63 23 24 65 23 25 67 25 27 68 26 28 65 24 25
62 20 21 60 19 19 61 19 19 63 21 20 64 22 20
65 23 21 66 24 22 67 25 22 66 24 21 65 23 20
65 23 19 65 23 18 64 23 17 62 21 15 60 19 13
60 19 14 62 21 17 64 23 20 62 21 19 60 19 17
58 17 16 58 17 16 58 17 17 104 52 131 104 52 131
107 54 135 114 60 143 123 68 154 130 74 162 133 77 167
134 76 169 134 76 170 135 76 172 134 75 172 132 71 170
128 68 166 127 66 164 129 68 166 132 69 168 133 71 170
133 71 172 135 71 174 138 73 178 143 75 184 148 77 189
153 79 193 158 81 197 169 91 207 182 103 219 190 110 226
187 107 222 182 103 218 184 105 221 193 115 227 209 134 237
230 160 247 246 179 252 234 166 229 195 122 180 158 77 128
151 62 104 169 73 110 192 91 125 214 111 143 227 126 159
225 129 164 214 125 164 214 134 176 229 161 204 245 187 233
249 196 246 241 186 242 232 173 237 220 158 229 205 139 217
194 125 207 201 130 214 223 151 232 238 165 246 232 159 242
216 140 231 202 125 220 193 115 210 184 105 199 173 91 182
160 78 164 153 71 153 152 69 148 155 71 146 162 76 145
178 88 150 197 104 158 211 114 160 214 116 155 211 112 144
206 107 135 198 100 124 187 91 113 174 80 100 166 72 91
163 71 88 164 73 91 165 76 95 163 76 101 163 78 115
165 83 139 171 93 170 177 103 197 179 110 217 178 113 226
178 115 229 179 116 229 181 117 229 184 119 229 187 121 231
189 123 231 190 125 231 190 126 230 191 128 230 193 130 231
196 133 234 199 136 237 200 138 238 202 139 239 203 141 240
206 144 242 208 147 243 210 149 244 212 152 244 214 154 244
216 157 244 218 159 244 219 161 244 220 161 243 220 162 242
221 163 242 224 166 243 228 171 245 232 177 247 236 182 247
238 186 246 239 189 245 241 193 246 244 198 248 249 203 252
251 207 253 253 208 255 251 205 253 245 199 248 238 193 242
234 190 240 235 189 242 239 192 247 242 195 250 244 197 252
246 198 253 247 199 254 249 201 255 250 202 255 251 202 255
251 202 255 251 201 255 251 201 255 251 200 255 251 200 255
251 200 255 249 199 255 248 197 255 246 196 255 245 195 254
243 194 253 241 193 252 240 193 250 238 192 248 238 192 248
238 193 248 239 193 249 240 192 248 242 192 248 243 191 248
245 192 249 246 192 250 246 191 252 230 173 242 194 135 212
148 87 170 115 52 135 96 33 110 84 22 87 73 13 63
68 10 45 67 11 33 68 11 25 71 11 18 76 11 14
84 12 12 95 16 16 111 24 24 130 34 34 147 44 44
163 52 52 177 59 61 189 67 72 200 78 84 207 88 97
205 92 106 200 94 116 206 106 138 222 126 171 226 132 189
201 110 178 160 73 146 125 43 118 105 28 103 92 21 94
83 17 86 75 12 78 73 13 74 73 17 72 73 21 70
71 21 63 67 20 55 65 20 48 65 21 43 66 21 39
65 22 34 65 23 31 65 24 28 65 24 26 65 24 25
65 24 25 65 23 26 67 24 27 69 26 28 70 26 29
67 24 26 63 20 22 61 18 20 62 19 19 64 20 20
65 22 21 66 23 22 67 24 22 68 25 22 67 24 21
66 24 20 66 23 19 65 24 18 64 24 17 62 22 15
60 20 13 60 19 13 62 21 17 64 23 19 63 22 19
61 20 16 59 18 15 59 18 16 59 18 17 105 51 133
106 52 134 112 57 141 125 69 155 142 86 174 156 99 190
163 105 198 163 104 200 163 102 199 159 98 196 152 90 189
142 79 179 135 72 172 133 70 170 135 72 172 136 72 173
138 74 176 138 73 177 139 73 180 141 73 183 145 76 188
152 80 195 157 83 199 164 87 203 177 98 215 191 111 227
197 117 232 192 112 226 186 107 221 188 110 224 197 122 231
215 143 242 234 166 249 248 183 253 230 162 224 188 115 171
151 69 117 147 55 96 168 67 102 192 85 117 217 108 138
234 126 157 233 130 164 218 123 160 209 124 165 219 147 190
238 178 223 250 194 244 246 190 247 236 176 240 222 160 231
203 137 214 185 116 198 187 116 200 214 142 222 237 165 244
235 162 243 213 137 227 195 119 213 192 114 210 194 114 210
192 109 202 184 100 189 178 94 179 176 92 173 178 92 168
182 94 163 193 102 164 207 113 167 217 119 165 218 119 158
213 113 145 206 108 134 196 99 122 186 91 110 174 80 98
166 73 90 163 72 87 164 74 90 165 76 94 164 77 101
163 78 115 165 84 139 171 93 170 176 103 197 177 109 215
176 111 223 176 112 227 177 114 228 180 116 229 182 118 229
186 120 231 189 123 232 190 125 232 190 126 231 191 128 232
193 130 234 196 133 238 198 135 239 200 137 240 201 138 240
202 140 240 204 142 241 207 145 242 209 148 243 211 150 243
213 152 243 214 154 243 216 156 243 217 157 242 217 157 241
217 158 241 218 159 242 220 162 243 222 165 243 224 168 243
226 171 242 227 173 240 228 175 239 231 180 241 235 185 244
240 191 247 243 196 249 247 201 251 249 204 252 248 204 250
245 202 247 242 199 246 242 198 247 243 199 250 244 200 251
245 200 252 245 200 252 246 200 253 248 202 254 249 202 254
250 202 255 249 201 255 249 200 254 248 199 254 248 198 254
248 197 254 247 196 253 247 195 254 246 195 254 246 194 255
244 193 254 243 193 253 241 192 251 239 191 250 238 190 248
237 190 247 237 190 247 238 190 248 239 190 247 240 190 248
242 189 247 243 189 247 243 188 248 244 188 251 234 177 247
204 144 223 158 97 183 120 59 143 99 38 116 85 26 92
74 17 67 67 12 47 66 12 35 68 13 26 70 12 19
75 12 15 81 12 12 91 15 14 105 22 21 123 33 31
139 41 39 154 48 46 166 54 53 180 63 64 196 77 80
210 93 98 216 104 112 209 102 118 205 103 130 214 115 157
224 128 185 208 115 184 167 79 156 125 43 124 103 27 108
93 22 101 86 18 94 80 15 87 82 20 87 86 28 88
86 30 84 78 27 72 70 22 58 68 21 51 67 22 45
68 22 40 68 23 35 68 24 32 68 25 29 68 26 28
68 26 27 68 25 27 68 24 28 69 24 29 71 26 30
71 26 30 69 24 27 65 20 23 63 19 21 64 19 21
65 21 21 67 22 22 68 23 22 68 24 23 69 24 23
69 24 22 68 24 21 67 24 19 67 25 18 65 24 17
63 22 14 61 20 12 62 20 14 64 23 17 66 24 19
65 23 18 63 21 17 62 20 17 62 20 17 62 20 18
109 55 137 113 58 142 121 66 151 134 78 165 150 93 182
164 106 198 174 115 209 179 119 215 183 122 220 183 121 220
175 112 212 161 97 197 148 84 184 142 77 177 143 77 178
143 77 179 146 79 183 145 78 184 145 78 187 146 78 190
150 80 195 158 86 202 166 91 208 175 98 214 190 111 225
202 123 235 209 129 239 203 124 233 196 119 226 196 120 227
204 131 233 221 150 244 238 171 251 249 184 252 226 158 218
182 108 163 145 62 108 143 49 89 167 63 97 191 81 111
218 104 133 234 121 150 235 126 159 220 119 155 207 117 157
213 135 179 232 167 214 248 189 240 248 191 248 240 179 243
227 163 234 206 140 217 184 115 196 181 111 194 208 137 216
232 160 239 228 155 237 197 122 211 175 99 192 175 97 192
186 105 202 193 109 204 191 106 197 188 103 190 188 102 185
188 102 179 191 102 172 199 107 169 210 115 169 218 120 166
220 121 160 215 115 147 207 108 135 196 98 121 186 90 111
175 81 100 167 74 91 164 72 88 165 74 90 165 76 95
164 77 102 162 78 116 165 84 140 170 94 170 175 103 197
176 108 214 174 109 221 174 111 225 176 113 226 179 116 228
181 118 228 184 120 230 188 122 232 189 124 232 190 126 232
191 128 234 193 130 237 196 133 240 198 135 241 199 136 242
200 137 241 201 138 240 203 141 240 205 144 240 207 146 240
209 149 241 211 151 240 212 152 241 214 154 241 215 155 241
215 155 241 216 156 241 217 158 242 219 160 243 220 162 243
221 164 242 222 166 241 222 167 239 223 169 238 225 172 239
227 176 241 230 181 243 234 186 244 239 192 247 244 199 249
248 204 251 249 206 250 248 206 250 247 205 250 247 205 252
246 204 252 246 203 252 246 202 252 246 202 252 247 202 253
248 202 254 248 202 254 248 200 254 247 199 254 246 197 253
246 196 253 245 194 252 244 193 252 244 192 253 244 192 254
244 191 254 243 191 254 241 190 253 240 189 251 239 189 251
239 189 250 239 189 249 238 189 249 238 188 248 238 187 247
239 186 247 240 186 246 241 186 246 242 186 248 243 187 251
236 178 250 207 148 227 163 102 188 123 62 148 102 42 121
88 30 96 76 21 71 67 14 49 65 13 36 67 14 27
69 13 20 74 12 15 79 12 12 88 14 14 100 21 20
118 31 30 133 39 37 147 46 44 159 51 49 173 60 59
191 75 75 210 95 96 222 110 115 218 110 122 208 104 127
208 106 146 219 120 175 210 115 183 174 84 163 130 47 131
104 28 114 96 24 110 91 21 104 89 21 100 94 29 102
99 38 104 95 37 95 83 29 77 73 22 61 71 22 53
70 23 47 70 23 41 71 24 37 71 25 33 70 26 31
70 26 29 70 26 28 70 26 28 70 25 29 71 25 30
73 26 31 73 26 31 70 24 28 67 21 24 65 20 22
66 20 22 67 22 23 68 23 24 69 23 23 69 24 23
69 24 23 69 24 23 69 24 21 68 25 20 68 25 19
66 24 17 63 21 14 61 19 12 63 21 14 66 24 18
67 25 19 66 24 19 65 22 18 64 21 19 64 21 19
64 21 20 113 59 141 119 64 147 126 71 155 135 79 165
144 87 175 155 96 187 164 105 198 173 113 208 183 121 218
190 127 225 191 127 226 183 118 218 173 107 207 166 100 199
164 97 198 159 92 194 157 89 194 153 84 193 152 84 195
153 84 197 157 88 201 166 95 209 177 104 216 192 116 226
209 132 238 221 143 246 226 147 248 222 143 242 214 137 235
212 137 233 216 144 237 229 160 246 243 175 251 250 183 250
221 152 212 175 100 154 138 54 100 137 43 82 162 57 91
188 75 105 215 98 126 232 114 143 234 120 152 220 113 150
205 109 150 208 125 170 227 157 206 246 183 236 251 192 249
244 183 246 230 167 238 208 142 218 184 117 197 182 113 194
208 138 216 231 160 239 227 155 235 193 120 207 168 92 184
162 84 179 168 88 184 173 90 186 175 90 183 177 92 180
180 95 178 182 94 171 185 95 165 195 102 165 208 112 168
218 120 167 221 121 162 215 114 149 207 107 136 196 97 123
187 90 113 176 81 103 169 75 95 166 73 92 166 75 94
166 77 97 164 77 104 162 78 117 164 84 141 170 94 171
175 103 197 175 108 214 173 109 221 173 111 223 174 112 224
177 115 225 179 116 226 182 118 228 185 120 230 187 123 231
189 125 232 190 127 235 193 130 238 195 132 241 197 134 242
198 135 242 199 136 240 199 137 238 201 139 238 203 142 237
205 144 238 207 147 238 209 149 238 211 151 239 213 153 240
214 154 240 214 154 240 215 155 240 216 156 242 218 159 243
220 161 243 221 162 243 221 163 241 222 165 241 223 167 241
224 170 242 226 173 243 227 176 243 229 180 242 232 185 243
239 194 246 246 203 250 251 210 252 252 212 254 252 212 254
251 211 255 249 209 254 247 207 252 246 205 252 246 204 252
247 204 253 247 203 254 247 202 254 246 199 254 246 198 253
244 195 253 243 194 252 242 191 252 241 190 252 242 189 252
242 188 253 242 188 254 241 188 253 240 187 253 239 186 251
239 186 251 240 187 251 240 187 251 239 186 250 237 184 248
237 183 247 236 182 246 237 182 245 238 182 245 240 183 247
241 183 250 235 177 250 208 149 229 165 105 190 125 65 150
103 43 121 89 31 97 76 22 71 67 15 49 65 15 36
66 15 28 69 14 20 72 13 15 77 12 12 84 14 13
95 18 17 111 28 26 126 36 33 141 44 41 153 48 46
167 57 56 185 72 71 205 92 91 221 110 112 223 115 123
213 107 127 205 101 136 211 109 161 207 108 176 181 88 167
140 55 142 112 34 124 102 29 119 97 25 114 100 30 114
107 40 118 110 47 117 101 41 102 86 30 81 77 23 64
75 24 56 75 25 50 75 25 44 75 26 39 74 27 35
74 27 33 73 27 31 73 27 31 72 26 30 73 26 31
74 26 32 75 27 33 75 26 32 72 24 29 70 22 26
69 21 24 69 21 24 69 22 25 70 23 25 70 23 25
70 24 24 71 24 24 71 24 24 70 25 23 70 25 21
69 26 20 66 23 17 63 20 13 62 19 12 65 22 15
68 25 19 69 25 20 67 24 20 67 23 19 66 22 20
66 22 20 66 22 21 114 61 142 118 64 146 122 67 151
125 69 154 128 71 158 133 73 163 138 79 171 147 86 180
157 95 191 169 106 203 182 118 216 190 125 223 191 126 224
190 123 222 188 121 221 180 112 215 169 101 206 160 91 199
159 91 200 161 93 203 166 98 208 176 107 215 191 120 226
209 136 237 227 151 247 237 160 252 242 164 252 240 163 250
235 159 243 230 155 238 229 156 237 236 166 242 245 178 249
248 181 246 216 148 206 169 94 147 132 49 93 134 39 77
160 54 87 187 73 102 213 94 121 227 107 135 229 112 143
217 107 142 203 102 143 204 115 161 223 148 198 244 178 231
253 192 249 248 187 250 237 174 243 215 149 225 190 124 202
186 117 197 208 140 217 230 160 238 225 155 233 193 121 206
168 94 183 160 83 177 162 82 179 162 79 175 159 74 168
158 73 163 160 74 158 162 75 153 169 79 151 184 91 157
204 107 166 218 118 169 221 120 165 215 113 153 207 106 141
196 97 128 187 89 118 177 81 108 170 76 101 168 75 99
169 77 100 168 78 103 166 78 108 163 78 121 165 84 145
171 94 173 175 103 199 176 108 214 174 110 221 173 112 223
174 113 224 176 114 224 178 115 225 181 117 227 184 119 229
186 122 231 187 124 232 189 126 235 191 128 237 194 131 241
195 133 242 197 134 241 198 135 240 199 137 238 201 139 237
203 142 237 205 144 237 206 146 236 208 148 237 211 150 238
212 152 239 213 152 238 213 152 238 214 153 239 215 155 241
218 158 243 220 161 243 221 162 242 221 163 241 222 164 241
224 166 242 225 169 244 227 173 245 228 177 246 230 180 245
232 185 244 237 192 245 244 201 248 250 210 251 253 215 254
253 216 254 252 215 254 250 212 254 248 209 252 247 207 251
246 206 251 247 205 253 247 204 253 246 202 254 246 200 254
245 198 254 244 195 253 243 194 253 242 191 253 241 190 253
241 188 253 241 187 254 242 186 254 241 185 253 239 184 252
239 183 252 240 184 252 242 185 253 242 186 253 241 185 252
240 183 250 239 182 249 239 181 248 239 181 248 240 181 247
240 181 248 240 181 250 235 176 249 211 151 230 169 108 191
129 68 150 103 43 119 89 31 95 76 21 70 68 17 50
65 15 36 65 14 26 67 13 19 71 13 15 76 13 13
81 14 13 88 16 14 101 23 20 118 32 29 137 41 39
150 48 46 163 55 54 179 66 66 197 84 83 215 103 105
221 111 118 215 106 124 206 97 129 206 99 147 206 102 166
188 91 168 156 68 155 126 46 139 112 36 131 108 34 128
115 42 132 118 49 132 113 48 122 99 38 102 86 28 82
81 25 69 78 25 58 78 26 52 77 26 45 77 27 41
77 27 37 76 27 34 75 27 33 74 27 32 75 27 32
75 27 33 77 28 34 78 28 35 77 27 33 75 25 30
73 23 28 72 23 27 72 23 27 72 23 27 72 24 26
72 24 26 72 24 25 72 24 25 72 24 24 71 25 23
70 25 22 69 26 20 67 24 17 63 20 13 62 19 13
65 22 16 68 25 20 69 25 21 68 24 20 67 23 20
66 22 20 66 22 20 66 22 21 110 57 137 112 58 139
113 60 141 115 60 144 118 62 147 122 63 152 125 66 157
131 70 164 137 74 170 145 81 179 159 95 193 175 110 208
188 122 221 198 131 230 205 138 236 199 131 231 183 115 217
167 100 204 164 98 202 168 102 206 175 109 211 186 119 219
204 136 231 224 153 243 239 165 248 243 166 244 244 165 239
244 165 237 242 164 233 240 162 231 240 164 232 244 170 237
249 181 245 246 179 240 212 144 199 163 88 138 127 44 87
130 36 74 156 52 84 184 72 100 209 91 117 222 101 127
224 105 134 215 101 136 201 96 137 201 107 153 220 140 190
242 173 227 254 192 249 252 191 252 243 181 248 222 158 231
197 132 210 189 123 201 206 139 215 227 160 235 226 158 234
201 131 213 175 102 190 165 88 181 163 84 180 160 78 175
155 71 166 152 67 158 153 67 153 155 67 147 162 71 146
180 85 155 202 104 167 217 116 173 221 119 170 215 113 159
207 105 147 197 96 135 188 89 125 179 82 116 173 78 110
171 78 108 172 80 109 172 81 111 169 81 117 166 81 128
168 87 150 172 95 177 176 103 201 176 108 215 174 111 222
173 113 223 173 114 223 175 114 223 177 115 224 180 116 226
182 118 229 184 120 230 185 122 232 187 124 234 189 126 236
191 129 239 193 131 240 195 133 240 197 135 239 199 137 238
201 139 238 203 142 237 205 144 237 206 146 236 209 148 237
211 150 238 213 152 238 214 152 238 214 152 238 215 154 239
217 156 240 219 159 242 221 162 242 223 163 242 223 165 240
225 166 241 226 168 242 228 171 244 230 175 246 232 180 248
233 183 247 234 187 246 237 192 245 243 200 247 250 210 251
254 217 254 254 219 255 252 218 254 250 215 253 247 212 251
246 209 251 245 207 251 246 205 252 246 204 252 246 202 253
245 200 254 245 198 254 244 195 254 243 194 254 242 191 254
241 190 254 241 188 254 242 187 254 242 185 254 241 184 254
240 183 253 241 183 253 243 183 253 243 182 252 242 180 251
240 178 249 240 177 248 240 177 247 239 177 247 239 177 247
240 177 247 240 178 247 239 178 248 236 176 248 217 156 232
175 114 193 130 69 148 98 37 110 84 26 87 75 19 66
70 17 49 66 15 36 64 13 25 65 11 18 68 12 15
73 13 13 77 13 11 81 13 10 92 17 14 109 26 23
130 38 36 147 47 46 161 55 54 175 64 63 193 79 79
211 97 99 220 107 114 218 105 120 207 95 122 202 90 133
204 96 154 195 93 167 174 80 166 146 59 154 128 47 145
126 48 146 132 57 150 129 58 145 114 47 125 97 34 101
88 29 84 85 28 73 81 27 61 81 27 54 80 28 47
80 28 43 79 28 39 78 28 37 77 28 35 76 27 34
77 27 34 78 28 35 80 28 36 80 29 36 79 28 34
77 26 32 76 24 30 75 24 29 75 24 29 75 25 28
74 25 28 74 24 27 73 24 26 73 25 26 73 25 25
72 25 24 71 25 22 70 26 21 67 24 18 64 21 14
63 19 13 65 22 17 69 25 21 69 25 22 68 24 21
67 23 20 66 22 21 66 22 21 66 22 22 107 54 133
108 55 134 109 55 136 111 56 139 114 58 143 118 60 149
121 62 153 125 65 159 130 68 164 134 71 169 142 78 177
154 89 189 168 102 202 184 117 218 202 135 234 208 140 239
199 132 229 182 117 214 176 113 209 179 116 212 187 124 217
200 136 225 220 154 237 234 165 242 237 163 234 228 150 216
222 142 204 223 142 200 227 145 201 231 149 205 238 158 214
245 167 225 251 180 238 244 176 233 205 138 190 157 82 129
123 41 82 127 35 71 152 51 81 181 70 96 206 90 113
218 98 122 221 101 128 213 97 130 200 91 130 200 101 146
218 134 183 242 170 223 255 192 248 254 193 252 246 186 250
228 165 236 205 141 217 195 130 206 204 139 215 225 160 233
231 165 239 217 148 227 192 121 206 176 101 192 167 89 184
160 79 176 155 72 168 153 69 161 154 67 155 155 67 149
162 70 149 180 84 157 201 102 170 217 115 177 221 118 175
216 112 166 209 106 155 200 97 144 190 90 135 182 84 126
177 82 121 177 82 120 178 84 122 177 86 124 175 86 128
172 87 139 173 91 159 176 98 183 177 104 204 176 108 217
174 111 222 173 113 223 173 114 222 174 113 221 176 114 223
179 115 226 181 117 228 182 119 231 183 120 232 185 122 233
187 124 235 189 127 237 192 130 239 194 132 239 195 134 239
198 136 238 201 139 239 203 142 238 205 144 238 208 147 238
211 149 239 214 152 240 216 154 241 217 155 241 218 156 241
219 157 242 221 160 242 224 163 244 226 166 244 227 168 242
228 169 241 230 171 241 232 173 242 234 177 244 235 180 246
236 183 248 237 187 248 237 190 246 238 193 245 242 200 246
248 210 250 253 217 254 254 221 255 252 219 254 249 217 252
247 213 250 245 209 249 244 207 249 244 205 250 244 203 251
245 202 253 245 200 254 245 198 255 244 195 255 243 194 254
242 191 254 241 190 255 241 188 254 242 187 255 242 185 254
242 184 254 241 181 252 241 179 250 238 174 246 233 167 239
225 159 231 220 152 225 219 151 223 220 152 224 220 152 224
220 153 225 224 157 229 229 163 234 233 169 239 236 173 243
225 163 236 187 125 200 136 73 150 94 33 103 79 20 79
74 17 62 70 16 47 66 14 34 62 11 23 62 10 16
66 11 13 70 12 12 72 12 10 75 10 8 82 12 9
99 21 17 121 34 31 142 46 45 159 56 55 174 65 65
191 79 78 208 95 96 220 105 110 220 105 117 210 94 117
201 85 122 203 90 142 201 93 162 189 88 172 166 72 168
148 62 163 147 65 167 147 69 166 135 62 152 114 45 125
97 33 102 91 31 87 88 30 76 85 29 64 83 29 56
83 29 49 83 29 45 82 29 41 80 29 39 79 29 37
78 28 36 79 28 36 80 28 36 81 29 37 81 29 36
80 28 35 78 26 33 77 25 32 78 26 32 78 26 31
77 27 30 76 26 29 75 26 29 75 25 27 74 25 26
73 25 25 72 25 24 71 25 23 71 26 22 68 24 19
64 21 15 63 20 14 66 22 17 69 25 22 70 26 22
68 24 22 67 23 21 66 22 21 66 22 22 66 22 22
106 54 132 107 55 133 108 55 135 109 56 138 111 57 142
115 58 147 118 60 151 123 63 158 130 69 165 134 71 170
139 75 176 145 79 181 152 86 188 166 99 202 188 121 221
208 142 237 214 149 240 206 143 231 199 138 225 200 140 225
207 147 230 219 158 236 235 172 243 236 168 233 220 147 206
197 119 172 190 107 156 195 110 156 204 117 162 212 125 171
224 138 185 236 154 204 247 172 225 237 167 220 196 128 177
147 73 118 117 37 75 124 35 68 148 49 76 177 69 92
202 88 109 216 98 118 219 99 123 211 94 124 199 88 124
199 97 141 218 130 179 242 167 219 255 192 246 254 194 252
247 188 251 232 170 241 214 151 225 205 142 216 209 146 219
227 164 234 238 173 244 235 168 243 214 144 227 192 118 208
174 96 191 162 82 179 157 74 171 156 71 164 157 70 159
158 69 154 166 72 155 182 84 163 202 101 175 217 113 182
221 116 180 218 112 174 213 108 166 205 101 156 195 94 147
188 89 139 184 87 136 185 88 135 186 91 136 185 93 138
183 93 142 180 94 151 179 97 169 179 101 190 178 105 207
175 108 218 173 110 222 172 112 222 172 113 222 173 113 221
175 114 223 178 114 226 180 116 229 181 117 231 182 119 232
183 120 232 184 122 233 187 125 235 190 128 237 192 130 238
194 133 239 197 135 239 200 139 240 204 142 241 207 146 241
211 149 242 214 152 243 218 155 244 221 159 245 223 161 246
224 162 247 225 163 246 227 165 246 230 169 246 232 172 245
234 174 244 235 176 242 236 178 241 238 181 242 240 183 244
239 185 246 240 187 247 240 190 247 240 193 247 239 195 245
242 200 246 246 208 248 252 217 252 254 222 254 252 222 254
250 219 252 247 215 250 245 211 249 243 208 248 243 205 249
244 204 251 244 202 253 245 200 254 245 198 255 244 195 255
243 194 255 242 191 255 241 190 255 241 187 254 241 187 254
241 184 253 238 179 248 231 169 240 223 159 230 214 146 218
201 132 204 190 118 191 182 109 183 182 108 182 182 109 182
180 107 180 179 107 179 183 111 184 191 121 192 201 134 203
214 149 217 219 155 225 192 129 202 142 78 151 95 33 101
76 16 73 73 15 58 69 15 44 65 12 31 61 9 21
60 8 14 62 9 11 65 11 10 67 10 8 70 10 7
75 10 6 89 17 12 110 29 24 134 43 41 155 56 54
173 67 66 191 80 80 208 94 95 220 105 109 222 105 114
215 96 114 204 85 115 203 85 132 204 90 155 199 91 173
184 83 179 172 79 182 167 82 185 156 77 176 134 60 152
112 42 124 99 33 103 94 32 90 90 32 78 88 31 67
87 31 59 86 31 52 85 31 47 84 30 43 82 30 41
81 29 40 80 29 39 80 28 38 81 28 38 82 28 37
82 28 36 80 26 35 79 25 33 79 25 32 79 26 33
79 27 33 79 27 32 77 27 30 77 26 30 76 26 28
75 26 27 74 25 26 73 25 25 72 25 24 71 26 23
68 24 20 65 21 16 63 20 15 66 22 19 69 25 23
70 26 23 68 24 23 67 23 22 66 22 22 66 22 23
66 22 23 104 52 130 106 54 132 107 55 135 108 55 137
110 55 141 113 56 145 117 59 151 121 61 156 127 66 164
132 69 170 138 74 176 144 78 182 149 83 187 159 92 197
179 112 214 205 139 234 223 158 246 225 163 245 221 162 241
223 165 241 229 172 244 238 180 247 245 184 245 228 162 217
197 124 173 166 87 131 165 80 120 178 89 127 191 100 136
199 107 144 209 118 157 223 136 179 238 158 205 229 155 203
187 115 160 138 64 104 112 32 66 121 34 63 144 47 71
172 66 86 199 87 104 215 97 115 217 98 119 209 91 118
197 84 119 200 95 136 220 127 174 243 165 215 255 189 243
254 192 250 249 187 251 239 176 245 227 163 235 220 157 229
220 158 228 231 169 237 241 180 246 246 182 252 233 166 242
210 139 224 186 111 203 171 93 187 165 83 178 162 78 171
162 76 165 164 75 161 172 79 163 186 90 171 204 104 181
215 112 186 218 114 184 218 113 180 215 111 175 209 107 169
200 100 160 194 95 153 191 94 150 192 96 150 194 98 152
193 100 152 190 101 155 187 101 163 185 103 178 183 105 196
179 106 210 174 107 218 172 109 221 171 111 221 171 112 221
172 112 221 174 113 223 177 114 226 179 115 229 180 116 231
180 117 231 181 119 232 183 121 232 186 124 233 189 127 236
191 129 238 194 132 239 197 135 240 200 138 241 205 143 244
209 147 245 213 151 247 218 155 247 222 159 249 226 164 250
229 167 251 230 168 251 231 170 250 232 172 249 235 175 248
237 177 247 239 180 246 240 182 243 242 185 242 243 188 243
245 190 245 244 192 246 243 192 246 243 195 247 243 197 247
242 199 247 242 202 246 245 208 247 250 217 251 253 223 253
253 225 254 251 221 253 248 217 250 245 213 249 244 209 249
244 207 250 244 204 251 244 202 253 245 200 254 245 198 255
244 195 255 243 194 255 242 191 255 241 190 255 242 188 254
242 187 254 238 181 249 225 165 235 206 143 214 187 120 193
171 101 174 158 85 157 147 72 144 142 65 136 142 65 135
144 67 136 142 66 135 139 63 132 139 65 134 143 71 138
151 82 147 167 100 163 182 117 181 173 108 176 136 72 140
96 34 96 74 14 67 68 11 51 66 11 38 61 9 26
59 7 18 58 7 13 59 7 10 61 9 8 63 9 7
66 10 6 71 10 5 82 15 8 100 24 18 124 39 35
148 54 51 170 68 66 191 83 82 208 96 96 221 106 109
224 106 113 220 99 113 209 87 112 203 82 123 205 87 146
203 91 169 196 91 184 191 96 198 181 94 198 162 82 182
130 55 148 110 38 121 101 34 105 98 34 94 94 33 81
91 32 69 89 32 61 88 32 54 87 31 49 86 31 45
84 30 43 82 29 41 81 29 40 81 28 39 82 28 39
83 28 38 82 27 37 81 26 35 79 24 33 79 25 33
81 27 34 81 28 34 80 28 33 79 27 32 78 27 31
77 27 29 76 26 28 75 25 26 74 25 25 73 25 24
72 26 24 69 25 21 65 21 17 64 20 16 66 22 19
70 26 23 70 26 24 69 25 23 67 23 23 66 22 22
66 22 22 66 22 23 101 50 129 103 51 130 105 53 133
106 53 135 109 55 139 112 56 144 117 59 150 122 62 157
127 66 164 133 69 171 139 74 178 145 78 184 150 82 190
157 89 197 172 104 210 197 129 228 217 149 240 225 160 243
225 163 241 229 171 243 239 184 248 248 194 252 245 188 241
212 149 197 171 100 142 145 65 102 154 66 100 175 81 111
192 94 124 200 101 131 205 107 139 212 119 154 225 138 176
215 134 173 175 99 135 130 53 85 108 28 55 119 32 55
139 44 62 166 62 77 193 82 96 210 94 109 214 95 114
207 88 114 198 83 116 202 92 133 218 119 166 235 148 199
242 167 221 240 171 228 241 173 235 242 174 240 240 173 242
236 172 241 234 172 238 238 178 243 244 185 248 250 190 254
244 182 249 231 164 239 213 142 223 198 123 209 187 110 197
180 100 186 176 93 178 176 90 172 180 92 173 191 100 179
204 110 187 212 116 190 214 116 188 216 118 188 216 118 187
213 116 183 205 109 174 199 104 168 197 102 165 198 104 166
200 106 167 200 108 167 196 108 169 192 108 174 187 108 186
183 108 200 179 109 211 175 109 217 173 110 220 172 111 221
172 113 221 173 113 222 175 113 224 177 114 227 178 114 229
179 115 231 180 116 232 180 118 232 182 121 232 184 123 233
187 126 234 189 128 237 192 131 238 196 134 240 199 138 242
204 142 245 209 147 246 214 152 248 219 157 249 224 162 250
229 167 252 233 171 253 236 174 254 238 177 253 240 179 252
242 182 251 244 185 250 245 188 249 247 191 247 248 193 247
249 197 247 250 199 248 249 200 249 248 201 249 248 203 250
248 205 250 247 207 249 246 208 247 247 212 247 250 219 250
253 225 253 254 227 255 252 224 253 250 220 252 248 216 250
247 212 250 246 209 251 245 206 252 245 204 253 246 201 254
245 199 255 244 196 255 243 194 254 243 192 254 243 191 254
245 191 254 244 189 254 233 175 243 207 146 218 174 109 184
148 80 156 133 61 137 124 49 122 119 42 111 117 39 104
120 41 104 121 43 103 119 42 102 115 39 98 111 37 95
108 36 93 110 41 96 118 52 105 128 64 118 128 65 120
109 47 102 86 26 77 70 12 56 64 8 42 61 7 31
57 5 22 56 5 16 56 5 12 57 6 10 59 8 8
61 9 6 64 10 6 70 12 6 80 16 9 95 24 16
114 35 29 135 47 42 157 60 58 181 77 76 203 93 93
218 104 106 222 104 110 219 98 109 210 87 108 202 80 114
202 84 135 205 92 163 207 102 188 207 111 208 190 103 203
163 81 180 129 52 144 112 37 121 106 36 109 103 36 97
98 35 85 95 33 73 93 33 64 92 33 58 90 32 53
89 32 48 87 31 46 85 31 44 84 30 43 84 29 42
84 28 42 84 27 40 83 27 39 82 25 36 80 23 34
80 24 32 81 26 33 82 28 34 81 28 34 80 27 33
79 27 32 78 27 30 76 26 28 75 25 27 74 25 26
73 25 25 72 26 24 69 24 22 66 22 19 64 20 18
66 22 20 69 25 23 69 25 24 68 24 23 67 23 22
66 23 23 66 23 22 66 23 22 99 48 128 101 50 130
104 52 132 106 53 134 108 54 138 112 56 143 117 60 149
123 62 157 128 66 164 133 68 171 139 73 179 145 77 186
150 82 193 158 88 200 170 100 211 190 119 225 206 134 233
214 145 234 216 151 231 223 164 235 237 182 244 248 196 251
237 183 232 196 135 181 155 84 124 137 55 90 152 60 90
175 75 101 195 91 115 205 100 123 208 104 129 208 108 136
214 120 149 197 110 139 161 80 106 122 43 65 106 25 43
117 30 45 136 41 53 161 58 69 189 78 89 205 90 103
210 92 110 205 86 110 198 80 112 201 86 126 211 104 150
219 123 173 222 136 189 221 141 197 230 151 211 239 162 225
246 172 237 247 179 244 244 182 244 244 186 247 243 187 246
243 187 246 240 182 243 239 176 242 234 167 238 226 157 231
216 146 221 206 134 209 198 122 198 193 113 188 192 111 185
197 114 187 204 120 193 209 124 196 212 126 196 216 129 199
218 130 199 216 129 197 211 124 190 207 119 186 206 117 183
207 117 183 208 119 184 207 120 184 204 119 184 197 117 187
191 115 194 186 114 203 182 114 212 179 114 217 177 114 220
176 115 221 175 116 222 176 116 224 177 116 226 179 115 228
179 115 230 180 116 231 180 117 232 181 119 233 182 122 232
184 124 233 186 126 234 188 128 236 191 131 238 194 134 240
198 137 242 203 141 244 207 145 246 212 150 247 217 156 248
223 162 250 229 167 252 234 173 254 239 178 255 242 182 255
245 185 254 247 188 254 248 191 253 250 193 253 251 196 252
251 199 252 252 202 252 253 205 252 253 207 252 252 208 252
252 211 253 252 213 253 251 214 252 250 215 250 250 218 249
252 223 251 253 227 253 254 228 254 253 226 254 251 222 252
250 219 251 249 215 251 247 212 251 247 209 253 246 206 253
247 203 255 246 200 254 244 196 254 244 194 253 244 193 252
245 193 253 248 194 253 245 189 252 227 168 236 189 127 203
150 83 164 124 53 136 113 39 120 108 32 106 106 29 95
106 29 86 109 31 82 110 34 81 110 35 81 107 33 79
103 30 76 97 26 71 91 23 66 88 24 64 88 25 66
88 27 68 81 22 62 72 15 53 64 9 42 59 5 32
56 4 24 54 3 18 54 4 15 55 5 12 57 6 11
59 8 9 61 9 7 64 10 7 71 14 8 81 18 11
94 26 16 108 33 24 124 41 34 143 52 48 168 68 65
191 84 84 209 96 98 215 98 103 214 93 102 207 84 101
200 78 106 198 81 124 204 94 155 213 111 188 214 120 209
192 105 201 160 77 174 129 50 142 116 39 123 111 38 112
107 36 99 101 33 86 97 31 75 95 31 67 95 32 61
93 32 55 91 31 50 89 30 47 87 30 45 87 29 44
86 29 44 87 28 45 87 28 45 85 27 42 83 25 38
81 24 35 81 24 33 82 26 34 83 28 34 82 28 34
81 27 33 79 26 32 78 26 30 76 25 29 75 24 27
74 24 25 72 24 24 71 25 24 68 24 22 66 22 20
65 20 19 66 22 20 69 25 23 69 25 24 68 24 23
66 23 21 66 23 21 65 23 21 65 23 21 100 49 130
102 51 131 104 53 133 106 54 135 109 55 138 113 58 143
118 61 150 124 63 157 129 67 166 135 69 173 141 74 181
146 77 188 152 81 195 159 88 203 171 98 213 187 112 223
198 122 226 204 130 225 206 137 222 215 153 227 232 176 239
245 194 248 229 175 224 185 124 169 145 73 113 134 50 84
149 53 82 170 66 90 192 83 104 207 97 117 213 104 124
207 101 123 201 101 124 174 82 103 143 57 76 113 31 46
105 22 34 116 28 38 133 38 46 158 55 63 184 74 82
200 86 96 206 88 103 202 83 105 197 77 107 195 78 116
197 84 129 196 92 140 197 102 154 202 111 166 215 127 185
228 142 203 240 160 222 248 177 238 251 188 247 250 193 251
239 185 243 230 175 233 226 170 228 233 173 234 241 177 241
242 177 243 238 174 240 233 168 234 225 158 224 217 146 214
211 140 207 211 140 206 214 142 209 217 145 211 220 147 213
224 150 216 226 152 216 226 152 215 226 150 213 225 147 211
225 146 209 225 145 209 225 144 208 224 144 209 221 143 209
214 140 211 206 136 213 200 133 217 196 132 222 192 129 225
187 125 224 182 123 223 180 122 223 181 122 225 181 120 227
182 119 229 183 118 230 184 119 232 184 121 233 184 122 234
184 124 233 185 125 234 186 126 234 187 127 236 190 130 239
194 133 241 197 136 243 200 138 243 203 141 243 208 146 244
213 152 246 220 159 248 226 165 251 232 172 253 238 178 254
243 183 255 246 187 255 248 190 255 249 192 255 250 195 255
251 197 255 252 200 255 252 202 255 252 205 255 252 207 255
252 209 255 253 212 255 253 214 254 252 216 253 252 218 251
253 221 251 253 223 251 253 226 252 254 228 253 254 227 253
253 225 252 252 222 252 251 219 251 249 215 251 248 212 251
248 209 252 248 206 253 246 202 252 245 198 251 244 196 250
245 195 249 247 196 250 249 197 252 245 189 250 221 161 231
178 115 194 139 71 158 118 45 135 110 34 121 104 28 105
99 22 87 98 21 74 98 22 66 99 24 62 99 26 61
98 26 61 97 26 60 94 25 59 89 23 56 83 20 51
76 16 46 71 12 42 66 9 38 62 7 34 58 5 29
56 4 25 53 3 21 52 3 17 53 4 15 55 5 13
57 7 11 59 9 10 61 11 9 64 12 8 72 15 9
83 20 12 95 27 17 103 30 21 114 34 27 129 41 35
150 53 50 173 67 67 192 80 82 202 85 90 204 83 91
201 79 92 195 74 98 193 77 114 202 94 147 219 119 188
218 125 208 191 105 196 154 71 165 131 51 141 122 43 127
117 41 115 110 36 101 104 32 87 100 30 77 99 31 70
98 33 64 96 33 59 95 33 55 93 32 51 91 31 48
90 30 47 90 29 48 91 29 50 91 29 50 89 28 47
86 26 42 83 24 37 82 25 34 83 27 34 84 29 35
84 29 35 83 28 34 82 28 34 80 27 32 79 26 30
77 25 28 76 25 27 74 25 25 72 25 25 71 25 24
69 24 23 68 23 22 69 24 24 72 27 26 72 28 26
71 27 25 69 26 23 68 26 22 68 26 22 68 26 22
101 51 132 103 52 134 105 54 135 108 55 137 110 57 140
115 59 145 120 62 152 126 65 160 131 68 167 137 70 175
142 74 182 148 78 189 154 82 196 162 89 205 174 99 215
188 111 224 198 120 227 205 128 226 210 138 226 220 156 232
235 178 242 246 191 248 224 168 219 180 117 164 141 68 109
133 47 82 146 49 77 165 59 82 187 76 95 204 91 109
211 99 117 203 95 114 189 87 106 156 62 80 126 39 54
105 22 33 103 20 28 116 28 34 133 38 43 160 56 62
184 74 80 199 85 93 203 85 99 199 79 100 193 72 100
187 68 104 182 67 109 178 71 117 186 86 135 200 104 157
215 120 176 221 129 187 230 143 203 242 166 226 251 185 244
250 192 251 233 178 237 215 160 220 208 150 212 216 155 218
226 162 228 233 168 235 239 177 242 244 182 247 243 181 244
237 174 237 233 170 232 231 169 230 232 171 230 233 172 231
236 174 233 238 175 234 239 176 234 240 177 234 241 177 233
242 176 232 243 174 230 242 171 227 240 167 225 239 165 226
237 163 228 232 161 231 225 158 232 221 157 235 217 157 238
212 152 238 204 145 236 197 139 232 192 135 231 191 133 231
192 131 232 193 129 234 194 128 235 193 129 236 192 129 236
190 128 236 188 127 235 187 126 235 188 126 236 189 128 238
191 130 240 194 133 242 197 135 244 199 136 243 200 138 242
204 142 243 210 148 245 216 155 247 222 161 250 228 167 252
233 173 254 238 179 255 242 182 255 243 184 254 244 186 254
245 189 254 246 191 254 247 193 254 247 195 254 246 197 254
246 199 253 246 201 253 248 204 253 248 207 252 249 209 251
249 212 250 251 215 249 251 219 249 251 222 250 252 225 251
254 227 252 254 226 252 254 225 252 253 222 252 251 218 250
249 215 250 249 211 250 248 208 251 246 204 250 244 201 248
244 198 247 245 198 246 247 198 248 250 199 251 244 189 249
219 159 229 176 112 193 139 70 161 121 48 142 112 36 127
103 26 108 95 18 85 92 16 69 91 16 58 92 18 53
92 20 51 92 21 50 91 21 50 90 22 49 87 21 48
83 20 46 79 18 43 74 15 39 68 10 34 62 7 29
58 4 25 55 4 22 54 4 19 54 5 17 54 6 15
56 7 13 57 9 11 59 10 9 61 12 9 64 13 8
71 15 9 81 18 10 92 23 15 101 27 19 110 30 24
121 35 29 137 41 38 155 50 50 173 62 64 187 70 74
195 74 82 196 74 86 191 70 92 188 72 106 197 89 139
218 119 185 219 128 208 195 109 198 157 74 167 138 57 147
130 51 134 124 47 122 116 41 106 110 36 92 105 34 81
104 34 74 103 35 69 102 36 65 101 36 61 100 36 58
99 36 56 98 35 55 98 35 57 99 36 59 99 36 59
97 35 56 94 33 50 91 31 45 90 32 42 91 33 42
91 34 41 91 35 41 90 34 40 88 33 39 87 32 38
85 31 36 84 31 34 82 30 32 81 30 30 79 31 30
77 30 30 76 29 29 75 29 28 77 31 30 80 34 33
81 35 33 79 33 31 76 31 28 74 30 27 74 30 27
74 30 27 102 53 134 104 54 136 107 56 138 110 57 140
113 59 143 117 61 149 122 64 155 128 66 163 133 69 169
138 71 177 144 75 184 151 79 192 159 86 201 169 94 211
180 104 220 192 113 227 201 121 229 209 131 231 217 144 234
229 162 241 241 182 248 247 191 249 220 162 214 175 109 158
137 62 104 131 44 79 143 45 73 160 53 75 181 69 87
198 84 101 206 92 109 197 88 105 179 76 92 144 49 64
116 28 40 101 17 25 104 19 25 117 28 32 134 38 41
161 57 60 184 75 78 198 84 90 201 83 94 196 76 94
189 69 94 181 63 95 170 55 93 166 58 100 180 78 123
205 104 153 220 120 173 220 122 179 221 130 189 234 153 213
247 178 237 248 187 248 230 172 234 208 150 215 199 140 206
205 142 211 212 147 218 218 153 224 230 167 236 242 181 247
249 189 251 249 188 249 248 188 247 246 187 245 244 186 241
241 183 237 238 179 232 236 176 228 235 176 226 237 177 226
239 178 226 241 178 225 242 176 224 242 174 222 241 171 221
241 169 224 241 167 229 239 167 234 236 168 238 235 171 243
234 173 247 230 171 249 223 165 247 216 158 243 210 153 241
208 150 240 209 148 241 209 146 242 209 144 243 208 143 242
204 141 241 199 136 239 194 131 237 191 127 237 191 127 238
191 128 240 193 130 241 195 132 244 197 134 245 198 135 244
199 136 244 201 139 244 206 144 245 211 149 247 215 155 248
220 160 250 225 165 252 230 170 253 234 173 253 236 176 253
237 178 252 238 180 252 239 182 252 240 184 252 240 186 252
239 187 252 239 188 251 239 190 250 241 194 250 242 196 249
243 199 247 244 202 246 246 205 245 246 209 245 247 214 246
249 220 249 252 224 251 253 226 252 254 227 253 254 226 253
253 223 251 251 219 250 250 215 249 248 211 249 246 207 248
245 204 246 245 201 246 246 200 246 248 200 248 251 201 251
246 192 250 222 164 232 182 118 200 147 78 170 127 55 151
116 40 135 103 26 111 92 15 86 87 12 69 87 13 57
87 14 50 86 15 45 86 17 44 86 18 43 86 20 44
86 21 44 84 21 44 82 21 44 78 18 40 71 13 35
64 8 28 59 5 23 57 4 20 56 5 19 56 6 16
56 6 14 56 7 11 57 8 9 58 10 8 60 12 7
63 13 7 70 14 7 78 16 8 89 20 12 98 24 17
106 27 21 115 29 24 127 31 28 139 35 34 157 46 47
174 57 61 187 67 74 190 69 80 186 65 86 181 65 99
191 82 131 216 116 181 223 132 211 205 118 207 170 86 178
152 70 159 144 64 146 137 58 132 128 51 116 121 47 103
117 44 92 116 44 85 114 44 80 114 45 77 114 46 74
113 46 72 112 45 69 110 43 68 109 44 69 110 45 70
110 46 71 109 45 68 107 44 63 104 43 59 103 42 55
101 42 52 101 42 51 101 43 50 100 43 50 99 42 49
98 41 47 96 41 45 94 40 43 93 40 41 91 39 39
89 39 38 88 39 37 86 37 36 85 37 36 86 39 37
89 42 40 90 43 40 87 40 37 84 37 34 82 36 32
81 36 32 81 36 32 105 56 137 107 57 138 109 58 141
112 60 143 115 61 147 119 63 153 125 66 159 130 68 166
134 69 172 140 72 179 147 77 188 156 83 198 167 92 209
178 102 219 188 111 227 197 118 232 204 124 233 214 135 237
225 150 242 237 170 249 247 187 253 248 191 249 215 156 209
170 102 153 133 56 100 129 41 77 140 41 69 156 49 70
176 63 80 192 76 92 198 83 98 190 79 94 173 69 82
140 44 55 113 24 32 100 15 19 103 18 20 117 27 28
133 37 37 160 56 56 183 73 74 197 82 85 198 80 88
193 74 88 187 68 88 178 61 88 164 51 83 162 52 89
179 73 114 209 105 150 226 122 171 222 121 173 217 121 177
225 139 197 240 165 225 244 178 241 228 167 232 207 147 216
199 137 209 203 139 213 208 141 217 212 146 221 225 160 233
240 176 246 249 184 250 248 183 245 244 179 238 236 173 229
228 166 219 220 158 209 213 150 198 210 146 192 210 146 189
212 147 190 215 148 190 218 149 190 222 150 191 225 150 192
227 150 194 230 151 200 233 152 209 235 157 219 235 162 227
237 169 235 239 175 242 238 176 247 234 174 250 229 170 249
225 167 248 223 163 247 223 161 247 223 159 247 222 157 248
218 153 246 213 149 244 204 141 240 198 135 239 194 129 239
194 129 240 194 129 241 194 130 243 195 131 245 196 133 246
197 133 246 198 134 246 200 137 246 204 140 247 206 144 247
209 148 246 211 151 247 215 155 248 220 159 249 224 162 249
227 165 249 228 167 249 229 169 249 230 172 249 232 174 249
233 176 250 232 177 249 232 178 248 233 180 247 235 183 246
236 186 245 237 188 243 238 191 242 239 194 241 240 199 241
241 206 243 244 214 247 248 220 251 252 224 253 254 227 254
254 228 254 254 227 254 252 223 252 250 218 250 248 214 249
246 210 248 245 206 247 245 203 247 247 202 248 249 202 249
252 202 252 249 195 252 231 172 239 195 132 212 159 91 182
134 63 159 118 44 139 102 27 114 90 14 88 84 10 70
84 12 58 83 12 49 82 12 43 81 14 40 82 16 39
83 18 39 85 21 41 86 23 43 85 24 44 81 21 40
75 16 34 68 11 28 63 7 23 60 7 20 59 7 18
58 7 15 57 6 11 56 7 8 57 7 6 57 9 5
59 10 5 63 12 5 69 13 5 77 14 6 86 18 10
95 22 16 103 25 20 111 26 22 120 26 23 128 27 26
145 36 37 163 49 52 179 60 66 183 63 73 179 60 79
174 59 90 184 75 123 211 113 176 226 135 212 213 128 215
182 98 189 165 82 170 156 76 157 149 70 143 140 62 127
134 58 114 130 55 104 128 55 98 127 54 93 126 55 90
126 55 87 126 55 86 126 54 84 125 54 84 124 55 85
123 56 85 122 57 84 121 56 81 120 55 77 117 54 72
115 52 67 111 50 62 109 49 59 109 49 58 108 50 57
107 49 56 106 49 54 104 48 52 103 47 50 102 47 47
99 46 44 96 45 42 94 43 41 92 42 39 90 41 39
91 42 39 94 44 42 94 45 42 91 43 39 88 40 37
87 39 35 86 39 35 86 39 35 107 58 139 109 59 141
112 61 144 115 62 147 117 63 151 122 65 157 127 68 164
132 70 170 137 71 177 143 74 185 152 81 195 163 89 206
176 100 218 188 110 229 196 117 235 201 122 237 206 125 236
216 137 240 229 154 246 242 173 252 251 188 255 248 188 247
210 148 204 164 95 147 128 50 95 126 38 74 138 39 67
154 46 67 172 59 75 185 69 83 188 73 86 181 70 82
168 63 73 139 42 49 113 22 26 99 13 14 103 16 15
116 25 23 131 34 31 156 51 48 178 68 65 191 76 77
192 75 79 188 70 80 184 66 82 177 60 82 162 49 75
159 49 80 176 68 104 209 101 141 227 120 164 224 118 166
213 112 165 216 124 181 232 151 212 241 169 234 230 164 233
211 147 220 205 139 216 208 140 219 213 144 223 218 150 228
229 161 237 240 171 243 242 171 238 234 160 223 220 146 206
205 132 189 193 121 173 183 111 159 176 104 148 176 103 144
180 104 143 186 108 145 191 111 147 197 114 149 202 116 153
207 119 156 211 120 159 216 124 169 221 130 180 227 139 194
231 149 206 235 160 220 239 169 232 239 173 241 237 173 245
233 171 246 229 168 245 227 165 244 225 163 242 224 160 242
223 158 242 219 154 242 214 149 241 206 141 239 201 135 239
197 131 240 196 130 241 196 129 242 195 129 244 196 130 245
197 131 247 197 132 248 198 133 248 199 135 248 201 137 248
202 139 247 202 141 245 203 143 244 205 145 243 210 148 244
214 151 244 217 154 244 218 156 244 220 159 245 222 162 245
224 164 246 226 167 247 226 168 247 227 170 246 228 172 246
230 176 246 232 178 245 233 181 243 235 184 241 236 187 240
238 193 242 239 201 244 242 209 248 246 215 251 249 220 254
252 225 255 254 228 255 254 229 255 252 226 253 250 221 252
247 217 250 246 212 249 244 208 248 244 206 248 246 204 249
249 204 251 252 203 253 252 199 254 240 182 247 210 148 225
172 105 193 139 69 163 118 45 139 101 27 114 90 16 91
83 10 72 82 10 59 80 10 49 78 10 42 78 11 38
79 14 37 81 17 37 84 22 40 86 24 42 86 25 42
82 22 38 77 18 32 71 13 27 67 10 22 64 9 20
62 8 17 60 8 14 59 7 10 57 6 6 57 6 4
58 8 3 60 10 3 63 12 4 69 13 5 76 14 6
85 17 10 93 20 15 100 23 18 108 24 20 115 24 20
123 24 22 137 31 31 153 42 44 167 52 56 172 55 63
170 53 70 167 53 82 177 70 116 207 110 171 227 136 212
218 133 219 189 105 194 171 88 175 163 81 162 156 75 149
148 68 134 142 65 122 139 62 113 137 62 107 136 60 102
135 61 99 136 61 98 137 63 98 140 65 101 142 68 103
141 69 103 138 68 101 134 66 96 131 64 91 128 62 85
124 59 79 120 57 73 116 54 67 113 51 62 111 50 60
110 50 58 109 50 56 107 49 55 106 48 52 104 48 50
103 47 47 100 46 43 97 45 41 94 43 38 92 41 37
91 40 36 92 41 37 94 43 39 93 43 39 91 41 38
89 40 36 89 40 36 89 40 36 89 40 36 108 59 141
111 61 143 113 62 146 116 63 150 119 64 154 124 66 160
129 69 167 135 71 175 140 73 182 148 78 191 158 86 202
171 95 214 184 107 226 196 117 237 202 122 241 204 124 239
206 126 236 216 138 240 230 156 247 244 174 253 252 188 255
247 184 245 206 142 199 159 89 142 123 45 91 123 35 72
136 37 66 154 46 67 170 57 72 179 64 76 179 64 75
174 63 72 163 58 64 137 39 42 111 20 20 98 11 9
102 16 11 116 25 20 130 32 26 150 46 40 169 59 55
182 67 65 184 68 69 183 65 72 181 63 75 174 59 75
158 46 67 154 45 70 171 62 92 204 95 129 224 115 154
222 113 157 208 104 153 208 112 167 225 140 200 240 164 229
236 166 237 220 152 228 213 144 223 215 144 224 222 150 230
230 158 237 236 164 240 232 159 231 221 144 211 203 123 185
186 105 163 171 90 145 159 79 129 151 72 116 147 67 107
149 67 104 154 71 104 163 77 109 173 84 114 184 90 121
192 95 128 199 99 132 202 100 135 207 104 142 212 110 152
218 121 166 225 134 183 233 150 202 239 163 220 240 169 232
236 169 238 231 167 239 226 164 239 223 161 236 219 156 233
218 154 232 217 152 234 216 150 236 212 146 237 207 140 238
202 136 239 200 132 241 198 131 242 197 130 242 197 129 243
196 129 245 197 130 246 197 131 248 198 132 248 198 133 248
199 135 248 199 135 246 198 136 243 198 136 242 199 138 240
202 140 240 205 141 239 208 144 239 211 146 240 213 150 241
216 154 242 219 157 244 221 160 244 222 162 245 224 165 246
226 168 247 229 172 247 231 175 247 233 179 245 235 182 244
238 186 245 239 192 246 240 199 248 243 205 251 246 211 253
248 216 254 251 221 255 253 226 255 254 228 255 252 226 254
250 223 252 247 218 250 245 214 249 244 210 249 244 208 248
246 207 249 249 206 251 252 205 253 253 201 254 247 189 252
224 161 234 184 117 201 144 74 163 117 45 133 103 29 112
94 20 93 87 14 75 83 11 61 80 10 51 79 10 44
79 12 40 82 16 39 85 20 40 88 24 41 88 25 41
86 24 38 82 21 33 77 17 29 74 14 25 71 12 21
68 11 18 66 9 15 63 9 12 62 8 8 60 7 5
59 7 3 60 8 1 62 10 2 65 12 3 71 14 5
77 15 8 84 17 11 91 20 14 97 22 17 104 23 18
111 23 19 119 24 21 130 28 26 143 36 35 153 42 43
159 45 51 159 45 60 159 49 76 173 68 111 204 109 169
228 139 214 223 138 223 194 110 198 174 90 177 164 82 163
157 76 150 150 70 137 146 67 127 143 65 119 143 65 114
143 65 111 145 68 110 148 71 112 152 75 115 156 78 119
159 82 122 157 82 120 151 79 115 142 73 106 135 67 97
129 62 88 123 58 80 118 55 72 114 52 66 110 48 61
108 47 57 106 46 54 105 46 53 104 45 50 102 44 48
100 43 45 99 43 43 97 42 40 95 42 37 93 41 35
91 39 34 90 38 33 92 39 34 94 42 37 94 42 37
93 41 37 91 40 36 91 40 36 91 40 36 91 40 36
112 62 145 114 63 147 116 64 149 118 64 152 121 65 156
127 68 164 133 71 172 138 73 179 143 75 187 151 80 196
161 88 206 173 98 217 186 108 228 197 118 237 203 123 241
205 125 239 206 127 236 215 138 239 230 156 246 244 174 252
253 188 255 242 178 240 197 132 190 150 79 132 117 39 85
120 32 70 135 37 65 154 48 68 170 58 72 176 62 73
175 60 70 171 59 67 161 55 59 136 38 38 112 20 17
99 12 7 104 17 10 117 25 18 129 31 23 146 42 34
162 52 46 174 60 56 178 62 61 178 62 65 177 61 69
169 55 67 152 41 56 148 39 58 166 57 81 200 90 118
221 109 143 218 107 147 204 97 143 203 104 157 221 133 192
241 162 228 244 172 243 233 162 238 225 153 232 226 152 232
233 157 236 234 158 235 225 150 224 206 129 198 186 105 168
167 84 142 154 70 124 142 59 109 134 52 97 129 47 87
127 45 79 130 46 77 136 50 77 145 55 81 154 61 86
166 68 94 177 76 102 188 82 110 195 87 116 201 91 122
204 96 128 209 105 139 214 116 154 222 132 176 232 150 200
240 164 222 241 171 235 236 170 240 229 165 237 221 159 232
215 153 227 213 149 225 213 148 228 213 148 233 213 146 237
210 142 240 206 139 241 203 135 241 201 132 241 199 130 241
197 129 242 197 129 243 197 130 245 198 130 247 198 131 248
197 132 248 197 133 246 197 133 245 196 133 244 196 134 242
196 134 240 198 135 238 200 135 236 203 137 235 206 141 237
209 145 239 213 149 241 216 153 243 218 155 243 219 158 244
221 161 246 225 166 248 228 170 250 231 174 249 234 178 248
237 182 249 240 187 250 242 192 252 242 197 252 244 201 254
245 206 254 247 210 254 249 215 254 251 221 254 253 225 254
252 226 254 251 224 253 249 222 252 248 219 251 247 215 251
247 213 250 248 212 250 250 210 251 253 206 252 254 200 253
252 191 253 235 169 240 199 129 208 156 83 166 127 52 134
115 39 117 109 34 103 102 27 87 95 21 71 90 18 60
88 16 51 88 17 47 91 22 47 95 27 47 96 29 46
95 29 43 90 26 37 85 22 32 81 18 27 77 15 23
74 13 19 71 11 15 69 10 12 68 11 11 68 11 9
66 10 6 65 9 4 65 10 2 67 12 3 68 14 4
72 14 5 78 15 8 84 17 11 90 20 14 95 21 16
101 22 17 109 23 18 116 25 20 125 28 23 135 33 29
142 36 35 148 38 43 151 41 54 152 45 71 167 66 107
201 109 166 228 141 215 226 143 227 198 113 201 175 90 177
163 80 162 157 75 151 152 71 140 149 69 132 147 68 125
151 72 125 157 78 127 162 84 130 162 84 129 160 81 126
160 81 125 161 82 126 158 81 123 151 79 117 142 73 107
135 67 98 128 61 88 122 57 79 117 53 72 113 51 66
109 47 60 106 45 56 103 43 52 102 43 50 101 42 48
99 41 45 97 40 42 96 40 40 94 40 37 94 40 35
92 39 33 92 39 32 92 39 32 93 40 34 95 42 37
95 42 37 94 42 38 93 41 37 92 41 38 92 41 37
92 41 37 116 64 148 118 65 150 119 66 152 120 65 155
124 66 160 130 70 168 137 73 177 141 75 184 145 77 190
153 82 199 163 90 209 176 100 219 188 110 230 199 119 238
204 124 241 205 126 238 206 129 234 214 139 236 229 156 244
244 174 251 252 186 253 233 168 230 185 118 177 138 67 120
113 35 80 119 32 68 136 40 66 157 53 71 173 63 75
178 64 74 175 61 69 171 59 66 161 54 57 137 38 36
113 21 16 102 14 6 106 19 9 118 27 17 129 32 22
144 40 31 158 49 41 168 56 50 173 58 56 175 60 61
174 60 64 164 53 60 146 38 47 142 35 48 161 54 71
196 86 109 215 104 133 213 101 137 200 92 135 200 98 150
219 128 186 242 160 225 251 175 245 245 171 245 239 164 240
237 160 237 235 157 232 223 145 217 201 123 191 173 95 158
152 71 128 137 56 108 130 49 96 122 43 86 116 38 75
110 32 65 106 28 56 106 27 50 109 28 48 115 31 49
124 36 54 136 43 62 149 53 73 164 64 85 177 74 96
190 83 105 197 89 110 203 96 119 205 103 130 209 114 148
218 131 173 230 151 202 239 166 225 241 172 238 235 170 240
228 164 237 220 157 231 216 152 229 214 149 230 214 148 234
214 147 238 213 145 241 210 142 242 206 138 241 203 135 240
201 133 240 199 131 240 198 131 242 198 130 244 198 130 245
197 130 246 197 131 245 196 131 244 196 132 244 196 133 243
196 133 242 196 133 240 197 133 237 199 133 234 202 135 234
205 139 236 208 143 239 212 147 241 214 150 242 216 152 242
217 155 243 220 159 245 223 164 248 226 168 249 228 170 248
230 174 247 235 180 249 240 185 252 242 189 253 242 193 253
243 196 254 244 200 253 244 202 251 244 206 249 247 212 250
251 218 252 253 223 254 253 224 254 252 223 254 252 221 253
251 218 253 251 216 252 252 215 251 252 210 250 249 199 245
244 185 239 238 171 234 226 153 223 198 122 196 163 85 160
138 58 132 130 50 120 128 47 110 123 43 98 114 35 83
107 29 70 103 25 61 102 25 55 104 28 53 107 32 53
107 34 50 105 33 46 100 30 39 95 26 34 91 23 29
86 19 24 81 15 19 77 12 14 75 12 11 75 13 10
75 14 9 73 13 7 71 13 5 72 14 5 74 17 7
74 16 6 76 15 6 79 15 8 85 18 12 89 20 14
94 22 15 100 23 17 108 25 19 115 27 20 122 29 23
130 32 27 136 34 32 141 36 39 145 39 50 146 43 67
163 65 105 198 109 165 227 142 215 227 144 228 198 114 202
176 92 179 164 81 164 159 76 155 154 72 145 151 70 138
153 72 135 161 81 139 171 91 145 174 94 146 168 89 139
160 80 129 154 74 123 151 72 120 148 71 115 143 71 110
136 68 103 130 63 95 124 58 86 119 55 78 115 52 71
111 50 65 107 47 60 104 45 56 102 43 53 101 43 51
99 42 48 97 41 45 96 40 42 95 39 40 94 40 38
94 41 36 94 41 34 94 41 34 94 41 35 95 42 37
97 44 39 97 44 40 96 44 40 94 43 40 93 42 40
93 41 40 92 41 39 119 65 151 121 67 153 123 67 156
124 67 159 127 68 164 133 72 173 140 75 181 143 76 187
146 77 192 153 82 199 164 91 209 179 103 221 191 114 231
201 123 238 205 127 238 205 127 234 205 131 230 213 140 232
229 158 240 244 175 249 248 181 247 218 152 213 168 99 156
124 52 103 109 32 75 119 33 67 138 44 68 162 59 75
178 69 79 182 69 77 178 64 71 173 61 66 161 55 56
137 39 35 115 23 16 104 16 7 108 21 10 118 27 16
128 31 21 142 39 30 154 46 38 163 52 46 167 54 50
171 58 57 171 59 61 160 52 55 142 36 42 139 34 42
160 54 66 193 85 102 211 99 124 209 96 129 198 88 129
198 94 144 216 122 178 239 154 217 252 175 242 252 177 247
248 172 243 240 161 232 222 141 210 196 115 179 167 87 146
143 64 118 127 50 98 118 43 85 109 37 74 100 30 63
93 23 52 87 18 42 82 15 33 82 13 28 83 14 26
87 15 26 91 16 26 99 19 30 110 27 40 128 41 54
147 56 70 171 74 87 190 86 99 203 96 109 203 99 116
201 103 127 204 112 144 215 131 172 230 152 203 240 168 228
241 172 240 236 170 242 228 164 239 222 158 236 217 153 234
215 149 235 214 148 237 214 147 240 212 145 240 209 142 240
206 139 239 204 136 239 203 135 240 201 134 241 200 132 242
199 131 243 198 130 243 197 130 242 196 130 241 197 131 242
198 134 242 199 135 242 199 135 239 199 134 236 200 134 234
203 136 234 206 139 236 209 143 239 212 147 241 214 149 242
214 150 241 215 152 242 217 155 243 220 159 245 221 162 245
222 164 243 224 167 243 229 173 245 234 179 248 237 183 250
239 186 251 241 189 252 241 192 251 241 194 249 243 198 248
246 205 250 251 212 252 254 216 254 254 217 255 254 216 254
253 214 253 254 213 253 254 210 252 251 205 247 245 195 239
233 174 224 222 152 210 210 132 197 201 119 187 184 99 168
163 77 145 148 61 126 145 57 118 144 57 112 141 55 103
134 48 91 126 41 79 120 35 68 118 33 62 119 35 58
120 37 56 120 39 54 118 39 51 115 38 46 112 35 42
108 32 37 102 28 31 95 22 23 90 18 18 87 17 14
86 17 13 84 17 11 82 16 9 81 17 8 83 20 10
84 23 13 81 21 10 81 18 8 83 16 8 88 20 12
90 20 13 94 22 14 101 24 17 110 28 20 116 30 22
122 31 24 128 34 27 135 36 33 139 37 39 141 39 50
142 42 64 160 64 103 196 108 164 224 140 211 223 140 223
194 110 199 175 91 181 165 81 167 159 76 158 155 73 150
152 71 143 158 77 145 167 87 151 176 96 156 171 91 148
158 79 133 147 67 120 140 61 113 137 58 109 134 58 105
131 61 101 127 60 95 124 59 90 121 57 84 117 54 77
114 52 72 111 51 67 107 49 62 105 47 58 103 45 55
101 45 53 100 44 50 98 43 48 97 42 45 95 42 43
95 41 40 94 42 38 94 42 37 95 42 37 95 43 39
96 44 40 97 44 42 97 45 44 96 44 44 95 43 44
93 42 44 93 41 43 92 41 43 120 64 153 123 67 156
126 69 159 128 69 163 131 70 168 136 73 176 141 75 183
145 77 188 149 79 194 157 85 201 169 97 212 186 111 225
199 123 235 207 130 239 208 132 237 206 131 230 209 136 227
218 148 231 235 165 241 248 180 249 242 175 237 202 135 192
152 82 135 115 43 90 110 33 72 120 35 65 140 47 68
165 63 76 181 73 81 185 72 78 180 66 71 174 62 65
161 55 55 137 39 34 115 23 15 104 17 7 109 22 11
119 29 17 128 32 21 141 38 29 150 43 35 158 47 41
161 49 45 166 54 52 167 57 56 157 50 51 140 36 38
137 35 39 159 55 63 190 82 96 206 94 115 204 91 121
196 84 124 196 90 138 214 116 170 236 148 208 252 172 235
253 176 241 243 165 230 222 142 204 194 112 171 167 85 138
144 64 112 126 49 92 112 39 76 101 32 64 90 25 52
81 18 42 74 13 33 68 10 25 64 7 18 62 5 13
62 5 10 65 6 10 68 7 11 72 8 12 79 12 17
93 22 28 112 35 42 142 56 63 170 74 80 194 90 97
202 97 107 201 100 115 198 102 125 201 111 143 212 128 170
230 150 203 241 166 228 244 172 242 238 170 245 231 165 243
223 159 240 219 155 238 216 151 236 214 149 236 212 146 236
210 144 236 209 142 237 208 142 239 208 141 241 206 140 242
204 137 242 201 134 241 199 132 240 198 131 239 198 131 239
199 133 239 200 135 240 201 137 240 202 137 239 203 137 237
204 137 236 206 138 236 208 141 237 210 144 238 212 146 239
214 148 240 214 149 240 214 150 240 215 152 241 217 154 241
217 156 241 218 158 240 221 162 241 227 169 243 232 175 247
236 178 248 238 181 250 240 184 251 241 186 250 241 188 249
244 192 248 247 197 250 250 200 251 248 199 249 244 194 244
240 188 239 237 184 235 236 180 233 235 177 230 231 170 222
223 157 210 208 134 191 194 111 172 180 91 156 172 80 145
162 69 131 153 59 118 148 54 110 149 55 106 151 57 103
150 55 96 146 52 89 141 47 79 136 42 72 134 41 66
134 41 63 135 42 60 134 44 58 132 45 54 130 44 51
129 43 49 127 42 46 121 38 41 114 32 33 108 27 26
104 25 22 101 24 19 96 22 15 92 20 12 91 21 11
94 25 15 95 28 18 91 25 14 90 22 12 91 20 12
95 23 16 94 21 14 96 21 13 102 24 16 111 29 20
118 32 23 123 33 25 128 35 29 135 38 34 138 39 40
139 39 49 139 41 64 160 66 105 197 109 165 221 136 208
215 132 216 188 104 194 171 88 179 161 78 167 155 72 158
152 69 151 150 69 146 159 79 151 164 84 153 163 83 148
149 71 132 138 60 119 132 55 111 130 52 106 127 50 103
124 51 98 122 54 93 118 54 88 116 54 83 114 52 78
111 50 72 109 49 68 106 48 63 103 46 60 101 45 56
99 44 53 97 43 51 96 42 50 95 42 47 93 41 45
93 41 43 92 40 41 92 40 40 92 40 40 93 41 41
93 41 42 94 42 44 95 43 46 95 43 48 94 42 47
92 41 47 91 39 46 90 39 47 89 38 46 123 64 156
125 67 159 128 69 162 131 70 165 134 71 171 138 73 177
143 76 184 148 80 191 154 84 197 163 92 206 176 104 216
192 119 227 203 130 234 210 136 236 214 140 236 216 144 234
222 152 234 231 164 237 243 178 245 251 187 248 235 170 225
187 120 171 138 67 114 109 36 78 112 34 69 122 37 63
142 49 66 167 65 75 184 75 81 187 74 77 181 67 69
175 63 65 162 56 54 137 39 34 115 23 15 106 19 9
111 25 13 120 31 19 129 34 23 140 38 29 147 41 34
152 43 38 155 44 41 161 50 48 162 54 52 151 47 45
136 35 34 134 34 35 157 56 60 187 81 91 202 91 109
202 88 116 195 82 120 196 88 135 212 112 165 234 146 202
250 170 227 243 167 225 221 142 198 190 109 161 164 81 128
146 64 105 132 52 88 116 41 71 99 30 56 85 22 44
73 15 33 65 9 24 59 7 18 55 6 14 51 4 9
48 2 5 47 2 2 48 2 2 50 2 2 52 2 3
56 3 4 65 9 11 80 17 20 109 35 38 141 53 56
172 73 77 189 87 92 199 96 105 199 99 113 197 99 122
200 107 139 216 127 171 233 149 203 245 166 230 245 173 243
240 172 247 232 169 245 226 165 242 222 160 239 218 154 235
214 149 233 211 146 232 211 145 233 212 146 237 213 147 241
213 147 244 211 144 244 207 140 242 204 137 240 202 135 238
202 135 238 203 136 239 205 139 239 207 141 240 208 143 240
208 142 239 208 141 237 208 140 235 209 141 236 211 143 237
213 145 238 214 147 239 214 148 239 215 149 239 215 150 240
216 151 240 216 152 239 218 155 239 221 159 240 226 165 243
232 171 246 236 175 248 239 177 249 239 177 249 238 177 246
237 175 243 237 176 241 238 176 240 236 173 237 231 166 230
225 157 223 218 147 215 214 141 208 212 136 203 211 133 198
206 125 189 198 114 176 186 97 159 176 81 143 167 67 129
160 59 118 154 53 108 150 49 99 150 49 94 153 52 92
155 54 90 155 54 86 153 52 81 151 50 76 148 47 71
147 46 67 147 46 64 147 47 62 146 48 60 143 48 57
141 47 54 141 47 53 141 47 51 138 45 47 132 41 41
128 38 36 124 36 32 121 35 29 115 31 24 109 27 19
105 25 17 106 28 19 106 31 21 102 27 18 101 25 17
104 26 19 108 29 23 105 26 20 102 23 16 106 24 16
113 28 20 119 31 22 124 33 25 129 35 29 136 38 35
139 40 41 139 38 49 140 41 64 163 68 108 200 110 167
218 132 206 206 122 208 176 93 185 160 77 170 151 68 160
145 63 152 146 64 150 148 68 149 155 75 153 150 72 146
140 62 132 126 49 114 119 43 104 117 41 99 115 39 95
112 39 91 109 40 86 105 41 79 103 42 74 101 42 70
100 41 66 98 40 61 96 39 57 94 39 54 92 38 50
90 37 48 88 36 46 87 36 44 86 35 43 85 35 40
84 34 39 83 34 37 83 33 37 83 33 38 84 33 39
85 33 40 86 34 42 86 35 44 87 36 46 87 36 48
86 35 48 85 34 48 83 32 47 82 32 47 82 31 47
126 65 159 128 66 161 130 68 164 133 70 168 136 71 173
141 74 179 146 78 186 153 84 194 161 91 201 171 101 210
183 112 218 196 124 226 206 134 230 215 144 235 224 154 239
232 164 242 239 173 243 245 180 243 251 187 245 252 189 241
227 162 210 176 107 151 127 55 97 106 32 69 114 35 65
126 40 63 148 54 68 173 71 78 190 81 84 192 78 79
185 70 70 177 65 65 163 57 54 137 40 34 115 25 16
107 22 11 113 28 16 122 33 22 131 36 26 140 39 31
146 40 34 149 41 36 151 42 39 156 47 45 156 50 47
145 43 40 130 32 29 132 34 32 156 56 58 185 79 87
200 88 105 200 85 113 195 80 117 196 87 133 212 111 161
233 144 197 241 160 212 223 145 196 189 109 156 158 77 119
142 60 95 135 53 82 124 45 69 107 33 52 88 22 37
73 14 27 62 8 18 55 4 12 51 4 9 48 4 7
45 4 4 41 3 1 39 1 0 39 1 0 40 1 0
41 0 0 44 0 0 50 3 3 59 6 7 80 17 18
107 31 31 139 50 51 166 70 72 190 89 94 202 99 108
201 99 113 198 97 120 204 107 140 219 126 171 236 151 206
246 169 232 246 178 246 242 179 250 236 177 248 231 173 244
225 165 238 219 157 234 215 151 231 213 149 232 215 151 235
218 153 241 219 154 245 218 153 247 214 148 244 211 144 242
209 142 240 209 142 240 209 142 240 210 144 240 212 146 241
215 149 242 214 147 240 212 144 237 210 141 234 210 141 234
211 142 234 212 144 235 213 145 236 214 146 237 215 148 239
216 149 239 217 150 240 218 151 240 221 154 241 225 159 244
230 165 246 235 170 248 238 171 248 237 169 245 231 161 237
223 153 227 217 145 220 213 141 215 212 138 212 210 132 208
204 124 201 199 115 192 194 106 184 190 100 176 189 96 170
187 92 163 183 86 154 178 78 144 173 71 132 169 64 122
165 58 113 160 53 104 155 49 94 153 47 87 153 48 82
155 50 79 156 51 77 156 51 73 157 51 71 156 50 68
155 49 65 154 48 63 154 47 61 153 47 60 152 48 59
150 48 56 148 47 53 147 48 52 148 48 52 148 48 50
146 47 47 145 47 45 144 47 43 142 47 41 137 43 37
129 37 30 122 32 25 120 31 24 118 32 25 115 29 22
116 30 24 120 34 29 126 40 35 122 36 31 116 31 25
115 29 21 120 31 23 124 33 25 128 34 27 131 35 30
137 38 35 140 39 41 140 38 49 143 43 67 167 71 112
201 111 169 214 127 202 196 111 198 164 80 173 146 63 158
139 57 151 138 56 148 145 64 153 150 70 156 148 69 152
132 54 133 115 39 113 105 31 100 102 28 93 100 27 87
98 26 82 95 25 77 92 26 71 88 27 63 85 28 57
84 28 54 83 27 50 81 27 46 80 26 42 79 26 40
77 26 38 75 26 36 74 25 35 73 25 34 72 24 32
71 24 30 71 24 29 70 23 28 71 23 30 72 23 33
73 22 36 74 23 38 75 23 40 75 25 42 76 25 44
76 26 46 76 25 46 75 25 47 74 23 47 73 23 48
73 23 48 131 68 164 133 69 166 136 72 170 141 76 175
145 79 181 150 83 188 156 88 195 164 95 203 172 103 210
181 112 217 191 122 222 203 133 228 214 144 232 226 158 239
238 172 246 244 180 247 243 180 240 240 176 230 239 175 224
238 172 217 211 143 184 163 92 131 119 46 82 105 30 62
116 36 62 132 45 64 156 61 72 183 80 85 200 90 90
200 86 84 190 75 73 181 69 67 165 60 56 138 42 36
116 27 18 110 25 14 116 32 21 125 37 26 133 39 30
141 41 34 145 41 36 148 41 38 150 42 40 153 46 45
150 46 44 137 37 34 125 28 24 129 32 29 155 55 55
182 76 83 196 84 101 197 82 109 193 78 115 196 85 130
210 107 156 223 132 182 219 136 183 189 110 154 157 77 116
138 58 89 131 51 75 125 44 62 112 34 47 94 23 32
78 15 21 65 10 14 56 6 9 50 3 5 47 3 4
44 4 3 41 4 2 38 4 1 36 3 1 35 2 1
35 1 0 37 1 0 40 1 1 43 1 1 47 1 2
58 5 5 76 13 13 105 29 29 138 52 52 172 77 79
197 96 100 207 103 110 206 101 115 203 99 122 208 109 142
221 129 174 237 156 210 247 177 237 248 187 250 245 189 252
240 185 249 235 178 244 229 171 241 224 163 237 219 157 234
218 156 236 221 158 241 224 160 246 224 160 248 221 156 246
218 152 244 216 149 242 216 148 242 216 148 241 216 149 240
218 151 241 221 154 243 220 152 242 218 149 240 214 145 236
213 145 235 213 144 234 212 143 233 213 144 234 213 144 235
215 146 238 215 146 238 215 146 237 215 145 235 218 148 237
223 153 240 228 159 243 234 164 246 234 161 242 227 151 230
212 132 212 197 115 195 187 104 184 184 99 180 184 97 178
184 93 176 184 90 173 183 86 168 182 82 162 181 78 155
180 74 148 178 70 139 174 65 130 171 61 121 168 57 112
166 54 105 163 52 98 160 49 90 157 47 83 155 46 76
156 47 72 157 49 69 157 49 65 157 49 62 158 50 61
158 50 60 158 49 58 157 47 57 156 46 56 156 46 56
155 47 57 153 48 55 151 47 52 150 47 50 152 48 51
154 50 51 156 51 50 158 53 51 160 55 51 160 55 51
157 53 48 151 48 42 142 41 36 137 37 32 135 36 31
131 34 29 133 36 33 138 43 39 145 52 48 142 51 46
137 46 41 135 43 37 138 44 37 140 45 38 141 43 37
140 40 36 143 40 38 143 39 43 144 39 52 147 44 71
169 71 114 199 106 166 206 118 195 186 101 189 156 72 167
139 57 153 135 54 149 139 59 153 153 73 165 155 76 166
141 62 150 117 41 124 101 25 104 95 21 93 92 20 86
89 18 79 85 16 73 83 15 67 80 17 61 77 18 53
73 18 46 72 18 43 71 18 39 69 18 35 68 17 32
67 17 29 66 17 28 65 17 28 64 17 27 63 17 27
63 17 26 61 17 24 61 17 22 61 16 22 62 16 26
63 15 32 65 15 37 66 15 39 67 16 41 67 17 43
68 18 45 68 18 46 68 18 48 68 18 49 68 18 51
67 18 51 67 17 51 141 76 173 144 78 176 149 84 183
157 90 192 163 96 199 169 101 206 176 106 213 183 113 220
190 120 226 198 128 230 207 137 233 218 149 237 229 163 241
240 176 247 248 186 249 244 181 239 228 164 215 213 145 192
210 139 181 211 138 176 190 116 151 152 76 109 117 40 70
108 29 56 119 36 58 137 48 63 162 65 73 189 85 87
205 95 93 205 90 87 194 78 75 184 72 68 167 62 57
139 43 37 118 29 20 112 28 17 119 35 24 128 40 30
135 41 33 142 43 37 146 43 39 149 43 40 150 44 42
152 46 45 145 43 41 131 32 29 119 24 20 127 32 28
154 54 54 179 73 80 190 79 95 192 77 103 190 74 109
193 82 124 205 103 148 205 112 157 188 103 144 154 74 110
134 56 86 128 49 72 124 45 61 113 35 45 98 23 28
83 15 16 71 11 10 61 8 7 54 6 5 49 4 2
45 4 1 41 4 1 38 4 0 37 5 1 35 5 1
35 4 1 34 2 0 36 1 0 38 1 1 41 1 1
42 1 1 46 1 1 57 6 4 80 18 16 113 38 37
150 63 63 184 87 88 208 104 107 218 111 119 213 106 121
206 103 127 206 112 146 222 138 181 239 168 219 250 190 244
251 197 253 247 195 252 244 192 250 241 186 249 235 178 244
228 168 239 223 162 237 224 162 240 227 163 245 228 164 248
225 161 247 223 157 246 221 155 244 220 154 243 219 152 241
219 152 239 220 154 240 224 157 243 225 158 244 225 157 245
222 154 243 220 152 241 218 149 238 216 147 236 215 146 235
215 145 235 216 145 237 213 142 234 208 135 227 201 128 219
200 126 216 203 128 217 209 134 221 217 142 227 219 139 223
210 125 207 190 101 183 174 82 163 166 72 154 166 71 152
169 71 153 172 71 152 174 70 151 175 69 147 175 66 141
175 65 135 175 63 128 173 59 119 168 54 108 164 50 99
162 47 91 161 47 87 160 47 83 158 47 78 156 45 71
155 45 66 156 46 63 158 48 60 157 49 57 157 49 55
158 49 53 159 49 53 159 48 53 158 47 52 158 46 53
159 46 54 159 48 56 157 49 54 154 48 52 154 48 51
157 50 51 159 52 52 163 54 52 167 57 54 169 58 55
171 59 56 170 58 55 167 55 52 161 50 47 156 46 44
153 44 42 149 41 39 148 42 40 152 49 46 159 59 56
161 62 58 160 62 57 162 64 58 167 67 61 168 67 61
164 62 56 157 53 50 154 47 47 150 43 47 149 41 55
151 45 73 168 66 111 191 95 158 197 106 184 181 94 184
156 72 168 143 60 157 144 61 159 153 71 168 166 85 181
158 78 172 135 57 148 111 35 122 99 25 106 95 23 97
90 20 88 85 17 79 82 14 72 78 13 65 75 13 57
72 15 50 69 16 44 68 16 40 66 15 37 65 15 33
64 14 30 62 14 27 61 14 26 61 15 26 61 15 26
60 15 26 60 15 25 59 15 24 58 15 23 58 15 23
60 14 28 61 14 35 64 14 42 64 14 44 65 14 46
66 15 48 66 15 51 67 16 53 67 16 55 67 16 56
67 16 58 66 16 58 66 16 59 150 84 183 152 87 186
158 92 192 166 99 201 173 104 209 179 109 215 186 115 222
194 122 229 202 129 235 209 138 239 219 149 243 232 166 247
243 183 251 251 194 253 248 191 245 227 164 216 199 128 176
181 104 147 184 103 141 193 109 142 185 99 128 160 73 99
131 43 66 117 30 49 122 32 47 139 45 55 162 63 68
187 82 83 202 93 90 202 89 85 193 79 75 184 74 69
165 62 57 138 44 37 117 30 20 114 31 19 123 40 28
133 46 35 140 47 38 144 47 39 146 45 39 146 43 39
146 44 41 146 45 42 137 39 36 121 27 22 112 21 16
125 31 27 151 52 52 173 67 74 181 71 86 182 69 92
180 68 97 182 74 108 188 87 123 176 83 118 155 70 101
128 49 76 121 44 66 118 42 57 111 36 44 98 24 28
86 15 15 75 11 8 66 10 6 58 9 4 53 8 3
49 6 1 44 4 0 40 4 0 37 4 0 36 5 1
36 5 1 36 5 1 35 3 1 37 2 1 39 2 1
41 2 2 42 2 3 43 1 2 49 4 3 65 11 9
91 25 24 125 46 46 163 72 73 198 99 100 221 117 121
222 117 125 210 108 123 198 102 126 206 120 153 228 153 194
247 185 230 253 201 249 251 203 253 249 200 252 246 195 251
243 188 249 236 178 244 231 171 241 229 167 241 229 167 244
229 167 247 227 164 247 225 162 246 223 159 245 222 157 243
220 154 240 219 154 238 220 155 238 223 158 240 226 161 244
227 163 246 228 163 247 228 162 246 227 160 245 225 157 242
221 152 240 220 149 238 220 147 238 218 143 235 208 133 224
195 117 208 184 105 195 179 100 189 183 103 191 193 111 197
195 109 195 189 97 182 172 74 158 160 61 143 157 56 135
159 57 133 162 58 132 165 59 130 168 60 129 170 61 126
171 60 121 170 58 114 169 56 107 166 53 99 163 49 90
160 46 83 158 45 77 158 46 75 157 46 72 156 47 68
155 45 63 153 44 58 155 46 56 157 48 55 157 49 53
157 49 50 157 48 49 158 49 49 159 48 48 159 46 48
159 46 49 161 48 52 161 49 53 160 50 53 157 49 51
158 50 51 160 52 52 164 54 53 168 56 54 173 60 57
177 61 58 179 62 59 179 60 59 177 59 57 174 55 55
171 53 53 169 52 52 165 50 50 163 50 50 164 54 52
168 60 58 172 66 62 176 70 67 183 78 73 191 85 80
195 88 83 191 82 77 183 73 70 175 63 63 167 55 61
161 49 65 158 49 79 169 63 110 189 88 152 197 102 182
189 99 191 170 84 182 158 73 173 163 77 179 171 86 187
175 92 191 157 75 172 133 54 147 115 39 126 108 35 116
104 33 108 98 29 98 91 24 87 85 19 78 80 16 69
76 15 61 73 17 54 71 19 48 69 19 45 68 18 42
66 17 38 64 16 35 63 16 33 63 16 32 62 16 31
62 16 31 62 17 30 62 17 29 61 17 28 61 17 28
61 16 28 62 16 34 64 16 42 66 15 48 66 15 51
68 16 55 72 19 61 74 21 66 74 21 67 74 20 69
74 20 70 74 21 71 73 20 71 73 19 71 154 90 189
156 91 191 160 94 196 167 99 203 173 105 210 180 109 216
188 115 223 196 122 230 205 129 236 211 137 240 222 151 244
236 171 250 248 191 254 253 200 253 239 183 233 207 141 189
176 97 141 164 76 115 177 82 117 193 95 125 195 95 120
179 78 98 151 51 67 131 32 44 127 29 38 141 41 46
161 59 61 183 77 77 195 87 85 196 85 82 189 78 74
180 73 68 160 60 53 133 42 33 114 29 18 114 32 19
126 43 30 137 50 38 144 52 41 146 50 40 143 45 37
141 42 35 140 43 37 139 43 38 128 36 30 113 24 18
108 21 16 124 33 31 149 51 54 168 63 71 173 65 78
171 63 80 167 60 81 167 63 87 166 68 93 151 59 83
133 49 69 117 38 55 114 39 51 108 36 44 98 27 30
88 18 17 80 12 9 72 11 6 65 11 5 58 10 4
54 9 3 50 7 2 46 6 0 41 4 0 38 4 0
37 4 1 37 5 1 37 5 1 37 3 1 37 2 1
39 2 2 41 2 3 43 3 4 43 2 3 47 3 3
57 6 5 76 15 15 106 32 33 143 59 60 183 89 90
215 115 118 224 123 128 215 115 125 198 103 119 199 110 134
217 137 169 239 172 210 251 197 238 253 205 250 250 204 251
246 197 249 244 192 248 240 184 245 234 176 242 231 171 240
230 169 242 229 168 244 226 166 245 224 164 245 224 162 244
223 160 243 221 157 240 219 156 238 219 157 237 220 159 237
223 162 240 226 164 243 230 167 247 233 168 249 234 169 251
232 165 248 228 158 245 225 153 241 225 151 240 223 146 237
211 131 223 191 109 200 171 87 177 160 75 164 161 74 162
170 82 169 174 82 169 172 75 161 161 59 143 155 52 132
153 49 123 153 49 117 154 49 112 156 50 107 157 51 104
159 52 101 160 52 98 161 51 94 162 51 90 161 50 85
160 48 80 158 47 74 156 46 70 156 47 67 157 49 65
157 49 63 155 48 59 154 47 56 155 48 55 158 50 55
160 52 55 160 52 52 159 50 49 159 49 47 159 47 46
159 46 45 160 46 45 162 48 47 162 49 48 161 49 49
161 50 49 163 52 50 165 55 52 168 57 54 172 59 56
177 62 59 180 63 61 183 63 61 183 61 61 182 59 60
181 58 59 180 58 59 180 58 60 178 58 58 175 57 57
174 58 57 176 61 59 179 66 63 185 72 69 194 81 78
204 90 86 210 96 91 209 94 89 204 88 85 195 78 78
183 67 73 173 58 75 166 54 86 173 63 112 192 86 152
204 104 185 201 107 200 186 96 195 177 88 190 184 94 198
188 99 203 181 94 195 156 72 170 134 54 147 123 47 134
119 46 127 114 44 119 108 40 109 99 33 97 91 26 86
85 21 77 80 19 68 75 19 60 73 21 55 72 22 52
71 21 49 69 19 46 67 18 43 67 18 42 66 18 40
66 18 39 66 17 38 66 18 37 66 18 36 65 18 35
65 18 34 65 18 36 66 17 40 68 17 47 70 16 54
70 17 58 74 19 65 80 25 74 86 29 82 87 29 86
86 28 87 86 28 88 86 28 88 86 27 88 85 26 87
151 88 187 151 87 188 154 88 190 158 90 194 163 94 199
170 99 206 179 105 214 187 110 220 195 117 225 201 125 228
211 140 234 227 164 243 243 187 251 248 195 248 223 167 215
185 117 162 159 75 117 162 65 102 185 80 113 206 97 125
215 104 125 202 92 107 173 64 74 144 38 45 132 28 32
142 38 40 161 56 57 180 74 73 191 83 82 191 83 80
185 78 74 175 72 66 153 57 49 128 38 29 111 28 16
114 33 19 128 45 32 140 54 41 146 55 43 145 50 40
139 43 34 134 39 31 133 39 32 130 39 32 119 31 24
106 21 15 106 23 17 128 40 38 155 58 61 172 68 76
174 69 79 168 63 77 160 57 72 153 53 69 145 49 65
132 42 56 121 38 49 114 36 45 108 35 41 99 29 32
88 20 20 80 13 11 76 11 7 70 11 6 64 12 6
58 11 5 55 10 4 51 9 2 47 7 1 44 5 1
41 4 0 39 4 0 39 4 0 38 4 1 38 4 1
38 3 1 39 3 2 41 3 3 43 5 5 43 4 4
47 3 3 51 2 2 64 6 6 88 20 21 124 45 46
164 76 77 199 104 106 218 120 124 218 120 127 205 110 122
200 108 127 208 122 149 226 151 184 243 182 221 252 201 243
250 203 249 244 196 247 242 192 247 239 186 244 235 178 241
231 172 239 229 169 239 228 168 241 226 167 242 225 166 243
227 166 244 226 164 244 224 162 242 222 160 239 220 159 237
220 160 236 221 162 237 223 163 238 227 165 241 231 168 245
237 171 250 239 171 252 236 165 249 231 157 244 227 150 240
222 142 234 211 127 219 190 104 196 170 82 173 159 69 159
159 68 156 165 72 160 164 67 155 161 59 147 153 48 132
150 45 123 148 43 112 147 43 103 146 43 95 146 43 88
147 44 84 150 46 82 153 48 82 155 49 81 156 50 79
157 49 76 156 48 73 155 47 69 155 47 66 155 48 63
156 50 62 157 51 60 157 51 58 157 50 57 158 51 57
162 54 58 164 56 59 164 55 56 163 52 52 160 49 48
159 46 45 159 46 43 161 47 44 162 48 45 163 48 45
163 49 46 164 51 48 167 54 51 169 57 53 172 59 56
176 61 58 180 64 61 184 66 64 187 66 65 187 64 64
187 62 63 187 62 64 188 63 65 189 64 66 188 64 65
186 63 64 185 63 63 185 64 63 186 67 65 189 70 68
195 75 73 203 83 81 212 91 88 216 95 91 216 95 92
208 87 87 195 76 83 183 66 83 176 60 93 180 67 116
198 88 153 212 107 187 214 116 208 203 110 210 198 106 210
203 111 216 201 110 214 185 97 198 159 74 172 139 59 151
133 57 143 129 57 137 124 55 129 117 50 118 108 42 106
99 32 94 92 26 84 85 23 75 81 24 67 79 25 62
78 26 60 77 25 58 74 22 55 72 21 52 72 21 51
72 20 51 72 20 49 72 20 48 72 20 47 72 20 47
72 20 46 72 20 45 72 20 46 72 19 48 74 19 54
74 18 59 77 20 66 82 24 76 91 33 89 101 41 102
107 45 110 108 46 113 107 45 113 105 42 111 104 40 109
102 38 107 148 85 184 149 85 185 151 85 187 155 87 191
160 91 196 167 96 204 177 102 211 184 107 218 191 112 221
194 118 222 203 131 226 221 156 237 240 182 248 242 187 242
208 150 198 169 98 143 148 62 102 162 62 98 189 81 112
213 100 126 223 108 128 212 98 111 184 72 81 154 45 50
139 33 35 143 38 39 161 56 56 180 73 72 190 82 81
190 82 79 184 77 73 172 70 64 150 54 46 124 35 25
109 26 14 114 33 20 129 46 33 142 55 42 146 55 44
143 50 39 137 43 33 131 38 30 129 38 30 125 37 29
114 28 21 102 19 13 107 25 20 133 47 45 163 68 71
180 79 86 180 77 86 172 69 80 159 58 70 146 48 60
133 40 51 124 36 46 117 35 42 110 33 39 102 29 32
92 23 24 84 17 15 79 13 9 76 12 7 72 13 7
66 14 7 61 13 7 57 12 6 54 10 4 50 9 2
47 7 1 44 6 1 42 6 1 40 5 1 39 4 1
38 4 1 38 3 1 39 3 2 40 3 3 42 5 4
42 4 3 45 4 2 48 2 1 56 3 3 75 13 13
106 33 34 145 62 63 182 91 93 209 114 117 219 123 128
216 119 129 206 111 127 203 112 136 213 131 161 231 162 198
247 188 230 251 200 246 247 197 248 244 193 247 238 185 243
233 178 239 229 172 237 228 169 237 227 168 238 227 167 239
228 169 242 231 171 245 232 172 246 231 170 245 227 166 242
224 164 239 222 162 237 223 163 237 225 164 238 229 166 241
232 167 244 235 168 248 236 167 249 235 162 248 232 156 245
228 148 240 219 136 230 203 116 211 182 92 187 166 74 168
162 68 160 166 70 161 169 71 161 163 62 152 156 52 139
149 43 125 147 41 116 145 40 106 143 40 95 141 39 85
138 38 76 138 37 71 140 39 68 143 42 68 147 45 69
150 47 70 152 48 70 153 48 68 153 48 65 152 47 62
152 47 59 153 48 58 155 49 58 156 50 57 158 51 58
161 53 59 166 57 62 169 59 63 169 58 61 167 55 56
163 50 50 161 47 46 161 47 44 163 48 45 165 50 46
166 51 47 168 52 49 170 54 51 172 56 53 173 57 55
176 59 57 179 62 60 184 65 63 189 68 67 192 69 69
194 69 69 195 69 70 197 70 71 199 71 73 199 72 73
197 70 71 194 68 68 193 68 68 194 70 69 195 72 70
194 71 69 195 72 71 201 77 77 209 85 84 213 89 88
214 90 89 208 85 86 198 76 84 188 69 87 183 65 97
185 69 116 198 84 147 208 100 178 215 114 205 214 119 218
213 119 222 214 122 225 207 117 219 189 101 202 164 81 177
145 67 158 141 67 152 138 66 146 132 63 137 124 56 126
115 47 114 106 38 102 98 30 91 92 27 81 88 27 74
86 29 70 85 30 68 84 28 66 81 25 62 79 23 60
79 23 59 79 23 59 79 23 59 79 22 58 79 22 57
80 22 57 80 22 56 80 22 56 80 22 57 79 21 57
80 21 61 80 20 65 84 23 74 90 28 85 101 38 101
117 53 121 132 67 138 137 70 144 133 66 141 127 60 135
127 59 134 127 58 134 147 84 184 148 84 185 150 84 187
154 86 190 159 90 195 167 95 203 176 102 211 184 107 217
190 111 220 192 116 219 200 129 223 219 155 235 240 182 247
236 181 235 194 135 183 154 82 126 139 51 91 160 59 94
188 80 110 213 101 125 223 109 128 213 100 112 188 78 85
159 51 55 143 37 39 144 39 40 162 56 56 179 73 72
189 82 80 189 81 79 183 77 73 170 69 63 147 52 45
121 33 23 108 24 13 115 32 20 131 47 35 143 55 44
146 55 45 142 49 40 135 42 33 129 38 30 126 37 29
121 34 27 108 24 18 98 16 11 104 23 19 133 48 46
164 71 73 181 83 88 180 79 86 171 71 79 156 58 67
140 45 54 126 35 44 118 33 40 113 32 38 105 29 33
95 23 25 86 17 17 80 14 11 78 13 8 77 14 8
73 14 8 68 15 8 63 14 8 59 14 7 56 12 5
52 10 3 49 8 2 46 7 1 43 6 1 41 6 1
39 5 1 38 4 1 37 3 1 38 3 1 39 4 2
40 5 3 41 5 4 43 5 2 44 3 1 49 2 1
62 6 6 88 22 22 125 48 48 164 78 78 199 107 109
218 122 127 223 125 134 213 114 129 202 107 129 203 115 144
217 140 176 237 169 210 248 190 236 250 197 247 247 195 250
241 188 246 236 181 242 232 176 239 230 173 239 229 171 239
230 172 241 233 175 244 238 178 248 240 180 250 239 178 249
234 174 245 229 169 241 226 166 238 225 164 237 226 164 237
227 162 236 224 157 234 219 149 230 213 141 224 212 135 223
215 136 227 221 138 233 219 132 229 208 117 215 190 96 195
178 81 179 176 78 174 178 78 173 175 73 166 162 58 149
151 45 131 144 38 118 142 37 109 140 37 99 138 36 88
134 35 77 130 32 66 128 31 59 129 32 56 132 35 56
136 38 57 141 42 60 144 44 61 147 46 61 148 47 60
148 45 58 148 44 56 149 44 55 152 47 56 154 48 57
157 50 57 162 53 60 167 57 63 171 60 65 172 60 64
171 58 60 168 54 54 165 50 50 163 49 47 165 50 48
167 52 49 170 54 52 173 56 54 176 57 55 177 57 56
178 58 57 179 59 58 183 63 61 188 67 65 194 71 70
198 74 73 201 75 75 204 77 76 208 80 80 211 82 82
212 82 82 208 79 79 204 75 75 202 75 74 203 77 75
202 77 75 198 73 72 198 72 72 203 77 78 209 82 83
211 85 86 210 84 86 206 81 84 200 77 85 195 73 91
191 70 101 190 71 115 194 78 137 202 91 165 213 109 197
222 124 220 223 129 228 220 129 229 210 122 221 191 107 205
170 90 184 152 76 167 149 76 162 146 74 155 140 69 145
131 61 133 121 51 120 113 42 108 105 34 98 100 31 89
96 32 82 95 34 79 94 34 77 92 32 74 89 29 71
86 26 68 85 25 67 86 25 67 86 25 67 86 25 67
86 25 67 87 25 67 87 25 67 87 25 66 87 25 67
87 24 68 88 25 71 89 25 76 93 28 84 99 33 95
115 48 116 142 73 146 167 97 173 177 106 185 173 103 182
168 97 177 167 96 176 167 95 175 148 84 185 150 85 186
152 86 188 155 87 191 160 91 196 168 97 204 177 103 212
185 108 218 190 112 220 193 117 220 202 131 225 223 158 237
243 184 249 232 174 228 185 123 172 144 69 114 133 44 83
156 55 90 184 75 105 207 96 120 216 104 121 207 95 106
186 76 83 161 53 56 146 41 42 147 42 42 164 58 58
180 73 73 189 81 80 188 80 78 182 76 73 168 67 61
144 50 42 118 30 21 107 22 12 114 30 19 129 44 33
140 52 41 143 51 42 138 46 37 131 39 31 125 35 27
122 35 27 115 31 24 103 20 15 94 13 9 101 20 17
128 44 42 155 65 66 170 76 78 168 71 76 159 63 69
146 51 58 132 40 47 121 33 39 115 31 36 109 31 33
100 26 27 90 19 18 82 14 11 79 13 8 78 14 8
78 15 8 74 15 8 70 15 8 65 15 8 61 14 7
58 12 5 54 11 4 50 9 2 47 8 1 45 7 1
42 6 1 40 5 1 38 5 0 37 4 1 37 3 1
38 4 2 39 5 3 40 6 3 41 7 2 42 5 1
44 2 0 53 3 2 73 13 13 109 37 37 149 67 68
190 100 101 215 119 123 226 126 134 218 116 130 206 106 127
200 106 133 207 121 155 223 147 187 241 176 220 251 194 243
251 199 252 247 194 250 242 188 248 237 184 245 235 180 244
234 178 244 236 179 245 238 182 247 243 185 250 245 187 252
245 186 252 241 182 248 236 176 244 232 170 240 227 164 236
224 158 231 218 149 225 209 138 217 194 120 203 179 102 189
174 93 185 183 99 194 201 114 212 214 123 223 215 121 222
206 109 210 200 100 200 198 97 196 195 91 189 181 77 173
161 55 148 146 40 125 139 34 111 137 33 102 135 33 92
131 32 80 127 30 68 121 27 56 119 25 48 119 26 45
123 29 45 126 32 46 131 36 49 135 40 52 139 43 54
142 46 55 143 46 55 145 45 55 146 45 55 149 47 57
151 48 57 154 50 58 159 52 59 164 56 62 169 59 65
172 62 66 174 63 65 173 61 62 171 58 58 167 55 54
166 54 52 168 56 53 173 58 56 178 60 59 182 61 60
184 61 61 185 62 61 186 63 63 189 65 65 194 68 68
199 73 72 202 76 75 206 79 78 210 82 81 216 87 86
221 92 91 223 92 92 220 89 88 214 84 83 211 82 80
209 81 79 206 80 78 203 76 76 204 77 77 209 81 83
213 85 88 213 85 88 210 82 86 207 80 85 204 78 88
201 77 95 198 75 104 194 73 114 193 74 128 197 83 152
209 101 183 223 121 213 230 133 228 229 137 232 220 133 228
201 120 213 181 104 196 164 91 180 161 89 174 155 84 165
148 76 154 138 66 141 128 55 128 119 45 116 112 39 107
108 37 99 105 38 93 104 40 89 103 39 87 100 36 84
97 33 80 94 30 77 93 29 76 93 28 76 93 28 76
94 28 76 94 28 76 94 28 76 94 28 76 94 28 75
94 28 75 95 29 78 96 29 81 99 30 87 102 33 94
111 40 108 134 62 136 169 96 175 198 123 206 207 132 217
202 127 211 196 121 206 192 117 202 190 114 199 150 85 187
152 87 189 154 88 190 156 89 193 161 92 197 169 99 206
178 105 213 185 109 219 191 114 221 197 122 224 209 138 231
229 163 242 245 184 250 227 166 222 178 112 163 137 60 105
130 39 78 153 51 84 178 69 98 198 87 110 206 94 109
198 86 96 181 71 76 161 54 56 151 45 46 153 48 48
167 62 62 182 75 75 189 81 80 186 79 77 179 74 70
163 64 58 139 46 39 114 26 18 106 21 12 115 30 21
130 44 34 139 50 41 140 48 40 134 42 34 126 35 27
119 31 24 115 30 23 108 26 19 97 17 12 91 11 8
99 19 17 123 40 38 145 57 57 155 64 65 152 59 61
143 51 54 133 42 45 123 35 37 117 32 34 112 31 32
105 29 28 96 22 21 86 17 13 80 14 9 79 14 7
79 15 8 79 16 8 76 16 8 71 16 9 67 16 8
64 15 7 61 13 5 57 11 4 53 10 3 50 9 2
46 8 1 44 7 0 41 6 0 39 5 0 37 4 0
37 4 1 37 4 1 37 5 2 39 7 3 39 8 2
40 7 1 40 3 0 45 1 0 62 9 9 96 31 31
137 60 61 180 94 95 210 115 118 225 124 130 221 117 128
211 108 126 202 103 127 201 109 141 211 128 165 230 159 201
246 186 232 253 200 250 252 200 254 248 196 253 243 192 251
240 189 250 239 186 249 240 186 249 241 188 249 244 190 251
247 192 252 249 192 253 248 190 251 244 184 248 240 177 245
235 168 240 227 156 232 213 139 219 193 117 200 170 91 177
150 68 158 145 60 154 158 70 167 181 90 190 199 104 206
207 109 212 206 106 209 207 105 207 211 106 208 209 102 203
192 85 183 166 58 152 145 39 124 136 32 108 133 32 97
130 31 86 126 30 74 122 28 61 116 24 49 114 23 42
113 23 38 116 26 38 118 29 39 122 32 41 125 36 43
128 40 46 131 43 48 134 44 50 136 44 52 139 45 55
141 45 55 142 45 55 144 46 54 147 47 54 151 50 56
156 53 59 162 58 61 168 63 65 171 66 67 171 66 65
169 63 62 167 61 59 169 61 59 174 63 62 181 65 64
187 67 67 192 69 69 194 69 71 196 70 71 198 70 71
200 71 72 203 73 74 205 75 75 208 79 78 212 84 82
220 91 89 227 98 96 230 100 98 228 97 94 222 91 89
217 87 85 212 84 82 209 81 79 207 79 79 210 82 83
215 86 89 218 88 93 218 88 93 213 84 90 209 81 88
206 79 89 203 78 95 200 75 101 196 73 110 195 73 122
197 78 141 204 91 167 218 111 196 230 130 218 237 144 234
235 149 238 218 140 228 202 128 215 187 116 201 181 110 194
171 99 181 160 87 167 149 75 154 139 64 141 129 53 130
122 47 121 118 45 113 116 45 107 114 46 102 112 45 99
109 41 95 104 37 91 101 34 87 100 33 86 101 33 86
101 33 86 102 33 86 102 33 86 103 33 86 102 34 86
103 34 85 103 33 85 104 34 88 106 35 92 109 37 99
113 40 107 127 52 126 156 80 160 191 114 198 210 132 220
211 132 221 202 123 213 196 117 207 190 111 200 185 106 195
151 86 188 154 88 190 156 89 192 158 90 194 162 93 198
170 100 207 179 107 215 186 111 219 193 117 224 205 130 231
220 148 241 236 169 248 247 183 251 224 160 218 174 105 157
134 54 99 128 36 74 150 47 79 172 63 90 190 78 99
195 83 98 189 77 86 176 66 71 163 55 57 156 51 51
160 54 54 172 67 66 184 78 77 188 81 81 184 77 75
175 71 67 158 60 54 134 42 35 110 23 16 106 21 13
122 36 28 142 55 46 153 63 55 150 58 51 139 46 40
125 35 28 114 27 21 107 24 18 99 20 14 91 13 8
87 10 7 98 19 17 120 39 37 138 53 52 146 58 57
140 51 51 131 42 42 122 34 34 116 31 31 114 32 31
109 31 29 102 27 23 92 20 16 85 17 11 81 15 8
80 16 8 81 17 8 80 17 8 77 17 8 74 17 9
71 17 10 68 16 8 65 14 7 61 13 5 57 11 4
54 10 3 50 9 2 46 8 1 42 6 0 39 5 0
37 4 0 36 4 0 36 4 0 36 5 1 37 7 1
37 7 1 38 7 1 37 3 0 40 1 0 54 7 6
86 28 27 129 56 56 172 88 88 203 109 111 223 121 125
224 118 127 216 110 125 207 104 125 202 105 132 204 114 148
220 142 181 238 174 217 253 197 245 254 203 254 251 201 255
247 197 254 244 194 254 241 191 252 242 191 250 242 190 248
244 192 249 246 194 250 249 196 252 251 196 253 250 193 252
248 185 250 244 175 246 235 160 238 217 136 221 191 108 196
166 81 171 149 61 155 145 55 151 152 60 158 169 74 174
179 82 184 185 85 188 184 82 185 190 86 188 204 98 200
214 106 208 204 97 196 176 70 163 150 46 130 137 35 109
133 34 98 129 32 85 125 31 72 120 29 59 116 26 48
112 23 40 111 22 35 112 24 34 113 27 35 114 30 36
115 32 36 115 34 36 115 35 36 116 36 39 117 36 42
119 37 45 119 36 45 119 34 43 119 33 41 120 33 40
122 35 40 126 38 42 133 43 45 143 51 52 153 60 60
160 67 65 163 69 67 164 69 67 166 69 67 173 71 68
182 72 71 191 75 74 197 77 77 201 78 80 204 77 80
205 76 79 206 75 78 207 75 78 207 76 77 209 79 78
212 84 82 220 92 89 227 100 97 230 102 99 228 99 96
223 94 91 218 90 86 213 86 83 210 82 80 210 82 81
213 85 86 218 89 93 221 91 97 221 91 97 217 87 94
211 83 91 206 79 89 202 76 91 198 73 96 196 71 104
195 72 115 198 76 132 200 83 151 209 97 175 222 118 198
236 140 221 243 156 238 236 157 239 228 155 235 217 146 227
208 137 217 190 118 200 174 100 182 163 87 169 153 76 158
142 65 148 134 57 139 128 53 129 125 53 121 123 51 115
121 50 111 118 46 107 113 42 102 110 38 98 108 37 96
109 37 97 111 39 98 112 40 99 112 40 98 113 40 98
112 40 97 113 40 97 113 40 97 114 41 101 116 42 106
121 46 114 127 51 124 148 70 149 179 101 185 204 124 213
205 124 216 189 108 201 176 95 187 169 87 180 163 81 173
158 77 168 152 87 189 155 89 191 157 90 193 159 91 195
164 95 200 172 102 208 180 108 215 188 113 222 200 125 231
216 142 241 231 159 249 243 175 253 248 182 251 222 155 214
173 102 153 134 52 96 130 36 72 149 46 76 168 59 84
183 72 91 187 75 88 181 69 77 171 61 64 163 55 56
160 54 53 164 59 58 175 69 69 185 78 78 187 80 80
181 75 74 171 68 65 153 56 51 128 38 32 108 22 15
108 23 17 129 43 36 155 67 60 169 78 72 167 75 69
152 60 55 134 44 39 118 32 27 105 25 18 93 16 11
84 9 5 84 9 6 96 19 17 117 37 36 132 49 47
137 52 50 130 44 42 121 35 33 115 30 27 112 29 27
111 31 27 105 28 23 96 23 17 88 18 11 83 16 8
82 17 8 83 18 9 84 19 10 83 19 10 81 19 11
79 20 12 77 20 13 75 20 12 72 18 11 68 17 9
64 16 8 59 13 6 54 11 3 48 9 1 45 7 0
41 6 0 38 5 0 36 4 0 34 4 0 34 5 0
35 6 1 34 6 1 35 6 0 34 3 0 36 1 0
48 5 5 78 24 23 120 52 51 163 82 81 197 104 104
219 118 120 227 120 126 221 113 125 212 106 123 205 103 127
201 107 136 211 128 163 229 159 200 248 190 236 254 203 251
253 204 255 249 201 254 245 198 253 242 194 251 241 193 249
242 192 248 243 193 247 245 195 249 248 196 251 251 197 253
251 194 253 249 186 251 243 172 246 235 155 238 221 133 224
200 110 204 178 87 182 163 71 167 158 64 161 160 64 162
168 70 169 168 69 169 164 63 164 160 56 157 166 61 162
183 77 178 202 95 196 208 100 200 190 84 179 165 62 147
143 43 118 135 37 101 129 33 87 125 32 73 120 30 60
116 27 49 112 24 40 109 22 34 107 22 31 105 23 30
104 25 30 101 25 28 97 25 25 93 23 23 89 22 23
87 20 24 85 20 26 84 19 25 83 17 23 82 16 21
82 15 19 83 16 19 87 19 21 94 24 24 105 32 31
117 43 40 130 54 51 141 64 60 148 70 65 154 72 68
163 74 70 175 77 75 188 81 80 198 85 85 203 86 87
206 83 86 209 81 85 210 79 83 211 79 83 212 80 83
212 82 83 215 87 85 220 93 91 225 99 96 227 102 98
224 98 94 220 94 90 216 90 86 213 87 84 211 85 82
212 84 83 215 87 89 220 91 95 223 94 101 224 95 103
220 92 100 214 86 94 206 79 89 199 74 87 195 70 90
194 69 97 194 71 106 197 74 121 197 76 135 201 85 152
209 100 171 220 119 191 230 138 212 235 151 227 240 165 239
240 168 243 229 159 235 208 135 216 188 113 196 176 99 184
168 90 178 160 81 170 150 71 161 141 63 148 135 59 136
132 57 128 129 55 125 125 50 120 120 45 114 117 42 111
118 43 111 121 46 113 123 48 114 125 49 116 126 50 116
126 50 115 126 50 114 126 49 114 125 49 114 126 49 117
128 51 121 134 56 131 147 69 148 176 97 179 204 124 211
210 129 220 191 110 204 164 83 177 150 69 162 144 62 154
141 59 151 139 57 148 154 88 191 156 90 192 159 91 194
161 93 197 165 97 202 174 104 210 182 111 218 193 120 228
208 134 239 224 151 249 235 165 253 244 177 254 248 181 249
220 151 210 174 99 150 136 51 95 133 38 73 151 46 75
167 58 82 180 69 87 182 70 82 176 65 72 169 59 62
163 56 55 161 55 53 166 60 59 177 71 70 185 78 78
185 78 78 177 72 70 165 63 61 148 52 47 125 35 30
108 22 17 112 26 21 135 48 43 163 74 69 179 88 84
177 86 81 161 70 66 141 52 48 123 39 34 107 28 23
92 17 12 81 8 4 81 8 5 93 18 16 112 34 32
124 43 41 126 44 41 119 37 34 113 30 27 111 29 25
112 31 27 110 31 27 102 26 20 93 20 13 85 16 8
83 16 7 84 18 9 86 20 11 87 22 13 87 22 13
86 22 14 85 22 15 83 23 15 81 22 15 79 22 15
76 21 14 71 19 13 64 16 8 58 11 5 52 9 2
48 8 1 44 7 0 39 6 0 36 5 0 34 5 0
33 5 0 33 6 0 33 6 0 33 5 0 33 2 0
34 1 0 43 3 3 69 19 18 110 46 44 152 75 73
189 99 97 215 115 114 228 121 124 226 116 124 216 108 121
208 103 122 202 103 128 206 117 149 222 145 184 241 178 222
253 197 244 254 203 252 250 202 252 245 199 251 241 195 249
240 194 247 242 194 246 242 194 246 243 193 247 243 191 247
241 186 245 235 176 239 227 162 231 219 144 223 215 129 218
209 115 211 200 104 202 187 90 188 175 77 175 166 67 165
161 62 159 164 64 161 162 62 158 156 54 151 148 45 143
151 46 145 165 60 159 185 79 179 202 96 195 198 94 188
178 77 163 152 53 129 137 41 107 129 35 90 125 34 76
121 31 63 117 28 50 111 23 40 107 20 33 102 18 29
98 19 26 93 19 24 88 19 21 81 17 16 73 14 12
65 10 10 59 8 10 55 7 11 53 6 10 51 5 8
50 4 6 49 3 5 49 3 5 53 6 6 60 11 9
70 19 14 82 28 22 96 40 34 111 52 47 124 63 57
135 70 64 146 73 68 160 76 73 175 81 79 188 87 86
197 89 90 203 88 90 207 86 90 210 84 88 212 84 88
213 84 87 214 85 88 215 88 88 217 92 91 220 96 93
221 98 94 218 95 91 215 93 88 213 90 85 213 89 84
211 87 83 212 86 85 215 89 90 220 93 97 225 97 104
227 99 107 224 97 106 217 91 99 207 82 91 199 75 86
194 70 87 193 70 91 194 70 99 196 73 111 196 74 123
198 78 135 198 84 145 202 94 157 210 111 176 224 132 201
240 159 227 250 174 244 243 171 244 226 151 230 207 132 214
195 119 205 187 109 199 176 97 191 164 83 178 151 70 162
142 63 149 138 60 141 136 58 137 132 53 132 127 48 127
126 47 125 129 50 128 133 54 131 136 57 133 138 58 134
138 58 134 138 58 133 138 58 132 138 57 132 137 57 131
137 58 133 142 63 139 155 76 156 178 99 182 207 127 213
223 143 232 212 131 224 183 102 197 155 74 168 143 61 155
138 56 147 135 54 144 134 53 141 156 91 193 158 91 194
160 92 195 164 96 200 171 102 207 181 111 217 191 120 227
203 131 238 215 142 246 226 154 251 232 162 250 241 174 251
244 177 245 216 146 204 172 94 146 137 50 93 137 40 75
153 48 76 168 59 81 178 68 84 179 68 79 174 64 68
168 59 60 163 56 54 162 56 53 169 63 61 182 75 74
189 81 81 185 79 79 174 70 68 162 60 57 144 48 45
123 34 30 110 24 21 115 29 26 135 48 45 159 70 67
173 82 80 172 81 78 158 68 65 140 53 50 125 42 38
109 32 27 91 19 14 78 8 5 78 7 5 90 17 16
107 31 30 116 39 36 116 37 33 109 29 25 107 27 23
110 30 26 113 33 28 108 31 25 99 23 16 90 17 9
85 15 6 84 16 7 86 19 10 90 23 14 93 26 18
94 27 19 93 26 19 92 26 19 90 26 19 89 26 18
87 26 18 84 26 18 79 23 16 70 18 10 62 12 5
55 10 2 51 9 2 46 8 1 42 7 0 38 6 0
35 6 0 34 6 0 33 6 0 33 6 1 33 4 1
32 2 0 33 1 0 39 2 1 60 13 11 97 37 34
140 66 62 180 92 89 210 110 108 227 120 121 229 119 123
219 110 119 210 102 116 204 100 120 203 107 136 214 128 166
230 157 201 246 182 228 252 197 243 252 202 249 248 202 250
245 201 250 243 199 248 245 199 249 245 198 249 244 194 249
241 187 247 232 173 239 217 154 225 202 132 209 191 111 197
188 97 192 189 90 191 190 89 190 186 85 185 179 78 176
169 68 164 161 59 154 160 59 153 159 58 151 153 52 145
144 42 136 144 41 136 150 47 143 165 61 159 188 84 182
199 97 191 190 91 178 162 66 144 141 47 115 130 37 94
125 35 80 121 32 66 116 27 52 109 22 41 104 19 33
98 17 28 92 16 25 85 16 21 77 14 17 67 12 12
57 8 6 46 4 3 38 2 3 33 1 3 31 1 3
29 1 2 28 1 1 27 1 0 26 0 0 30 3 1
36 7 3 45 13 7 54 19 12 66 27 20 81 38 31
98 53 45 115 65 58 126 69 63 138 71 65 150 72 69
166 80 77 180 86 85 193 91 92 203 92 95 207 90 95
210 88 93 211 87 92 213 89 92 214 90 91 214 91 91
215 92 91 215 93 91 213 92 89 212 92 88 212 90 87
212 90 86 212 89 84 213 89 86 216 91 91 221 95 98
226 100 105 229 104 111 228 103 111 222 97 105 211 88 96
202 79 88 196 73 86 194 71 88 194 71 94 196 72 103
196 73 112 197 75 121 195 77 127 194 80 133 197 88 145
209 107 168 227 134 197 242 157 223 244 166 235 238 162 235
229 154 231 219 143 227 209 131 220 195 114 210 178 96 194
162 79 177 151 68 163 147 65 156 145 63 152 140 57 147
135 52 141 135 53 141 141 58 146 146 64 150 149 66 152
150 66 152 150 66 152 150 66 152 150 67 151 151 66 151
150 66 149 150 67 150 159 78 160 179 100 183 207 127 213
224 144 232 221 140 231 199 119 212 172 92 186 150 70 163
139 59 150 133 54 141 130 52 136 128 51 133 161 95 197
160 93 196 162 95 198 169 101 205 180 111 216 192 122 229
202 131 238 210 138 244 215 143 247 218 147 245 224 154 243
236 168 246 239 170 238 210 137 196 167 87 138 137 47 90
140 41 75 155 49 75 169 59 80 178 67 82 178 68 77
174 65 68 169 62 61 164 58 55 165 60 57 175 69 67
191 84 83 196 89 89 189 83 83 176 72 70 162 61 58
143 48 44 123 33 30 110 24 22 117 30 28 136 48 46
157 68 66 167 77 75 163 73 72 148 59 57 132 46 43
119 37 34 107 31 27 91 19 15 78 9 6 78 9 8
92 21 21 110 36 36 117 41 39 112 35 32 104 26 22
103 25 21 109 30 25 111 33 27 105 29 22 96 22 14
89 17 8 87 16 7 88 19 10 91 23 14 95 27 19
99 30 23 101 31 25 100 31 25 99 30 24 98 29 23
96 29 22 94 29 22 91 29 21 85 25 19 76 19 13
67 14 7 60 11 3 55 10 3 50 9 1 44 8 1
40 8 0 37 7 0 35 8 0 35 7 1 35 6 1
34 4 1 33 3 1 33 1 0 36 1 0 53 9 7
85 28 25 127 56 51 168 82 78 202 104 100 224 117 115
230 120 121 222 112 116 211 101 110 204 97 112 202 99 124
205 110 147 215 130 174 231 156 202 245 181 226 252 198 243
251 205 250 249 208 252 248 207 251 249 205 251 247 199 251
240 188 246 230 172 238 214 150 224 196 126 206 180 103 190
172 86 180 173 77 176 174 71 174 175 70 173 174 70 170
172 69 166 167 64 159 160 58 150 158 57 147 157 57 146
155 54 143 145 45 134 140 39 130 141 40 133 152 51 145
176 75 170 195 96 189 194 97 185 169 75 155 144 51 122
132 40 100 126 36 84 120 32 68 114 27 54 106 20 41
101 17 34 95 16 29 89 16 27 81 16 23 71 14 18
60 11 12 48 7 6 36 4 3 27 2 2 22 1 3
19 1 3 17 1 2 16 1 1 15 1 0 14 1 0
16 2 0 21 4 1 29 10 4 39 16 9 48 21 13
60 29 21 77 42 34 97 59 51 111 66 59 118 65 59
123 61 56 135 65 61 152 74 72 175 87 87 194 97 99
204 100 104 207 97 101 207 93 97 208 90 94 209 89 92
209 89 91 209 89 89 209 89 88 209 89 88 210 90 89
211 90 88 211 90 87 211 89 85 212 89 86 216 92 91
220 95 97 225 100 104 229 104 111 230 106 113 226 102 109
217 94 101 207 85 92 200 77 87 196 74 87 197 73 91
197 73 97 197 74 104 197 74 111 197 75 115 196 76 121
197 80 129 204 91 145 213 109 166 223 128 188 231 144 207
239 158 226 244 168 239 241 166 244 228 151 236 210 128 222
190 106 205 173 88 189 161 76 177 156 71 170 153 69 167
149 64 162 145 61 158 147 62 159 153 68 164 159 74 168
160 75 168 160 74 167 160 74 166 161 75 167 162 76 167
163 77 168 165 79 169 168 85 172 184 103 188 205 126 212
220 141 229 215 135 226 196 116 209 176 95 190 158 78 172
143 65 155 134 57 143 129 52 134 126 50 128 124 49 125
166 99 202 164 97 200 167 99 202 177 109 213 191 122 227
201 131 238 206 136 243 207 136 242 208 136 240 208 137 235
217 147 237 230 162 240 229 158 227 197 122 181 157 74 126
136 44 87 142 42 76 157 51 76 171 61 81 179 68 82
179 69 76 175 66 68 170 62 61 165 59 56 167 62 59
180 74 72 196 89 88 201 94 94 193 87 87 179 75 74
165 65 61 143 48 45 121 32 30 109 22 21 117 30 30
137 48 48 155 66 65 162 73 72 157 68 67 142 54 52
127 42 40 116 35 32 105 29 26 89 19 15 78 10 8
82 14 13 100 30 31 120 48 48 124 50 49 115 40 37
104 28 24 104 26 22 108 31 26 108 31 25 101 25 18
92 18 10 88 16 7 89 18 10 92 22 14 96 27 19
101 31 24 105 34 29 108 36 32 108 36 32 108 35 30
107 35 29 107 36 29 104 36 29 102 35 28 95 31 25
85 25 18 74 17 11 65 14 6 59 12 4 53 11 3
48 10 2 43 9 0 39 9 0 37 9 0 36 8 1
35 7 2 34 5 3 34 4 2 33 3 1 36 1 1
48 6 4 75 21 17 115 46 41 156 71 66 191 94 90
216 110 107 226 117 116 222 111 112 211 99 104 205 93 103
202 92 113 199 94 128 201 103 146 213 125 170 232 158 202
248 188 231 254 206 249 254 212 255 252 211 255 251 206 254
244 194 250 231 174 239 213 148 222 196 124 206 183 104 193
175 89 184 169 75 176 166 66 168 162 58 161 160 54 156
158 54 152 158 54 149 156 53 145 153 51 140 153 52 139
153 53 139 155 56 142 150 51 137 143 44 132 136 37 127
141 42 134 164 65 158 189 92 184 193 97 187 173 79 163
146 53 128 132 41 104 125 36 86 118 31 70 112 26 56
106 21 44 101 19 37 96 19 34 89 19 31 79 18 27
67 15 20 53 11 12 40 6 6 28 3 2 19 1 2
13 1 2 11 1 2 10 1 1 8 1 0 7 1 0
7 1 0 8 1 0 12 2 0 19 7 2 28 11 5
36 15 7 44 19 11 58 30 22 78 46 39 94 57 51
101 59 53 103 54 49 109 53 49 124 61 58 149 78 76
175 95 96 195 107 109 204 108 111 205 102 106 204 95 98
204 92 95 205 89 92 205 88 91 206 88 89 207 88 89
208 89 90 210 90 90 211 90 89 211 90 87 213 90 87
216 92 91 220 96 97 224 100 103 228 104 109 230 106 112
228 105 111 220 98 104 211 90 95 203 81 88 199 76 85
198 74 87 197 73 91 196 73 96 196 73 101 198 74 106
200 75 111 201 77 118 202 82 127 203 89 138 206 99 151
212 114 170 226 137 197 241 161 224 248 170 241 239 160 239
222 140 228 204 121 214 188 103 202 175 90 192 168 83 186
163 79 181 159 75 177 157 72 173 159 74 174 165 80 179
171 85 183 172 87 183 172 87 182 173 88 182 176 91 184
180 94 187 184 98 190 188 102 194 196 112 202 209 128 216
219 139 227 212 133 223 190 110 203 167 88 182 153 74 168
143 66 157 135 58 145 128 52 134 124 50 126 121 48 119
119 47 115 167 100 203 167 99 203 173 104 208 185 116 220
196 127 232 201 132 238 200 131 237 198 127 233 199 127 231
202 131 229 214 144 234 225 156 235 214 142 211 178 102 161
144 60 111 135 42 84 147 46 78 164 56 81 178 68 86
185 74 86 183 73 80 178 69 71 170 63 61 164 58 55
164 59 56 176 70 68 190 83 82 195 88 88 190 84 83
178 74 73 164 65 61 141 47 43 119 29 28 108 20 20
118 30 31 137 48 48 152 64 63 158 69 68 152 64 63
140 52 51 128 43 42 117 37 35 104 29 26 87 17 15
77 12 9 86 20 19 108 41 41 129 59 59 132 59 58
120 45 43 108 32 29 107 30 26 110 33 28 106 30 24
97 21 15 90 16 9 89 16 9 92 21 13 96 26 18
101 31 24 106 35 29 110 38 34 114 40 37 116 40 37
117 41 37 118 42 37 119 45 39 119 46 40 116 45 39
109 41 35 97 33 26 84 24 17 73 18 11 65 15 8
58 14 5 52 12 3 45 11 1 41 10 0 38 10 0
36 8 1 35 7 3 34 5 3 34 4 3 34 4 2
36 3 1 46 6 3 69 17 13 107 39 33 144 61 55
178 82 77 203 99 94 218 109 105 217 106 104 210 96 97
205 90 97 203 87 104 199 85 116 194 86 127 199 101 144
217 132 175 238 169 212 251 196 240 253 205 251 248 200 249
240 190 245 229 172 237 211 148 221 191 118 202 176 95 186
170 83 180 169 76 177 165 66 170 160 57 160 154 49 150
150 45 144 146 42 138 144 40 133 142 40 128 140 39 125
142 42 126 144 46 129 153 54 138 156 57 142 151 53 139
139 41 130 136 38 128 152 55 147 180 84 176 188 92 184
174 79 167 147 54 132 132 42 108 124 36 89 117 31 73
112 28 59 107 25 50 104 25 44 99 25 41 91 24 37
78 21 31 63 16 22 48 10 13 34 5 6 22 2 2
14 1 1 9 0 1 7 0 1 6 0 1 5 0 0
5 0 0 4 0 0 6 1 0 9 2 0 16 5 1
22 8 2 28 9 3 34 12 6 45 19 13 61 32 25
75 42 37 83 47 43 89 48 45 95 49 46 105 54 51
122 65 63 146 82 80 172 100 100 192 111 111 201 112 113
202 105 107 201 98 101 202 93 97 204 92 95 206 92 95
207 91 93 208 90 93 209 90 91 211 91 90 212 91 89
214 91 89 216 93 91 220 96 96 223 99 101 226 102 107
227 104 109 225 104 109 220 99 103 213 92 96 206 84 88
201 77 84 199 74 84 197 72 86 196 72 90 196 71 94
198 72 98 201 74 104 203 76 110 204 79 116 202 81 122
198 84 127 198 92 139 208 110 163 223 133 191 233 149 213
232 151 223 227 145 225 218 137 223 204 123 215 190 108 205
179 97 197 174 92 192 169 88 187 168 87 185 171 90 187
177 95 191 184 102 197 189 106 200 194 111 205 198 116 207
203 121 211 209 126 215 214 131 219 218 135 223 222 140 229
223 143 231 214 135 225 192 113 204 167 88 181 149 71 165
141 64 156 134 58 146 127 52 136 122 48 125 119 47 116
116 45 109 114 44 104 164 97 200 168 100 203 177 108 211
189 119 223 195 125 230 194 125 231 190 121 227 189 119 225
195 124 227 202 132 229 217 147 236 222 152 231 199 127 195
161 83 143 133 47 99 136 40 83 153 50 83 173 65 89
188 78 96 194 83 95 191 81 87 183 74 75 171 64 62
159 53 50 156 51 48 166 60 58 179 72 71 184 77 77
181 75 75 171 69 67 159 60 57 137 43 40 117 28 27
109 21 22 120 32 33 136 48 49 149 62 61 152 65 64
147 60 59 139 52 52 131 46 45 121 40 39 104 29 27
86 16 14 78 12 10 88 23 23 110 44 44 129 60 60
129 58 57 118 44 43 109 35 32 111 35 31 113 36 31
106 29 24 95 19 14 90 16 9 91 18 11 95 23 16
101 29 22 106 34 28 111 38 33 115 40 38 118 42 40
121 44 41 125 46 43 129 50 46 133 55 50 134 58 53
132 59 53 123 53 47 110 44 37 94 32 25 81 24 16
70 19 11 63 18 8 55 15 5 48 13 2 42 11 1
39 10 0 36 8 1 35 6 3 33 4 4 33 4 4
33 5 2 35 4 1 44 6 2 65 15 10 100 34 27
134 52 46 165 70 64 188 85 79 205 96 91 210 98 94
208 92 91 207 88 92 205 84 98 202 81 108 196 80 116
194 87 127 203 108 150 222 141 186 240 172 220 243 183 236
235 177 236 223 161 229 211 144 221 197 123 208 182 100 193
170 82 181 164 71 174 162 65 170 157 57 161 152 50 150
147 43 140 143 40 135 139 37 129 135 33 122 132 32 118
131 32 115 133 34 116 136 38 120 148 50 132 160 62 145
161 63 148 147 50 138 137 40 129 144 47 137 172 75 168
182 85 179 174 78 168 148 55 135 134 44 111 126 39 94
119 35 78 113 31 64 110 31 56 106 30 50 101 30 47
91 27 41 76 21 32 58 14 21 42 8 12 30 4 6
19 1 3 12 0 2 8 0 2 7 0 2 6 0 1
6 0 0 6 0 0 6 0 0 8 1 0 11 2 0
16 4 0 21 5 0 25 6 1 31 8 3 40 15 9
51 23 17 60 29 25 68 35 31 77 41 39 86 48 45
93 52 49 100 55 52 114 63 61 135 77 75 163 96 96
187 111 111 198 113 115 199 106 108 200 99 103 204 98 102
209 99 103 210 97 100 211 94 97 210 92 94 211 91 91
212 91 90 214 92 89 217 93 92 220 96 96 222 99 100
223 100 104 223 101 105 221 100 104 217 97 100 213 92 94
208 86 89 204 79 84 201 75 82 199 72 83 198 71 87
198 71 90 198 72 93 200 73 96 203 75 102 205 79 108
204 80 113 200 81 116 197 82 122 199 91 136 204 103 155
209 115 174 215 128 193 224 142 213 231 153 229 223 146 229
208 132 219 194 118 208 188 113 203 185 110 200 186 110 200
191 115 204 197 121 209 205 128 216 213 135 222 221 144 229
226 149 232 231 154 235 234 157 239 237 160 241 237 160 242
233 155 240 222 144 232 203 124 214 178 99 192 157 79 172
145 67 160 136 60 151 128 53 139 122 47 128 117 45 118
114 44 108 112 42 100 110 41 94 163 96 199 168 100 203
178 108 212 188 117 223 190 121 226 187 118 225 185 115 222
186 116 222 195 124 227 205 135 232 221 152 241 222 152 231
192 119 188 153 74 133 128 40 92 137 41 83 157 54 86
180 72 95 198 87 104 203 92 103 198 88 93 186 78 78
170 64 60 155 49 45 149 44 40 158 53 50 171 65 63
177 71 70 175 70 69 167 65 63 155 56 54 135 40 39
117 27 27 111 22 24 121 33 34 136 48 49 147 60 60
150 62 62 145 57 57 139 52 53 132 48 48 122 41 41
103 28 28 85 15 15 78 13 12 88 24 24 107 42 42
120 52 53 118 47 48 110 36 36 108 34 31 114 39 36
116 39 35 106 29 24 95 19 13 90 16 10 93 20 13
98 25 18 104 31 25 110 36 31 114 39 35 117 41 38
120 43 40 125 46 43 131 50 47 138 57 53 145 64 59
148 70 65 146 71 65 137 65 59 122 53 47 103 39 32
88 29 22 76 23 15 67 20 11 58 16 8 50 13 3
43 11 1 38 9 0 36 8 2 34 6 3 32 4 4
31 3 3 32 4 2 34 3 1 42 5 1 61 12 8
94 30 24 125 46 40 154 61 55 174 72 66 192 84 78
202 89 84 206 89 86 208 87 88 207 84 94 203 80 102
198 79 110 193 80 117 193 89 130 203 111 156 218 136 188
223 149 208 216 145 212 203 130 207 195 117 202 189 105 198
184 94 194 175 82 186 164 68 174 155 57 164 148 48 152
143 43 141 138 37 130 135 35 125 132 31 119 129 29 115
129 30 113 130 32 113 131 34 113 133 37 116 144 48 128
162 65 147 169 72 157 158 62 149 143 48 136 140 44 134
166 69 162 178 80 174 173 77 167 148 54 136 134 45 114
129 43 99 122 40 84 114 34 69 110 33 60 104 32 53
98 30 48 87 26 40 71 19 30 53 11 19 37 5 10
26 2 4 18 1 2 12 0 2 9 0 2 8 0 2
8 0 1 8 0 0 8 0 0 9 0 0 10 1 0
14 2 0 17 3 0 20 3 0 24 4 1 30 7 4
39 14 9 48 20 16 56 26 23 62 30 29 68 35 34
74 40 39 80 45 43 85 47 45 91 49 46 99 52 49
126 70 68 159 95 94 184 110 111 192 109 111 196 104 108
205 106 109 214 109 113 215 105 110 214 100 104 212 94 98
211 91 93 212 92 91 214 92 91 217 94 92 219 96 96
221 98 99 221 99 101 220 98 101 217 96 99 215 94 97
213 91 94 211 88 90 208 82 86 204 77 83 202 73 83
200 72 85 199 72 87 198 71 89 199 72 90 202 75 95
205 79 101 206 80 106 204 80 109 200 79 112 198 81 120
195 85 130 192 91 142 199 106 164 218 134 196 237 161 228
240 169 240 229 160 235 217 148 226 212 143 221 209 141 219
212 144 221 217 150 225 223 156 230 229 160 235 234 163 240
238 165 244 238 165 244 237 163 242 235 161 239 232 158 237
229 155 235 223 148 232 214 137 225 197 119 210 179 100 193
161 83 176 147 69 161 134 58 146 124 49 132 117 44 120
114 43 111 111 42 101 109 40 92 107 39 86 166 98 202
171 102 207 179 109 215 186 115 222 187 117 224 185 115 223
185 115 223 189 118 225 198 126 230 210 139 237 227 156 246
223 151 231 187 113 182 148 68 127 126 38 89 138 41 83
159 55 86 184 75 97 202 90 105 205 94 103 197 87 91
184 76 75 166 60 56 149 44 39 144 40 35 156 51 48
172 67 64 179 73 72 177 72 72 170 67 68 159 59 60
138 42 44 120 28 30 113 24 25 124 35 36 139 50 50
148 59 60 148 60 62 144 56 59 139 51 55 132 47 50
121 40 43 103 28 30 85 16 17 78 13 14 86 22 24
101 35 37 110 41 43 107 36 37 104 30 30 108 34 32
117 41 38 116 39 35 105 27 23 94 18 13 92 18 12
96 23 16 102 29 22 107 33 27 112 37 31 116 39 34
120 41 36 124 43 39 129 47 43 136 53 49 145 62 57
152 71 65 156 76 70 152 75 69 141 67 60 124 53 46
104 38 31 89 28 20 76 21 13 67 18 10 58 14 6
49 12 3 42 9 1 36 8 0 33 6 1 31 4 2
29 2 3 29 2 2 29 2 1 31 2 1 39 3 0
56 9 5 86 24 19 114 39 33 140 51 46 159 60 53
176 70 64 191 79 74 203 85 82 208 86 86 207 83 90
202 79 95 198 76 102 191 74 106 184 74 111 185 81 126
191 95 148 194 104 165 191 104 175 184 98 178 184 95 183
185 93 189 187 92 193 181 85 189 166 70 176 150 54 158
138 41 141 134 37 130 129 32 120 125 28 113 121 24 107
119 23 104 120 25 104 124 29 107 129 34 111 135 40 117
145 50 129 162 66 148 174 79 163 168 73 159 153 58 146
141 46 136 163 67 159 176 79 172 173 77 167 148 55 137
134 44 116 129 44 103 122 41 89 113 35 73 107 33 63
99 30 53 90 26 44 77 20 34 62 13 23 48 7 14
36 3 7 26 1 3 19 0 1 14 0 1 12 0 1
11 0 1 12 0 1 12 0 0 12 0 0 13 0 0
14 1 0 16 1 0 18 1 0 20 2 0 24 3 1
30 7 4 37 12 8 44 18 14 54 25 23 62 31 32
67 34 37 67 34 36 68 35 35 71 36 35 74 37 35
77 35 32 93 47 44 123 71 67 153 92 90 168 97 96
179 98 99 196 105 108 213 114 118 219 113 119 218 107 113
215 99 104 212 94 97 212 93 93 214 94 93 216 95 94
218 96 95 219 97 97 220 98 100 220 97 100 217 94 98
214 91 94 212 89 92 212 88 91 210 84 88 206 79 84
202 74 81 200 73 82 199 73 84 198 72 85 198 72 86
201 74 90 204 77 94 206 79 98 206 79 102 205 79 106
205 81 113 203 84 122 197 87 130 197 97 145 211 121 174
233 153 209 245 174 234 245 180 243 239 177 241 235 175 239
234 177 239 237 179 241 238 181 243 240 181 246 240 179 246
238 173 246 233 164 240 226 154 234 219 146 227 213 139 222
207 132 217 203 127 214 198 122 211 195 116 209 187 107 202
176 96 191 161 82 174 145 68 156 130 55 138 121 47 125
116 43 114 113 42 104 109 41 94 107 39 85 105 39 80
172 104 209 176 106 213 182 111 219 186 114 225 187 115 226
186 115 226 187 115 226 192 119 228 201 128 233 215 142 241
230 158 248 221 149 228 182 108 176 143 63 121 126 38 87
140 43 82 161 56 85 187 77 97 203 92 105 204 93 100
195 84 87 180 72 71 162 56 52 144 40 35 141 38 33
156 52 48 174 70 66 182 78 76 179 76 77 173 71 74
164 64 69 143 46 51 124 30 34 116 25 26 128 38 38
142 52 53 149 59 61 149 58 63 145 54 61 138 49 57
131 45 52 119 38 44 102 27 32 85 15 21 78 12 17
84 20 24 96 30 33 103 34 37 101 29 31 103 29 30
111 35 35 120 42 41 117 38 35 104 25 22 95 18 13
96 20 14 100 26 20 106 32 25 109 35 28 113 37 30
117 38 32 122 40 34 127 43 37 134 48 42 141 56 49
149 64 57 155 72 64 156 75 67 150 72 64 138 62 54
122 49 41 104 34 26 89 25 17 77 18 10 67 14 7
57 11 4 48 9 2 41 8 1 35 7 0 31 5 1
29 3 2 27 1 1 27 1 1 27 1 0 30 1 0
37 2 0 51 7 4 78 21 16 105 34 29 130 46 40
147 52 46 164 59 54 181 70 65 197 80 77 205 84 83
205 82 86 201 77 89 196 75 94 189 71 97 181 65 98
175 64 104 174 67 117 174 72 131 171 73 141 168 71 149
171 74 160 175 78 171 182 85 183 182 86 186 170 74 176
149 54 155 131 37 133 125 31 120 122 28 112 117 23 104
113 19 98 111 18 95 113 20 96 118 26 100 125 33 107
135 43 117 148 55 132 163 70 149 178 84 167 175 81 167
162 68 156 144 50 141 160 65 157 173 77 170 170 75 164
147 54 138 133 44 118 130 45 108 123 42 95 111 34 78
102 30 65 93 26 53 82 21 41 69 15 29 56 9 19
46 6 11 37 3 6 29 2 2 23 1 1 19 0 1
17 1 1 16 0 0 16 0 0 16 0 0 17 0 0
18 1 0 19 1 0 20 1 0 20 0 0 21 1 0
24 3 2 28 5 3 33 9 6 39 13 11 49 22 22
58 28 31 63 32 36 61 28 32 59 26 28 62 28 28
66 31 30 68 31 27 74 34 30 95 51 46 119 68 64
137 77 75 153 82 82 177 95 96 203 110 114 217 116 121
220 112 118 218 105 110 214 98 102 212 95 97 213 95 95
214 96 94 215 95 94 216 95 95 219 97 97 220 97 99
219 95 98 216 91 95 214 90 93 213 89 92 211 86 89
207 81 85 202 77 81 199 75 81 198 75 81 198 74 81
198 73 82 201 74 86 205 77 90 208 80 95 210 80 98
211 81 103 214 85 111 215 90 120 211 92 128 205 95 135
208 108 152 222 134 180 239 162 211 248 183 235 251 192 247
251 196 250 249 197 250 247 195 249 242 190 246 236 183 243
230 173 239 225 162 236 217 147 229 207 133 222 200 122 215
193 113 209 185 105 202 180 99 197 177 95 195 177 95 195
175 93 193 169 88 184 157 77 168 141 64 149 128 53 131
119 46 118 114 43 108 111 42 98 108 40 88 106 39 80
104 38 75 177 108 216 181 111 219 185 114 224 188 115 228
188 115 230 189 116 230 190 117 229 196 122 232 204 131 236
220 147 244 231 159 247 214 142 219 171 97 163 133 54 109
123 36 82 140 44 80 163 59 85 189 79 97 204 92 104
202 91 97 190 80 82 175 67 66 157 52 48 139 36 31
137 35 30 153 51 46 174 70 67 182 78 77 180 77 79
175 73 79 169 69 77 149 51 60 129 35 41 121 29 32
133 42 44 146 55 58 151 60 64 148 57 64 144 53 62
137 47 58 129 43 53 118 37 45 101 26 34 84 14 22
76 10 17 80 16 22 90 25 30 97 30 33 99 27 30
106 31 33 116 38 39 122 43 42 116 36 34 104 24 21
98 19 15 100 24 19 105 30 24 110 35 29 111 36 29
113 36 29 117 37 29 124 40 32 132 45 37 139 50 42
145 57 49 151 64 56 154 70 60 152 70 60 145 65 55
133 55 45 119 43 33 105 31 22 92 22 14 81 16 8
70 11 4 59 8 1 50 6 0 42 6 0 36 6 0
31 4 0 29 2 1 27 0 1 26 0 1 27 1 0
29 1 0 36 2 0 48 5 3 70 17 12 96 30 25
121 41 35 137 46 40 152 51 45 170 60 56 188 73 69
199 80 78 201 80 82 198 77 85 195 74 89 189 69 90
180 62 90 172 56 92 167 55 99 164 55 109 160 54 117
157 53 125 158 56 136 162 63 149 174 76 167 184 89 183
179 85 181 156 63 160 132 40 133 121 30 116 119 28 109
116 25 103 113 22 98 110 20 95 110 19 93 112 21 93
120 29 101 134 43 116 149 58 134 162 70 149 178 86 169
180 87 173 171 78 166 151 57 148 157 62 155 169 74 167
168 74 163 149 57 142 133 44 122 128 43 112 121 40 99
108 32 82 97 27 67 86 22 53 75 17 41 63 11 28
53 8 19 47 7 13 41 6 9 35 5 6 30 3 4
26 3 4 24 3 4 23 2 3 22 1 3 22 1 3
23 1 3 24 2 3 24 2 3 24 1 3 24 0 2
25 1 2 26 2 3 28 4 5 31 7 7 34 9 10
39 13 15 46 17 22 53 22 28 55 23 29 54 21 25
54 20 22 57 23 23 62 27 25 64 29 25 75 37 32
90 47 43 106 54 50 122 59 58 149 74 75 182 96 100
206 110 116 217 113 119 219 109 114 216 102 106 213 97 99
211 95 95 212 94 93 212 93 92 213 93 92 218 95 96
221 97 99 222 97 100 220 94 98 217 92 95 213 88 91
208 84 87 205 81 83 202 79 81 200 79 81 200 78 81
200 77 82 202 76 84 205 77 86 208 78 89 210 80 93
213 82 96 216 84 101 219 87 109 221 91 117 219 94 124
211 94 127 207 98 134 211 112 150 222 134 177 235 161 207
245 181 231 252 193 244 251 196 247 245 192 244 233 180 238
221 165 231 213 152 227 209 143 225 206 133 223 202 123 220
198 115 217 191 106 211 182 96 202 172 87 193 164 78 184
159 74 180 156 72 174 152 70 166 143 64 153 133 57 138
125 51 124 118 46 113 113 43 103 109 41 93 107 40 83
104 39 75 103 38 70 183 114 222 185 115 225 188 116 228
190 117 232 191 118 233 192 118 233 192 119 231 199 124 233
207 133 236 224 150 245 230 157 242 206 133 207 159 85 148
124 45 97 120 34 76 140 45 77 165 62 86 192 83 100
207 95 106 204 93 99 190 81 82 173 66 64 154 49 46
136 33 29 134 33 29 151 50 46 171 69 66 180 77 77
179 76 80 176 74 83 171 72 83 154 56 68 136 41 52
128 35 43 138 47 53 149 58 64 152 61 68 149 57 66
144 51 63 137 46 58 129 42 53 117 36 46 99 25 34
83 13 23 76 9 19 80 15 23 88 24 30 95 28 33
99 27 31 108 33 35 118 40 41 123 43 43 116 35 34
105 25 22 101 21 18 105 27 22 109 33 27 112 37 31
111 36 29 113 36 29 118 37 29 126 41 33 134 46 37
141 52 43 146 57 48 150 62 53 152 66 55 150 65 55
145 62 51 138 55 45 128 47 37 118 38 29 108 31 22
96 24 16 84 18 10 71 12 5 58 8 2 48 5 0
41 5 0 35 3 0 31 2 1 28 0 1 27 0 1
27 1 0 29 1 0 35 1 0 45 4 2 66 14 10
91 28 22 116 40 33 133 45 39 146 47 42 160 53 49
176 63 60 188 72 70 194 75 76 195 75 82 193 75 86
189 71 88 181 64 88 174 58 90 170 55 96 166 54 103
161 53 111 156 50 116 152 49 122 151 51 130 162 65 149
179 84 172 185 92 183 169 78 169 145 55 144 130 40 124
125 36 115 121 32 108 117 29 104 115 26 100 113 24 96
113 23 95 118 28 100 129 39 113 142 51 127 153 61 141
169 77 160 177 85 171 178 85 174 165 72 163 167 73 166
176 82 175 170 76 167 152 60 147 134 46 126 127 42 115
117 37 101 102 27 83 91 21 68 81 17 55 72 15 44
63 12 34 56 10 26 50 10 21 46 10 17 41 8 13
38 8 11 34 7 11 32 7 11 30 5 9 29 4 8
28 4 7 29 4 8 30 5 9 30 4 8 29 3 7
28 1 6 28 1 6 29 2 6 30 3 7 31 4 9
33 6 11 35 8 13 36 8 13 39 10 15 43 13 18
47 15 21 49 17 20 51 19 21 55 23 23 58 25 23
64 30 26 72 34 30 85 38 35 98 42 41 123 54 55
157 76 80 188 97 103 208 107 114 215 106 112 214 100 105
211 95 97 209 91 93 209 89 89 209 89 88 212 90 89
216 93 93 220 96 97 224 98 101 224 97 101 220 94 97
212 87 90 204 81 83 203 80 81 204 82 83 205 84 86
205 83 86 205 81 86 206 80 87 208 80 89 210 81 91
212 82 93 215 83 95 217 83 99 219 84 103 219 86 109
218 88 114 213 89 119 209 92 124 206 98 132 208 110 148
217 130 174 231 153 202 244 173 225 249 182 237 243 180 239
230 168 233 216 153 226 207 140 222 205 132 223 205 127 225
204 122 226 201 115 223 193 106 215 181 94 202 170 82 190
160 73 180 154 68 173 148 64 165 142 60 155 136 57 143
130 54 132 125 51 122 118 47 111 112 42 99 108 40 88
105 38 79 103 37 71 101 37 66 189 120 229 190 120 230
191 120 231 193 120 234 194 121 235 194 121 235 195 122 232
201 127 234 210 136 238 228 154 246 226 153 236 194 122 193
144 72 131 114 36 83 117 32 68 139 45 74 167 64 86
195 87 102 209 98 108 205 95 100 191 82 83 173 66 64
152 48 44 134 32 29 134 33 29 151 50 47 170 68 67
179 76 78 180 77 84 179 77 88 176 76 91 160 61 78
144 47 64 136 42 56 144 52 64 152 60 71 154 62 72
149 56 68 143 50 63 136 45 58 128 41 54 115 35 46
97 24 35 82 13 25 76 11 22 79 16 27 87 23 32
94 27 34 99 27 32 110 34 38 120 42 43 123 43 43
115 34 32 105 24 22 103 23 20 108 30 25 112 35 30
113 38 32 112 35 29 113 35 28 119 38 30 127 43 35
136 48 39 142 52 43 145 56 46 148 59 49 149 62 51
150 63 52 148 62 51 146 60 49 142 57 46 137 53 43
131 49 40 123 43 35 110 36 29 94 28 21 78 20 13
64 13 7 53 9 4 43 5 2 36 4 2 31 1 2
28 1 2 27 0 0 28 0 0 33 0 0 42 3 1
61 11 7 85 23 18 110 37 30 128 43 37 140 45 39
150 47 42 163 54 50 174 62 59 183 68 68 187 71 75
189 73 81 187 71 85 182 66 87 176 61 89 171 58 94
167 56 100 164 55 107 159 53 111 152 49 114 147 47 118
151 54 130 165 72 152 180 89 173 181 92 177 170 81 165
154 66 148 142 54 132 130 43 119 121 34 109 117 29 103
115 27 100 114 25 99 115 26 100 123 33 108 131 41 118
139 48 128 152 61 144 165 73 160 177 84 173 180 86 178
188 94 187 196 102 196 182 89 181 160 69 158 138 51 134
127 43 121 112 33 104 95 21 83 84 15 69 76 14 59
69 12 49 63 12 42 58 12 35 54 13 30 51 13 27
48 13 24 45 13 22 43 13 21 40 11 20 37 9 17
35 7 15 34 6 14 34 6 14 35 7 15 35 6 14
34 5 13 32 3 11 31 2 10 31 1 10 31 1 10
32 2 11 33 3 12 33 5 12 31 4 10 31 4 10
35 7 12 39 9 15 40 10 16 43 13 17 49 19 21
52 22 23 56 24 23 60 24 23 69 27 26 80 28 28
100 37 39 131 57 60 165 80 85 191 95 101 204 99 104
209 96 100 209 91 94 207 87 89 206 84 85 207 84 84
210 86 86 214 90 90 218 93 94 222 96 99 223 96 100
219 92 96 209 84 87 202 79 80 202 81 81 207 86 87
210 89 91 210 88 91 210 86 91 209 84 91 210 83 91
211 84 92 213 85 93 215 85 95 216 84 97 216 82 98
216 81 101 215 83 106 214 85 112 211 88 116 205 89 121
201 93 129 203 104 146 215 123 171 231 146 199 244 164 222
245 170 234 235 163 235 221 148 229 211 136 226 207 128 226
206 122 228 204 116 226 198 109 221 189 99 210 176 88 196
164 77 183 155 69 173 149 64 165 142 59 156 135 53 144
129 50 134 127 51 126 123 50 118 117 46 107 110 41 95
105 38 84 103 37 75 100 36 67 99 35 62 193 124 233
193 123 233 194 123 234 195 123 235 196 123 236 197 124 235
197 124 233 204 130 235 214 140 239 230 156 247 220 148 229
181 110 178 131 59 114 106 29 72 114 29 62 136 42 68
164 63 81 193 86 99 207 97 107 204 94 99 190 81 82
171 65 63 150 46 43 134 32 30 134 33 31 151 51 50
169 67 69 180 76 81 183 80 90 183 81 96 180 80 99
164 65 88 149 52 75 142 47 68 148 55 73 154 61 77
154 61 75 149 55 70 142 49 64 134 43 58 125 39 53
112 32 45 94 21 34 80 12 26 76 11 26 79 16 30
86 22 34 92 25 34 99 28 33 112 36 40 123 44 46
124 43 44 114 33 31 106 24 22 106 25 22 112 33 28
114 37 32 114 38 32 111 35 28 113 35 28 120 39 31
128 45 36 136 49 40 141 52 42 143 53 43 144 54 43
144 55 45 146 58 46 147 60 49 149 62 51 150 63 53
152 65 56 152 66 57 147 64 56 137 59 51 122 51 43
105 42 33 89 32 24 75 26 18 62 20 15 51 15 14
42 11 11 36 8 9 33 5 5 32 3 3 34 1 1
41 2 0 57 8 5 79 20 14 104 34 27 122 41 34
134 43 37 141 43 38 150 46 42 160 52 49 169 59 57
176 64 65 182 69 74 183 70 80 181 68 85 178 65 90
175 63 95 171 60 99 168 60 105 163 58 109 155 52 109
145 46 108 140 44 111 145 54 125 163 73 149 180 92 171
187 100 180 181 94 174 166 78 157 146 59 136 128 41 117
118 31 107 117 29 104 116 28 103 116 27 103 119 30 107
124 35 113 128 39 120 138 47 131 149 57 144 165 72 161
179 86 177 199 105 198 212 119 212 199 107 199 176 86 176
151 64 150 133 50 131 113 35 110 93 20 88 82 14 75
74 12 65 67 11 56 62 12 49 59 13 43 56 14 39
55 15 36 53 16 33 52 17 31 49 17 29 46 15 27
42 12 23 39 8 20 37 7 18 37 6 18 38 7 18
38 7 19 37 6 17 35 4 16 34 2 14 33 1 13
32 1 12 32 1 13 32 2 13 32 3 13 30 4 11
30 5 11 31 5 12 33 5 12 34 6 13 38 10 15
44 17 21 48 21 23 49 21 22 52 20 20 59 21 21
68 22 22 83 26 28 107 40 43 136 59 63 167 78 83
188 87 91 201 91 95 205 88 92 205 84 87 205 81 83
206 81 81 208 83 82 212 87 86 216 90 91 221 94 97
223 96 99 218 92 95 209 84 86 202 80 80 203 83 82
208 89 88 212 92 93 212 90 93 211 88 93 210 87 93
211 89 94 214 92 98 218 95 101 220 94 102 219 90 100
216 84 97 214 81 96 213 80 100 213 82 105 212 85 111
208 87 115 202 87 120 198 90 129 203 101 147 216 121 172
233 143 202 243 159 226 242 161 237 231 151 237 219 137 232
211 125 229 206 117 227 200 109 222 193 101 214 183 92 203
171 82 190 159 72 177 152 66 167 146 62 159 140 57 150
131 50 137 125 47 126 123 48 119 120 48 113 114 45 102
108 40 91 103 37 81 101 36 72 99 35 64 97 34 59
194 125 234 195 125 235 196 125 235 197 125 236 197 125 236
198 125 235 200 127 233 206 133 236 217 144 241 230 157 247
214 142 221 169 98 164 120 48 102 101 24 65 111 27 57
131 38 60 158 57 73 186 80 92 202 93 101 200 91 95
186 79 80 168 63 62 147 44 43 134 32 31 134 34 34
152 51 52 168 67 70 180 77 85 186 83 96 187 85 104
182 82 106 165 66 95 151 54 84 146 50 78 151 57 81
155 61 81 154 60 78 149 54 72 141 47 65 132 41 58
121 36 52 106 27 43 89 16 33 77 10 28 74 11 30
79 16 35 85 21 38 91 24 37 100 29 36 116 39 44
126 48 49 126 45 45 115 33 31 108 25 23 110 29 26
115 36 32 116 38 33 114 37 31 111 34 27 114 35 28
121 40 32 129 46 37 135 49 39 138 50 40 138 48 38
136 46 36 134 45 34 134 46 35 135 49 37 138 52 41
143 57 47 148 62 53 151 66 57 150 67 59 144 66 58
134 62 53 121 55 46 107 48 38 95 42 33 82 36 30
69 31 29 57 24 25 49 19 20 43 14 14 40 9 8
39 6 4 42 4 2 56 9 5 76 19 13 98 32 24
115 39 31 126 40 34 133 40 34 140 41 37 147 45 41
155 50 47 163 56 55 172 63 65 177 68 75 179 70 84
180 70 91 179 69 96 177 67 101 174 67 105 167 63 106
155 54 102 140 42 95 128 34 92 126 36 99 139 51 119
159 73 146 178 92 168 186 101 178 182 95 174 164 78 156
140 54 132 123 38 115 119 33 110 119 32 109 119 32 110
121 33 112 123 35 116 126 37 120 131 41 126 137 46 133
147 55 144 162 70 160 184 91 183 205 113 205 207 116 208
197 108 198 172 86 173 145 64 147 118 42 121 98 26 100
85 19 86 75 14 74 67 11 63 61 10 56 58 11 50
57 14 46 57 16 44 56 17 41 55 18 38 52 18 35
49 16 31 44 12 26 40 8 22 37 5 19 37 5 19
38 6 19 38 6 20 38 6 19 36 4 18 35 3 16
33 1 15 32 0 14 32 0 14 32 1 14 31 2 14
29 3 13 29 6 14 31 7 16 31 5 15 32 6 14
36 11 18 42 17 23 45 20 25 44 19 21 45 17 18
51 18 18 59 18 18 69 20 21 86 28 29 108 40 42
139 58 61 165 71 75 189 83 87 198 84 88 203 82 86
204 80 82 205 79 80 207 81 80 210 84 83 216 90 90
224 98 99 226 101 102 220 95 97 209 85 86 202 80 79
202 83 81 205 87 86 208 89 89 209 89 91 210 91 94
213 95 98 217 101 104 223 108 110 229 113 116 229 111 114
224 103 108 216 91 99 212 85 96 210 81 97 210 82 100
210 84 106 208 86 110 203 85 114 197 84 120 195 87 130
200 99 147 212 117 173 227 138 203 236 150 226 232 148 234
220 134 230 209 120 225 203 111 222 197 104 217 189 95 208
179 87 197 168 79 186 157 71 173 150 65 164 145 61 155
139 57 146 129 50 132 122 45 120 118 44 111 116 44 105
111 42 96 106 39 87 103 37 78 100 37 69 98 35 62
97 35 57 194 125 233 196 126 235 197 126 236 197 125 236
197 125 234 198 126 234 201 129 234 208 135 236 220 147 243
230 157 246 208 136 214 159 88 153 114 42 93 99 23 60
110 26 53 127 34 53 151 51 65 179 73 84 196 88 95
196 87 91 184 77 78 167 62 62 147 44 44 134 33 34
134 35 36 151 51 54 166 65 72 179 77 88 187 85 102
189 87 111 182 82 111 165 66 100 153 55 91 150 54 87
154 60 89 157 63 87 156 62 83 150 56 76 142 49 69
131 40 61 119 34 54 102 24 44 85 13 35 74 8 32
74 11 35 79 17 41 84 21 43 91 24 41 102 31 40
120 43 48 131 52 53 129 47 48 117 34 33 111 27 26
115 33 30 119 38 35 117 39 34 113 36 30 110 33 27
114 35 28 121 41 33 129 46 37 133 48 38 134 46 37
131 42 32 126 37 27 120 33 23 117 31 21 115 32 21
116 34 24 120 39 29 123 43 34 126 46 38 126 48 41
124 50 43 119 50 43 110 47 40 102 44 35 94 42 34
85 40 34 76 38 36 66 32 33 57 26 27 51 20 20
47 15 14 45 11 9 48 9 6 60 14 9 76 22 16
94 31 23 108 36 28 118 38 30 126 38 32 132 39 34
137 40 36 143 43 40 151 49 46 162 58 58 170 65 71
177 71 82 181 74 92 182 75 98 181 75 103 179 74 106
171 69 104 154 56 95 133 38 82 118 26 76 113 25 80
118 33 94 131 47 113 146 63 135 166 82 158 180 95 173
177 92 171 156 71 150 134 48 128 124 38 117 122 35 115
123 35 116 124 36 118 126 38 121 128 39 124 130 40 126
132 41 129 134 43 131 140 49 138 154 62 152 177 86 177
197 107 198 210 122 211 194 110 197 162 81 166 126 51 133
104 34 112 91 26 98 79 18 85 67 11 71 60 8 61
57 9 55 57 12 52 59 16 50 58 17 47 56 18 43
54 18 39 50 16 34 45 11 28 40 6 24 36 3 20
35 2 20 36 3 20 37 5 22 37 5 22 37 4 21
35 3 19 33 1 18 32 0 17 32 0 17 32 1 17
30 1 16 28 3 17 29 6 19 31 8 21 30 7 19
31 7 19 36 13 22 42 19 26 43 21 26 39 17 20
39 15 16 43 15 14 51 15 15 60 17 17 72 21 21
87 27 28 113 41 43 140 55 58 170 71 75 186 78 81
196 80 83 201 78 81 204 78 79 205 79 79 208 83 82
217 92 91 229 104 104 233 108 108 222 98 98 205 82 82
196 74 73 198 78 76 201 82 81 204 86 86 207 90 91
214 99 100 222 110 110 229 119 120 234 126 126 237 130 130
235 126 126 228 116 117 217 102 105 211 92 99 207 86 97
205 84 98 204 83 101 202 84 104 198 82 107 189 77 109
181 74 112 177 76 120 181 86 138 193 104 164 206 121 192
212 128 209 206 120 212 198 110 210 195 103 210 192 99 208
185 93 201 176 85 192 167 78 182 157 70 171 149 64 161
143 60 152 137 56 142 128 50 129 119 43 115 113 40 104
111 40 97 108 39 90 105 39 84 103 38 76 100 37 68
98 36 61 97 35 56 196 127 234 197 127 235 198 127 235
198 126 235 197 126 233 199 127 233 203 131 233 210 138 237
223 150 244 228 155 242 199 127 204 148 78 141 107 35 84
97 22 57 108 25 49 124 32 49 149 50 61 178 73 81
196 89 94 197 90 93 188 82 83 173 68 69 152 49 51
137 36 38 136 36 40 150 50 56 166 65 75 179 76 92
186 84 105 187 85 114 180 79 114 168 68 108 160 62 103
156 59 98 156 60 94 156 61 89 155 60 84 151 55 79
144 49 73 132 41 66 119 34 59 100 22 48 84 13 41
78 13 43 80 17 48 81 20 50 82 20 47 88 22 42
103 31 43 123 46 52 135 55 57 130 48 49 118 35 34
115 31 30 121 38 36 123 41 38 119 39 34 111 33 28
109 31 25 113 35 28 122 42 34 130 48 39 133 48 38
132 45 36 128 40 31 119 33 24 110 25 16 102 21 11
97 19 9 94 19 9 93 21 12 93 21 13 93 22 15
92 23 17 91 25 20 88 27 21 83 26 21 78 26 20
74 26 21 70 27 23 64 27 25 57 24 24 51 21 21
48 17 17 46 14 13 45 12 9 48 10 7 57 14 8
72 21 14 89 30 21 102 35 26 112 37 29 118 37 30
123 36 31 126 36 31 130 36 32 137 40 38 148 49 49
159 59 64 169 68 78 176 74 89 180 77 97 181 78 102
180 79 105 171 73 101 151 56 88 126 34 71 109 21 63
103 17 65 103 20 74 107 26 86 117 36 103 138 56 130
165 82 161 182 98 178 177 93 174 161 77 158 149 64 145
139 53 135 130 44 127 125 38 122 127 40 125 130 42 128
131 42 129 130 40 128 128 38 126 129 39 127 133 42 131
148 58 147 171 82 171 200 114 202 204 120 208 175 96 182
135 61 145 108 39 120 96 31 108 83 23 94 69 13 78
61 9 68 57 9 61 58 11 57 58 14 54 57 14 50
55 15 46 51 15 41 48 13 36 42 8 30 38 3 26
35 1 23 34 1 23 34 1 23 34 2 23 35 3 24
35 3 24 34 2 23 33 1 22 33 1 22 34 1 23
34 2 24 32 3 24 31 5 25 31 7 26 31 7 26
29 5 23 29 5 22 33 10 23 37 15 25 37 17 23
34 14 18 34 13 14 37 13 12 45 14 13 53 16 15
63 19 18 73 22 21 91 29 30 114 39 41 142 53 55
163 63 66 182 72 75 195 76 79 203 78 80 204 78 78
207 82 80 215 91 89 227 103 101 228 105 104 215 92 91
197 75 74 191 69 68 195 74 73 200 81 80 204 87 86
212 97 96 222 112 110 231 125 123 236 134 132 239 140 137
240 142 138 236 137 134 228 127 124 218 114 114 212 105 108
206 98 104 200 90 100 193 83 96 187 78 94 180 73 94
169 65 92 156 58 90 147 54 92 145 57 101 150 67 118
160 81 141 169 90 161 173 93 173 174 91 180 175 89 185
175 86 186 172 82 184 168 79 180 163 75 176 156 69 169
150 64 160 143 60 151 136 55 139 126 48 125 116 40 110
109 36 98 106 36 91 106 38 87 105 39 81 103 39 74
101 38 67 99 37 60 98 37 56 197 128 235 198 128 236
199 128 236 199 127 235 198 127 233 200 129 232 204 132 233
212 139 236 224 151 243 224 152 237 189 118 193 138 68 129
101 30 76 97 22 53 107 25 45 123 32 46 149 50 60
178 74 81 195 89 93 198 92 95 191 85 87 177 73 75
157 54 57 140 39 43 137 37 43 150 50 58 166 65 78
179 76 95 184 82 108 184 82 116 179 78 119 173 74 119
167 69 115 159 62 105 154 57 95 152 55 87 152 55 84
150 53 81 142 47 76 132 40 71 118 33 64 99 22 55
86 16 51 82 18 55 83 22 59 82 22 57 80 18 50
86 20 43 103 31 44 125 48 54 137 57 59 130 48 49
119 35 34 118 33 32 125 41 39 125 43 40 118 37 33
110 31 26 108 30 24 113 35 28 123 43 35 131 49 40
133 49 39 132 46 37 126 40 31 115 32 23 102 23 14
91 16 7 83 13 4 77 11 2 72 10 2 69 8 2
67 8 3 66 8 4 64 9 5 61 9 6 58 9 6
55 9 6 52 10 6 49 12 8 47 12 11 44 12 11
41 10 11 40 10 9 40 9 7 41 9 6 44 8 5
52 11 6 65 18 11 83 28 19 97 34 26 107 37 29
112 36 29 116 35 29 117 32 28 119 31 27 125 33 31
134 40 40 145 50 54 156 60 68 166 68 81 173 75 91
176 78 98 176 80 101 167 73 96 147 56 82 123 35 65
105 21 56 98 16 57 97 17 64 99 21 74 104 26 88
119 39 110 144 62 139 168 86 166 179 96 177 178 94 176
173 89 172 166 80 165 150 64 149 134 47 133 129 41 128
133 45 131 135 46 134 133 43 131 127 37 125 123 33 121
124 34 122 131 42 130 148 61 149 181 95 183 200 118 206
183 104 191 141 67 153 110 40 123 97 32 111 87 26 101
72 15 84 63 10 74 59 8 66 58 10 62 59 12 59
57 12 55 53 12 51 49 11 46 46 9 42 42 6 38
39 3 35 37 2 33 37 2 33 37 3 33 37 4 34
37 4 34 37 4 34 36 2 33 34 1 31 34 2 32
36 4 34 37 6 36 37 6 37 34 7 37 33 7 36
32 6 34 31 4 30 30 4 27 30 6 25 31 9 24
32 11 21 31 11 17 31 11 13 34 12 12 40 14 12
48 16 14 56 19 17 64 20 19 76 23 23 93 28 29
115 37 38 137 47 49 163 61 63 184 72 74 198 78 80
202 78 78 204 80 78 210 87 84 218 96 94 217 96 94
203 82 81 189 69 68 189 68 67 195 75 74 202 82 81
207 90 88 218 105 104 230 122 120 237 135 132 239 143 139
238 146 141 235 144 140 230 140 136 222 131 128 211 119 117
201 107 107 191 96 99 179 83 90 166 70 79 155 60 72
146 53 69 136 46 66 125 39 64 118 36 66 114 37 72
114 41 83 119 49 97 126 55 113 134 62 128 140 65 139
145 66 148 149 66 154 153 68 161 157 70 166 158 70 168
155 68 166 150 64 160 143 61 151 135 55 138 124 47 123
114 39 107 107 35 95 104 35 89 105 37 86 105 39 81
104 40 75 102 39 67 101 39 61 100 39 57 199 130 237
199 129 236 199 128 235 199 128 234 199 128 232 201 130 231
205 133 231 213 141 235 225 153 242 219 148 230 179 108 180
128 58 116 96 26 68 97 22 50 106 24 41 122 31 41
147 49 55 175 71 76 191 85 89 194 88 91 189 84 86
178 74 77 158 56 60 140 39 45 137 37 45 149 49 60
167 66 82 179 77 99 182 80 110 182 80 118 182 81 126
178 78 128 170 72 121 158 60 107 155 57 98 155 57 92
155 56 89 150 51 84 141 44 79 131 39 76 119 33 72
102 25 66 91 21 63 86 22 66 84 24 66 80 20 61
76 15 51 82 16 42 101 29 43 125 48 54 138 57 59
129 46 48 119 34 34 121 35 34 129 43 42 126 42 40
116 34 31 108 29 24 109 30 24 115 36 29 124 45 36
132 50 41 133 50 40 131 47 38 124 41 33 112 33 25
96 22 14 82 14 6 72 11 2 65 9 1 58 6 1
53 4 0 51 4 0 50 4 1 47 3 1 44 3 1
42 3 1 40 3 1 38 4 2 36 4 2 35 3 2
33 3 3 33 3 3 32 3 3 33 3 2 34 3 1
36 3 0 42 4 0 56 13 6 75 24 16 92 34 25
102 37 29 107 36 28 110 33 27 110 29 25 110 27 23
113 27 24 119 32 31 128 39 41 138 48 55 150 58 69
160 68 81 166 74 90 165 75 92 156 68 86 139 53 74
120 37 62 106 26 55 99 21 56 97 22 62 98 24 70
103 28 83 110 33 98 126 47 120 145 65 142 161 80 159
170 88 168 175 92 175 179 95 180 173 88 174 158 72 159
143 56 144 138 51 138 137 49 137 134 45 134 128 38 127
123 33 122 123 34 122 126 37 125 134 48 136 160 75 164
187 105 194 185 106 194 151 76 163 116 46 130 98 32 113
89 28 105 76 18 91 68 13 81 62 9 73 59 8 68
57 8 64 54 8 60 51 7 56 47 6 53 47 8 54
48 9 55 48 10 55 48 10 55 50 12 57 53 16 61
55 20 63 57 22 65 56 21 65 54 18 62 50 15 59
47 13 56 46 12 56 45 11 55 42 9 53 39 8 52
38 7 50 36 6 47 34 4 41 31 2 35 28 1 29
27 3 24 28 5 21 28 7 18 29 8 15 31 10 12
36 12 12 42 14 14 49 17 16 56 19 18 64 19 19
77 22 23 92 25 26 112 32 34 141 48 50 169 64 66
190 76 77 197 77 77 201 79 78 205 84 81 210 89 87
206 87 86 194 75 74 185 67 66 189 70 69 195 76 75
201 83 82 207 90 89 221 109 107 230 124 122 233 134 131
230 138 134 225 138 134 219 135 131 211 129 125 199 117 114
183 102 100 170 88 88 158 77 79 147 65 70 134 54 61
124 44 54 114 37 50 105 30 47 98 27 46 96 28 50
94 30 56 95 33 63 96 36 72 98 38 81 103 41 91
107 41 100 113 44 110 122 48 123 136 57 140 148 66 155
155 70 164 155 69 166 151 66 162 145 63 153 136 57 139
125 48 123 113 39 107 106 35 95 104 35 89 105 38 86
105 40 82 105 41 76 103 41 69 103 42 63 103 43 60
201 132 237 199 129 234 197 127 231 199 128 231 200 129 230
202 132 230 206 136 231 215 144 235 227 155 242 217 146 225
173 103 172 122 53 108 95 25 64 97 23 47 105 24 36
118 29 35 141 44 48 167 64 67 182 76 79 185 79 82
180 75 78 171 67 72 154 53 58 137 38 45 134 35 45
146 46 60 165 64 83 177 75 101 181 79 113 183 81 124
185 84 134 177 76 131 163 64 118 155 56 106 163 64 108
170 71 110 167 67 104 155 56 94 143 45 86 135 42 85
125 39 85 111 33 82 95 26 75 84 21 71 77 18 66
74 15 60 74 13 51 81 16 43 100 29 43 125 48 54
138 56 58 130 46 47 120 34 34 123 35 35 129 42 41
124 39 37 114 31 28 107 27 22 111 31 26 119 39 33
127 47 39 132 51 41 131 49 39 126 44 34 116 36 28
102 27 19 86 18 10 72 11 3 62 8 1 54 6 0
47 4 0 42 3 0 41 3 0 40 3 1 37 2 0
35 1 0 33 1 0 32 1 1 31 2 1 31 2 1
30 2 1 29 1 1 29 1 1 29 1 1 29 1 0
30 1 0 32 1 0 38 3 0 51 11 5 70 22 14
86 32 23 96 35 27 102 34 27 105 32 27 106 29 25
107 27 24 107 26 23 110 28 27 114 31 32 121 37 42
132 47 55 145 59 69 152 67 79 148 64 78 138 55 71
125 45 62 115 37 57 107 31 56 101 28 57 98 26 60
98 26 66 98 26 75 101 26 86 107 31 98 118 40 112
130 50 124 138 57 134 148 66 146 164 81 164 178 93 178
179 94 181 165 79 166 151 64 152 143 55 144 138 50 139
132 42 131 124 34 123 123 34 123 125 37 127 130 44 135
146 62 152 173 91 181 186 107 197 166 91 180 133 61 148
104 36 120 92 28 109 80 19 97 72 14 88 65 9 80
60 7 74 57 6 71 54 5 67 53 6 67 54 9 70
59 15 78 64 21 83 66 23 85 66 24 86 70 27 89
76 35 97 82 41 102 85 45 106 85 45 106 83 44 104
78 39 100 71 33 93 64 26 86 57 19 79 50 12 73
46 10 70 46 10 69 46 10 65 41 7 57 35 3 46
31 1 38 29 2 33 29 3 28 28 5 23 28 6 18
29 7 15 32 9 14 37 11 14 42 13 15 47 15 16
55 17 17 67 20 21 79 23 24 95 26 27 119 38 39
148 53 53 175 68 68 188 74 73 197 78 77 204 84 82
208 89 88 204 87 86 191 76 75 183 69 67 186 71 70
191 76 75 197 81 81 203 90 88 215 106 104 220 117 115
215 121 118 204 117 114 193 112 109 185 107 105 174 98 97
159 85 83 140 68 67 126 56 56 116 48 49 111 44 47
107 41 47 101 37 45 94 31 42 88 27 41 86 28 43
90 34 51 92 38 57 92 40 61 89 38 63 86 35 65
83 30 67 83 27 71 89 29 81 104 38 101 125 53 126
142 65 148 151 69 161 153 69 165 151 67 163 146 64 155
137 58 142 127 50 126 116 42 110 108 37 98 105 36 91
106 39 87 106 42 83 106 44 78 105 44 71 105 45 66
105 45 62 208 140 240 203 134 234 199 130 228 201 131 228
205 135 230 209 139 233 213 143 234 222 151 239 233 162 245
217 147 223 170 100 167 118 50 102 94 25 62 97 23 45
104 23 33 116 26 29 137 40 41 160 58 59 174 70 71
178 73 75 174 70 73 165 63 67 150 49 56 134 35 44
131 32 44 142 42 58 159 58 79 170 68 96 177 74 112
182 80 127 182 80 135 168 67 126 153 53 110 155 56 108
175 76 123 189 89 132 183 83 125 165 64 108 149 50 97
144 49 100 137 50 104 121 44 99 98 29 85 80 18 73
72 13 65 69 11 58 70 10 49 78 13 40 100 28 42
125 47 53 137 55 58 130 45 47 121 34 35 124 36 36
130 42 41 123 37 35 112 28 25 107 26 22 113 33 28
122 43 37 131 51 43 133 53 43 128 47 36 117 37 28
104 28 19 88 18 11 75 11 5 62 7 1 54 5 0
46 5 0 40 4 0 37 4 0 35 4 1 34 3 1
33 2 0 30 0 0 29 0 0 28 0 0 28 1 1
28 1 0 28 1 0 27 0 0 27 0 0 27 0 0
27 0 0 28 0 0 30 0 0 35 1 0 47 9 4
64 20 12 80 29 19 90 32 24 96 32 24 101 30 25
102 28 25 104 27 25 103 26 24 103 26 25 104 26 27
107 29 32 115 36 42 126 47 54 132 53 62 125 47 58
113 37 50 106 32 46 104 32 48 102 32 51 97 29 52
92 24 52 89 22 54 89 20 61 91 20 71 96 22 81
102 27 91 108 31 99 112 33 104 119 38 114 133 52 131
154 70 154 175 90 176 179 93 181 168 82 171 154 67 156
144 56 146 138 49 139 129 40 130 125 36 127 127 39 132
129 43 137 136 52 146 158 76 169 185 105 197 186 109 200
162 88 177 124 54 141 102 34 120 86 21 104 75 14 94
67 9 87 61 6 82 56 3 78 56 5 79 64 13 88
72 22 101 81 31 112 84 35 117 84 34 116 81 33 114
83 34 116 89 41 122 94 47 128 97 51 132 98 53 133
98 53 133 94 49 129 87 43 123 79 35 115 70 26 105
62 18 97 59 16 94 59 17 92 57 16 87 50 10 76
41 4 63 36 1 52 34 1 45 32 2 38 30 3 32
28 4 25 28 5 20 30 6 17 32 7 15 36 9 14
40 10 14 46 13 15 57 17 19 69 21 22 80 22 23
98 28 28 122 39 38 153 56 55 176 68 67 191 77 76
201 84 83 204 88 87 200 85 84 187 75 73 179 68 67
181 71 69 186 76 75 191 81 80 196 88 87 202 99 97
198 102 100 182 94 92 162 81 79 149 73 72 141 70 69
131 62 62 117 51 51 103 39 40 94 33 34 89 31 34
91 35 39 95 42 48 97 45 53 95 44 54 91 41 53
92 43 57 98 50 64 100 53 68 96 50 65 86 42 59
77 32 53 70 24 50 68 20 52 73 21 62 88 30 83
108 44 110 126 56 133 137 60 149 143 62 158 146 63 161
146 64 157 140 60 146 130 53 132 119 45 116 111 40 103
107 38 94 107 40 89 107 43 85 107 45 79 106 46 73
106 47 68 105 47 64 219 153 245 213 146 238 208 140 231
210 141 231 216 148 236 222 153 240 226 157 242 234 164 246
240 170 249 218 148 221 167 98 163 116 47 99 94 25 62
97 23 44 103 23 32 115 26 28 134 38 38 156 55 54
171 67 67 176 71 72 172 68 71 162 60 65 146 46 53
131 33 42 127 30 43 136 37 54 150 49 72 157 55 87
167 64 105 177 75 126 174 73 131 159 59 121 148 49 108
163 64 119 189 90 139 203 102 149 196 94 140 177 74 123
162 61 114 159 64 121 150 63 123 128 51 112 96 27 89
77 15 73 68 11 64 66 9 56 67 8 46 75 11 37
98 27 41 124 46 53 136 54 57 129 44 46 122 34 35
126 37 37 130 41 41 122 35 34 111 27 24 108 26 22
115 35 30 127 48 41 135 56 47 134 54 44 124 44 32
107 30 19 91 19 10 77 11 4 65 7 1 55 4 0
48 4 0 42 5 0 38 5 0 35 5 1 34 5 1
34 4 1 32 3 1 31 1 0 30 1 0 29 1 0
29 1 0 28 1 0 27 1 0 27 1 0 27 1 0
27 1 0 27 1 0 28 1 0 29 1 0 33 1 0
44 8 4 60 18 11 75 26 17 85 29 21 91 29 22
96 28 23 98 26 23 99 25 24 98 25 23 98 25 23
96 23 23 96 23 25 100 27 30 106 33 38 108 36 41
100 28 36 90 20 29 86 18 29 89 22 35 89 24 39
85 21 39 80 16 38 77 14 39 78 13 45 83 16 57
92 21 71 101 28 84 107 32 92 110 33 98 112 33 104
116 36 111 126 43 123 148 64 148 171 86 172 178 93 181
171 84 174 161 73 163 152 63 154 140 51 142 130 42 135
128 41 137 131 46 144 132 48 146 145 62 159 177 95 191
198 119 213 190 114 207 154 80 171 120 49 139 97 29 118
81 16 104 70 9 95 63 5 90 60 4 89 67 13 98
84 28 118 97 41 136 103 45 144 100 43 142 93 37 136
87 31 130 83 28 127 85 30 129 86 33 132 88 36 134
89 37 135 89 38 136 87 36 134 84 33 131 79 29 127
75 25 122 70 20 117 68 19 114 69 20 113 68 21 109
64 17 100 54 11 86 45 5 71 39 2 59 35 1 50
32 2 42 30 2 34 29 3 27 29 3 22 30 4 17
32 5 15 34 6 13 38 8 13 47 13 15 58 18 19
68 20 19 80 21 19 97 25 22 129 42 39 162 61 59
186 75 74 198 83 82 197 82 82 190 77 76 177 68 66
172 65 63 175 70 68 180 75 73 181 78 77 182 83 82
180 87 85 167 80 78 142 63 62 120 48 46 109 42 41
106 41 41 100 37 39 92 32 34 85 29 31 82 29 31
80 31 34 84 38 43 94 49 56 102 58 66 104 61 71
104 60 72 107 63 76 113 69 82 113 69 82 103 61 72
87 46 58 72 31 45 63 22 40 59 17 41 62 17 50
71 21 66 86 29 88 102 38 111 115 44 130 127 50 145
138 57 155 144 62 157 142 62 150 134 57 138 123 49 122
114 42 108 109 39 98 108 41 92 108 43 87 107 45 81
106 46 74 106 47 68 105 47 65 227 162 245 225 159 242
224 157 239 225 158 238 229 162 242 235 167 246 239 171 249
245 176 252 245 175 250 213 143 214 160 91 155 111 42 94
94 24 61 97 23 45 103 23 34 115 26 30 135 39 38
156 55 54 171 68 66 175 71 72 171 68 70 160 58 63
142 43 50 128 30 41 125 28 42 132 34 52 142 41 66
147 45 78 158 56 99 173 70 124 169 67 129 159 58 122
154 54 116 179 79 137 203 103 156 211 110 160 202 100 150
188 86 139 180 80 138 177 82 145 159 72 138 127 50 117
91 23 89 73 11 73 66 10 64 64 9 55 65 7 44
73 10 34 97 26 39 124 46 52 136 53 56 129 43 46
123 35 36 127 38 38 130 41 40 122 34 33 111 27 24
110 28 24 119 39 34 131 52 46 138 59 51 133 53 44
118 38 27 99 23 12 83 14 4 70 8 1 60 5 0
52 4 0 46 4 0 41 6 0 37 6 0 35 6 1
35 6 1 36 6 2 36 5 3 36 4 3 35 3 2
34 3 1 32 2 0 30 2 0 29 2 0 28 2 0
27 2 0 27 2 0 28 2 0 29 2 0 30 2 0
33 1 0 42 7 3 56 16 9 71 24 15 80 26 18
86 26 19 91 25 20 93 23 21 94 22 21 92 22 20
91 22 20 89 21 19 88 20 19 88 20 21 89 22 23
87 20 23 80 15 20 74 10 17 74 11 19 76 14 23
76 15 26 73 13 26 70 10 26 69 10 29 73 11 36
81 15 48 90 21 62 98 27 74 103 31 83 108 34 92
112 36 100 115 37 107 114 33 110 125 43 124 150 65 150
173 87 175 181 94 184 179 91 182 173 84 176 159 70 162
143 55 150 133 46 146 135 49 152 132 47 150 136 52 154
161 78 179 192 111 209 200 121 218 177 100 196 143 70 164
116 46 140 94 27 121 78 14 108 69 9 102 70 12 107
84 26 123 102 43 146 114 52 161 113 49 163 104 40 156
95 31 147 87 24 139 83 21 136 82 21 135 81 21 136
82 23 137 82 23 137 81 23 136 78 21 135 76 19 132
75 18 132 73 17 129 72 17 128 71 16 125 72 18 125
74 21 123 75 23 120 69 19 110 58 12 93 47 4 76
40 1 63 36 2 53 34 2 45 31 3 36 30 2 28
29 3 21 30 3 17 31 4 14 33 4 11 39 7 12
48 12 14 56 15 15 64 14 11 77 14 10 109 30 26
148 54 51 179 73 71 192 79 79 189 74 74 179 67 66
168 60 59 165 61 60 168 67 65 167 69 67 162 68 66
157 69 67 148 67 64 129 55 53 106 39 37 91 29 28
86 27 27 85 27 29 84 28 30 82 28 31 80 29 33
79 31 35 78 34 39 83 42 47 92 53 60 101 62 71
106 66 77 107 67 80 112 70 84 119 76 90 118 75 88
107 65 76 89 48 59 72 32 44 61 22 37 55 17 36
54 14 42 57 12 52 66 15 70 81 22 92 99 31 116
118 43 138 134 56 154 143 63 159 144 64 155 137 60 143
127 52 128 117 45 113 111 41 101 109 42 94 108 43 89
108 45 82 106 46 75 106 46 69 105 46 66 224 159 235
232 166 241 237 172 246 237 171 245 236 170 243 239 172 245
244 178 250 249 181 254 243 175 247 203 134 204 148 80 144
103 34 87 92 22 62 97 23 48 104 23 37 118 28 34
136 40 42 157 56 56 171 68 67 175 71 72 169 67 69
157 56 61 139 40 48 126 29 40 124 27 42 132 34 54
141 41 68 145 43 79 157 54 100 173 70 127 170 68 133
164 63 131 164 64 130 195 94 155 217 116 172 219 116 170
208 104 159 200 96 155 197 97 159 189 93 160 160 73 142
121 43 113 87 18 86 70 9 72 65 9 64 64 9 54
65 9 43 73 10 33 97 26 38 124 45 51 135 52 55
129 43 45 123 35 36 128 38 38 130 40 40 121 33 31
112 27 24 113 31 26 124 44 38 136 56 50 140 61 52
131 51 41 112 33 22 92 18 8 77 10 1 67 8 0
59 6 0 52 5 0 46 5 0 42 6 0 39 7 0
39 7 1 40 7 2 42 8 4 44 9 5 44 9 6
43 8 5 41 7 3 38 5 1 34 4 0 31 4 0
29 3 0 28 3 0 28 3 0 28 4 0 29 3 0
30 3 0 32 2 0 41 8 3 55 16 9 69 23 14
77 25 17 82 23 17 86 22 17 88 21 18 87 20 17
86 20 17 85 20 17 84 20 17 83 19 16 80 17 15
77 15 15 74 12 13 70 10 13 68 9 13 68 10 15
69 10 17 69 11 19 67 10 20 66 9 21 69 11 25
75 15 34 83 20 45 91 24 56 97 29 66 100 30 74
104 31 82 109 34 92 114 38 102 116 36 108 120 39 117
134 50 133 154 69 155 170 83 172 182 94 185 190 101 193
182 93 186 162 75 171 143 56 158 138 51 157 133 47 153
131 46 151 143 59 162 170 88 189 189 109 209 184 106 205
162 86 185 137 64 162 115 45 144 95 28 128 85 20 122
88 26 129 101 40 146 113 49 163 117 50 170 111 41 166
102 31 158 95 25 151 92 23 148 92 24 150 93 26 151
95 29 153 96 31 154 95 31 153 91 28 150 86 23 145
82 20 141 80 17 140 78 16 138 75 14 136 72 12 132
72 12 130 73 15 129 77 20 129 77 23 126 70 19 114
58 11 96 48 5 80 41 2 67 38 2 58 34 2 47
32 2 37 30 2 28 29 2 22 29 2 17 30 2 12
33 4 10 39 7 10 46 10 9 52 9 6 62 8 4
92 23 19 134 47 43 169 67 65 184 73 73 182 68 69
172 61 62 163 58 57 159 60 59 156 61 60 147 56 54
133 49 46 121 46 43 108 41 37 92 31 29 79 23 21
73 21 21 73 22 24 72 22 25 74 23 28 75 25 30
73 26 31 72 28 34 74 33 39 80 42 48 87 50 58
92 55 65 94 56 68 95 56 70 101 60 75 109 67 81
111 67 80 102 59 70 89 47 57 75 35 45 63 25 38
55 18 35 49 11 38 50 8 46 57 9 62 73 16 85
95 30 114 119 47 141 137 60 159 146 65 164 146 65 159
140 62 148 130 55 133 120 47 117 113 42 105 110 42 97
109 44 90 108 45 84 107 46 77 106 47 71 106 47 67
218 152 225 231 165 237 242 177 247 242 177 246 237 172 241
237 173 241 243 179 247 248 183 252 237 172 241 190 124 194
136 69 134 97 28 84 93 21 65 101 24 54 107 24 43
121 30 40 138 41 46 159 57 60 171 68 69 172 70 71
166 66 68 153 55 59 136 40 47 126 30 42 126 30 46
136 39 60 145 46 75 150 49 87 163 61 109 178 76 135
176 75 143 170 70 141 174 74 144 204 103 170 223 121 184
222 119 181 215 110 173 211 106 172 207 104 174 190 93 165
156 67 140 115 36 108 84 14 83 69 7 69 65 9 62
63 9 52 63 8 41 71 10 31 97 27 37 124 46 50
135 52 53 129 43 43 124 37 35 129 40 38 129 41 38
120 33 29 112 28 22 117 34 28 132 50 43 144 63 56
144 64 55 129 49 38 106 28 18 87 14 5 74 9 0
67 8 0 60 6 0 55 6 0 52 7 0 49 9 1
48 9 1 48 9 2 49 10 4 53 13 7 56 15 10
57 16 12 56 16 11 52 14 8 47 11 5 41 8 2
36 6 1 32 5 0 30 4 0 30 4 0 29 3 0
29 3 0 30 2 0 33 2 0 41 6 3 54 14 8
66 21 14 74 23 16 78 22 16 81 20 15 82 18 14
80 17 14 79 18 13 78 18 14 77 19 14 76 18 14
73 16 13 70 13 11 67 11 10 66 10 11 65 10 13
66 11 15 67 11 16 67 12 18 68 12 20 69 13 22
73 16 26 81 22 35 89 27 45 96 31 53 96 29 57
95 26 60 95 25 66 100 28 76 109 35 91 117 39 105
123 43 117 132 49 130 144 60 146 158 72 161 176 89 180
195 107 198 201 113 205 189 102 197 174 87 186 160 74 177
150 65 169 141 56 160 141 57 161 157 74 178 177 96 199
182 103 205 172 94 196 152 77 178 139 66 169 126 56 161
120 52 160 119 53 164 122 55 170 120 51 173 115 43 171
108 34 166 104 29 161 104 30 160 110 36 166 120 46 177
130 57 187 135 63 191 138 67 191 135 65 188 129 60 181
119 49 171 107 38 161 100 30 155 95 26 151 93 24 151
89 21 148 83 16 142 76 12 134 75 13 130 77 19 131
79 23 130 76 23 123 68 20 111 58 14 96 48 8 81
40 4 66 35 2 52 31 1 39 29 1 29 29 2 22
29 2 16 30 2 11 33 4 8 36 5 5 41 5 3
51 4 1 79 16 13 118 38 35 154 58 56 171 65 65
172 61 63 166 58 59 159 57 58 150 56 57 136 50 50
117 38 37 97 27 25 82 22 20 71 19 16 61 15 13
56 13 12 56 14 15 57 16 19 60 17 22 62 19 25
64 20 28 64 22 29 66 25 33 71 32 39 77 39 47
82 46 54 84 48 57 82 45 57 80 42 56 85 45 60
94 52 65 98 55 66 93 49 59 83 40 49 74 32 42
65 25 37 58 19 36 51 11 38 51 8 47 59 10 64
79 23 94 106 42 127 131 60 156 145 68 169 150 70 171
149 67 164 142 62 151 131 54 135 120 47 118 114 43 107
112 43 99 111 45 93 109 45 86 108 46 79 108 47 73
108 48 69 219 152 226 233 167 238 245 180 249 246 182 249
240 177 243 238 176 242 242 181 247 245 184 252 229 168 237
181 118 188 129 62 130 97 27 87 95 21 70 103 24 60
108 24 47 122 30 46 140 41 51 160 57 64 169 67 71
169 69 71 162 65 67 150 55 59 134 39 47 124 29 43
125 29 48 137 40 64 147 49 79 154 54 94 171 71 121
184 83 145 180 80 152 169 70 146 176 77 152 207 107 180
229 127 198 232 127 198 226 119 191 219 113 187 208 104 179
187 88 164 153 62 137 115 34 106 84 13 79 70 7 66
66 9 59 62 10 50 61 8 38 70 11 30 97 28 37
125 47 49 136 52 51 130 44 42 126 39 35 130 42 36
129 42 35 120 34 26 113 29 20 121 37 28 139 55 47
152 69 60 148 66 56 127 47 36 102 25 15 85 13 3
74 9 1 69 8 1 64 7 0 61 8 1 61 11 3
62 13 5 62 14 6 63 15 8 65 17 10 68 20 14
70 22 16 70 23 18 67 22 16 62 20 13 57 16 9
48 11 5 41 8 2 36 5 0 33 4 0 32 3 0
31 3 0 31 2 0 32 2 0 34 2 0 42 5 2
53 11 7 65 18 13 72 21 16 75 21 15 76 19 13
76 18 12 74 16 11 73 17 11 72 17 13 72 18 14
71 18 14 68 15 12 65 13 10 63 11 9 62 11 11
63 11 12 63 12 14 65 12 15 67 13 17 69 14 20
71 16 22 74 17 25 82 23 32 91 29 40 98 34 49
99 33 52 97 29 53 94 25 55 95 24 63 101 29 76
112 36 95 123 44 113 133 51 129 141 57 142 150 65 153
165 79 168 185 98 188 201 114 204 204 118 209 200 115 208
190 105 201 178 94 193 165 80 182 156 72 176 161 78 184
177 95 201 184 104 209 178 99 204 159 82 187 152 77 183
153 80 188 156 84 197 154 83 199 144 72 194 129 56 184
118 41 175 114 36 171 117 39 171 126 49 178 141 64 191
157 79 207 171 94 220 178 101 224 181 105 224 179 103 219
172 97 212 159 83 199 142 66 185 130 53 174 124 47 170
120 44 170 115 40 168 105 31 160 94 23 149 84 17 139
80 17 135 84 23 138 89 32 144 90 37 144 79 31 131
61 17 109 45 6 86 37 2 68 33 1 53 31 1 40
29 2 29 29 2 21 29 2 13 29 2 8 31 2 3
34 2 2 43 2 0 68 12 11 105 32 31 141 51 51
160 59 60 162 56 58 158 54 55 149 53 54 134 49 50
113 38 39 89 24 24 68 14 13 54 10 8 45 9 7
41 8 7 40 8 8 42 9 12 44 11 16 48 13 21
53 17 25 56 19 29 59 21 31 62 25 34 67 30 39
73 36 45 79 42 51 79 43 53 75 39 51 71 34 49
74 36 51 81 41 54 85 42 52 81 37 46 75 30 38
70 25 35 64 21 34 59 16 34 53 9 38 55 8 50
65 13 71 91 32 107 120 54 143 144 71 170 153 75 179
155 73 178 153 69 170 145 63 155 133 54 137 122 46 120
116 43 108 113 44 101 112 45 94 111 46 87 111 47 81
111 48 76 110 49 73 222 154 230 233 166 240 245 180 249
248 185 251 246 185 249 245 185 248 246 188 250 243 184 249
220 160 229 175 113 184 129 62 133 103 32 97 98 22 77
104 23 65 109 24 54 124 31 53 142 43 58 160 57 68
168 66 72 166 67 71 159 63 66 148 54 59 132 38 48
122 27 43 125 29 51 138 41 67 149 50 83 159 60 102
181 82 134 191 92 156 186 87 161 172 74 153 185 86 165
216 116 193 236 133 210 238 132 210 231 123 201 222 114 192
208 103 180 188 88 164 157 65 139 119 38 107 87 15 78
71 8 63 66 9 55 61 9 46 58 6 35 69 10 29
97 28 36 127 48 49 137 54 51 132 45 42 128 41 35
131 44 36 130 44 34 121 35 25 115 30 19 124 39 29
145 58 50 158 73 64 150 67 57 126 45 33 101 24 12
86 14 4 80 12 4 76 13 4 73 12 5 72 14 6
74 18 9 76 21 13 78 22 15 79 23 16 80 25 18
82 27 21 83 29 23 81 29 24 77 28 21 71 24 17
64 20 13 55 14 7 47 9 3 41 5 0 38 4 0
35 3 0 33 2 0 33 3 0 34 3 0 37 2 0
42 4 2 52 8 6 62 15 11 70 19 15 72 19 14
72 17 11 72 16 10 70 15 9 69 16 9 68 16 11
68 17 12 66 17 12 64 14 10 61 12 9 60 11 9
60 11 10 60 11 11 61 11 12 63 12 14 66 13 17
69 14 19 71 15 21 74 16 23 80 20 28 86 25 33
94 30 40 96 31 43 95 28 46 93 25 49 94 24 56
97 26 67 106 31 84 117 39 102 130 49 123 141 58 139
148 63 149 153 67 154 162 76 163 177 91 178 191 106 193
202 117 206 205 120 212 201 116 212 193 108 208 186 102 205
184 101 207 189 107 214 193 112 219 186 107 213 169 91 197
158 82 188 165 90 199 179 105 218 178 104 222 161 86 209
139 62 193 127 48 183 129 50 183 141 62 190 160 82 204
180 102 221 195 116 236 205 125 246 207 127 247 210 131 246
211 133 243 211 132 239 199 120 229 178 98 210 156 75 192
145 63 183 144 63 186 143 63 189 134 56 183 120 45 171
104 32 156 90 22 144 85 21 142 93 32 152 105 48 167
100 48 162 80 33 140 57 14 109 44 5 86 39 4 68
34 3 51 31 2 37 30 2 26 29 3 16 28 3 10
28 3 5 30 2 2 38 1 0 61 11 10 97 30 29
133 50 49 152 57 57 153 54 54 145 48 49 132 43 44
113 36 37 88 23 25 66 12 13 49 6 7 38 6 6
33 7 7 31 6 8 30 5 8 32 5 10 36 8 15
42 12 22 47 15 27 51 18 31 58 24 37 66 30 43
70 33 45 74 36 48 78 40 51 80 42 54 75 38 52
68 32 48 70 33 48 75 36 49 76 34 44 71 27 35
66 20 29 64 17 28 62 15 29 59 12 32 59 10 41
66 14 60 82 26 88 112 49 128 139 70 164 159 84 187
163 82 191 161 78 186 158 72 176 148 64 160 135 54 140
123 46 122 117 43 111 115 44 103 114 46 96 112 46 89
113 48 84 113 49 80 113 49 77 220 152 228 230 163 236
242 177 246 249 186 252 250 189 253 250 190 253 251 192 254
238 180 245 208 148 218 169 106 180 132 64 138 111 38 107
101 23 83 105 22 70 112 25 61 126 33 60 144 45 64
160 58 72 166 65 74 164 66 72 157 61 67 146 51 60
131 36 50 122 26 46 128 31 56 144 45 76 157 58 95
170 71 115 192 93 147 201 103 169 198 100 175 188 90 170
199 100 182 222 121 201 235 131 211 235 128 207 226 117 196
216 108 185 206 102 177 191 92 164 163 72 141 124 43 108
91 19 78 74 10 61 66 10 51 60 9 43 57 6 33
69 11 28 97 28 35 128 49 49 141 56 53 135 48 44
130 42 36 133 45 37 132 45 35 123 37 27 117 31 20
127 40 31 148 60 51 160 73 64 150 65 55 124 43 31
102 25 13 93 19 8 90 20 10 88 21 13 87 23 15
87 25 17 89 27 19 90 30 22 91 30 23 91 31 24
92 31 25 92 31 26 91 31 27 88 31 26 83 29 23
77 25 19 70 22 16 62 16 11 54 12 8 48 8 5
45 7 4 42 6 3 40 6 2 39 6 2 39 6 2
40 4 1 44 4 2 51 7 5 61 13 9 67 17 12
70 17 12 70 16 10 70 16 9 69 15 8 68 16 9
67 16 10 67 17 12 65 16 12 63 14 10 60 12 9
59 11 8 59 10 9 59 10 10 60 9 11 62 10 13
64 10 15 66 11 16 69 12 18 71 12 19 73 13 21
77 15 23 81 18 27 85 21 32 88 22 37 90 23 43
92 23 51 95 24 61 100 26 73 108 31 88 119 39 106
128 47 121 133 50 129 134 49 131 136 51 134 143 58 140
156 71 155 170 85 171 185 99 190 194 108 204 198 113 213
198 113 217 198 114 220 198 116 223 203 122 228 199 120 225
185 107 212 164 88 193 164 88 195 179 104 215 185 111 227
171 96 217 150 72 200 142 62 194 151 71 200 170 92 213
194 116 229 210 132 242 213 134 247 208 128 244 202 122 238
206 126 239 216 136 244 227 148 250 227 147 248 207 126 232
179 97 210 161 78 196 161 78 198 166 84 206 163 83 206
151 74 196 133 59 181 112 41 163 95 28 151 91 27 151
101 41 166 102 47 169 93 41 157 72 25 131 58 15 105
47 8 82 39 4 61 34 2 44 32 2 31 30 3 20
29 5 13 28 4 7 28 2 3 34 1 0 56 11 10
93 31 28 127 51 48 144 57 55 143 51 50 131 42 41
113 33 32 91 22 22 68 12 13 50 5 6 38 4 5
30 5 6 27 6 9 26 5 9 26 4 10 28 5 12
33 7 18 39 12 25 45 15 30 52 20 37 62 29 46
72 36 54 74 37 53 71 33 49 70 31 47 70 31 47
65 27 45 62 24 44 64 27 45 69 31 46 68 27 39
64 20 30 61 15 26 61 13 26 60 11 28 59 9 32
67 14 49 84 28 77 108 46 113 135 67 151 156 82 180
170 91 199 171 88 200 167 81 193 161 75 181 152 67 165
140 57 146 128 49 129 121 45 116 117 45 106 116 46 99
114 46 92 114 48 87 114 49 83 114 50 81 213 145 220
223 155 230 235 170 240 243 180 248 246 185 250 248 188 251
250 191 253 231 172 238 195 134 205 163 98 175 139 69 145
124 48 121 108 27 92 107 22 76 116 27 69 130 36 68
146 48 72 160 59 76 165 65 77 163 65 75 157 60 70
147 49 63 134 35 55 129 29 55 140 40 71 159 59 94
175 75 116 185 85 133 202 104 161 214 116 183 216 119 195
209 112 192 210 111 193 216 114 195 219 114 194 218 111 189
214 106 182 209 101 175 204 99 170 191 92 159 164 74 137
127 45 104 94 22 75 75 12 57 65 10 47 58 8 38
55 6 29 68 11 26 97 29 35 130 51 51 145 59 57
140 52 48 133 45 39 135 46 38 134 46 37 126 38 28
119 31 22 130 41 32 150 62 53 161 74 65 149 64 54
124 41 29 105 27 14 101 26 14 103 31 20 104 34 26
104 37 29 104 38 30 103 38 30 101 36 29 100 35 28
99 34 28 98 33 28 97 33 29 96 33 30 93 32 29
89 31 27 84 29 24 79 26 22 72 23 19 66 20 16
60 17 14 56 16 12 52 13 9 48 12 7 46 11 6
46 10 5 45 7 4 47 6 3 52 7 4 59 12 8
65 15 10 67 15 10 68 15 9 69 15 8 68 14 7
67 15 8 66 15 10 66 16 11 65 15 11 63 13 9
60 11 8 59 10 8 59 9 9 60 9 10 61 9 12
62 9 13 64 9 15 66 10 16 68 10 17 70 11 18
71 10 19 73 11 20 76 13 23 80 16 28 85 19 34
89 22 41 92 23 49 94 23 57 96 23 65 101 25 76
108 30 89 114 33 100 115 32 104 113 30 105 115 31 108
120 36 114 129 44 126 140 54 141 154 67 160 169 82 180
180 94 196 187 102 206 192 107 214 194 111 218 199 119 224
204 125 228 198 121 222 177 101 202 165 90 193 174 100 207
184 111 221 175 101 217 158 81 203 157 79 205 175 96 218
200 123 234 220 144 246 223 146 247 210 132 238 193 115 226
183 104 217 188 109 221 205 126 234 226 147 248 235 155 254
220 139 242 191 108 219 172 89 205 177 94 211 191 108 225
194 112 229 183 104 221 167 90 208 145 71 191 122 51 174
102 36 161 98 35 162 96 37 163 98 42 164 91 39 151
79 31 129 62 18 100 46 6 72 38 2 52 34 2 37
31 3 24 29 5 15 27 4 8 26 2 4 32 1 0
54 12 10 89 32 27 118 48 44 131 52 47 127 45 41
115 36 33 95 25 22 72 13 12 52 4 4 38 1 1
29 2 3 24 4 5 23 5 8 22 4 9 23 3 11
26 4 14 31 7 20 38 11 28 44 14 33 51 20 41
63 29 52 74 38 61 72 34 57 63 24 47 59 18 41
60 18 42 58 18 42 57 18 43 60 21 44 63 24 43
62 21 36 60 16 30 60 14 28 61 12 29 62 11 32
65 11 38 78 21 60 102 41 95 131 64 136 156 83 172
171 92 196 179 97 209 178 91 207 172 84 198 164 77 185
156 70 171 145 61 154 134 53 136 126 48 122 121 47 112
119 48 105 117 48 97 116 48 92 116 49 88 116 50 86
207 139 216 217 150 225 229 164 236 237 173 242 240 179 245
244 183 249 248 187 252 226 165 234 185 122 196 157 90 169
145 73 151 141 63 138 125 42 109 117 30 88 121 31 78
134 39 76 148 50 78 160 60 80 163 64 80 163 64 79
157 59 75 148 48 69 137 36 62 137 35 67 154 52 89
175 74 115 191 91 136 196 96 147 210 112 171 224 127 196
231 135 212 220 124 205 207 108 190 201 98 179 201 95 174
202 94 170 203 94 166 201 93 162 199 94 159 186 88 149
160 70 127 124 42 95 94 22 68 76 13 52 65 10 42
56 7 32 53 5 24 67 11 23 96 28 33 130 51 51
147 62 60 145 56 53 138 48 42 138 48 40 138 48 39
130 41 31 122 33 23 132 42 33 153 63 55 164 76 67
151 65 55 125 42 30 110 31 18 111 34 22 117 43 32
121 48 39 122 50 43 120 50 42 115 45 38 110 40 34
106 36 31 105 35 30 105 36 32 105 36 34 104 37 35
102 37 35 98 37 34 93 35 31 88 33 29 81 30 26
74 27 23 68 24 20 63 21 17 57 18 14 53 16 10
50 13 8 49 12 7 48 10 5 49 9 5 53 9 5
58 12 7 62 14 8 65 14 8 66 14 7 67 14 7
67 13 7 66 14 8 66 14 9 66 15 11 65 14 10
62 12 8 60 10 7 58 9 7 60 10 9 62 11 12
65 12 15 67 12 16 69 12 18 71 13 19 72 13 20
74 13 21 75 13 22 76 14 23 79 15 27 84 19 32
90 24 39 95 27 46 97 28 52 97 26 56 99 26 63
102 27 71 107 29 81 108 29 87 106 25 89 105 22 90
107 23 95 114 29 104 121 36 116 129 42 129 136 49 143
146 59 158 157 70 173 168 82 187 178 93 200 187 103 209
194 112 216 206 127 228 210 132 231 197 121 218 179 105 203
176 103 204 181 108 213 175 102 211 164 89 204 172 96 214
197 120 232 223 147 248 233 158 250 220 145 239 196 119 220
175 98 203 167 89 196 174 95 203 190 112 217 211 132 233
223 142 243 213 132 235 191 109 219 180 97 211 193 109 222
212 128 240 220 137 246 213 131 241 201 122 233 184 108 223
162 89 209 137 67 192 118 51 179 105 43 172 107 47 173
110 53 172 105 52 158 86 37 127 61 16 92 45 4 64
36 1 43 32 2 28 29 4 17 27 3 10 26 2 4
34 4 2 56 15 12 87 33 27 109 43 37 116 44 37
110 36 31 99 29 24 81 20 15 60 10 7 42 3 1
30 1 0 23 2 2 19 3 5 19 5 8 19 4 10
21 3 13 25 4 17 30 7 24 38 12 33 43 14 39
50 18 46 60 24 55 67 29 61 63 23 56 55 14 47
54 10 44 58 14 48 59 17 50 58 17 49 57 18 46
59 19 43 59 17 38 60 16 34 61 14 33 62 13 34
66 13 39 72 15 48 88 26 70 111 44 104 142 69 146
166 87 182 179 96 205 185 98 215 182 92 212 176 85 202
168 77 188 161 73 176 151 66 160 140 58 143 132 52 129
127 51 119 123 50 112 121 50 105 119 50 99 119 51 96
119 51 94 205 137 216 214 147 223 224 159 232 231 168 238
236 175 242 243 181 248 246 184 252 220 157 229 176 110 187
147 77 157 145 69 149 153 72 148 145 60 129 135 45 106
132 39 91 139 43 85 150 53 84 160 61 85 162 63 84
162 62 83 158 57 80 149 46 74 139 35 69 142 39 77
162 59 102 184 82 129 200 99 150 202 104 159 217 120 182
231 136 206 234 140 216 217 120 201 196 96 178 190 85 166
192 85 162 193 84 157 191 82 150 188 81 144 188 84 142
176 78 132 151 61 111 116 35 80 90 19 58 75 13 45
65 11 37 55 7 27 50 3 18 65 10 19 93 25 29
128 49 50 148 63 61 149 60 57 143 52 46 142 50 43
143 51 43 136 44 36 126 35 27 135 44 35 156 66 57
169 80 71 156 69 59 130 46 34 117 36 23 122 44 31
131 55 44 136 61 52 136 61 53 131 57 49 124 49 42
116 42 36 112 38 33 113 39 35 114 42 38 115 44 42
113 44 42 109 43 41 103 40 37 95 36 33 87 31 28
79 26 23 71 23 19 64 20 16 59 18 14 54 15 11
51 13 8 48 11 6 47 10 5 48 10 5 51 11 6
55 12 7 59 13 8 61 13 8 63 14 7 64 13 7
65 13 7 65 13 7 65 13 8 66 13 9 66 14 10
64 13 10 62 11 8 59 9 7 58 8 6 61 10 10
65 12 13 69 15 18 71 15 19 74 16 21 76 17 22
78 18 24 80 18 25 81 18 26 83 18 28 87 21 33
93 26 39 99 31 46 103 34 52 104 33 55 103 31 57
105 31 63 108 33 70 112 35 79 113 34 84 112 31 87
110 27 89 110 26 93 114 29 101 121 35 114 127 40 127
131 43 138 135 46 147 143 56 160 156 69 175 169 82 189
182 97 202 192 110 212 209 130 228 220 144 237 219 144 235
204 131 221 190 117 213 183 110 210 176 103 207 172 98 206
188 113 221 215 139 240 236 162 253 235 162 248 215 140 230
189 114 209 173 97 196 170 93 194 176 99 200 184 106 208
192 114 216 198 118 223 195 113 221 186 103 216 186 102 216
202 117 229 220 135 245 229 143 251 225 142 249 220 138 248
211 132 245 198 121 238 179 105 227 159 89 214 141 74 202
131 67 194 130 69 191 128 71 182 113 59 157 85 34 119
58 12 82 41 2 52 34 2 33 30 3 20 28 3 12
30 3 8 41 9 9 64 22 19 89 36 30 102 40 33
104 37 30 97 29 23 86 23 18 69 15 11 50 7 4
35 2 1 25 1 2 19 2 4 16 3 6 17 4 10
18 4 13 21 3 16 25 4 22 31 7 30 39 12 40
44 14 47 50 16 53 56 18 59 60 19 63 58 14 59
55 10 56 59 12 58 65 18 64 65 19 64 61 17 58
57 15 51 57 15 46 58 15 41 59 14 39 60 13 37
63 11 38 70 14 46 80 18 57 97 30 80 119 46 111
149 70 153 171 87 187 184 95 209 188 96 218 185 92 215
179 86 205 171 79 192 165 75 181 156 69 166 145 62 150
136 56 136 130 53 126 127 53 119 125 53 112 124 52 108
124 53 105 124 53 104 205 137 217 211 144 222 219 154 228
226 163 234 236 174 242 244 183 249 244 181 249 209 144 216
162 94 171 131 58 137 134 56 134 148 64 139 153 65 134
151 58 121 149 54 107 150 53 97 155 57 92 160 61 90
162 62 88 161 60 87 157 53 84 147 42 78 138 32 73
143 38 84 165 60 110 186 83 136 203 102 158 211 112 172
228 131 196 236 142 213 228 134 210 205 107 187 187 85 165
185 79 157 188 80 154 185 76 144 177 68 130 172 65 121
173 70 120 162 65 111 139 50 91 107 26 64 86 15 47
74 12 39 64 11 32 54 7 22 48 2 13 62 8 15
87 22 24 124 46 46 147 62 60 152 63 60 147 55 51
147 53 47 149 55 48 142 50 42 132 39 31 138 46 38
161 69 61 175 85 76 163 75 65 137 52 41 125 42 29
132 52 39 143 64 53 148 70 60 145 67 58 138 60 52
128 50 43 121 44 37 120 43 37 122 47 42 124 50 46
122 51 48 115 47 44 106 41 38 95 33 30 83 25 23
72 19 17 63 15 12 57 12 9 52 10 7 49 9 6
46 7 4 44 6 3 44 6 2 44 6 1 49 9 4
54 13 7 59 15 10 60 15 9 61 14 8 62 13 7
63 13 7 64 12 6 64 12 7 65 12 8 65 12 10
66 13 11 65 12 11 62 10 9 60 8 7 59 7 6
62 9 10 66 12 13 70 15 18 73 16 19 76 17 22
79 18 23 81 19 25 83 20 27 86 21 29 89 22 32
93 25 37 99 30 43 103 33 49 106 35 53 106 34 55
106 32 56 108 32 60 111 34 67 116 37 76 119 38 83
120 37 88 119 34 92 117 31 95 118 31 101 123 34 113
129 40 128 135 45 141 139 49 151 148 59 164 161 73 179
173 86 192 182 98 202 192 109 210 208 128 225 225 148 238
233 160 244 228 156 239 212 141 229 196 124 219 183 111 209
181 108 209 200 127 224 227 153 243 242 169 254 236 162 247
217 143 232 200 125 218 193 117 212 194 118 214 196 120 215
191 114 211 185 107 208 183 103 210 182 100 212 182 99 214
185 102 216 198 113 226 209 122 234 214 126 236 211 125 233
210 126 235 210 129 240 209 130 245 204 128 246 195 122 243
182 112 236 164 96 220 146 82 204 138 77 191 130 72 176
108 53 145 75 26 104 49 6 64 37 2 39 33 2 23
32 3 15 37 6 13 52 16 18 74 30 28 93 40 36
99 39 33 98 34 28 90 26 21 76 19 14 58 10 7
41 4 3 29 2 2 21 1 4 17 2 7 16 3 10
18 3 15 19 3 18 22 2 23 26 3 30 33 7 40
41 11 50 47 13 59 51 14 65 57 15 71 62 18 76
65 17 77 66 16 78 70 18 80 71 19 81 66 16 74
60 13 65 56 11 56 55 11 50 56 11 46 57 11 43
59 10 41 63 10 43 74 15 53 87 22 68 111 39 96
137 59 130 167 83 171 183 94 199 191 98 216 192 96 222
189 93 218 182 87 208 175 81 196 169 78 185 161 73 172
150 65 156 139 57 141 133 54 130 131 54 124 130 55 120
130 56 118 130 57 116 130 57 115 206 138 220 209 143 222
216 151 228 225 162 235 238 176 245 244 182 250 232 169 239
188 121 195 142 72 149 115 40 117 121 40 116 134 47 120
146 55 122 155 59 120 159 62 116 161 63 109 163 65 102
164 65 98 164 62 94 161 58 91 153 48 85 142 36 78
134 28 76 141 35 88 163 59 115 185 82 141 205 105 166
220 122 186 236 140 207 235 139 211 216 120 196 193 94 173
182 79 157 184 76 152 184 75 145 174 64 128 163 54 110
159 52 101 161 59 102 151 55 93 129 41 74 100 21 50
84 14 39 74 14 34 65 12 28 53 7 18 47 3 10
58 7 11 80 16 18 114 38 38 142 59 57 154 65 63
152 59 55 151 56 51 154 60 53 150 56 49 139 46 38
142 49 41 164 71 63 181 89 80 172 83 73 148 62 50
134 50 37 140 58 45 150 70 57 153 73 61 147 67 57
138 58 48 130 51 42 128 49 41 131 53 46 133 57 51
127 54 49 117 47 42 103 37 33 90 28 24 77 19 16
66 12 9 57 7 5 50 5 3 45 3 1 42 2 0
40 2 0 39 1 0 39 1 0 41 3 0 46 6 3
55 14 8 62 19 13 66 21 15 65 18 13 65 16 11
65 15 10 67 15 10 67 15 10 68 14 11 67 13 12
67 12 13 67 12 13 65 10 12 63 9 11 61 7 10
61 7 9 64 9 11 67 11 14 70 13 16 72 14 17
75 15 19 79 17 22 83 19 25 86 21 27 90 23 31
94 25 35 99 28 40 103 31 44 106 32 49 107 33 51
107 31 52 107 30 53 108 30 56 110 31 61 116 34 69
121 38 80 126 40 89 127 40 95 127 38 100 127 36 106
128 37 117 134 43 132 141 50 147 148 57 159 155 64 169
161 73 178 166 79 184 168 83 186 176 94 193 191 111 206
216 139 226 235 162 242 244 172 250 237 166 246 220 148 235
201 130 222 197 125 219 212 140 229 233 160 244 239 167 249
234 161 245 225 152 240 220 145 236 220 145 235 222 146 237
222 147 236 212 135 227 197 120 217 186 106 211 183 102 213
185 102 218 188 104 220 192 107 223 194 106 224 192 103 220
186 98 213 183 98 210 187 104 215 196 116 227 206 128 241
212 137 251 209 136 253 186 116 235 152 85 205 134 70 184
132 71 177 124 67 164 94 40 125 59 13 78 40 1 44
34 1 26 35 4 20 45 11 21 64 24 30 85 38 39
98 43 42 100 39 36 95 32 29 84 23 21 67 14 13
49 6 7 34 1 5 25 1 7 19 1 10 17 2 14
18 2 19 20 2 25 22 2 30 25 1 35 29 2 43
36 5 54 44 9 65 50 11 74 58 15 84 69 22 95
78 28 104 80 27 105 79 24 104 80 23 103 79 22 100
74 19 92 64 13 77 60 12 67 56 9 58 56 9 53
57 8 49 60 8 48 67 11 52 78 16 61 94 26 78
129 53 115 165 83 159 194 106 199 201 107 216 199 103 223
197 98 225 192 94 221 185 89 212 179 85 201 174 82 192
166 77 179 153 67 162 141 58 145 134 54 134 134 55 130
134 58 128 136 61 128 137 62 128 137 62 128 211 144 227
213 147 228 219 154 232 228 165 239 239 177 247 237 174 244
211 146 218 163 94 169 125 52 128 109 31 107 116 33 106
125 36 105 137 44 107 152 55 113 166 67 118 173 73 118
174 74 114 171 71 108 167 65 102 161 56 95 150 43 87
138 30 79 131 24 78 140 34 93 161 58 120 183 82 146
206 107 173 226 129 196 237 141 211 228 132 205 206 109 184
188 87 163 182 77 152 182 73 145 180 69 134 168 57 114
157 48 97 155 49 90 156 54 89 145 49 78 123 35 60
99 20 42 87 17 36 79 18 33 68 15 26 54 9 16
47 4 8 55 5 7 74 12 13 104 31 30 136 55 53
154 67 65 156 65 61 155 61 56 158 64 57 157 62 55
148 54 46 148 54 46 168 75 67 187 95 86 184 94 83
162 74 62 144 59 45 145 61 47 151 69 56 153 71 58
145 64 52 137 55 44 133 52 42 136 55 46 139 60 52
135 59 52 122 49 43 103 35 30 85 23 18 71 13 9
60 7 4 52 3 1 46 2 0 44 2 0 41 1 0
40 0 0 39 1 0 42 2 1 46 5 3 52 9 7
60 15 11 70 22 18 75 26 22 77 27 22 75 23 19
74 21 18 74 21 17 76 21 18 77 21 19 76 20 19
74 18 20 71 15 19 69 13 18 67 11 16 65 9 15
64 8 14 64 8 13 66 10 14 68 11 15 70 11 16
72 11 16 75 12 18 80 15 22 85 18 25 89 21 29
94 24 33 98 26 37 103 29 43 107 31 47 110 33 51
112 34 54 112 33 56 112 32 57 113 31 59 114 31 63
117 32 68 121 34 77 124 35 85 127 36 93 129 37 101
131 37 109 133 39 120 138 45 135 145 52 149 152 59 161
156 64 169 160 70 175 161 73 178 157 72 174 161 78 176
172 92 185 198 121 208 220 146 227 236 164 242 238 167 246
227 156 241 211 140 228 208 137 225 220 149 232 236 164 244
237 166 246 232 159 244 224 150 239 219 144 236 222 147 238
230 155 244 239 163 249 232 157 244 218 141 233 200 121 223
192 111 222 191 108 224 190 106 225 189 103 223 187 98 220
182 91 212 173 84 201 168 82 194 175 91 200 191 109 218
208 129 238 217 140 251 213 139 251 186 114 229 144 75 191
119 54 167 120 58 165 125 66 166 102 47 135 67 19 88
43 3 49 36 2 29 39 5 23 52 15 28 72 30 38
90 41 45 100 44 45 99 39 39 93 32 32 80 22 24
63 13 18 45 4 12 31 0 12 23 0 15 20 1 20
19 1 26 22 1 33 26 1 40 29 2 48 34 3 56
39 6 66 47 10 78 55 14 89 63 17 100 76 26 115
94 41 134 107 51 147 109 50 147 104 43 141 101 39 136
97 35 130 91 32 119 83 28 105 80 29 95 73 23 82
66 16 71 59 8 60 62 8 58 70 11 62 81 15 69
100 28 88 140 61 130 184 98 180 213 121 218 215 119 230
208 109 231 201 101 228 194 96 223 187 90 214 181 87 206
177 85 198 167 78 184 154 67 166 143 58 150 137 55 140
138 59 138 139 61 136 141 64 137 141 64 136 140 64 136
218 152 235 221 155 236 227 162 241 235 172 246 239 177 249
223 160 231 183 117 191 139 69 144 115 40 115 113 33 106
121 35 106 129 37 103 139 44 103 154 56 110 170 69 118
180 79 123 181 80 121 177 75 116 170 66 108 161 55 99
148 41 90 138 30 84 132 26 85 142 38 102 160 59 126
181 83 152 207 110 180 228 132 203 233 136 208 219 121 194
200 100 174 190 86 160 188 80 152 185 75 141 180 69 128
167 56 106 158 49 90 157 51 84 156 55 81 141 46 68
120 33 50 102 23 38 95 26 38 88 27 37 73 21 28
56 12 15 47 5 6 51 4 4 68 10 9 94 25 23
127 49 47 153 68 66 162 72 68 162 68 63 163 68 61
162 68 61 157 63 55 155 61 53 172 78 70 192 99 90
196 104 94 178 88 77 156 68 54 148 63 48 149 66 51
149 66 52 141 58 45 135 51 39 136 53 42 142 60 50
141 61 52 128 52 44 107 36 28 85 20 14 69 10 5
59 5 1 52 4 0 47 3 0 44 3 0 43 3 0
42 2 0 42 1 0 44 3 2 52 9 7 63 17 14
74 24 22 83 30 27 88 33 30 90 34 30 88 31 28
86 29 26 86 28 26 87 29 27 88 30 28 89 30 30
86 27 30 82 23 29 77 18 27 73 15 25 70 12 22
67 10 20 67 9 19 68 10 19 70 11 20 71 11 20
72 11 20 74 11 20 77 13 22 82 15 25 87 19 29
92 21 33 97 25 37 102 27 41 107 29 46 110 31 50
114 34 56 118 37 61 120 38 65 121 38 68 122 37 70
122 36 73 124 36 77 126 36 83 130 37 92 133 39 100
135 40 108 137 40 115 136 40 123 138 42 133 142 47 144
146 53 154 150 57 161 154 64 169 158 70 174 156 70 172
159 75 173 168 87 179 190 112 199 207 132 215 221 148 229
226 154 235 218 147 232 207 136 224 211 140 226 226 155 236
239 168 245 235 164 243 224 151 237 210 136 226 198 122 217
201 126 219 217 142 231 238 163 246 243 168 250 233 157 244
212 134 232 198 117 227 194 110 228 196 111 233 195 108 232
193 104 229 187 96 220 179 90 208 177 90 202 187 102 209
204 122 225 219 140 242 221 143 248 207 131 240 172 99 211
128 58 170 104 38 148 106 42 148 116 56 156 99 44 133
70 21 92 45 5 52 37 2 31 41 7 26 55 17 31
74 31 40 90 39 45 96 40 43 95 35 38 89 29 33
77 21 29 62 12 25 45 5 22 32 1 23 25 0 27
23 1 35 26 1 44 30 1 53 36 2 63 42 5 73
49 10 84 58 15 97 67 21 111 74 25 122 82 29 133
97 40 149 115 55 167 126 63 177 122 58 173 114 48 162
110 42 156 108 42 152 107 43 144 103 44 133 104 49 126
97 43 114 88 35 100 77 22 84 74 17 77 79 16 77
85 17 80 104 29 97 141 60 135 184 97 183 214 121 220
218 121 232 212 113 234 203 103 229 194 95 222 187 90 216
183 88 211 179 86 203 167 76 188 153 65 169 144 58 155
140 58 147 142 62 145 143 64 143 146 68 145 148 71 147
149 72 149 229 163 244 232 168 246 236 173 248 242 179 251
237 173 245 206 141 214 160 92 168 122 51 127 113 36 112
119 37 110 127 39 108 135 41 105 146 49 106 162 62 114
178 76 123 186 83 127 185 82 125 179 75 119 172 66 112
164 57 106 156 48 102 149 42 101 145 39 104 151 49 118
164 65 137 185 89 162 211 118 191 231 138 211 229 134 207
214 115 188 200 97 170 193 87 158 191 82 148 188 77 136
183 72 124 171 61 104 163 55 89 161 56 81 155 55 74
137 43 58 118 31 43 106 27 37 104 34 43 96 36 43
79 27 31 57 13 15 45 4 4 47 2 1 62 8 6
86 21 18 116 43 39 147 66 62 166 79 74 170 78 72
168 75 67 166 72 65 164 70 62 161 67 59 172 78 70
192 98 89 201 108 98 189 97 85 166 77 63 153 66 51
149 64 48 148 63 48 139 54 40 136 51 38 142 56 45
144 60 50 133 52 43 112 36 27 91 21 13 76 12 5
65 8 1 57 6 1 51 5 0 47 5 0 43 4 0
43 3 0 42 1 0 45 2 1 54 7 6 70 19 17
89 33 31 101 42 40 106 44 42 104 40 39 101 37 35
98 33 33 97 33 33 98 34 34 99 36 36 100 37 37
99 36 38 95 32 38 89 28 38 83 22 36 78 18 32
73 14 28 70 11 25 69 10 24 69 10 23 71 11 24
73 12 25 76 13 26 78 13 27 81 14 29 85 15 31
88 17 33 92 19 36 97 22 40 102 24 43 107 26 48
112 29 54 118 35 63 125 40 72 130 44 79 132 45 83
134 45 87 136 46 92 139 46 96 140 46 101 142 46 107
144 47 114 146 47 121 146 46 126 142 43 129 141 44 135
142 46 142 144 49 149 148 54 157 156 64 169 167 78 181
174 87 188 178 94 191 186 104 196 199 120 208 208 133 217
217 143 227 219 146 232 212 139 228 201 130 219 209 138 224
228 158 237 242 172 248 234 163 241 214 141 227 191 116 209
174 98 196 177 101 198 201 126 218 230 156 239 248 174 253
243 167 251 222 144 240 204 123 232 195 112 230 197 113 236
199 113 238 199 110 236 196 106 228 193 105 222 200 113 223
215 131 233 229 147 245 231 151 249 216 138 241 188 112 219
149 76 186 109 39 148 91 23 131 92 28 131 101 40 138
89 33 121 67 19 88 47 7 53 39 5 32 43 8 25
54 16 28 70 26 34 83 33 38 88 32 37 88 29 35
84 25 34 75 20 35 62 12 35 48 5 35 37 1 37
32 1 44 33 2 54 39 4 67 46 6 80 55 9 93
63 15 105 74 24 119 84 32 134 93 37 146 98 39 155
103 41 163 113 48 173 125 58 185 129 61 189 125 55 182
115 44 171 110 38 163 107 36 158 107 39 151 110 46 147
118 58 147 121 63 144 116 58 135 101 42 115 90 29 100
85 20 90 89 18 90 107 30 105 139 56 137 175 87 177
203 111 212 213 117 228 212 115 233 203 104 227 193 95 221
187 90 216 184 88 213 178 84 205 165 74 190 152 63 172
144 58 158 142 60 152 144 64 149 147 69 150 154 76 156
162 84 164 167 90 171 235 171 248 241 177 251 245 182 254
247 184 254 231 167 239 191 124 199 144 75 152 115 41 119
115 37 114 125 41 114 133 42 112 140 44 107 149 50 107
164 62 114 181 77 125 190 85 131 190 85 130 185 78 125
180 72 121 175 67 120 172 63 122 169 62 126 166 62 131
168 69 141 177 82 156 198 105 181 223 132 208 236 144 219
227 132 206 211 111 184 198 93 165 193 85 152 190 79 139
189 77 130 185 73 118 174 64 100 167 59 86 162 57 76
152 52 65 133 39 48 116 29 36 109 30 36 109 40 45
101 41 45 80 29 31 56 13 13 43 3 3 43 1 0
55 5 3 76 15 12 103 34 30 137 60 55 164 79 74
175 85 78 174 81 74 170 77 69 168 74 66 165 70 63
169 75 67 183 88 80 194 99 90 191 98 86 176 84 70
164 75 59 156 70 53 152 66 49 144 58 42 145 58 44
152 64 52 149 63 52 128 45 36 101 23 15 83 11 4
74 10 2 68 10 3 61 11 3 55 11 3 50 10 2
46 8 1 45 6 1 45 3 1 53 7 5 69 18 16
92 35 33 112 49 48 123 55 55 124 53 53 119 46 46
114 41 41 110 38 39 111 40 41 112 43 44 112 45 46
111 45 46 108 43 46 102 38 46 97 34 47 91 29 46
86 24 43 80 20 38 76 16 35 74 14 33 74 13 32
76 13 33 77 14 34 81 15 36 84 16 38 86 16 38
87 16 39 90 16 40 94 18 43 99 21 46 104 22 49
109 25 54 116 31 63 125 39 75 136 48 89 144 54 99
147 57 105 151 58 111 156 62 118 160 64 125 160 63 127
159 60 129 159 58 133 159 58 137 159 57 141 156 55 144
156 58 150 158 62 157 162 67 166 166 72 174 173 81 184
183 93 196 191 104 204 194 109 205 197 115 207 203 123 212
210 134 219 217 142 227 217 143 230 208 135 225 196 125 216
206 136 223 228 157 238 242 171 249 228 157 237 202 129 217
179 104 200 166 89 190 168 92 191 195 119 212 226 151 235
250 175 254 246 170 254 225 147 243 205 124 234 194 111 230
196 111 235 198 112 236 199 112 234 202 115 232 208 121 234
219 133 240 231 148 247 235 155 251 224 146 242 199 121 224
165 90 196 130 56 165 96 26 134 83 16 122 84 21 121
91 31 125 80 25 108 64 16 81 48 8 50 43 7 32
44 9 23 52 13 23 64 20 26 75 24 29 79 24 29
81 22 31 79 20 36 74 18 41 64 12 46 55 8 52
51 7 61 52 11 74 57 15 87 67 20 104 77 24 119
88 30 133 98 38 146 110 49 160 119 56 173 122 57 180
119 52 180 117 48 179 119 48 182 123 50 186 122 49 184
116 42 176 107 33 166 101 26 157 96 22 150 97 26 146
105 37 147 121 56 156 133 70 163 133 71 159 116 53 137
99 34 116 88 19 100 91 19 99 110 32 114 143 61 147
177 90 183 201 110 211 208 115 224 209 113 229 202 106 225
193 97 219 187 91 216 184 89 215 178 85 208 168 77 195
156 68 179 150 64 167 150 68 162 157 77 165 168 90 173
181 104 186 192 115 199 200 123 208 234 171 244 243 180 249
250 188 255 247 185 252 222 158 229 176 109 185 134 63 142
115 39 119 120 39 118 129 43 118 137 45 115 144 46 110
150 49 107 162 58 111 180 73 123 194 86 134 200 92 140
199 90 140 196 87 139 194 84 141 191 83 144 188 83 150
185 84 155 186 90 165 198 107 183 218 129 207 233 146 223
232 142 218 219 124 199 207 105 178 196 89 159 191 80 144
187 75 129 187 75 121 182 71 108 172 63 92 165 58 78
158 54 67 146 47 54 128 34 39 115 28 31 110 32 34
109 40 43 99 39 41 77 26 27 53 11 10 40 2 1
41 0 0 49 2 1 65 10 7 90 25 21 123 48 43
153 71 65 171 83 76 177 85 78 174 81 73 170 76 68
166 71 64 165 69 62 170 74 65 177 82 72 181 86 74
178 85 71 172 81 65 165 77 60 160 74 56 157 69 53
162 73 59 169 80 67 161 73 62 135 50 40 104 24 15
85 11 3 77 11 2 73 14 4 68 16 7 62 17 7
57 16 6 52 13 5 50 10 4 53 8 5 66 16 14
89 33 32 114 51 50 131 61 62 137 62 64 136 58 60
132 52 54 128 48 50 126 48 50 128 51 54 128 55 57
126 56 58 122 54 56 115 49 53 107 43 53 101 38 54
96 34 55 93 31 54 90 28 51 88 27 50 89 27 51
90 27 52 91 27 52 92 27 53 94 26 54 96 26 55
95 23 53 93 19 51 94 17 50 98 19 53 102 21 55
107 23 58 112 27 63 121 34 74 132 45 89 145 56 105
156 64 119 162 69 128 168 73 136 173 76 144 177 79 150
178 78 153 177 75 154 175 72 155 174 71 157 175 72 161
180 78 168 185 87 178 190 93 187 191 96 193 190 95 196
189 96 199 190 99 201 190 101 201 187 101 197 184 102 194
189 108 198 197 119 207 204 128 216 204 130 218 196 123 215
187 115 208 200 129 219 221 150 234 237 166 247 223 151 235
199 125 216 179 104 202 170 93 194 173 97 197 199 124 217
227 152 238 247 172 254 239 163 251 218 140 239 200 118 231
189 106 226 189 105 228 191 106 227 197 113 228 209 124 234
221 137 242 229 145 247 230 149 246 223 143 241 204 126 226
179 102 207 150 75 183 120 47 158 91 22 130 82 16 120
85 23 119 90 32 121 76 23 100 61 14 73 49 8 46
46 9 30 45 8 20 51 9 17 59 14 18 68 16 21
72 16 23 76 17 29 76 16 37 74 16 48 70 14 59
70 16 74 76 22 94 86 32 115 97 40 134 109 48 151
121 55 165 133 64 179 143 73 191 153 83 203 159 87 212
155 83 211 143 69 200 132 57 190 127 51 186 129 52 187
126 49 184 120 43 177 112 35 167 103 26 157 94 18 147
91 17 141 100 29 146 120 52 160 137 70 173 139 73 170
122 55 149 103 35 126 89 18 107 92 18 105 113 35 122
155 73 162 192 107 201 212 124 224 211 120 227 206 113 225
201 108 223 195 100 219 189 95 217 185 92 215 181 89 211
175 85 202 168 81 191 165 81 184 170 89 184 183 104 193
195 118 204 205 128 213 208 131 218 210 133 222 229 166 234
240 178 244 251 191 253 244 184 248 211 148 217 163 96 172
127 55 135 117 40 122 125 42 123 134 45 122 141 46 118
146 46 112 151 47 107 160 54 110 178 70 123 198 89 140
212 101 152 217 106 157 215 104 159 211 101 160 205 97 161
199 95 164 195 97 169 203 110 186 219 132 209 235 150 229
234 149 227 220 130 207 206 110 185 200 96 169 194 84 154
190 77 138 186 72 122 184 71 111 177 65 97 167 58 82
159 53 68 150 47 55 138 39 42 124 30 31 114 27 28
110 32 32 106 37 38 93 34 34 72 22 21 51 9 8
39 2 1 39 1 0 44 1 0 57 6 3 78 17 13
106 34 29 135 55 49 159 73 66 173 83 75 175 83 75
173 79 71 168 73 66 163 67 59 159 62 53 160 64 53
165 69 57 169 74 61 168 77 61 165 77 59 164 76 58
167 78 61 177 86 71 185 94 81 180 90 79 158 71 61
125 43 35 99 23 16 83 15 7 78 17 8 75 21 12
71 24 14 66 23 14 60 19 11 57 14 8 61 14 9
79 26 23 106 47 46 131 65 65 144 70 72 147 67 70
146 62 65 144 58 61 141 56 59 141 58 61 141 62 65
140 65 68 136 64 67 127 59 62 116 51 56 105 42 52
98 35 54 95 31 56 94 31 58 96 32 60 99 35 63
103 39 69 107 43 73 109 43 75 111 44 77 113 44 79
115 43 80 112 37 76 106 29 69 102 24 66 104 23 66
107 24 67 111 26 69 116 30 74 125 37 85 136 47 100
150 59 117 164 71 135 175 80 149 184 87 161 189 92 169
195 95 176 199 98 182 201 98 186 200 97 187 199 95 187
202 98 190 207 104 197 211 111 203 209 112 205 203 107 203
194 99 198 186 93 194 180 89 191 172 83 183 163 76 173
155 72 165 159 79 168 168 91 179 176 100 189 176 102 193
173 100 193 169 97 192 184 112 204 205 133 220 225 153 238
221 149 237 205 131 226 191 115 215 183 106 208 189 113 213
210 134 227 231 155 243 239 163 250 226 149 243 205 125 231
189 107 223 182 98 219 183 99 220 188 105 220 203 120 227
221 139 239 232 151 248 231 150 246 219 139 236 201 122 222
183 104 208 166 88 197 146 70 182 118 45 159 90 22 132
86 22 125 93 32 126 95 39 123 77 25 96 60 13 66
51 8 41 50 9 27 49 9 18 53 9 15 59 11 14
65 12 16 69 12 20 73 13 29 75 14 40 76 15 55
78 18 72 86 26 97 102 39 127 121 55 157 138 68 181
152 79 196 164 88 207 174 96 216 182 104 225 189 111 233
193 115 238 188 110 235 172 92 220 153 74 203 145 66 195
148 68 198 150 70 199 145 66 195 136 57 185 125 46 174
111 33 160 99 24 148 105 32 152 122 51 167 140 70 180
143 73 179 130 59 161 111 40 138 95 22 118 94 19 112
116 37 129 162 81 173 206 122 216 227 141 240 220 132 236
210 120 228 205 114 224 199 107 221 194 102 220 191 99 219
189 98 217 186 97 212 184 98 207 188 105 206 199 118 213
213 134 224 218 141 228 214 138 226 203 127 218 196 119 213
225 164 228 238 179 240 251 193 252 241 183 244 204 141 209
156 89 165 125 53 134 122 43 127 130 46 129 138 47 128
144 47 123 148 46 116 152 47 111 162 54 115 179 69 127
202 91 147 218 105 161 227 114 171 226 113 172 221 110 172
211 103 170 203 100 171 201 105 178 216 127 202 234 151 227
242 161 239 227 143 221 206 115 193 194 96 171 192 86 159
191 79 147 189 74 133 185 70 116 180 66 102 171 60 87
161 53 72 151 46 57 141 39 44 130 32 33 121 27 26
115 28 26 110 31 30 103 33 32 89 28 28 70 19 17
51 8 7 41 2 1 40 2 0 43 2 0 52 4 1
67 10 6 90 22 17 116 40 33 142 58 51 164 76 68
175 84 76 178 85 77 173 78 70 165 69 61 156 59 49
150 53 42 150 54 41 153 58 44 153 61 45 154 65 47
157 68 50 166 75 58 178 86 70 191 98 85 196 105 93
188 98 88 157 73 63 123 45 36 95 24 15 86 23 14
84 27 19 83 32 24 78 31 24 70 26 18 63 18 12
65 16 12 83 28 26 113 52 52 139 70 71 151 74 77
153 70 73 152 65 69 150 62 65 148 61 63 147 63 65
147 67 69 144 69 71 137 66 68 125 58 60 110 47 51
98 35 45 90 28 46 88 24 49 89 25 53 92 28 57
97 33 63 103 38 71 109 43 77 113 46 81 118 49 87
125 54 95 132 58 101 131 54 100 124 45 93 117 36 86
114 32 83 116 31 82 119 32 84 124 36 89 132 43 98
142 52 113 157 65 131 175 81 153 193 97 174 205 106 189
210 111 197 213 112 201 217 115 207 220 116 210 219 115 210
219 114 210 221 116 212 220 117 211 217 116 209 208 110 203
196 100 194 181 86 183 169 75 174 159 67 167 149 60 158
138 52 147 129 46 138 130 50 140 138 61 149 144 68 158
145 71 162 145 72 167 148 76 172 161 89 184 182 110 202
207 134 225 219 145 239 214 139 239 206 130 233 201 124 229
208 132 234 219 143 239 230 154 247 226 150 244 211 133 235
189 109 221 177 96 215 174 91 213 180 97 216 195 113 222
217 137 235 236 158 246 241 163 250 229 150 240 205 125 221
181 102 203 168 90 196 160 82 194 145 69 184 117 44 159
92 23 134 96 32 134 107 47 138 104 48 127 77 25 91
59 10 59 55 9 38 57 11 26 59 12 20 63 13 18
67 14 17 70 14 18 72 12 22 74 12 30 75 12 43
79 15 62 85 20 84 98 32 114 119 48 148 143 67 182
165 85 209 180 97 223 190 107 230 196 113 232 199 115 235
202 119 239 209 126 245 210 128 248 198 116 236 175 93 215
166 84 206 170 89 211 180 99 221 178 97 219 168 89 211
157 78 200 143 64 186 125 48 169 123 48 169 132 59 178
146 74 189 149 77 188 138 64 172 120 47 151 103 29 130
100 24 122 118 40 135 159 79 173 203 122 216 229 146 243
227 142 243 219 133 236 213 125 230 207 119 227 203 114 225
200 112 224 199 112 224 198 112 221 198 114 219 206 126 224
220 141 235 226 149 238 218 141 231 200 123 215 183 106 201
172 94 192 231 174 234 241 186 243 251 197 252 242 186 245
210 148 216 170 102 179 143 69 151 136 56 142 141 54 141
147 54 139 151 53 135 154 51 128 157 50 124 165 57 127
179 69 137 200 88 155 216 103 169 227 113 180 227 115 182
222 112 181 211 106 176 203 104 176 206 113 186 225 140 214
240 159 235 240 158 236 219 131 211 199 103 183 189 86 163
189 79 151 189 75 141 187 71 126 181 66 108 173 59 90
164 53 76 154 47 64 143 40 50 132 32 37 123 27 28
121 28 27 120 33 31 119 38 36 113 40 38 102 37 34
84 27 24 63 15 12 48 5 3 42 2 0 43 2 0
48 3 0 59 6 2 77 14 9 100 29 21 125 46 38
148 63 55 168 79 71 178 85 78 178 83 77 170 74 67
161 64 55 151 55 44 145 49 36 140 47 31 138 46 30
138 49 31 144 54 37 153 63 46 166 74 59 183 90 77
200 108 95 208 118 106 186 101 90 151 71 60 113 40 29
99 31 22 96 34 25 95 39 31 88 36 29 75 27 20
63 15 10 61 12 9 77 23 21 106 45 44 135 65 66
151 73 75 154 70 72 151 63 66 149 59 62 148 60 62
149 64 65 148 68 68 142 67 68 131 60 61 115 49 49
99 37 39 87 27 34 81 20 35 80 18 40 81 18 44
83 19 48 87 23 53 92 27 59 96 31 65 102 35 71
111 41 80 121 49 92 130 55 102 134 56 107 133 53 108
133 51 109 136 51 111 141 54 114 145 57 118 151 62 124
158 68 133 166 75 145 179 86 161 195 99 180 209 111 196
214 115 204 216 115 208 217 115 210 217 114 211 214 110 208
215 110 209 221 115 215 225 118 218 217 111 208 205 100 195
191 89 182 179 79 172 165 67 161 154 58 153 145 53 147
137 49 141 127 42 132 117 35 123 112 34 120 116 41 126
122 48 136 125 51 142 128 55 149 133 61 158 142 70 167
159 85 183 180 105 204 201 125 228 209 132 239 209 132 242
209 131 242 214 137 245 215 138 244 216 140 244 204 127 233
189 111 222 172 93 211 166 86 208 169 89 212 183 103 221
206 126 233 230 152 245 245 168 252 239 163 247 216 139 228
187 108 205 166 87 190 159 81 189 154 77 190 138 63 178
109 38 150 91 23 129 102 39 134 115 55 139 106 50 122
78 24 83 62 9 52 65 11 38 72 17 32 78 21 30
83 24 30 86 25 29 86 22 28 83 18 29 79 14 35
78 11 47 81 14 67 88 20 93 104 33 124 128 53 159
157 75 195 180 94 221 196 108 233 200 112 233 197 111 226
190 104 219 192 106 222 204 118 233 215 130 245 213 129 243
192 108 224 185 102 218 192 110 223 208 127 240 209 128 242
202 122 237 195 116 230 185 107 220 171 94 207 162 85 201
155 80 197 156 82 197 156 82 195 144 71 180 125 51 158
106 32 136 104 30 130 121 47 143 157 82 174 197 122 213
227 150 241 235 156 248 232 153 246 226 146 240 219 138 235
214 133 231 210 130 229 209 129 228 207 127 225 210 132 227
221 144 236 231 155 246 226 150 240 209 133 225 186 110 206
172 95 194 163 85 187 236 183 242 243 192 247 250 198 253
243 188 247 220 158 227 192 123 202 175 100 184 165 84 172
162 74 164 159 65 155 159 60 148 160 57 143 164 58 140
172 64 144 181 71 150 196 85 164 210 98 177 222 110 189
224 114 192 220 114 190 212 110 184 207 112 185 215 126 198
230 148 220 237 155 231 228 143 222 211 116 199 197 93 176
192 80 159 190 75 147 189 73 136 185 69 120 176 62 99
165 53 80 156 47 67 147 42 57 136 36 45 126 30 34
122 28 29 127 35 34 133 44 42 137 53 50 133 54 51
120 49 45 100 37 32 77 22 16 58 9 5 47 3 0
44 2 0 45 2 0 52 3 1 67 10 6 87 22 15
110 36 28 130 50 42 153 66 60 169 78 73 179 85 80
176 81 75 169 73 66 160 65 54 151 57 43 142 50 33
135 45 27 131 42 25 133 43 27 140 49 33 152 60 44
171 78 63 193 102 87 211 121 107 202 116 102 172 90 77
132 55 43 111 40 29 104 37 28 101 40 31 92 34 27
76 22 16 61 10 7 57 7 4 67 15 13 94 34 33
124 55 55 145 67 68 151 66 67 147 59 59 144 55 55
145 58 57 148 64 63 147 67 66 139 63 62 124 53 51
105 40 38 89 28 27 79 20 24 76 17 27 76 15 32
75 15 36 76 14 39 77 15 43 81 17 46 84 19 50
89 22 55 97 27 64 108 35 77 119 43 92 127 48 103
134 52 112 142 57 122 151 64 132 159 70 139 168 78 149
180 90 162 191 100 175 197 104 182 201 106 189 207 110 197
211 113 202 209 109 202 208 106 202 207 104 202 203 98 197
196 90 189 198 91 191 207 99 199 209 100 200 200 91 189
189 79 174 182 74 166 177 71 162 170 68 157 161 63 150
150 56 141 139 50 133 126 41 123 113 31 112 102 24 105
102 27 109 107 33 118 112 39 127 116 44 136 123 50 146
132 58 158 145 70 174 160 83 191 175 98 209 185 107 221
190 112 229 194 116 234 197 119 237 194 116 234 189 111 229
177 99 218 166 88 209 157 79 202 158 80 204 169 91 215
188 111 229 211 134 242 234 158 250 241 166 250 227 151 236
196 119 212 169 91 191 156 78 184 153 76 186 144 68 180
124 51 162 100 30 136 93 26 125 109 45 132 117 56 131
103 44 108 79 21 74 72 13 52 81 19 44 94 27 42
104 35 46 111 39 47 111 38 45 107 34 41 99 27 40
90 18 43 84 13 53 84 14 74 91 19 99 108 34 131
134 56 167 167 84 203 191 104 226 204 115 235 200 112 227
190 102 214 177 90 201 179 92 203 190 104 215 204 119 230
208 124 235 196 112 224 194 111 223 203 120 230 219 137 246
221 140 248 217 137 245 216 137 243 215 137 241 209 132 237
198 120 230 180 104 216 169 94 207 160 87 198 145 72 181
123 51 158 106 35 138 112 42 139 133 64 156 168 99 186
202 134 218 230 161 242 241 172 251 242 172 252 236 166 247
228 158 240 224 154 235 222 152 233 222 152 233 220 150 233
224 153 237 230 159 243 231 159 246 219 146 237 203 128 223
185 110 209 175 98 201 167 90 195 232 180 240 240 189 246
246 192 250 237 179 242 216 153 225 198 128 209 193 118 203
193 111 201 192 104 196 186 93 186 178 81 173 173 73 163
173 70 158 177 71 158 181 74 159 191 83 169 204 96 183
216 109 195 219 115 199 215 115 195 210 115 191 213 124 196
224 138 210 230 147 221 226 141 217 212 120 201 202 100 185
198 86 170 196 79 158 194 75 146 190 73 133 183 68 114
173 58 92 160 47 72 150 42 61 142 39 53 133 35 44
127 33 38 130 38 39 142 51 50 154 64 62 160 73 70
155 72 67 138 61 56 115 45 38 90 28 20 69 14 8
54 5 1 46 2 0 45 1 0 49 2 1 60 7 3
77 16 10 96 27 20 111 35 29 132 49 44 152 63 59
171 78 75 177 82 78 176 81 74 170 76 65 163 70 55
154 63 46 144 54 36 133 44 28 127 37 22 129 38 24
140 48 33 158 66 51 180 89 74 203 114 97 205 119 103
185 101 86 148 69 55 122 47 34 109 38 28 101 36 26
89 27 19 72 14 9 58 5 2 53 3 1 60 9 7
80 23 20 110 43 42 135 59 58 144 62 61 139 54 52
137 50 48 141 56 53 147 64 61 147 66 63 136 59 56
117 46 42 97 32 28 81 21 18 73 15 16 71 13 20
72 13 26 72 13 30 73 13 34 75 15 38 78 16 42
82 19 46 87 20 50 92 23 57 100 27 68 108 32 80
116 36 93 126 43 106 139 53 122 153 64 137 168 77 153
184 92 170 202 109 188 210 116 197 206 111 195 201 104 191
198 99 189 194 93 185 187 85 178 185 81 177 188 82 179
188 80 178 187 78 176 193 83 181 200 90 187 199 87 184
193 80 174 185 72 162 183 70 157 179 69 153 176 69 150
169 67 145 158 61 136 145 53 126 128 41 113 111 29 101
98 19 93 97 21 97 104 30 109 110 37 121 112 39 127
113 41 133 122 48 147 135 58 165 146 68 181 154 75 192
158 79 198 161 82 203 164 85 209 168 89 214 167 88 215
160 81 208 151 72 200 146 67 195 146 67 195 154 76 203
172 95 220 194 117 237 212 136 246 229 153 249 227 152 242
207 131 222 175 98 195 155 77 180 151 73 181 148 71 182
131 57 167 111 40 146 96 27 127 102 35 126 112 47 127
110 47 116 95 32 92 84 20 70 87 20 58 101 28 54
117 39 55 131 50 63 139 55 67 139 53 63 131 47 58
119 38 54 106 27 55 95 18 63 92 16 82 95 20 105
115 37 139 146 66 178 183 99 216 207 121 237 216 128 241
206 118 228 192 105 213 179 93 200 180 94 201 184 98 205
191 106 214 195 111 220 192 109 220 196 112 224 202 118 229
211 129 237 210 129 235 208 128 232 213 133 233 221 143 241
228 150 249 218 140 244 194 117 225 174 98 208 165 91 200
153 80 187 132 61 166 118 49 149 130 63 156 157 93 179
194 132 210 223 162 235 243 183 249 249 190 254 248 189 254
243 184 250 238 179 245 237 179 242 237 179 241 236 179 241
236 178 242 238 178 246 237 173 247 228 161 242 214 145 231
201 129 223 191 117 216 180 104 207 172 95 201 223 170 232
235 182 241 240 185 246 224 165 231 195 131 205 176 107 188
181 107 192 197 117 207 207 122 214 208 118 211 199 106 198
192 95 187 187 89 177 186 86 174 188 86 173 195 93 180
208 106 194 218 118 206 220 123 207 213 121 201 214 126 201
224 141 213 233 151 223 226 143 217 211 122 200 199 101 183
199 90 175 201 84 168 201 81 159 197 77 146 190 72 129
181 66 110 170 56 88 158 46 70 148 40 58 141 39 52
137 40 48 139 45 49 149 56 57 163 72 71 174 83 81
175 85 82 161 75 70 137 56 51 115 41 34 99 31 23
82 21 14 65 11 6 53 4 2 49 2 1 50 2 1
57 4 2 69 10 7 84 18 15 100 27 24 117 37 35
136 50 48 155 65 63 170 77 73 175 82 75 175 81 71
171 78 64 168 76 59 159 69 51 146 56 40 132 42 28
128 37 23 134 42 28 149 57 42 169 78 62 190 101 85
198 111 95 188 103 88 161 79 65 136 59 46 120 47 36
108 39 30 93 27 20 74 12 8 59 4 1 53 3 0
56 6 3 71 14 11 97 32 30 123 50 48 136 56 54
134 51 48 132 47 45 136 53 49 144 62 58 144 64 60
132 56 53 112 42 38 93 28 24 78 17 15 71 13 14
69 11 17 69 12 23 70 12 28 72 13 32 75 15 37
79 17 41 83 20 45 87 21 49 90 22 54 97 25 64
105 29 77 114 34 91 121 38 103 130 43 114 140 51 127
161 69 148 184 89 170 200 103 186 199 102 186 191 92 178
183 83 171 180 78 167 177 73 164 176 71 162 179 72 164
186 77 170 193 83 176 200 88 180 203 91 183 203 89 180
196 82 171 191 75 161 188 71 153 186 70 147 183 69 143
180 69 141 173 67 135 162 61 127 151 55 119 134 43 106
117 31 94 102 19 85 99 19 88 102 25 98 105 30 108
106 32 114 106 32 120 113 38 134 126 49 155 140 62 174
148 69 185 147 68 187 143 64 185 143 63 187 145 65 192
145 65 194 141 60 191 138 58 188 139 59 188 142 63 191
154 75 202 174 96 221 193 116 237 208 132 244 219 144 244
213 138 232 189 113 208 159 83 182 146 69 173 145 69 176
140 65 172 125 51 157 110 39 141 106 36 131 113 45 131
114 46 123 105 37 105 94 26 86 95 23 75 104 28 67
118 36 63 134 46 64 150 59 74 160 67 80 160 66 79
153 60 74 142 51 72 127 40 73 112 27 77 104 21 92
106 24 113 127 45 150 161 78 191 198 114 227 220 135 247
225 139 247 218 133 237 211 126 227 205 120 220 202 118 218
195 111 212 189 106 208 187 104 210 188 105 215 192 108 221
195 111 224 197 114 223 194 112 217 192 112 213 202 122 219
218 140 233 230 152 247 221 142 243 198 120 225 179 102 209
171 96 202 163 90 194 151 81 181 146 78 172 161 97 184
189 128 206 220 163 232 240 186 247 251 199 254 252 202 255
250 200 254 246 197 252 245 197 249 246 198 249 248 200 249
247 198 249 246 195 250 245 191 251 240 182 249 228 166 241
217 152 233 209 140 228 203 132 226 194 120 218 186 112 212
218 162 227 233 177 239 236 178 243 210 150 219 169 104 182
144 76 158 149 76 162 172 95 185 193 113 203 209 124 216
213 125 216 214 123 212 211 118 205 210 115 201 211 116 199
216 121 205 225 132 216 231 140 224 229 141 222 222 138 215
224 145 218 235 159 229 235 158 228 219 135 210 201 108 187
196 91 175 200 86 172 204 84 167 204 82 158 198 77 143
188 70 124 179 63 105 169 54 85 159 47 69 149 41 58
144 42 54 148 49 58 158 62 67 171 77 79 183 89 89
186 93 91 177 85 82 155 66 62 132 48 43 120 42 36
114 42 35 100 35 28 80 21 16 62 8 6 56 4 3
55 3 3 59 4 4 67 7 8 78 13 14 92 22 23
106 30 32 121 39 40 138 50 50 155 64 61 168 76 70
175 82 72 175 82 69 174 82 66 170 79 63 159 70 55
144 54 41 134 43 30 135 43 29 145 53 39 161 69 54
178 88 73 189 100 85 188 102 87 175 91 78 161 81 69
148 72 61 133 60 52 111 41 34 84 19 15 63 5 3
54 2 0 53 3 1 62 8 5 86 23 21 113 42 40
130 53 50 130 50 46 127 46 42 131 49 46 138 57 54
138 59 56 126 51 49 107 37 35 89 24 23 77 16 16
71 13 15 70 12 19 69 12 23 70 12 27 72 13 31
75 15 36 79 18 40 83 20 44 87 21 48 90 21 52
96 24 62 103 28 75 112 33 89 118 35 100 124 38 110
138 49 125 166 73 153 187 89 171 192 92 175 179 78 162
170 68 154 167 64 150 167 62 148 168 62 148 172 64 150
180 70 155 189 77 162 199 86 170 206 92 175 206 91 173
200 84 165 193 77 155 191 73 147 189 71 140 187 69 134
184 67 130 180 66 127 173 64 122 165 60 116 157 56 110
144 48 101 129 38 92 113 26 82 106 22 82 102 21 87
101 23 94 102 25 101 104 28 111 110 34 126 120 43 145
133 56 164 146 68 181 151 73 188 149 70 189 144 64 186
139 59 183 136 55 182 133 52 180 134 54 182 137 57 184
141 61 188 151 71 197 168 88 212 182 102 223 195 117 230
200 124 228 192 117 215 169 94 192 149 73 174 143 67 170
144 68 173 137 62 167 130 56 158 121 49 146 118 47 138
116 44 127 110 38 113 103 30 97 102 27 88 109 31 84
120 36 78 131 40 70 145 49 69 160 61 77 171 70 85
175 73 88 172 71 88 165 65 91 151 54 93 134 40 96
121 30 106 122 32 126 145 56 163 179 91 204 212 126 238
229 144 252 231 146 251 229 144 247 229 145 245 229 146 242
228 145 239 218 136 230 204 122 219 194 111 215 190 106 216
192 107 221 191 107 221 189 105 216 184 102 207 186 105 204
202 121 215 224 144 235 233 154 246 219 141 238 199 122 223
187 111 214 186 111 212 185 112 211 183 113 207 184 118 205
198 134 214 218 159 230 239 185 245 251 202 253 255 209 255
254 210 255 252 210 254 250 209 253 251 211 253 252 211 254
250 206 252 242 197 245 236 188 240 235 184 241 236 181 244
233 174 243 228 165 240 224 157 238 222 152 238 216 144 233
211 138 229 221 161 229 234 175 241 233 173 241 199 137 208
151 85 164 121 53 135 121 50 136 139 65 154 162 84 174
187 106 196 208 124 213 222 135 223 227 139 224 230 140 223
233 144 226 238 149 231 242 155 236 244 160 240 241 160 238
238 161 235 240 168 237 241 172 239 230 156 225 210 126 201
197 100 181 198 88 174 202 83 170 204 81 163 202 80 153
196 75 138 186 68 119 178 61 101 170 55 84 161 49 71
152 44 60 151 47 59 161 62 70 178 81 85 190 94 96
193 97 97 184 89 87 166 72 69 145 53 49 133 45 40
134 51 46 135 58 52 122 51 45 98 34 29 75 16 13
63 8 6 59 4 5 63 6 8 69 10 14 77 14 19
87 20 25 98 26 31 110 31 35 123 39 41 138 51 49
157 67 61 171 79 70 177 85 73 177 85 71 176 85 71
169 79 66 158 67 55 145 53 41 140 48 35 145 53 38
155 63 48 168 77 61 177 87 72 185 97 83 189 102 90
190 107 96 186 106 96 170 93 85 140 65 59 102 32 28
72 10 7 56 2 0 51 2 0 58 5 2 81 19 17
109 39 36 127 52 49 128 50 46 124 44 40 126 46 42
130 50 47 128 51 49 117 43 42 101 31 32 86 22 22
77 16 18 73 14 18 71 13 22 71 13 26 71 13 29
73 14 32 76 16 36 80 18 39 83 20 43 87 21 47
90 22 53 97 25 63 104 28 75 111 32 89 116 33 99
124 39 111 146 57 134 174 81 161 185 88 169 177 76 158
162 59 142 157 54 137 158 53 136 158 52 133 161 53 133
167 57 136 176 64 142 184 71 147 192 78 151 195 80 152
193 77 147 190 72 140 187 69 134 187 68 129 187 67 123
185 66 118 183 65 116 179 64 113 173 61 109 167 58 105
163 58 103 157 56 100 148 52 97 135 43 90 122 33 84
109 24 81 102 20 84 102 22 92 108 28 106 117 39 125
128 51 147 140 64 166 149 73 179 153 76 186 154 76 190
155 77 194 155 76 196 150 70 192 142 62 186 138 58 182
138 58 182 139 59 183 144 64 187 153 73 195 160 81 199
171 93 206 175 99 204 172 96 197 159 82 183 152 75 177
151 74 177 147 70 174 138 62 163 135 60 158 130 55 148
122 48 135 112 37 117 108 31 103 111 31 97 117 36 96
126 40 94 134 44 87 141 45 75 152 50 71 163 59 75
175 69 84 183 76 92 186 78 98 184 76 105 174 68 112
158 54 116 144 43 125 142 44 142 163 68 178 195 102 216
223 133 244 232 145 251 226 141 245 220 137 238 221 139 236
228 148 239 237 156 244 237 157 245 224 143 236 208 125 227
196 113 222 193 109 223 192 108 222 190 106 216 189 106 209
197 115 212 216 134 226 234 152 242 231 151 242 214 136 230
201 125 221 204 129 224 212 139 230 217 147 233 218 150 233
219 154 233 226 164 236 237 181 244 249 199 251 253 209 254
254 212 254 254 213 254 253 214 254 252 215 255 253 215 255
251 209 254 242 196 247 228 179 235 219 167 226 218 164 226
224 167 233 229 169 238 231 167 241 232 164 243 232 161 244
231 158 243 230 156 242 225 163 234 237 174 244 229 166 237
189 124 199 138 72 152 109 40 123 106 36 121 117 44 132
135 60 148 162 83 171 188 106 193 207 122 208 216 129 213
223 135 216 231 144 223 239 152 231 240 157 234 241 160 237
240 163 238 245 172 244 248 181 248 242 176 243 223 152 222
204 120 196 197 98 179 201 87 173 203 81 166 202 77 157
200 76 147 196 75 134 190 70 119 183 65 103 175 59 87
165 52 73 156 47 63 157 52 64 172 71 78 190 92 96
198 101 102 190 93 92 172 75 73 154 57 53 143 48 44
145 53 49 153 66 62 154 71 67 140 63 58 117 47 43
91 28 24 73 14 12 64 7 8 66 7 12 73 13 21
83 21 30 93 28 38 100 31 40 104 29 36 112 32 35
125 41 40 143 56 51 162 73 64 174 85 73 177 88 74
178 89 75 175 85 73 167 77 66 153 62 50 143 51 38
142 50 36 149 57 42 157 65 50 166 74 60 178 88 75
195 107 95 210 124 113 214 131 122 201 120 113 169 90 85
126 51 48 87 20 18 64 6 4 56 3 1 62 6 4
84 22 19 112 42 38 128 53 50 128 50 47 122 43 39
121 42 39 121 43 41 116 41 40 105 33 34 92 24 27
82 18 21 77 16 20 74 15 21 73 14 25 73 14 29
74 14 32 75 15 35 78 17 38 82 19 41 84 21 44
88 22 48 92 24 55 99 27 66 105 29 78 110 30 89
114 31 99 128 42 116 157 68 146 176 82 163 176 79 159
160 59 139 151 49 129 151 48 126 151 47 124 150 45 119
153 46 118 157 49 118 166 55 122 171 59 123 175 61 122
176 61 119 175 59 116 176 59 113 176 59 110 179 61 109
182 63 107 183 64 106 183 64 105 180 64 105 176 62 102
172 60 99 170 61 98 171 65 102 169 67 104 160 62 101
144 50 93 125 35 85 112 25 82 109 24 88 113 29 101
122 41 121 135 57 145 150 74 169 159 84 183 160 84 186
162 85 191 171 93 203 179 100 214 175 96 212 162 83 200
151 72 190 147 68 187 146 67 185 146 67 185 147 68 185
146 68 183 151 73 185 158 80 187 163 86 189 164 86 189
167 88 192 165 85 189 153 74 176 140 60 159 134 54 150
131 52 142 124 45 128 118 37 114 120 37 106 127 41 104
134 46 104 139 48 100 145 49 91 150 49 79 157 52 73
167 59 76 179 70 85 190 79 95 196 83 104 197 83 114
192 78 125 181 69 135 169 59 145 165 59 161 182 79 191
208 110 224 230 137 247 229 140 245 213 127 230 195 113 215
189 109 207 204 126 216 227 149 233 244 165 248 238 158 247
218 136 236 201 117 227 193 109 223 193 109 221 195 111 218
202 118 219 217 134 228 233 150 241 237 155 245 221 141 232
206 129 220 206 132 222 224 151 236 238 166 248 242 173 250
239 173 249 236 172 245 239 178 246 246 191 249 254 205 254
254 210 253 252 209 251 250 208 250 249 210 250 249 210 252
248 206 252 243 194 250 230 176 240 215 158 227 206 147 217
205 144 215 208 145 218 211 146 221 215 146 225 218 146 228
221 147 230 223 147 232 224 147 233 224 159 233 235 170 243
225 159 234 180 114 191 127 60 141 99 30 113 96 26 111
106 34 120 122 47 133 146 68 154 168 87 172 182 97 181
188 100 182 194 105 184 204 115 192 215 128 203 221 136 210
224 141 215 226 146 220 234 161 233 244 178 244 241 178 244
224 154 223 205 122 198 200 100 181 203 88 173 204 80 164
201 76 154 200 76 144 201 79 136 200 79 126 194 74 110
182 65 93 168 55 75 159 49 65 160 55 66 176 74 81
193 93 97 195 97 98 181 83 81 161 62 59 149 50 46
152 55 50 165 70 66 172 80 77 165 77 74 153 70 66
136 60 56 111 42 38 84 21 19 69 9 10 66 6 12
73 14 23 92 33 44 117 54 67 119 53 64 109 38 46
100 25 29 112 33 31 129 47 40 147 63 53 162 76 65
172 86 73 177 90 78 180 91 80 174 84 74 158 68 57
142 51 39 137 45 32 141 49 35 147 54 40 153 61 47
167 76 62 191 100 89 213 124 114 224 137 129 217 132 126
192 109 104 153 73 70 111 39 36 82 18 15 69 10 7
74 14 11 95 30 26 119 49 45 130 55 52 127 50 46
120 42 39 118 40 38 115 39 38 108 34 35 97 26 29
86 19 24 80 16 22 77 16 22 75 15 24 74 14 28
74 14 31 75 14 35 77 16 38 80 18 41 84 21 44
87 24 48 90 25 52 95 27 60 100 28 69 104 29 80
106 27 88 113 30 100 133 47 123 162 74 152 170 78 158
163 68 146 145 47 123 142 43 117 142 41 114 141 39 109
140 38 104 144 40 103 149 43 103 154 46 103 158 48 101
160 49 98 161 49 95 162 48 92 165 50 91 168 52 90
172 56 92 177 60 94 182 65 98 185 67 101 185 69 102
183 67 100 179 65 97 179 66 97 182 72 103 184 77 108
180 76 109 166 66 102 148 51 94 132 39 89 125 34 92
123 34 99 127 41 114 135 55 134 149 72 157 159 82 171
164 85 179 172 94 191 190 111 213 205 125 230 197 117 225
178 98 208 158 79 190 154 74 186 154 75 187 154 75 187
148 69 181 138 59 169 136 57 165 149 69 175 165 85 189
178 96 200 182 99 203 176 92 196 161 77 179 146 61 160
138 53 147 137 52 140 136 51 132 137 50 124 140 51 118
144 53 112 146 53 106 148 52 99 151 52 90 155 52 80
162 55 74 172 63 78 185 74 88 196 83 98 203 87 107
205 87 118 203 85 132 198 80 147 189 73 160 185 73 176
198 91 202 219 118 230 235 139 248 225 134 239 199 113 215
173 91 192 161 82 179 181 104 193 213 136 219 242 165 246
243 163 251 221 139 238 199 116 225 187 103 215 188 104 213
195 112 215 213 129 225 232 149 240 239 155 247 227 143 239
206 125 220 200 125 215 214 142 226 236 165 244 245 175 251
242 175 248 236 170 243 233 169 239 238 177 242 246 190 248
254 203 254 252 205 251 247 201 247 242 197 243 239 196 243
239 195 246 238 188 247 233 174 245 221 155 235 209 140 224
201 132 216 198 128 211 195 124 208 193 119 205 192 116 204
194 116 205 196 117 207 199 119 209 200 120 209 221 155 231
235 168 243 223 157 233 177 110 187 124 57 137 95 27 109
92 22 105 100 28 112 115 39 122 135 56 138 150 67 148
158 71 151 161 70 149 167 73 149 178 83 157 194 100 173
206 114 186 213 123 195 213 128 201 220 141 214 232 163 231
239 174 242 230 161 231 214 132 207 204 106 187 205 92 176
205 84 166 203 79 154 203 79 145 206 84 138 207 85 130
199 79 114 185 67 93 168 53 74 158 48 63 162 55 66
177 74 80 190 89 92 189 89 89 173 72 71 156 55 52
153 52 48 168 68 63 184 86 82 183 87 84 168 75 72
157 68 66 146 64 61 126 51 47 97 28 26 77 13 15
68 7 13 73 13 23 101 42 55 145 85 99 155 93 105
135 70 78 102 33 36 102 29 27 113 37 30 128 49 39
144 63 51 161 78 66 174 89 78 183 95 85 179 90 80
165 75 65 144 54 42 133 42 29 134 42 28 138 46 31
143 50 36 156 64 50 180 89 77 204 114 104 217 129 121
218 130 124 206 120 116 184 100 97 149 72 70 119 49 46
101 34 32 101 34 31 113 43 40 127 54 50 130 54 51
124 47 44 119 41 39 117 39 39 113 37 38 103 31 34
92 23 27 82 17 23 77 14 22 74 13 23 72 12 25
73 12 29 75 14 34 79 17 40 82 20 44 84 22 47
86 23 50 89 26 53 92 27 57 95 27 63 99 27 72
102 26 80 106 26 90 121 38 110 144 58 135 164 76 155
159 69 146 146 54 127 133 39 109 133 38 105 133 37 101
133 36 98 137 38 96 142 42 96 147 44 94 149 44 90
151 44 86 154 46 83 156 46 80 157 46 77 160 47 77
163 49 76 167 53 79 170 56 82 176 62 88 182 67 94
188 72 100 190 74 101 189 73 100 187 72 98 187 73 98
188 76 101 186 77 103 178 72 102 166 63 100 155 55 98
149 50 101 144 48 106 137 46 110 135 49 119 141 58 133
157 75 153 177 94 177 197 114 201 212 129 220 219 136 231
211 128 226 200 117 218 184 101 204 177 94 198 174 92 196
173 92 196 164 83 187 146 65 168 138 56 159 148 66 168
169 85 187 185 99 201 190 102 205 185 95 198 174 83 184
164 72 169 156 64 157 155 63 149 155 62 141 155 62 132
153 59 120 150 54 108 148 50 97 147 48 89 150 48 81
155 51 75 164 57 74 177 68 81 192 80 92 203 89 103
209 93 112 211 92 122 210 90 136 207 87 152 202 83 168
200 85 185 209 100 208 226 124 233 237 140 247 223 132 235
192 106 208 164 82 183 154 75 172 176 100 190 211 135 218
241 164 245 241 161 250 215 133 232 189 106 214 176 92 202
183 99 205 201 117 217 224 140 234 238 154 246 232 147 243
213 127 229 197 115 216 201 124 217 217 145 230 231 161 242
232 162 241 223 154 233 216 149 225 216 151 224 227 165 232
241 183 243 249 195 250 248 195 248 242 190 243 235 184 238
231 180 237 229 177 239 226 167 239 222 152 237 212 136 230
203 124 221 196 116 212 190 110 206 185 104 199 180 99 193
177 95 189 176 94 187 176 93 186 176 92 185 176 92 184
215 148 226 232 165 240 223 156 232 176 109 186 122 54 134
93 25 105 91 21 102 98 26 106 110 34 113 125 44 122
137 52 129 146 56 131 152 57 131 160 62 133 170 70 139
188 87 155 203 103 171 213 115 184 212 119 190 212 127 199
221 146 216 234 166 234 237 167 237 226 144 220 212 117 197
207 98 180 207 90 170 206 85 158 206 84 148 208 86 139
209 86 130 200 78 112 183 64 90 165 50 70 159 48 62
166 58 69 182 78 84 192 89 91 187 85 85 169 67 65
157 55 51 161 58 54 182 80 75 196 95 91 189 90 86
169 72 70 160 67 65 154 67 64 139 59 55 114 40 38
96 26 28 82 17 23 79 17 27 100 41 53 144 86 99
160 102 112 140 80 86 100 37 38 91 24 21 99 28 21
112 37 28 127 49 39 147 67 56 167 84 74 181 95 85
183 95 86 170 82 72 149 59 48 132 43 30 129 38 24
131 40 25 136 45 30 148 57 43 172 81 69 194 104 94
206 117 108 209 121 114 209 121 116 202 116 112 183 101 99
159 83 80 139 66 64 132 59 56 132 58 55 133 57 54
128 51 48 120 42 40 117 39 38 115 38 39 111 36 39
101 29 34 90 21 28 81 16 25 77 14 25 75 15 27
76 16 31 78 18 37 84 22 44 88 26 51 90 28 54
89 26 55 88 24 54 88 24 55 90 24 59 94 25 66
98 26 75 102 27 84 113 33 99 135 53 126 155 70 147
160 74 151 146 58 131 132 43 111 125 35 98 124 33 93
125 32 89 127 33 87 133 38 87 141 44 89 146 47 88
147 46 82 149 45 77 152 48 74 155 48 72 156 48 70
159 49 69 161 51 69 162 52 70 163 53 72 168 58 78
176 64 86 185 71 93 191 75 98 191 75 97 189 72 94
187 70 91 187 72 91 188 74 95 186 74 99 180 71 101
174 67 104 170 65 108 166 63 113 157 58 113 147 54 114
143 53 117 158 68 135 186 96 167 212 122 197 220 130 210
214 124 208 205 116 204 202 113 204 193 105 198 185 97 191
181 93 189 180 94 188 173 87 182 156 71 164 147 62 156
153 67 162 170 81 177 183 92 189 189 96 194 191 95 193
190 92 190 188 89 184 181 82 172 174 76 158 166 68 142
160 62 127 153 55 110 147 48 94 143 44 82 143 43 75
145 44 69 150 46 65 159 53 67 173 65 75 190 79 88
203 91 101 214 98 114 218 101 126 217 98 139 212 94 152
207 89 166 205 92 184 214 106 207 230 127 231 239 142 245
227 136 237 198 112 213 174 92 194 168 89 188 189 112 206
219 142 229 240 162 248 232 152 243 202 120 222 175 92 200
167 84 192 184 101 204 211 128 223 232 149 240 233 149 242
215 129 231 195 108 218 189 105 213 202 123 222 219 145 236
227 155 243 223 151 238 211 141 226 203 134 215 204 137 213
219 154 225 236 174 240 246 187 248 244 185 245 236 179 239
229 172 235 224 166 233 221 160 233 217 148 231 213 135 230
207 122 226 199 111 218 189 101 207 180 92 196 174 87 189
171 84 184 170 82 180 168 81 177 166 79 173 163 77 169
162 75 166 216 149 228 232 166 241 222 156 231 175 109 183
120 53 132 91 24 101 90 21 97 97 25 100 108 31 105
118 37 109 126 39 109 135 42 110 145 47 114 158 55 120
169 63 127 189 81 144 206 97 160 219 111 177 219 116 185
214 120 191 214 130 202 223 147 219 235 162 234 233 154 229
221 131 209 210 107 187 210 99 175 209 93 163 208 88 151
207 85 138 205 81 125 195 72 106 178 59 84 163 47 66
161 50 64 174 66 75 192 87 92 199 95 97 189 86 85
169 66 63 158 56 51 167 64 59 191 88 82 202 100 95
191 89 86 171 71 69 164 67 64 162 69 67 154 66 64
138 56 55 124 47 49 108 37 42 93 28 36 93 33 43
115 59 69 131 77 84 120 66 69 91 34 34 78 18 14
85 20 13 99 29 20 115 40 31 135 56 46 156 74 65
174 89 80 182 95 87 175 88 78 156 68 57 135 47 35
126 38 23 126 37 22 131 41 26 143 54 39 165 76 63
186 97 86 195 106 97 196 107 100 199 110 105 202 115 111
198 112 110 184 102 100 166 87 86 152 75 72 142 65 62
133 56 53 125 47 44 118 40 38 116 38 38 114 38 39
109 35 39 98 28 34 88 21 30 81 17 28 77 16 30
77 17 33 80 20 39 85 24 45 91 29 53 95 31 59
94 31 60 91 27 59 88 23 58 87 22 59 89 22 63
93 23 70 99 26 80 111 35 96 132 52 120 156 74 147
163 78 154 151 66 140 131 44 114 120 33 94 117 29 84
117 29 79 119 30 78 123 34 78 132 41 81 141 48 84
146 50 82 146 49 76 147 48 71 149 48 67 152 49 65
154 50 64 156 51 63 157 51 62 157 52 63 156 52 65
158 54 69 164 57 74 173 63 81 181 68 86 185 70 88
185 68 85 184 67 83 186 69 84 188 72 88 189 74 93
187 74 97 184 72 101 183 72 107 181 72 113 175 69 115
169 66 116 166 66 119 177 77 134 197 98 158 211 112 176
208 109 177 198 99 172 199 101 177 205 108 188 203 106 188
192 97 180 184 90 173 181 87 171 177 84 167 166 74 157
161 70 152 160 70 153 169 77 162 178 83 170 188 89 178
195 93 183 198 94 184 198 93 181 190 85 167 178 75 149
164 61 127 154 53 108 145 45 90 139 39 75 135 36 64
133 34 55 134 34 50 138 36 48 146 42 51 157 52 58
173 65 70 189 80 85 204 92 102 211 98 116 212 97 129
207 92 140 203 89 154 203 92 172 212 105 197 227 125 223
237 141 240 233 142 241 213 127 228 196 114 217 193 113 216
210 131 229 230 151 243 234 154 248 216 134 233 185 103 209
164 81 190 168 85 192 195 113 212 227 146 236 238 157 245
221 137 232 194 107 216 178 90 206 182 96 212 198 116 225
213 134 236 217 140 238 214 138 234 207 133 225 201 129 217
201 132 213 216 149 224 234 168 239 245 180 248 241 178 244
234 171 238 228 164 234 221 156 231 215 146 227 207 132 223
203 120 221 199 110 219 193 101 212 181 89 199 169 78 185
161 70 175 159 68 170 160 70 168 160 71 165 158 69 160
153 65 153 150 62 149 223 156 234 236 170 244 223 157 230
174 109 181 118 53 128 89 23 97 88 21 92 94 24 93
103 28 95 110 30 94 117 31 93 128 35 95 141 42 100
154 50 107 166 56 112 185 72 128 204 89 146 220 106 167
222 113 178 218 116 185 212 120 192 215 132 206 229 151 225
237 157 232 231 144 221 218 121 199 214 109 184 213 100 170
210 92 154 206 84 138 203 78 123 193 69 104 177 57 82
165 49 67 168 55 68 184 75 84 203 97 102 207 103 104
192 89 87 169 66 62 160 57 52 173 69 63 197 93 87
205 102 97 192 89 85 176 74 71 173 73 71 176 78 77
172 78 76 161 73 72 150 67 68 134 58 61 113 43 48
95 32 38 88 30 35 87 33 37 80 28 29 68 16 15
64 9 5 74 14 8 90 24 15 107 34 25 123 46 37
144 62 55 163 79 72 177 91 84 176 89 81 161 75 65
141 54 42 127 40 26 123 36 21 127 40 24 141 53 37
161 74 59 180 93 80 187 99 89 185 97 88 184 96 89
186 99 94 187 100 97 179 94 92 166 83 81 152 71 68
139 60 57 129 51 48 121 44 40 117 39 37 115 38 39
113 37 40 106 33 38 96 27 34 88 22 32 82 20 32
81 20 36 81 22 40 86 25 46 90 28 51 94 30 56
94 30 58 91 27 59 88 23 58 85 20 59 86 19 62
88 20 67 94 24 76 108 35 94 130 54 118 152 72 142
163 81 153 154 70 143 137 52 122 120 34 98 113 27 81
112 26 73 114 28 70 117 31 70 121 34 70 127 39 70
133 43 71 136 45 68 136 43 63 138 43 59 140 44 56
142 45 55 144 46 53 145 46 53 146 47 52 147 48 54
147 49 57 148 50 60 151 50 62 156 52 64 161 54 67
167 56 69 171 58 70 176 62 73 182 67 77 188 73 83
190 75 87 190 75 91 188 74 96 188 74 101 187 74 106
186 75 110 185 76 115 187 78 121 193 85 130 200 92 141
200 93 145 192 85 141 185 78 139 187 81 146 192 87 154
190 87 155 184 82 152 180 79 149 176 76 146 171 72 142
166 69 137 165 70 138 164 70 139 167 72 144 171 73 147
177 76 151 184 78 155 190 82 158 194 85 160 189 81 151
177 70 133 158 54 107 144 42 86 135 35 69 131 32 56
128 30 47 127 30 40 128 30 37 131 32 36 139 37 40
151 48 49 166 63 61 183 78 76 196 89 90 200 92 100
198 88 108 192 82 116 189 79 131 193 84 151 204 98 178
219 117 206 231 132 227 233 140 239 225 137 240 218 133 240
216 133 240 223 142 246 226 145 246 216 134 237 193 110 217
171 87 198 163 80 190 179 96 203 211 129 227 236 156 246
233 152 242 203 120 219 172 85 199 160 72 194 172 83 207
189 103 220 200 116 227 201 118 226 200 119 224 202 123 224
204 128 223 208 134 223 221 150 231 236 166 243 246 177 250
242 175 246 235 167 240 228 159 235 219 149 229 209 136 223
200 121 217 195 109 214 191 100 212 185 92 205 173 80 192
161 69 177 153 62 165 151 60 159 153 63 156 154 64 153
151 62 147 147 58 139 144 56 134 232 165 241 242 176 248
224 160 230 173 110 179 116 53 124 85 22 91 84 20 85
89 22 84 96 25 84 103 25 81 110 26 79 121 29 80
134 36 85 148 44 92 160 51 98 179 64 112 199 81 132
218 100 155 223 109 169 220 113 179 213 114 185 211 120 195
221 137 212 234 153 229 237 154 230 228 138 214 219 119 193
214 104 173 210 92 155 206 82 137 201 75 121 191 66 102
177 57 82 168 51 69 173 60 72 191 81 90 210 103 107
211 106 107 193 89 86 169 65 61 161 58 52 177 73 66
200 96 89 205 101 95 191 87 83 179 76 72 181 79 76
186 85 83 183 85 84 175 80 79 165 75 74 149 67 67
130 54 55 108 41 41 90 29 29 76 20 19 64 12 10
56 6 4 57 4 1 68 10 5 84 19 12 99 29 22
114 38 31 131 51 45 149 66 60 165 81 74 172 87 79
165 81 70 147 63 51 130 45 31 123 38 23 126 42 25
139 54 37 157 71 56 174 88 74 181 95 83 179 93 83
174 88 80 172 86 80 171 83 79 165 77 75 154 67 66
142 59 56 131 52 48 123 46 42 119 43 39 118 42 40
116 41 40 111 37 40 101 31 36 93 25 34 86 21 33
82 20 35 81 20 39 81 21 42 84 23 46 86 24 48
88 24 50 86 21 51 84 19 52 83 18 56 85 19 61
89 22 69 94 25 77 102 32 89 123 50 112 146 70 137
159 80 150 154 72 143 137 54 123 122 38 103 111 28 83
108 24 69 109 25 62 112 28 61 115 31 61 117 32 59
118 34 57 120 35 54 120 34 50 120 33 45 121 33 43
123 34 41 124 35 40 126 36 39 127 37 39 128 37 39
129 38 41 129 40 44 130 40 46 131 40 47 134 39 47
139 39 47 145 42 50 152 46 53 161 53 59 170 60 65
178 67 72 182 70 77 185 72 83 187 74 88 190 76 95
191 78 101 194 81 107 196 83 111 199 86 117 200 87 121
197 85 122 191 79 120 185 73 118 183 72 120 185 75 126
184 75 128 179 72 126 178 73 127 178 74 128 173 70 123
165 62 115 159 58 111 159 60 113 159 62 115 159 62 117
161 61 118 162 59 118 165 59 118 171 62 121 179 70 126
181 72 124 171 64 110 151 47 85 135 34 63 129 29 50
129 31 44 131 35 40 133 38 38 138 42 40 144 47 44
152 54 50 163 64 58 177 77 68 190 89 80 200 98 89
202 99 95 194 90 96 182 77 96 174 69 104 177 72 123
189 84 152 204 101 182 217 116 207 223 126 224 222 129 234
217 129 240 214 129 242 213 129 241 205 121 232 189 105 217
171 87 202 162 78 193 172 87 201 195 111 219 224 142 241
234 153 247 215 134 230 180 96 202 152 67 184 148 61 187
165 77 204 179 91 213 181 94 212 174 88 203 175 90 202
185 102 209 198 118 219 212 134 227 227 151 238 240 166 247
247 174 251 245 173 248 239 166 243 231 157 238 221 146 231
209 132 223 198 117 216 191 105 212 185 95 207 176 85 197
164 73 183 154 63 169 148 58 158 148 58 152 150 61 148
150 61 143 147 60 135 143 56 127 140 54 122 239 172 247
245 179 250 223 159 228 168 106 175 110 49 117 79 19 83
78 17 77 83 19 75 90 22 73 96 22 70 104 24 68
115 27 68 127 32 72 141 40 78 154 47 84 171 59 97
192 75 118 211 93 141 219 103 159 218 108 171 214 109 179
211 113 188 215 124 202 230 146 223 240 159 235 237 152 227
221 127 200 210 104 173 206 89 153 205 81 138 200 73 121
189 64 101 177 56 81 170 53 69 176 62 74 194 83 91
211 103 107 211 105 105 190 86 83 167 63 58 161 58 51
179 75 68 199 95 88 200 96 90 186 82 77 178 75 71
183 80 77 188 84 83 184 82 81 176 76 76 166 71 69
153 64 62 140 57 54 125 51 47 110 43 39 90 30 25
72 17 12 59 6 2 58 4 0 65 8 3 77 14 9
91 23 18 105 32 26 119 42 36 134 53 47 149 67 60
162 78 70 163 80 70 151 69 56 135 52 38 126 44 28
129 46 29 139 56 39 153 70 53 166 83 67 174 90 77
174 91 79 170 86 76 164 79 71 158 71 66 152 64 61
143 56 54 134 50 47 126 47 42 120 44 39 117 43 39
117 44 41 112 40 40 105 34 36 94 25 31 86 20 29
80 17 29 78 17 33 78 18 38 79 19 42 81 20 43
82 20 43 83 19 44 82 17 46 81 16 51 84 18 58
89 22 67 95 27 78 102 33 89 113 42 103 137 63 129
153 77 146 152 73 143 135 55 123 120 38 103 112 31 89
107 26 74 105 24 60 107 26 54 109 28 52 110 30 51
110 29 48 108 28 43 106 26 38 105 25 34 104 24 31
105 24 29 106 25 28 106 26 27 107 26 27 108 27 26
108 27 27 108 28 27 107 28 29 108 29 31 111 29 32
114 28 32 118 29 32 124 31 34 132 36 38 141 42 44
150 48 50 159 55 57 166 60 64 172 64 70 178 69 78
183 74 85 187 78 91 191 81 97 194 82 101 196 84 105
195 83 106 190 78 104 183 71 100 181 69 102 184 73 109
186 76 113 180 72 110 173 65 105 173 67 106 174 70 108
169 65 103 158 55 91 150 48 84 148 49 84 147 49 85
146 49 86 146 46 85 145 42 81 145 39 79 150 43 81
159 52 88 166 60 93 162 57 85 150 48 69 139 39 54
139 41 48 145 49 50 152 57 53 159 64 56 166 71 62
173 76 67 181 83 74 189 91 79 200 101 86 211 112 95
220 120 103 221 122 108 212 112 105 191 91 95 171 70 89
162 61 97 170 68 122 186 83 154 199 96 182 205 104 202
202 105 213 194 102 218 188 100 220 184 98 219 176 90 210
164 79 198 158 72 192 161 76 194 183 98 214 208 124 234
226 143 247 217 135 238 188 105 211 154 71 184 137 53 174
141 55 182 161 74 202 171 83 207 167 79 199 154 67 183
155 69 182 168 83 192 186 103 206 206 125 221 227 147 236
242 164 248 249 172 252 247 170 250 240 163 245 231 153 239
223 143 235 213 132 229 203 119 223 194 108 217 186 96 209
174 84 197 161 71 180 150 61 165 145 56 154 145 58 148
148 61 143 148 62 136 145 59 127 141 56 119 139 54 113
241 174 248 240 175 246 212 148 217 155 94 162 100 41 106
73 15 76 73 15 70 77 17 67 84 20 65 90 21 61
99 23 59 109 25 59 120 30 61 133 37 66 147 45 73
164 55 85 183 69 104 201 85 127 210 95 146 213 101 162
212 103 173 211 107 183 213 117 197 228 142 220 240 161 236
238 157 231 219 128 201 206 102 172 203 87 152 204 79 138
199 73 122 188 64 101 178 57 82 172 54 71 178 63 74
193 82 89 208 99 103 206 100 100 187 83 79 165 62 56
163 60 52 179 77 68 195 92 84 191 88 82 177 74 69
173 70 65 178 75 71 181 77 76 176 72 72 170 67 67
162 63 60 154 59 55 145 56 51 137 55 48 127 53 45
109 42 34 88 28 20 69 12 7 62 6 1 63 5 1
70 9 5 82 16 12 96 26 21 109 35 29 121 42 36
133 52 45 147 65 57 155 73 63 150 69 57 139 59 44
131 51 35 132 52 35 140 60 42 151 71 53 160 79 63
167 85 71 169 87 75 165 83 72 158 76 66 151 66 60
146 58 55 139 52 50 131 48 45 124 46 41 119 45 39
115 44 39 112 41 38 105 34 34 96 27 29 85 17 23
77 12 22 72 9 23 72 11 29 75 14 36 77 17 41
80 18 42 81 19 42 83 19 44 84 20 48 85 20 55
88 22 63 94 26 74 101 33 86 109 39 98 126 54 118
147 73 141 152 76 146 138 60 129 118 38 104 110 30 90
108 28 80 105 26 67 105 27 55 105 28 48 106 29 45
105 29 43 103 27 39 101 25 34 98 23 29 96 22 26
95 22 24 95 23 22 94 23 21 93 22 20 92 21 19
91 21 18 90 20 18 89 19 17 88 19 18 89 19 19
92 21 20 96 21 21 101 22 22 107 24 25 115 28 28
122 32 32 130 37 37 139 43 43 147 49 50 154 54 57
161 60 64 168 66 71 173 71 77 176 72 80 178 72 82
180 73 84 179 71 85 174 66 83 169 62 81 169 62 84
175 70 93 178 73 98 173 69 94 164 61 86 162 60 84
162 62 84 156 57 78 145 46 66 137 39 58 135 38 57
134 37 57 133 36 57 132 34 55 132 31 53 135 32 52
141 37 56 150 46 62 160 58 71 164 63 72 163 65 69
161 65 64 167 72 67 176 82 73 185 91 79 191 97 83
198 102 88 202 104 91 206 107 93 209 109 93 213 114 94
222 124 100 233 135 110 242 144 120 238 142 123 217 121 111
186 90 94 162 64 86 156 57 99 168 67 129 182 78 159
188 84 181 182 81 191 171 76 196 161 70 196 158 69 196
155 67 193 151 64 189 152 65 189 160 75 196 184 99 218
205 120 234 210 126 238 189 105 217 158 75 189 134 51 169
129 45 168 137 53 180 155 70 196 160 74 195 154 68 185
144 57 172 147 61 173 158 73 180 172 88 190 190 106 202
213 131 221 233 151 237 245 164 247 244 163 247 238 156 243
228 146 238 221 138 235 214 130 233 207 121 229 200 113 224
193 103 216 182 92 204 167 77 186 153 65 167 145 58 154
145 59 146 147 62 140 147 63 133 144 60 123 140 58 114
138 56 108 239 172 247 229 163 237 192 129 199 135 75 142
89 31 93 70 14 70 70 14 64 73 16 60 78 18 56
85 19 53 94 22 51 103 24 51 114 29 53 128 36 58
142 44 65 158 53 76 173 62 90 189 74 111 199 85 132
207 94 152 211 98 167 212 103 180 216 116 196 230 143 221
239 160 235 234 155 228 214 125 198 203 100 170 202 86 152
202 79 139 198 73 125 190 66 107 182 61 89 176 58 76
178 63 76 190 78 86 201 93 96 199 93 92 183 79 74
165 62 55 165 63 54 181 78 69 191 88 80 183 80 73
169 66 60 166 62 58 170 66 62 172 67 66 167 63 62
164 60 59 160 58 55 156 57 52 151 56 49 145 55 47
138 55 45 125 49 40 105 36 28 82 19 13 68 7 3
63 2 0 65 4 2 73 11 7 87 21 16 101 30 25
112 36 30 121 41 35 132 52 44 143 63 52 145 66 54
141 62 48 136 58 41 135 57 39 141 63 45 151 72 54
160 81 64 166 86 71 166 86 73 162 82 69 154 73 62
147 63 56 141 55 51 135 50 47 129 48 44 123 47 42
118 47 40 113 43 38 106 37 34 96 27 28 86 19 22
76 10 17 69 5 16 66 4 19 68 8 26 72 12 34
76 16 40 79 17 41 81 19 41 84 21 45 87 24 51
89 24 59 92 25 68 97 29 79 105 36 92 121 50 111
142 70 136 155 81 150 143 68 137 123 46 112 107 29 90
106 27 82 104 26 72 104 27 61 104 28 50 104 29 42
103 29 38 102 28 36 100 28 33 98 27 30 96 27 27
94 26 25 92 26 23 89 25 22 86 24 20 82 22 17
79 19 15 76 16 13 73 14 11 71 13 11 71 13 10
72 14 11 75 15 12 80 16 14 85 18 15 92 20 18
98 23 20 106 26 24 113 31 29 122 36 35 130 41 41
136 46 46 142 50 50 148 55 55 153 58 59 155 59 60
155 58 60 156 57 61 155 55 61 152 52 60 148 48 58
150 50 61 155 57 69 158 60 73 155 57 70 146 49 61
142 46 57 140 45 53 136 42 48 128 34 39 122 29 33
123 29 33 125 30 35 128 31 37 132 34 40 139 39 44
148 47 51 157 57 59 166 65 66 176 77 75 183 85 81
189 93 85 192 98 87 198 105 92 205 112 97 209 116 99
213 118 100 215 118 100 216 116 100 217 115 99 217 114 96
218 116 94 224 124 97 236 137 107 246 150 119 250 156 128
239 147 126 211 119 112 175 82 93 152 56 88 153 54 107
167 64 139 179 74 166 174 72 179 163 65 185 150 57 184
147 56 185 146 56 185 146 57 185 147 60 185 154 68 191
171 87 206 183 99 216 178 95 210 155 72 188 133 50 167
123 41 160 128 46 168 138 56 179 146 63 183 144 61 175
139 54 164 137 52 159 144 58 163 152 66 167 159 72 169
169 83 176 191 105 194 213 128 214 232 148 233 238 153 241
235 150 242 227 141 238 218 132 235 212 125 232 206 118 229
202 113 226 199 108 221 191 101 212 179 89 197 165 77 178
155 68 162 150 65 150 149 64 141 147 64 131 144 62 121
140 59 111 137 57 106 238 172 247 213 150 222 167 106 175
113 55 119 78 23 81 67 13 64 67 14 56 70 15 51
75 16 47 81 18 44 90 21 43 99 24 44 109 27 46
122 34 50 136 41 57 151 48 66 164 54 78 178 63 96
189 74 117 201 86 142 209 95 162 213 103 179 217 117 196
231 144 221 238 159 233 231 153 224 212 125 195 201 102 169
200 89 154 201 81 143 199 75 131 194 71 118 187 66 102
181 62 88 179 64 82 186 75 86 195 87 91 194 89 87
181 78 71 166 63 54 168 65 56 183 80 72 191 88 81
179 75 70 163 58 54 159 54 51 162 58 55 166 61 59
165 60 58 165 60 58 163 60 56 163 61 55 159 60 53
155 59 51 150 58 50 141 55 47 122 43 36 98 24 19
78 10 6 68 3 1 65 3 1 68 7 4 79 17 12
93 28 22 105 34 28 113 38 31 122 45 37 132 54 44
137 59 47 138 60 46 136 59 43 136 58 41 142 64 47
152 73 56 162 83 67 167 87 72 167 87 73 162 82 70
155 74 64 146 63 55 139 55 50 133 50 46 128 48 44
122 48 43 117 47 41 109 41 37 98 31 29 86 20 21
76 12 16 70 7 14 66 4 15 65 4 18 68 8 25
72 12 32 75 15 36 79 18 39 82 21 43 87 25 49
91 28 57 93 28 64 94 28 71 97 29 80 111 42 99
133 63 126 151 80 147 150 77 144 128 55 120 110 35 96
100 25 79 101 26 71 100 26 62 100 27 52 101 28 43
102 28 36 101 29 33 100 28 31 99 29 30 98 30 28
97 31 28 94 30 26 88 29 23 81 25 19 73 21 15
66 17 12 60 13 9 56 10 7 53 8 5 52 7 5
52 7 5 54 8 5 56 8 5 61 9 7 66 11 8
73 13 11 79 16 13 87 20 17 96 25 22 105 31 28
112 36 32 119 40 36 124 43 40 129 46 43 132 48 44
133 47 43 132 45 41 131 42 40 129 39 38 125 34 35
121 31 32 121 31 33 125 35 37 128 38 40 128 38 39
123 34 33 122 32 30 122 33 28 124 35 27 126 37 26
128 39 28 136 45 34 144 49 40 151 54 46 159 61 52
169 70 61 180 81 71 189 90 80 195 96 86 202 104 94
208 111 100 212 117 104 213 119 105 215 122 106 217 124 108
218 125 107 219 124 106 219 122 104 221 120 103 221 117 101
221 117 99 221 118 95 225 122 95 233 133 102 243 146 113
250 158 126 248 160 134 233 146 132 196 107 111 160 67 92
145 48 93 155 54 118 172 70 150 173 71 169 166 67 179
152 56 179 147 53 179 144 52 179 141 52 178 140 54 178
142 58 180 149 67 186 153 71 188 147 67 181 133 54 166
124 44 156 124 45 157 129 51 163 135 56 168 132 53 160
127 47 148 124 42 139 131 47 141 141 55 146 147 60 148
151 62 148 157 68 152 175 86 169 197 108 193 220 130 218
231 141 234 233 143 241 228 139 242 220 131 238 210 121 231
203 112 225 198 106 220 195 103 216 189 98 208 180 90 196
169 81 181 159 73 165 153 69 152 149 66 141 146 65 130
143 62 120 139 61 111 137 59 105 237 173 246 203 142 213
151 93 159 98 43 104 72 20 72 65 15 58 65 14 49
68 14 43 73 15 38 79 17 36 87 20 36 96 23 37
106 26 40 118 31 45 132 38 51 145 43 58 157 47 68
170 54 83 183 66 106 197 81 133 208 94 157 213 104 176
215 115 191 227 138 215 237 156 230 235 157 227 218 134 201
205 111 176 200 95 159 200 85 149 199 78 140 197 74 130
190 69 116 183 65 101 180 65 91 185 73 90 193 84 91
193 87 85 182 78 70 167 64 55 171 67 58 186 82 75
194 88 83 180 74 71 163 57 55 159 53 51 163 57 54
168 62 59 169 63 60 170 64 62 169 65 61 169 65 60
167 65 59 165 64 58 164 65 59 157 61 57 141 50 46
116 32 29 94 17 14 78 9 6 69 5 3 65 6 3
71 14 10 85 25 19 98 33 26 107 37 30 115 42 34
124 48 39 130 53 41 132 55 42 133 55 40 133 56 40
139 61 45 151 71 56 162 82 67 167 86 72 167 85 72
162 82 70 156 75 64 146 65 56 138 56 50 132 50 45
127 49 45 122 49 44 117 47 44 107 41 39 93 30 29
80 17 19 71 10 14 68 7 14 66 6 15 66 7 19
68 10 24 71 13 29 74 16 33 78 19 37 82 22 43
87 26 50 89 27 58 92 28 65 92 27 72 96 30 82
119 51 109 145 75 139 153 82 148 134 62 127 108 37 97
98 27 80 97 26 70 98 28 63 98 28 54 98 28 44
99 28 36 100 29 31 100 29 29 99 29 28 99 30 27
98 31 26 97 32 27 92 31 25 84 28 22 71 23 16
60 17 11 50 12 7 43 8 4 38 5 3 37 3 2
37 3 2 37 3 2 38 3 2 40 3 1 45 4 2
50 6 4 57 9 6 63 11 7 70 15 11 78 19 14
86 24 19 93 29 22 100 32 25 105 35 27 109 36 29
112 36 29 112 35 27 111 34 25 111 32 23 109 29 21
106 25 18 103 22 14 102 20 13 105 22 14 109 25 16
112 28 17 115 30 18 120 35 20 128 41 23 137 50 29
147 59 36 157 68 44 168 76 52 177 82 59 186 88 66
194 95 73 203 103 82 210 111 91 216 117 99 219 120 104
222 123 108 223 126 112 224 128 115 223 128 115 222 127 113
220 127 111 219 126 109 219 125 107 219 122 104 220 120 103
221 117 100 222 117 99 222 117 96 224 121 94 230 130 99
238 142 109 245 154 122 248 162 134 243 159 142 216 131 130
178 88 106 149 55 90 148 49 101 166 66 131 173 72 154
170 70 168 157 59 169 148 53 169 141 48 166 135 47 165
132 47 166 130 49 165 131 53 166 130 54 163 127 51 157
120 46 148 117 43 143 119 46 144 121 48 145 121 48 143
114 40 130 112 34 120 115 34 114 127 44 120 138 52 126
145 56 127 149 57 128 155 62 133 171 77 153 192 98 179
213 119 209 225 131 228 229 136 239 228 135 243 222 130 240
212 121 231 202 110 221 193 101 213 188 96 207 180 90 198
172 83 187 163 75 173 155 69 160 152 68 150 149 66 139
145 64 128 141 62 117 139 61 109 137 60 104 237 175 247
199 139 210 144 88 153 91 38 97 68 18 68 64 15 55
64 13 44 67 13 36 71 14 32 78 16 30 86 19 31
94 22 33 103 24 36 115 29 40 128 34 46 139 38 52
152 42 61 163 48 75 177 60 97 191 76 123 204 91 149
210 102 170 210 109 183 219 129 204 234 153 226 242 167 235
232 155 218 217 132 193 206 110 172 202 94 159 200 83 150
198 76 140 192 70 125 184 65 110 182 66 100 187 74 96
194 85 95 195 88 88 184 79 73 170 66 57 174 69 61
189 83 77 196 88 85 183 75 74 168 60 60 166 58 57
171 63 61 175 67 65 177 69 66 176 70 67 175 70 67
175 71 67 175 71 67 176 72 69 177 74 71 172 70 69
158 61 59 137 46 45 116 34 31 95 22 19 77 11 9
65 6 3 66 10 7 77 21 15 90 30 23 103 36 29
111 41 33 119 45 35 123 46 36 125 47 35 126 48 34
129 51 36 135 57 41 146 67 51 155 74 60 159 77 63
158 76 63 155 74 62 151 71 60 143 63 54 137 56 49
130 50 45 126 49 44 121 48 44 115 46 43 104 39 38
90 28 28 77 16 19 69 10 14 68 8 15 67 9 17
68 10 19 69 13 23 72 15 26 74 17 30 78 20 35
81 23 42 85 25 50 86 24 56 88 25 63 89 25 70
95 30 83 127 59 118 146 76 140 143 73 137 111 41 102
93 24 79 91 23 68 93 25 61 92 26 51 94 29 45
96 29 37 98 29 32 100 29 29 100 30 27 100 31 26
99 31 25 97 31 24 94 31 24 88 29 22 77 24 17
62 17 11 48 11 5 37 6 2 30 3 0 26 1 0
26 1 0 26 1 0 26 1 0 27 1 0 29 1 0
34 2 0 39 4 1 46 6 3 52 9 4 57 11 5
63 13 7 69 16 9 75 19 11 82 22 13 87 25 15
92 26 16 95 26 16 94 24 14 94 23 11 95 23 9
96 23 8 97 22 7 98 22 6 102 24 8 108 29 11
117 36 17 126 43 23 136 52 30 148 62 37 160 73 45
172 83 53 183 93 60 192 101 67 201 107 73 208 111 78
214 115 82 218 118 86 221 122 91 223 123 95 224 124 99
224 124 103 224 125 107 223 124 109 220 122 109 216 119 107
214 118 105 214 120 105 216 122 105 218 123 105 218 122 102
220 120 99 220 118 96 221 117 94 222 117 92 222 119 90
225 125 92 231 137 101 238 151 114 242 160 128 245 165 144
234 152 146 202 116 126 164 73 98 145 50 88 155 58 107
168 69 133 172 72 153 163 64 158 151 55 156 139 46 150
128 40 147 121 38 145 117 38 144 115 40 143 114 41 140
112 42 136 111 41 131 109 40 126 106 38 120 102 35 115
99 31 109 97 25 100 102 26 96 114 33 98 129 45 106
141 53 112 148 57 114 153 58 116 159 62 123 174 76 145
195 97 174 213 116 204 220 123 221 222 125 231 222 127 237
221 127 237 216 124 232 205 113 221 192 100 209 180 89 198
169 80 186 158 70 172 148 61 157 144 58 147 144 61 140
144 63 133 143 63 124 140 62 115 138 62 108 136 61 103
237 175 247 200 140 211 144 88 154 90 38 97 67 18 67
64 15 54 63 13 43 66 12 34 70 13 28 77 16 27
84 18 28 92 20 30 101 23 33 112 27 37 125 33 43
136 36 49 148 41 58 159 47 71 172 58 90 185 72 115
198 86 140 205 97 160 205 103 174 216 122 196 231 149 221
246 172 240 244 175 237 234 159 220 218 133 194 206 106 173
199 87 157 196 77 145 192 71 131 186 67 116 186 68 107
191 76 103 197 85 101 197 88 93 187 79 77 174 67 62
178 71 65 189 81 77 192 83 81 182 73 73 175 66 66
178 68 68 182 73 72 183 74 72 182 73 71 179 72 70
178 72 70 178 74 71 180 76 73 182 78 76 184 80 78
182 78 78 174 73 73 160 66 66 142 57 55 117 40 38
88 20 18 67 7 5 62 7 4 71 16 11 84 25 18
97 33 26 107 38 30 116 42 34 121 44 34 123 45 33
123 45 32 125 47 32 130 52 36 138 59 43 144 64 49
146 64 51 144 63 50 142 62 50 142 63 51 139 60 51
136 56 50 130 51 46 125 48 45 119 46 43 111 43 41
100 36 35 86 25 26 75 16 18 69 11 15 68 10 16
68 11 17 69 12 19 70 14 22 72 16 24 73 18 27
76 20 32 78 21 38 81 22 46 80 19 50 83 21 58
84 20 66 95 30 82 127 60 118 140 71 132 132 63 124
99 30 87 87 19 69 86 19 59 88 22 51 89 24 43
92 28 39 94 29 33 97 29 29 99 30 28 100 32 27
100 32 27 98 32 25 95 30 23 90 28 21 82 25 17
70 20 12 55 13 6 42 8 3 32 5 1 26 3 0
22 1 0 22 1 1 21 1 1 21 1 1 22 1 0
25 2 0 30 3 0 36 5 1 42 7 3 47 10 3
52 10 3 55 11 2 59 11 2 64 13 3 70 15 4
75 17 4 80 18 5 84 19 5 86 20 4 89 22 3
94 26 5 101 31 8 108 36 12 115 41 17 125 48 23
135 55 30 147 65 37 158 73 45 172 84 54 184 95 63
196 105 70 205 112 75 210 116 77 213 118 78 217 119 79
220 121 80 223 123 82 224 124 84 224 125 87 223 124 89
224 124 93 225 126 99 221 122 99 211 112 93 195 96 81
183 86 72 181 85 71 191 96 78 205 110 91 214 120 98
218 121 97 219 120 92 221 119 89 222 119 87 222 118 85
222 119 83 223 125 84 228 136 93 234 150 106 239 160 121
244 168 139 244 167 152 223 141 142 182 95 110 148 56 82
143 50 86 158 63 112 170 72 137 169 71 148 159 63 147
144 52 140 128 40 131 114 31 124 105 26 119 100 26 115
98 28 112 95 28 108 93 28 102 90 26 96 86 23 90
84 20 85 84 18 82 88 18 80 101 24 82 119 36 91
135 49 100 146 56 105 152 58 106 155 58 108 158 60 113
172 73 135 193 93 166 212 113 199 217 118 215 215 118 223
214 118 227 215 121 230 216 123 231 208 117 223 196 106 212
180 91 197 167 78 182 154 66 166 144 57 151 140 55 141
141 58 136 141 61 129 141 62 121 139 62 112 137 61 105
135 60 101 235 173 245 196 136 206 140 83 149 88 36 95
67 17 67 62 13 53 62 12 41 64 12 33 69 13 28
75 15 26 82 17 27 90 19 28 98 21 30 109 24 34
121 30 40 133 35 47 146 42 57 156 49 69 166 57 85
177 67 105 188 79 127 197 89 148 203 99 167 217 121 193
229 145 217 242 169 238 245 181 242 245 180 239 232 158 218
213 123 190 199 94 166 194 79 150 193 73 136 190 70 124
190 71 115 195 78 111 200 86 108 200 88 100 191 80 85
179 69 70 181 71 69 186 76 75 185 75 74 178 68 68
178 68 68 185 75 75 189 80 79 188 79 78 186 77 76
182 74 73 180 74 72 180 75 74 182 78 76 185 81 81
189 84 84 190 87 87 187 87 87 181 86 86 167 79 78
140 61 59 103 33 31 72 11 9 59 4 1 66 11 7
77 20 14 92 29 22 103 35 28 113 41 33 119 44 35
123 46 35 125 47 34 125 48 33 126 49 33 129 51 35
132 53 38 133 52 39 132 52 39 132 53 41 135 57 46
137 59 50 137 58 52 132 53 49 125 49 46 116 45 42
106 39 37 94 31 30 81 21 22 72 15 16 68 12 15
68 12 16 68 13 17 69 14 19 70 16 21 71 17 23
72 18 25 74 19 29 76 19 35 78 19 42 77 16 46
79 17 54 81 18 62 96 31 83 126 59 116 133 65 124
122 53 111 92 24 77 84 17 63 83 17 52 84 19 43
85 22 36 89 26 31 91 28 28 94 29 26 97 31 27
99 33 28 99 34 28 96 33 26 91 29 22 85 25 18
75 20 12 63 14 7 49 7 2 38 4 1 29 3 0
24 2 0 20 1 0 19 0 0 18 1 0 17 1 0
18 1 0 22 2 0 27 4 0 33 6 1 39 8 2
45 10 2 49 11 2 53 12 1 57 13 1 62 14 1
68 16 2 74 19 4 82 22 6 88 25 7 95 30 9
102 36 11 111 44 15 122 51 20 132 59 27 142 66 34
153 74 41 165 82 49 177 90 55 186 96 61 196 103 67
206 110 72 213 116 76 217 119 77 219 119 76 219 119 75
220 120 75 222 121 75 224 124 77 224 125 79 223 124 80
222 123 82 222 123 86 224 125 92 217 118 89 197 98 72
168 70 49 150 52 34 152 55 36 174 78 54 200 104 79
215 119 91 219 123 90 220 122 84 222 122 82 223 121 80
223 120 77 222 121 75 223 126 76 226 136 84 233 152 99
239 164 115 244 172 133 246 173 148 236 158 147 199 116 118
156 69 82 135 46 68 144 53 86 161 68 114 170 75 133
168 74 139 158 66 135 140 51 124 119 35 110 103 23 98
92 18 91 88 17 86 84 18 82 81 18 77 77 16 71
75 14 66 76 14 66 80 16 67 92 21 71 111 32 80
132 46 92 147 57 101 155 62 104 158 62 103 158 59 102
158 57 105 169 68 124 188 87 155 209 108 189 215 115 209
213 115 218 209 113 220 208 114 223 210 118 225 208 118 223
201 112 216 187 99 202 171 83 184 155 68 165 143 57 149
139 54 139 140 58 133 140 60 127 140 62 119 137 61 110
135 60 103 134 59 98 230 168 240 185 125 195 129 72 138
83 30 90 66 16 66 61 12 52 60 11 40 63 11 32
67 13 27 73 14 25 80 16 25 87 17 26 94 18 27
105 22 31 116 27 36 129 33 44 142 41 56 153 49 68
161 56 80 169 63 96 179 71 114 190 82 136 201 96 159
219 121 191 228 140 211 234 158 228 235 171 234 244 183 244
241 173 235 222 139 209 202 106 179 194 86 158 193 78 145
193 75 134 194 75 126 198 80 122 202 86 118 203 88 111
195 82 96 184 72 80 183 71 75 184 73 75 179 69 70
173 63 63 176 67 67 186 77 77 192 83 83 192 83 83
191 82 82 186 79 80 182 76 76 180 74 75 181 77 77
186 82 82 192 88 88 197 94 95 197 97 98 195 99 100
186 95 95 162 79 78 123 49 47 84 19 18 62 4 3
60 6 3 69 14 8 81 22 16 94 30 24 106 38 31
116 44 35 123 49 38 128 53 40 129 53 39 128 52 37
127 50 35 127 49 35 127 47 35 127 47 36 130 51 40
136 57 47 139 60 53 138 60 55 132 55 52 123 49 47
112 42 41 99 34 33 86 24 24 75 16 16 69 12 14
67 11 14 67 13 16 68 14 17 68 15 18 69 16 19
69 17 20 69 17 21 71 17 25 72 16 31 74 15 38
75 14 44 78 16 54 83 20 65 100 35 87 124 57 113
126 58 115 111 43 97 87 20 69 83 17 57 82 17 47
82 19 38 84 22 31 87 26 27 90 28 25 92 29 25
95 32 27 98 35 30 98 36 30 94 34 27 88 28 20
80 22 14 69 15 7 57 10 3 44 4 1 35 2 0
28 2 0 23 2 0 19 1 0 16 0 0 14 0 0
14 1 0 15 1 0 20 3 0 25 6 1 32 8 2
38 10 2 43 12 2 49 14 2 54 16 2 60 19 3
66 21 4 74 25 7 83 30 10 93 35 15 101 41 18
112 48 21 123 56 24 135 65 29 146 73 36 155 79 42
164 85 47 174 90 52 184 96 57 193 101 61 200 105 63
206 108 66 211 111 68 215 113 69 217 114 69 218 115 68
219 115 68 220 117 68 220 119 68 221 121 70 221 122 71
220 121 73 219 121 75 220 122 79 222 123 84 215 117 81
196 98 65 169 70 42 153 54 28 158 60 33 181 85 54
206 109 76 218 122 86 221 124 84 222 124 78 224 124 75
225 124 73 225 123 72 223 123 70 223 128 71 226 138 78
234 155 95 240 169 113 243 176 128 242 174 138 239 166 144
214 136 126 171 89 89 136 52 60 130 44 61 147 58 86
164 72 110 173 81 125 172 81 131 159 70 124 137 50 108
114 32 90 99 21 78 91 19 72 87 19 68 83 18 63
80 17 58 80 17 56 84 21 58 92 25 63 108 35 73
130 47 86 152 61 99 164 70 106 168 71 106 166 67 101
163 62 98 160 58 99 166 63 113 182 79 141 201 99 176
211 111 200 212 114 213 207 111 216 203 109 216 201 109 216
203 112 217 202 113 216 196 109 209 181 94 191 161 74 168
144 59 147 137 54 136 139 57 131 139 59 125 138 60 117
135 59 107 133 58 100 132 57 96 226 163 236 177 116 187
119 63 129 78 25 85 65 15 65 61 12 52 59 10 39
62 10 31 66 12 26 71 13 24 78 15 23 84 15 24
91 16 24 101 19 28 112 24 33 125 31 42 138 40 54
150 49 66 158 55 77 164 60 89 173 67 105 185 78 127
198 94 152 218 119 186 224 133 204 224 144 214 221 151 218
232 167 232 239 171 236 230 152 223 212 123 197 199 99 173
195 86 157 196 81 147 196 79 139 199 82 134 203 87 130
204 89 122 199 85 109 189 76 94 187 74 86 185 74 81
179 69 73 172 63 64 174 66 66 185 76 77 193 85 86
197 89 91 198 90 93 196 88 91 189 82 85 183 77 80
182 77 79 187 84 85 196 93 94 203 101 103 205 105 106
203 105 107 197 103 104 179 92 92 144 66 65 101 33 32
70 11 8 58 4 2 59 8 4 67 14 9 79 22 16
93 31 23 105 39 30 115 46 36 122 51 40 128 55 42
130 57 43 131 56 43 130 53 42 128 50 40 129 50 41
133 53 46 139 59 53 140 61 58 137 59 57 128 54 52
118 47 46 105 38 37 91 28 27 77 18 17 68 11 11
65 10 11 65 11 13 66 13 15 67 14 17 67 15 18
68 16 19 68 16 19 67 15 19 68 14 23 68 12 28
70 12 36 74 14 45 79 18 57 89 26 72 107 42 94
122 56 111 116 49 105 99 33 84 83 17 61 81 16 51
81 17 42 81 19 33 84 23 27 87 26 24 89 28 23
90 30 24 94 33 27 97 36 31 97 38 31 93 35 27
85 28 19 74 20 10 64 12 4 53 7 1 43 3 0
35 3 0 29 3 0 24 3 1 19 2 1 15 1 0
12 0 0 11 1 0 13 2 0 18 5 0 25 8 2
31 11 3 38 12 4 43 13 3 49 16 3 56 19 4
64 24 6 71 27 8 81 33 12 92 40 18 104 47 25
114 54 29 125 61 32 138 68 34 151 77 40 160 83 44
168 88 48 175 91 50 181 93 51 189 97 54 196 99 55
201 102 57 206 104 58 210 106 59 212 108 60 214 109 61
215 110 62 217 113 63 218 115 63 217 117 63 217 117 62
216 117 63 216 117 65 216 117 68 217 118 71 217 118 74
215 116 75 206 107 68 193 95 58 185 87 51 190 92 56
204 107 67 216 119 78 221 125 81 222 125 77 223 124 71
224 124 69 225 125 68 225 125 67 224 125 66 223 129 67
225 139 74 234 158 93 241 174 112 243 180 126 240 177 132
239 171 138 226 153 131 191 114 101 149 71 65 127 46 47
133 48 58 151 63 81 167 77 102 177 85 117 173 81 119
155 65 107 133 45 89 116 33 76 108 31 70 103 30 66
97 28 60 94 26 55 96 29 56 103 35 61 113 41 69
132 52 81 152 63 94 171 75 106 179 79 109 179 78 107
174 71 100 168 64 94 165 60 95 167 61 105 177 72 129
192 88 159 204 102 187 208 108 204 203 107 210 197 103 209
191 100 206 191 101 205 194 105 206 197 110 207 189 102 197
168 83 174 146 61 147 134 51 131 136 55 127 138 58 123
137 59 115 134 58 106 132 57 99 130 56 95 226 163 237
178 117 189 120 63 130 77 24 85 65 15 65 61 12 52
59 10 39 61 9 30 64 10 24 70 12 23 76 14 22
82 14 22 89 15 22 98 17 25 109 23 31 122 30 40
135 40 53 148 49 66 156 54 75 163 59 86 171 66 100
184 78 122 199 95 148 216 116 178 221 127 195 218 133 202
212 133 203 218 143 213 231 156 226 234 157 229 224 141 215
208 116 190 197 96 170 196 87 158 196 84 151 197 84 145
201 88 141 204 90 135 201 88 124 194 81 109 191 80 100
190 79 93 183 75 83 174 66 72 174 67 71 184 77 80
195 88 91 203 95 100 207 99 104 207 98 105 200 92 98
193 86 91 188 84 87 192 89 91 201 99 101 208 106 108
210 109 111 207 107 109 203 106 108 191 100 101 162 80 80
120 48 48 82 20 18 58 5 3 52 4 1 55 7 3
64 14 8 75 21 14 87 28 20 97 35 26 106 41 31
115 47 37 123 53 43 130 58 49 132 58 50 131 55 50
132 54 50 136 56 54 139 59 58 138 59 59 131 55 57
121 49 50 110 42 43 97 33 33 82 22 22 69 12 12
62 8 8 61 8 9 63 10 12 65 12 15 66 13 17
66 14 18 67 14 18 66 14 18 66 12 19 65 10 22
66 9 28 69 11 38 75 15 49 82 20 62 97 34 82
113 48 101 119 53 109 106 40 95 91 25 74 80 15 56
79 14 46 78 15 36 79 17 28 81 21 23 83 24 20
86 26 20 89 29 23 93 33 28 97 38 32 97 39 32
92 36 27 82 27 17 70 17 8 60 10 2 51 6 0
43 4 0 36 4 0 31 5 1 25 5 2 19 4 2
14 2 1 10 1 0 9 2 0 12 3 0 18 6 1
25 9 3 32 12 5 38 14 5 43 15 4 50 17 4
57 21 5 65 26 8 74 31 10 85 37 16 97 45 23
108 53 30 118 59 34 129 64 35 142 70 36 154 77 40
164 83 44 171 87 47 176 88 47 181 89 46 186 91 46
192 93 47 197 95 48 201 97 49 204 99 50 206 101 52
207 102 52 208 104 54 210 107 55 211 110 56 211 111 56
211 112 55 210 111 56 211 112 59 211 112 62 210 110 62
206 107 60 208 108 63 210 111 67 214 115 71 214 115 72
216 118 73 219 122 76 222 125 76 222 125 74 221 123 69
222 123 66 223 122 64 224 124 65 224 124 64 223 125 63
223 129 65 224 139 73 234 160 93 243 179 114 245 187 127
241 183 131 237 174 132 231 163 130 209 137 113 170 97 78
136 60 47 123 44 38 134 50 52 153 65 74 170 78 95
177 82 106 168 72 102 150 56 88 137 47 79 131 45 75
126 44 70 118 39 63 114 37 59 117 41 61 126 48 68
137 56 76 152 64 87 166 71 96 179 78 103 183 79 104
181 75 100 175 67 92 169 60 87 167 58 89 167 59 98
173 66 117 182 76 142 193 90 170 198 98 190 196 99 199
190 96 201 184 93 198 181 92 195 181 93 193 190 102 198
191 105 197 176 90 180 150 66 150 133 50 128 133 51 123
136 56 120 135 58 113 132 57 105 130 56 98 128 55 94
232 168 243 186 125 198 127 70 138 79 26 87 64 14 65
62 13 53 59 10 39 59 8 29 62 9 22 68 11 21
74 13 21 80 14 21 87 15 21 97 18 25 108 23 30
122 32 42 137 43 57 152 54 72 161 60 81 169 65 90
179 74 104 192 86 125 205 101 150 216 115 173 220 123 187
218 125 193 211 122 193 210 126 197 219 138 209 231 152 223
234 154 227 221 136 211 207 115 190 198 97 173 196 91 164
196 88 157 199 90 152 202 92 147 201 90 137 198 87 125
197 86 116 196 87 109 190 83 98 181 74 85 177 71 80
185 79 87 197 91 100 208 101 110 214 105 115 215 106 116
211 103 111 206 99 106 201 96 101 200 97 101 204 103 106
208 107 110 210 108 111 208 106 109 206 106 109 199 105 107
178 92 93 140 65 64 97 32 30 64 9 7 49 2 0
46 3 1 51 7 2 59 11 5 67 16 9 76 20 14
84 25 19 94 32 26 106 41 35 116 48 44 123 53 51
126 53 54 128 52 55 130 52 57 131 52 58 127 50 56
119 46 52 108 40 45 97 33 36 84 24 26 71 15 17
62 9 9 57 5 6 57 6 7 59 8 11 63 11 15
65 12 18 66 13 20 66 12 20 66 11 19 65 9 20
64 7 24 67 9 33 71 11 43 76 16 54 85 23 68
102 39 90 114 50 105 113 48 104 96 31 85 83 18 66
77 12 52 76 12 42 76 13 33 77 16 25 80 20 21
82 23 19 85 27 20 89 31 24 93 35 29 97 39 32
96 39 31 89 34 25 78 25 14 67 16 6 58 10 1
51 7 0 46 7 1 42 9 2 37 10 3 28 8 4
18 4 2 11 2 1 8 1 0 8 2 0 13 4 2
20 9 4 28 13 7 34 15 8 40 16 8 44 16 6
49 17 5 55 20 5 62 23 6 69 27 7 79 33 12
92 41 18 104 49 26 115 55 30 127 60 32 139 65 33
151 71 36 160 76 40 166 79 42 171 81 41 176 83 41
181 84 40 185 85 39 187 85 38 190 86 39 193 89 40
195 92 42 197 95 44 199 98 47 201 101 49 204 104 50
204 106 50 204 106 49 204 106 51 206 107 54 208 108 57
207 106 57 203 102 54 203 103 56 208 108 61 215 115 68
217 118 69 218 120 70 219 121 68 219 122 67 220 123 66
221 121 64 222 121 63 222 120 61 223 122 62 223 123 63
223 124 63 222 128 65 223 138 73 233 161 94 244 184 118
248 195 131 242 189 132 236 177 127 230 166 123 219 151 116
194 124 94 157 85 60 128 53 34 121 41 29 137 51 48
156 63 69 170 72 87 173 72 93 165 63 89 157 58 84
151 55 80 148 55 76 142 52 71 140 52 68 144 55 71
152 62 77 159 67 84 167 70 89 175 72 94 182 74 98
185 75 98 183 72 95 178 66 88 172 60 83 169 57 84
167 56 92 168 58 105 171 64 125 180 75 150 186 86 173
188 91 188 185 91 194 180 89 193 175 86 188 172 84 182
179 92 187 188 102 194 183 98 186 161 77 160 138 56 134
132 51 121 133 54 117 133 56 112 130 55 104 129 56 99
128 55 95 235 171 247 193 132 205 134 77 145 82 29 90
63 13 64 62 13 53 58 9 38 58 8 28 60 8 21
66 10 20 72 13 20 79 14 21 87 17 22 97 20 26
109 25 32 124 35 45 139 47 61 156 59 77 166 66 86
176 72 96 188 82 110 202 96 132 214 108 153 220 116 169
221 119 179 220 120 185 214 117 185 210 116 186 214 124 195
224 140 211 234 154 225 232 151 224 223 137 213 212 120 197
205 109 185 203 103 177 204 101 170 205 99 162 202 93 149
200 91 138 199 90 129 201 93 123 197 91 114 189 84 102
185 80 96 190 84 100 202 95 111 213 105 121 218 109 124
220 110 124 218 110 121 215 108 118 211 106 113 207 104 109
207 105 109 208 107 110 210 107 111 209 105 110 207 105 109
202 105 108 186 96 98 153 73 73 111 41 39 73 15 13
52 4 2 44 2 0 45 3 0 48 5 1 53 8 3
59 11 7 66 14 11 76 20 19 86 27 28 97 34 37
106 40 45 112 42 51 115 42 53 116 41 54 115 39 53
112 38 52 104 36 48 95 31 41 83 23 32 71 15 22
62 9 14 56 5 8 52 3 6 54 4 7 58 7 11
62 11 16 66 12 20 67 13 22 68 12 23 67 10 22
67 8 24 66 7 29 69 9 38 72 12 49 80 19 62
96 34 82 114 51 104 119 55 111 108 44 100 90 25 78
80 15 62 76 11 50 74 11 40 74 12 30 76 15 24
78 18 20 81 21 18 85 26 20 89 31 24 93 36 29
96 39 31 93 37 28 85 31 21 75 22 11 65 15 4
59 11 0 53 9 0 50 10 1 48 14 4 43 15 6
32 11 5 19 5 2 10 1 1 6 1 0 7 2 1
13 5 3 22 10 7 31 16 12 39 20 15 45 21 15
49 21 13 53 21 10 56 21 7 59 21 5 64 22 4
71 25 6 82 32 11 93 39 17 105 46 22 117 52 25
130 58 28 143 65 32 152 70 35 158 73 37 163 75 37
169 76 36 174 78 36 177 79 34 179 79 33 181 80 33
183 82 33 186 85 35 188 88 37 190 91 40 192 95 42
195 98 44 196 99 44 197 100 44 198 100 46 200 102 50
203 103 53 203 103 53 200 99 51 200 100 52 205 104 56
211 111 62 215 115 64 216 118 64 217 119 63 218 120 62
219 121 62 220 119 60 221 119 61 221 118 60 221 120 61
222 121 61 222 122 62 222 127 65 222 137 73 233 160 94
244 187 120 250 200 134 243 194 131 236 179 122 229 167 117
225 160 114 212 144 104 182 113 78 147 74 45 121 43 23
123 39 27 140 48 46 160 61 68 173 68 83 175 68 88
174 66 88 169 63 84 166 62 81 163 59 77 162 60 76
166 64 79 171 68 83 174 70 86 177 70 88 181 71 92
187 74 96 190 76 98 189 74 96 184 69 89 178 63 84
174 60 84 171 58 89 168 57 99 168 59 115 173 67 137
179 77 160 183 85 178 182 88 187 177 86 188 171 82 183
166 79 175 169 83 176 180 94 184 183 99 186 172 89 171
154 72 149 142 61 131 137 59 122 133 56 112 129 54 105
128 54 99 126 54 95 232 167 244 193 131 205 135 77 146
84 31 92 63 13 65 61 12 53 57 9 38 57 7 27
58 7 20 64 10 18 70 13 19 78 15 21 88 19 24
99 24 28 111 29 34 125 38 47 140 49 63 157 62 79
170 71 90 184 80 102 198 92 118 213 105 138 222 114 154
224 117 165 223 117 171 222 116 176 219 114 178 215 113 179
212 115 182 215 125 194 226 142 212 236 156 227 237 157 231
229 146 222 221 133 210 217 124 200 218 120 193 218 115 184
212 106 169 210 102 157 208 100 147 211 104 143 209 104 136
204 99 127 200 95 120 201 96 121 210 104 128 219 111 134
222 113 132 222 113 129 222 113 127 221 114 126 218 113 122
213 109 117 210 107 113 210 107 113 211 107 112 210 106 111
207 103 109 200 101 105 186 94 96 160 76 77 123 49 48
86 23 21 59 7 5 46 2 1 42 1 0 42 2 1
44 3 2 47 5 5 53 8 10 62 13 18 72 18 26
80 23 34 88 27 41 93 29 47 97 30 50 100 30 52
99 28 51 95 26 48 87 23 43 77 17 35 67 11 26
58 6 18 53 4 13 50 2 9 49 3 8 53 5 10
58 9 15 64 13 20 68 14 25 70 14 28 71 13 29
71 11 30 72 11 33 71 10 37 74 13 48 82 21 63
99 37 84 117 55 106 126 63 118 118 54 110 100 36 91
84 20 71 78 14 59 75 11 48 74 11 39 74 12 30
75 15 24 78 18 21 81 22 19 85 26 21 89 31 24
94 36 28 95 37 28 90 34 24 82 27 16 72 20 8
65 15 2 61 12 0 58 12 0 57 14 2 57 19 7
51 20 10 37 13 8 20 5 3 9 0 0 5 0 0
7 1 0 12 4 3 21 10 8 33 18 15 44 25 22
53 29 25 57 30 23 59 28 19 59 25 12 58 20 6
59 17 2 62 17 1 69 20 3 78 26 7 88 32 11
101 38 15 115 46 18 128 55 24 137 61 28 144 64 30
150 67 31 158 70 33 164 73 33 169 75 33 173 77 33
176 78 33 178 80 32 180 82 33 182 85 35 184 87 36
185 89 37 188 92 38 189 93 38 190 94 39 191 95 41
194 96 45 198 99 49 200 101 52 201 102 53 202 103 54
204 104 55 208 108 58 211 111 59 213 113 59 214 114 58
215 115 57 216 116 57 218 116 58 219 117 59 220 116 59
219 117 59 220 118 59 220 120 61 220 124 64 220 134 72
231 158 94 243 188 120 250 202 134 242 196 129 236 182 118
231 171 113 230 166 111 226 160 110 210 143 98 177 107 70
137 62 35 119 37 19 125 34 26 144 46 46 163 57 66
174 64 80 181 67 87 181 66 86 179 65 84 178 64 81
179 66 82 183 70 86 186 72 88 186 71 88 184 68 87
186 69 90 190 72 94 192 74 95 189 71 92 183 66 85
178 61 80 174 58 79 171 57 84 168 56 93 168 58 107
170 63 127 176 72 150 180 81 169 179 84 180 173 82 181
167 79 176 162 75 169 161 76 166 168 83 171 174 90 175
175 92 173 168 87 163 159 79 148 148 71 133 138 62 119
131 56 107 128 55 101 126 53 97 221 156 233 186 123 198
133 74 144 87 33 95 65 15 67 60 11 53 56 8 39
56 7 27 59 8 20 63 10 18 69 13 18 78 16 21
88 20 24 100 26 29 111 31 36 124 39 47 137 48 60
152 58 75 167 69 87 183 80 100 199 93 117 215 106 136
224 114 151 226 116 159 225 115 164 224 113 167 221 112 169
217 110 170 212 110 173 212 116 182 216 126 194 230 148 218
239 162 233 239 162 235 228 147 222 222 134 210 224 129 204
227 127 200 226 121 189 225 118 179 223 116 169 225 118 164
224 119 158 220 115 151 215 111 143 214 109 141 219 113 143
223 116 143 225 116 139 225 115 134 224 115 131 223 116 130
221 115 127 217 113 123 215 111 119 215 110 118 214 109 116
211 106 112 204 100 106 193 92 98 179 84 88 159 72 73
132 53 53 98 30 29 69 12 11 51 4 3 44 2 1
40 1 1 38 1 3 39 2 7 43 4 12 50 7 19
61 13 30 74 22 43 84 27 52 86 27 55 85 23 53
86 21 53 86 20 53 84 20 52 80 20 50 73 16 43
63 10 34 55 5 25 49 2 18 47 1 13 48 3 12
54 7 15 61 13 21 67 16 26 71 17 30 74 17 34
75 16 36 78 17 40 81 18 46 85 22 55 91 30 69
104 43 88 120 59 108 131 69 121 126 64 118 110 46 101
93 29 82 82 18 66 77 14 57 75 12 47 74 13 38
75 13 31 76 15 25 78 18 22 81 22 20 86 27 21
90 32 23 94 36 26 94 36 26 90 33 22 81 27 14
73 20 7 68 17 2 66 16 0 63 16 0 63 18 3
63 23 9 57 23 12 41 15 8 23 6 3 10 1 0
6 1 0 6 1 0 9 2 1 17 7 6 30 17 15
46 29 27 60 38 34 66 41 36 66 38 30 64 33 22
61 26 13 59 21 7 58 16 2 60 15 1 66 16 2
73 19 3 83 25 5 94 32 8 108 41 14 118 49 19
127 55 23 135 59 26 144 64 29 153 69 32 161 73 34
166 76 35 171 78 35 173 79 33 175 81 33 177 83 34
178 84 34 179 85 33 181 87 34 183 88 34 185 89 35
186 90 37 189 92 41 192 94 45 194 96 48 195 97 50
197 98 50 199 100 52 203 103 54 206 107 55 209 109 55
210 110 54 211 111 54 212 112 54 215 113 55 218 114 58
219 114 58 218 115 57 218 116 57 217 117 58 217 121 62
217 130 69 229 156 92 242 187 119 249 203 132 241 196 125
235 182 113 233 174 108 235 171 109 234 168 110 230 163 111
207 138 93 166 92 58 129 49 25 118 31 17 130 35 30
149 46 49 164 55 65 177 63 78 185 68 84 186 67 83
185 64 80 186 65 81 189 68 84 191 69 86 190 68 86
187 65 84 186 65 85 188 67 87 188 67 87 183 63 81
177 58 74 172 54 70 169 52 70 169 53 75 168 54 85
168 57 101 170 63 120 174 71 142 176 77 160 174 80 170
169 78 173 163 75 169 158 72 163 156 71 159 157 72 158
159 75 159 162 80 160 166 85 159 167 87 156 159 81 144
147 71 128 135 61 112 129 56 103 125 52 97 208 142 220
175 111 187 127 67 138 88 33 96 67 17 70 60 11 53
57 9 40 57 8 28 60 10 22 63 11 18 68 13 17
76 16 19 87 21 23 99 26 29 110 31 34 121 37 44
132 44 55 146 53 68 160 63 80 177 75 94 194 88 110
209 100 127 220 109 142 224 113 151 225 113 155 225 111 158
222 110 159 218 108 161 214 108 165 212 111 173 210 116 182
222 138 205 234 158 226 238 165 234 226 149 220 216 131 205
216 123 199 224 124 199 230 126 197 235 128 193 235 127 185
235 128 179 233 127 172 228 123 163 223 119 156 220 115 152
221 115 150 224 116 147 226 116 141 226 116 137 226 117 135
225 118 134 224 119 132 222 117 129 220 115 125 218 112 121
215 108 116 209 103 111 200 95 102 186 84 90 172 75 80
158 68 70 139 56 56 109 36 36 81 18 18 59 6 7
47 2 4 38 0 3 33 0 4 32 0 9 35 1 15
42 3 23 62 19 45 92 44 75 116 63 99 120 64 103
115 56 97 111 50 93 113 50 93 111 49 92 107 48 90
92 36 76 73 20 55 56 7 36 47 1 24 45 1 19
49 5 19 55 10 21 63 16 27 69 18 31 74 19 35
76 19 39 79 19 44 84 22 51 92 29 62 101 38 76
110 49 92 122 61 109 129 68 119 125 63 115 110 48 99
95 32 82 85 22 70 80 17 61 77 15 54 77 15 47
78 16 40 78 17 33 78 19 27 80 21 23 83 24 22
88 29 23 92 33 24 96 37 26 95 36 25 90 33 21
82 27 14 76 22 7 73 21 3 72 21 2 70 21 2
70 23 4 69 26 10 62 25 12 45 16 9 25 6 3
11 1 0 6 1 0 5 1 0 6 1 1 12 4 4
26 14 14 45 29 29 61 41 39 69 46 43 68 43 37
66 37 29 62 31 20 61 26 14 59 21 9 59 17 5
61 16 4 65 17 4 71 20 3 77 23 3 86 29 5
95 35 9 104 42 14 114 48 18 126 55 24 138 63 29
149 69 33 156 73 35 161 75 35 165 77 34 168 79 33
171 80 33 172 81 32 173 81 30 175 82 29 176 83 29
179 84 31 180 85 33 182 86 37 185 88 41 187 90 44
188 91 46 191 93 47 195 96 49 199 100 51 203 103 52
206 106 53 207 107 52 209 108 52 210 109 53 213 110 54
216 112 56 217 113 56 216 114 55 216 114 55 215 115 56
215 118 60 214 127 67 227 154 92 241 186 119 248 203 131
239 194 121 233 181 108 233 174 104 237 173 106 238 173 108
240 173 113 230 161 109 199 126 83 155 77 45 123 40 19
118 28 16 131 34 30 149 45 48 167 57 65 180 65 76
186 67 80 188 66 80 190 66 80 192 67 82 191 66 82
189 64 81 187 63 80 188 64 82 190 67 84 189 68 84
186 65 80 181 61 74 176 57 69 172 55 67 169 52 69
164 50 75 162 51 88 165 57 107 170 66 130 174 75 151
172 78 163 166 76 166 160 73 164 156 71 159 154 70 155
150 67 150 146 63 144 145 63 141 150 69 142 159 79 147
158 81 143 152 76 132 139 65 116 131 58 105 126 53 98
196 130 208 163 100 175 118 59 130 86 31 94 68 17 71
60 12 53 59 11 42 59 9 30 61 11 23 63 11 18
67 12 16 74 15 18 85 20 22 97 26 27 107 30 31
117 34 39 127 39 47 138 47 59 151 56 70 167 67 83
181 77 97 196 88 112 208 99 127 217 106 138 222 109 145
222 108 147 220 107 149 218 106 153 215 107 159 213 109 167
209 111 175 218 131 197 230 155 220 236 165 231 221 146 216
205 120 194 199 106 182 208 108 183 221 115 188 233 124 192
236 127 188 234 126 179 229 123 170 224 119 161 220 116 155
219 114 151 219 114 148 222 114 145 224 115 141 225 115 138
226 117 137 227 120 138 227 122 137 226 121 135 224 117 130
218 111 122 212 104 113 204 97 105 194 89 96 179 77 83
166 69 73 156 63 66 142 55 57 118 39 41 90 22 24
66 9 12 50 3 7 38 0 5 31 0 7 28 0 13
30 0 20 38 3 31 71 30 66 122 75 117 166 114 160
177 122 172 170 113 165 165 106 159 166 106 159 163 103 157
151 92 146 122 66 118 88 35 81 61 11 51 48 2 33
46 2 26 49 5 24 55 10 25 62 15 29 69 18 33
73 20 38 76 20 42 80 20 47 88 26 58 99 36 72
110 47 88 116 54 100 119 58 108 116 55 105 105 44 93
91 30 78 83 21 67 80 19 61 80 19 57 79 18 51
81 20 48 82 22 43 83 23 36 83 23 30 84 25 26
87 28 25 92 33 25 96 36 26 98 38 27 96 37 25
91 33 20 85 27 14 80 25 8 79 25 6 79 26 5
77 26 4 76 27 7 75 29 11 67 27 13 48 17 9
27 6 3 11 1 0 5 1 1 3 1 1 3 1 1
8 2 3 20 11 12 38 25 25 53 37 36 61 43 40
60 39 34 59 35 28 58 31 23 61 32 21 63 30 19
64 28 16 66 27 15 68 27 14 69 25 10 69 23 6
69 22 2 74 24 3 82 28 6 92 34 10 104 42 15
117 51 21 130 59 28 140 65 30 147 69 32 153 71 31
158 73 31 162 75 30 164 76 29 165 76 27 167 76 26
169 77 26 172 79 28 175 80 31 176 81 34 178 82 38
180 84 40 182 85 42 186 88 45 191 92 47 197 97 50
200 101 51 204 104 51 206 105 51 207 106 51 209 107 51
212 109 53 215 110 54 216 111 53 215 112 53 214 112 53
214 113 55 213 116 59 212 125 67 226 153 93 241 186 120
248 203 132 238 193 120 232 179 105 232 173 100 238 173 102
239 173 104 241 173 109 240 171 111 224 152 100 188 114 72
144 67 35 117 34 15 117 28 17 133 37 32 152 49 49
167 57 62 178 62 70 185 65 75 190 66 77 190 65 77
187 63 76 185 61 75 187 62 76 191 67 81 197 74 88
200 78 91 199 78 89 195 75 83 189 70 77 183 66 73
175 60 70 166 52 70 157 46 75 156 48 91 163 59 117
172 72 142 172 78 158 166 76 161 159 72 159 154 69 154
152 69 151 147 64 144 140 57 136 134 53 128 137 57 128
147 68 134 152 75 135 150 75 130 141 68 118 133 60 107
128 56 101 190 124 203 154 91 167 109 50 121 82 27 90
67 17 70 61 12 54 60 12 43 59 11 31 61 12 24
62 11 18 66 12 16 73 15 18 84 20 21 96 26 26
105 29 30 115 33 35 122 36 41 132 41 50 143 48 60
156 58 72 168 66 84 179 75 96 192 84 109 204 94 122
212 100 130 216 102 134 216 102 138 215 103 144 213 103 151
210 104 159 207 108 169 214 126 190 229 153 217 236 164 230
225 149 217 204 118 191 191 96 172 195 93 168 206 99 172
222 112 180 229 119 180 227 118 172 220 113 159 215 109 150
213 108 145 214 109 144 216 110 143 218 111 140 222 113 139
224 115 138 226 118 139 228 121 141 229 123 140 228 122 137
224 116 130 216 107 118 207 98 108 197 89 98 187 81 89
173 71 77 162 64 68 154 59 62 143 53 56 123 39 43
98 25 28 72 12 16 53 5 9 39 1 8 30 0 11
27 1 18 29 1 27 43 10 45 91 52 96 158 112 162
213 161 217 229 174 232 225 167 228 221 162 224 220 159 222
207 146 211 177 118 183 134 77 140 94 40 98 66 16 64
52 6 45 48 4 34 49 6 29 54 9 28 59 13 29
67 17 34 72 19 38 75 19 43 78 20 49 86 25 59
96 35 73 103 41 84 102 41 88 98 38 86 92 33 81
86 26 72 80 20 63 78 17 57 78 18 54 80 20 52
81 21 50 85 24 48 87 27 45 88 28 39 87 28 33
88 30 28 91 32 27 96 37 28 100 40 29 103 41 29
100 39 26 94 34 21 88 30 15 85 29 12 86 31 11
86 33 11 85 32 9 83 32 10 81 33 14 72 29 14
52 19 9 29 7 3 12 1 0 5 1 1 2 1 1
2 1 2 4 1 3 13 7 7 25 15 16 36 24 23
43 28 26 43 25 22 44 24 19 49 27 20 59 35 26
68 40 30 72 42 31 74 41 29 76 40 28 73 36 22
68 30 14 62 22 5 61 18 2 65 18 1 73 23 3
84 29 7 95 36 11 108 44 17 119 51 21 130 58 25
137 61 25 145 66 26 151 69 27 155 71 27 158 72 25
160 72 24 163 73 24 167 75 27 169 76 30 171 77 33
173 78 36 174 79 38 177 80 40 182 84 43 187 89 45
193 94 47 197 98 48 201 101 48 203 103 47 204 104 47
207 105 48 209 106 49 212 108 50 213 109 50 212 110 50
212 110 51 212 111 53 212 114 58 211 123 66 226 153 94
241 186 122 248 202 133 237 192 119 231 177 103 231 170 97
237 171 99 238 170 99 241 171 103 242 172 106 238 167 106
216 145 92 175 103 60 133 58 27 113 34 13 119 33 19
135 41 33 150 48 45 164 54 56 175 60 65 182 63 70
183 62 71 181 60 70 180 59 69 183 62 72 191 68 78
200 77 86 204 83 90 204 83 89 199 79 83 192 74 76
187 70 72 180 65 69 169 56 67 156 45 68 150 42 79
156 52 103 167 68 132 171 77 152 165 76 157 157 71 153
151 67 148 149 66 145 143 61 138 135 53 129 130 49 122
132 53 122 141 63 127 146 70 128 146 71 125 141 68 117
135 63 109 132 60 104 189 124 202 149 86 162 102 43 115
77 22 86 66 15 69 60 12 54 59 11 42 59 10 31
60 11 23 62 11 17 65 12 15 73 16 18 85 22 22
97 28 28 106 31 31 114 33 34 120 33 37 126 36 43
135 42 52 147 52 64 158 59 74 166 65 83 176 71 92
188 81 104 199 89 114 207 95 122 210 97 128 209 96 134
205 95 139 203 96 149 203 103 164 212 123 186 229 152 216
237 164 230 227 150 219 204 116 190 187 90 166 188 84 161
200 90 164 218 106 174 226 115 175 223 114 166 213 106 151
207 101 140 206 102 136 208 104 134 210 105 133 214 107 134
219 111 135 223 115 138 226 119 141 229 122 142 230 124 142
228 121 137 222 113 127 212 101 114 202 91 102 191 82 92
180 74 82 168 65 72 159 60 65 152 55 59 143 50 54
125 39 43 102 26 31 77 14 19 56 6 12 41 1 11
32 1 16 29 2 25 31 2 35 54 20 62 112 72 123
182 136 192 232 180 241 246 190 254 245 186 253 245 184 253
237 175 246 212 150 223 171 110 185 126 67 140 93 37 104
70 18 75 57 9 55 52 7 43 52 7 35 55 10 32
58 11 30 64 15 34 69 17 37 73 17 42 76 19 48
81 22 56 86 26 64 87 27 69 83 24 68 78 19 64
76 18 61 75 17 57 74 15 51 74 14 48 75 16 46
78 19 46 82 22 46 87 27 46 91 30 45 91 31 40
90 31 34 91 32 29 93 35 28 100 40 31 106 45 33
109 47 34 106 44 30 100 38 24 94 34 19 93 34 16
95 38 17 95 40 17 93 38 14 90 36 13 87 36 16
77 32 16 56 21 10 32 8 3 14 1 0 5 1 1
1 1 2 1 1 3 2 1 3 5 2 4 11 6 6
17 10 9 22 12 10 23 10 8 27 12 9 37 21 15
54 35 28 69 47 38 77 52 43 80 52 42 81 50 40
78 45 34 71 37 25 61 26 13 56 18 6 57 16 3
63 18 4 70 22 4 77 24 4 86 30 7 97 36 11
109 43 15 120 49 18 131 57 22 141 63 25 148 68 27
153 70 28 156 71 27 159 71 26 162 72 27 165 73 30
167 74 33 168 75 35 170 76 37 173 78 38 178 81 40
182 85 41 188 90 43 192 94 43 196 97 43 198 99 42
200 100 43 203 102 44 205 103 45 208 104 46 209 105 46
208 106 47 209 107 48 210 108 51 210 112 57 210 121 66
225 150 93 240 183 120 246 199 131 235 188 116 228 174 100
229 167 94 234 167 95 235 166 94 238 168 97 241 170 100
242 171 104 233 163 102 205 137 84 161 93 51 123 51 22
110 32 12 118 32 19 134 40 30 149 46 42 162 53 53
171 57 60 174 58 63 174 58 64 174 58 65 178 59 66
183 63 69 190 68 73 193 72 76 190 71 73 185 67 67
180 64 61 176 61 58 172 59 58 166 55 60 157 48 64
149 42 72 151 48 93 160 62 121 167 73 144 163 74 151
155 69 148 148 65 143 146 64 139 139 58 132 130 49 121
124 45 113 128 50 115 138 61 121 142 67 123 143 69 119
140 67 114 137 66 110 136 65 108 192 127 207 148 85 162
99 40 113 74 20 85 65 14 70 60 11 55 58 10 42
59 9 30 59 10 22 62 11 16 66 13 15 74 17 18
86 24 24 100 32 31 112 37 37 119 38 38 122 37 38
126 36 41 135 43 50 147 52 62 156 59 72 164 64 80
171 69 88 182 77 97 194 86 108 205 95 119 210 97 127
208 95 131 203 92 136 202 95 148 205 105 165 214 123 187
230 151 216 237 163 229 227 150 220 204 115 190 185 88 165
187 81 159 198 88 162 217 105 173 226 116 175 223 115 166
212 106 148 202 97 132 198 94 124 201 96 122 203 98 121
208 101 123 214 106 128 222 113 136 227 119 141 231 123 143
230 123 141 224 116 132 214 104 119 202 91 105 193 82 95
184 75 86 175 69 78 165 61 70 156 55 62 149 50 56
141 45 51 126 37 43 106 28 34 83 17 24 61 8 16
45 2 16 36 1 21 35 2 31 38 5 42 74 36 83
138 95 149 205 156 215 238 185 248 244 186 254 243 182 253
242 179 253 229 166 244 204 140 220 164 102 183 126 65 144
96 38 111 76 21 85 64 13 66 58 9 52 56 9 43
57 9 37 58 9 33 63 13 34 67 15 37 71 17 41
74 18 45 75 19 49 76 19 51 76 19 53 73 17 53
70 14 50 67 12 46 66 10 42 67 11 38 70 12 37
72 15 37 76 18 39 80 21 39 86 26 40 89 28 39
90 29 35 89 29 30 91 32 28 96 37 29 105 45 34
113 51 37 116 53 38 112 49 33 106 43 27 102 39 22
101 40 20 104 44 22 103 44 20 100 41 17 96 38 15
93 38 17 81 33 17 58 21 10 32 9 3 13 2 0
4 1 1 1 2 2 0 1 3 0 1 2 1 0 1
3 1 1 5 1 1 7 2 1 8 2 1 13 4 2
26 14 11 48 33 29 70 52 47 82 60 55 85 60 55
86 58 53 84 54 48 76 46 38 65 33 24 58 25 15
58 23 12 62 24 12 67 25 11 70 25 9 74 26 7
79 26 6 87 29 6 98 34 9 110 42 14 123 51 20
134 58 26 143 65 30 150 69 31 155 71 31 158 71 30
161 72 32 163 73 34 164 73 34 166 73 34 169 75 35
173 78 36 177 82 37 181 85 37 185 88 37 189 91 38
192 93 38 195 95 40 198 97 42 201 99 43 203 101 44
203 102 43 203 102 44 204 103 45 205 104 48 207 109 55
209 120 65 225 149 93 239 178 117 244 192 126 232 182 111
225 169 97 226 164 91 231 164 91 233 163 90 237 165 91
240 168 94 242 171 98 239 170 102 226 159 98 193 126 74
148 79 39 117 42 13 109 28 8 120 31 17 134 38 29
148 46 43 158 53 53 163 56 57 165 57 59 168 57 61
171 58 61 175 59 61 178 61 62 178 61 62 173 58 57
167 53 50 162 49 44 159 48 42 157 47 42 156 47 47
151 44 54 145 41 65 146 44 84 155 57 113 164 70 138
162 73 148 153 67 144 146 63 138 142 62 133 135 56 124
124 46 111 116 40 101 120 45 103 130 57 110 136 64 113
136 65 111 135 65 107 134 65 105 134 66 104 198 134 213
152 90 168 101 44 117 74 20 88 64 14 72 60 11 56
57 9 42 58 9 30 59 9 21 62 11 15 66 13 14
74 18 17 86 25 24 101 34 33 115 41 40 122 43 42
126 41 41 129 40 42 138 46 51 149 55 64 161 65 77
171 72 87 179 78 94 188 84 102 198 92 111 208 99 122
213 101 130 210 97 134 205 94 139 206 98 153 209 108 168
217 125 188 231 152 216 240 166 232 233 157 226 210 123 199
188 92 171 185 79 159 195 85 160 214 103 171 225 116 175
224 118 167 213 109 150 200 96 130 192 89 116 193 88 111
196 90 109 201 93 112 207 99 118 216 107 128 223 114 135
227 118 138 225 116 134 216 107 124 204 94 110 193 82 97
187 76 90 180 71 84 172 65 77 162 58 69 153 50 61
146 44 54 138 40 49 126 34 43 109 28 37 89 19 30
68 10 23 52 4 22 41 0 25 40 1 35 49 10 52
98 55 104 163 116 172 222 170 231 240 184 249 240 181 250
238 177 250 236 173 251 226 162 245 207 142 227 172 109 194
135 73 155 102 43 119 80 23 91 68 13 71 61 8 57
60 8 49 60 9 43 60 9 38 63 11 37 67 15 38
70 17 41 72 18 42 71 18 41 70 17 41 70 17 41
68 16 41 66 14 39 64 12 35 64 11 32 65 11 30
68 13 29 70 14 29 73 16 30 77 18 31 82 22 33
85 24 32 87 25 29 88 26 26 92 31 27 99 38 30
110 47 37 118 55 41 121 57 41 117 52 35 111 46 28
108 43 23 108 44 22 111 48 24 109 46 21 106 42 17
102 39 15 98 39 18 84 34 17 59 21 10 31 9 3
12 2 1 2 1 1 0 2 2 0 2 3 0 1 2
0 1 2 1 1 1 1 1 1 2 1 0 3 1 0
6 2 1 18 12 10 42 32 30 69 55 53 86 68 66
91 68 67 92 66 65 88 61 59 79 52 47 68 40 34
62 34 26 64 34 26 69 37 27 72 37 25 73 35 22
72 30 15 70 24 8 71 21 3 78 22 3 90 28 8
103 36 13 114 44 20 126 52 26 136 59 30 144 65 31
149 68 31 154 71 33 158 72 35 160 72 34 162 73 33
164 74 32 167 76 32 170 78 32 173 80 32 176 82 32
179 84 33 183 86 34 187 89 37 191 91 40 194 94 41
196 96 41 196 97 40 196 97 40 198 97 41 200 99 45
203 105 52 209 118 64 226 148 92 239 174 113 241 185 120
230 175 106 224 166 94 224 162 89 228 162 88 232 162 86
235 164 87 240 168 90 241 170 93 240 171 97 235 167 99
215 147 87 176 106 58 136 61 25 112 32 8 111 26 8
120 31 20 134 41 35 145 49 46 151 53 53 155 55 55
160 57 58 165 59 59 169 60 60 170 60 60 168 59 58
163 54 53 155 48 46 150 44 39 147 41 35 144 40 33
144 41 37 142 40 45 139 39 58 141 43 79 151 56 109
162 69 136 162 72 147 154 68 143 145 64 134 140 62 126
131 55 116 118 43 101 110 37 91 113 41 92 123 53 99
129 60 103 129 62 102 128 61 99 129 62 98 129 62 98
208 145 224 163 103 180 111 53 127 77 24 92 65 14 73
60 11 58 58 9 43 58 9 30 59 10 21 62 11 15
66 14 13 74 18 16 85 24 22 99 33 32 114 42 41
124 46 45 130 46 45 133 45 46 140 49 53 152 58 66
167 71 82 183 84 97 193 93 108 201 98 114 207 102 120
212 105 126 214 104 132 213 101 138 212 101 147 213 105 161
214 111 173 217 125 189 230 150 214 242 170 235 242 168 237
224 139 215 202 106 186 193 87 167 197 87 163 212 103 171
224 118 176 226 123 172 218 116 156 204 101 135 193 89 116
190 85 107 193 86 104 196 88 105 200 92 109 207 98 117
214 105 124 218 108 127 215 105 122 205 94 111 193 82 98
185 74 89 181 71 85 177 69 82 171 64 77 162 57 69
151 47 59 143 40 52 136 37 48 126 33 44 113 30 41
96 23 37 77 15 32 59 6 29 46 1 29 45 2 39
67 23 67 127 79 130 189 139 195 233 179 239 238 180 245
235 176 245 233 171 246 232 169 250 229 165 250 214 149 236
181 116 204 140 77 161 106 44 123 85 25 96 74 16 78
67 10 64 64 9 55 62 8 47 63 9 42 65 11 40
68 15 41 70 17 41 70 18 39 70 17 36 69 17 35
68 17 34 66 16 34 65 16 32 65 14 30 64 13 27
65 12 25 66 12 24 68 13 23 71 14 24 74 15 24
78 18 26 80 19 25 82 20 24 85 23 22 92 29 25
102 39 32 114 50 40 122 58 44 124 59 43 120 54 35
115 48 29 114 46 25 115 48 25 116 50 25 113 46 20
109 42 16 106 40 15 103 41 19 88 35 17 60 21 9
30 8 2 10 2 1 1 1 2 0 1 2 0 1 2
0 1 2 0 1 2 0 1 1 0 1 1 0 1 0
1 1 0 2 1 0 12 8 8 34 28 27 65 54 54
87 71 72 95 75 76 95 72 74 88 63 63 77 52 49
68 42 37 69 43 37 74 47 40 79 51 41 81 51 40
82 49 37 79 43 29 72 32 18 67 21 7 66 15 2
72 15 2 81 20 5 91 26 9 101 33 15 113 43 20
124 52 23 134 59 26 142 65 31 150 69 34 154 71 35
157 72 33 159 72 31 161 73 29 162 74 28 164 74 27
166 75 27 169 76 28 172 78 30 177 81 33 181 84 35
184 87 37 187 90 37 188 90 35 188 90 34 190 90 35
193 93 39 199 101 47 209 117 62 229 148 90 240 170 109
240 178 113 228 169 101 224 163 92 224 161 87 228 161 85
232 162 85 236 165 86 239 167 87 240 169 89 239 169 91
237 168 95 228 158 92 204 131 74 166 90 45 128 49 17
108 27 5 106 23 10 116 32 24 126 41 36 133 46 43
139 49 47 147 54 53 154 57 57 157 59 59 158 59 58
155 57 57 149 51 51 141 44 43 136 38 35 134 37 30
133 36 28 133 37 31 131 36 38 131 36 52 136 42 76
149 57 108 161 71 137 162 74 149 154 69 143 145 65 132
138 62 122 128 54 110 114 42 94 106 35 84 109 40 85
120 52 93 125 59 96 125 59 95 123 58 92 123 58 91
123 58 91 220 158 235 180 120 197 126 69 142 84 30 99
66 15 75 61 12 60 59 10 45 59 9 32 60 10 22
62 11 15 66 13 13 73 16 15 82 21 20 95 28 28
108 36 37 121 43 44 128 46 46 132 45 47 137 46 51
148 54 63 166 70 81 185 87 99 199 100 113 207 105 120
210 106 122 210 103 124 210 100 128 211 100 137 213 102 149
215 107 163 213 110 173 213 121 185 226 147 211 241 170 235
247 174 244 235 150 226 215 119 199 204 99 180 205 96 173
216 108 177 226 120 180 229 125 177 224 120 164 212 108 145
199 95 124 193 87 111 192 84 103 193 84 102 196 87 105
199 90 109 203 93 112 204 94 112 201 90 107 194 83 99
185 75 89 181 71 85 179 70 83 176 69 81 169 63 75
160 55 67 150 47 58 143 41 52 138 39 50 127 34 46
115 32 44 99 26 42 84 20 41 66 11 37 51 4 35
53 8 47 92 46 92 156 107 160 212 160 217 237 181 242
234 176 241 231 171 241 231 169 244 231 167 248 226 161 246
202 136 225 166 101 190 128 64 151 103 41 122 87 26 99
78 18 82 71 12 68 68 11 59 66 9 51 66 11 46
68 13 44 70 16 43 71 17 42 70 17 38 68 15 35
67 15 32 66 15 31 65 16 30 65 16 29 64 15 27
64 13 25 64 12 23 66 12 22 68 13 21 70 13 21
73 14 22 77 16 23 79 18 23 81 19 22 84 21 21
93 29 25 103 39 32 116 52 42 124 60 46 126 60 44
122 55 37 120 52 32 120 53 30 122 54 30 121 53 28
115 47 21 111 42 16 110 42 17 108 44 22 92 38 20
62 23 11 31 8 3 10 2 1 1 1 2 0 1 3
0 1 3 0 1 3 0 1 2 0 1 1 0 1 0
0 1 0 1 1 0 1 1 0 7 6 5 23 19 19
48 41 40 70 58 59 79 64 64 78 59 61 68 47 47
62 39 37 63 39 34 74 50 44 84 58 51 88 61 53
90 61 52 92 60 50 90 55 43 81 42 30 70 28 15
63 17 4 64 12 1 68 13 1 73 16 3 79 19 5
88 26 8 99 34 11 112 44 16 124 53 23 136 61 30
145 67 33 150 69 33 153 70 31 154 70 29 155 70 27
156 70 25 157 70 24 160 71 24 163 73 26 166 75 28
169 77 30 173 80 31 177 82 31 179 83 30 180 83 29
183 84 30 187 88 34 195 97 43 208 116 60 229 145 87
239 166 104 239 172 107 228 165 96 224 160 89 225 159 86
228 159 84 232 161 83 235 163 84 238 166 84 238 167 85
238 167 87 236 165 89 234 162 91 221 146 84 192 115 63
150 72 34 115 38 11 98 21 5 98 23 13 103 28 21
109 33 28 117 38 34 127 45 42 133 50 48 136 52 51
134 51 51 133 49 49 129 45 45 125 39 39 122 36 33
122 34 29 123 35 27 125 36 30 125 36 38 125 36 51
132 42 75 146 58 108 159 71 137 160 74 148 152 69 142
143 65 131 137 61 120 127 53 107 113 41 92 104 35 82
108 40 83 118 51 90 123 57 93 122 58 91 120 56 88
120 56 87 120 55 87 231 169 245 198 137 213 143 86 159
92 38 106 67 16 76 62 12 61 60 11 47 59 9 33
61 11 24 62 11 17 65 13 14 71 14 15 78 18 18
89 23 25 101 30 32 115 38 40 124 42 44 130 43 47
133 43 49 141 48 57 156 61 72 176 78 90 194 94 107
205 103 117 207 103 120 206 99 120 206 96 124 210 98 136
214 103 150 216 106 164 213 109 173 211 119 184 224 146 210
237 167 232 242 169 239 230 145 222 215 119 200 212 107 189
216 109 186 225 118 188 230 125 188 230 126 181 228 123 170
219 113 154 208 101 135 198 91 118 194 86 108 193 84 104
193 84 103 193 84 102 194 83 101 193 82 99 189 79 94
185 74 88 181 70 83 178 69 81 177 69 79 173 66 76
166 60 70 157 53 62 150 47 56 144 43 52 139 41 52
129 37 48 117 34 48 102 28 47 90 25 49 73 17 46
58 8 43 67 21 62 121 74 122 185 135 188 229 176 233
235 179 240 231 173 238 229 168 239 229 168 242 226 162 243
211 146 231 176 110 200 143 78 168 118 53 141 103 39 121
90 27 102 80 19 84 74 14 72 72 14 63 70 13 55
70 14 50 71 15 47 72 17 45 71 17 42 69 15 37
67 13 34 66 12 31 65 13 31 65 15 30 65 15 28
64 14 26 64 13 24 64 12 22 66 12 21 67 12 21
70 12 21 72 13 21 76 15 22 78 16 21 81 18 20
85 22 21 95 31 26 107 43 35 121 55 45 128 62 48
129 62 45 125 58 39 125 57 36 128 60 37 130 61 37
126 58 32 118 48 22 113 43 17 115 45 21 114 49 26
97 42 23 65 24 12 32 8 3 12 2 1 2 1 2
1 1 2 1 1 3 1 1 2 1 0 2 1 0 1
1 0 0 1 0 0 1 0 0 0 0 0 3 2 2
12 9 9 27 22 21 41 34 33 48 38 38 47 34 35
40 24 24 42 24 21 57 36 31 80 57 50 93 68 61
97 70 62 100 70 61 102 70 60 101 66 55 89 52 40
75 35 23 64 21 9 61 15 4 62 14 3 64 15 2
66 15 2 71 18 2 78 22 2 89 29 6 101 38 13
115 47 20 126 55 25 136 60 29 143 64 30 147 66 30
149 67 28 150 68 26 151 68 24 153 69 24 155 71 24
158 72 25 160 73 26 164 75 27 169 77 27 172 79 27
174 79 27 177 81 27 182 85 31 192 96 41 208 116 59
229 143 84 238 161 99 237 166 100 227 160 91 225 157 86
226 156 83 229 157 82 232 159 81 234 160 81 236 162 82
236 163 81 237 163 83 236 162 84 235 160 86 229 152 86
210 132 75 173 96 51 132 58 25 100 29 8 88 20 6
84 18 8 86 21 13 91 24 19 98 30 26 102 34 31
103 36 35 101 35 35 101 34 34 101 32 32 102 31 30
104 30 28 107 30 25 110 32 25 115 34 29 118 35 38
120 35 52 128 43 76 143 58 108 156 72 136 157 75 147
149 69 141 142 64 130 135 60 119 125 52 106 111 40 90
103 34 80 106 39 81 116 50 88 120 56 91 120 56 88
118 54 85 118 54 85 118 54 84 236 174 249 211 150 224
158 101 172 101 47 115 70 18 78 62 12 62 60 11 48
59 9 34 61 11 25 62 11 18 64 12 15 69 13 15
76 15 17 85 19 22 95 25 28 108 31 36 117 36 41
125 38 46 128 38 48 134 40 52 143 47 61 160 62 76
179 79 94 195 93 108 201 97 115 203 95 118 205 95 125
210 98 138 214 102 151 215 105 163 213 108 174 214 121 187
226 147 213 234 162 229 231 156 227 215 130 207 204 108 189
208 104 186 218 112 190 227 122 194 232 127 192 230 125 184
229 121 174 224 115 161 215 106 144 206 97 128 200 91 117
195 85 107 191 82 102 187 78 97 186 76 93 185 74 89
183 72 86 181 71 83 180 71 81 177 69 78 173 66 74
167 61 69 161 56 63 154 51 58 148 47 54 144 45 53
141 44 54 130 39 51 118 35 51 103 30 51 93 29 54
78 21 53 66 15 53 87 39 84 148 100 151 208 157 212
236 183 242 233 177 239 228 170 236 226 166 237 223 162 237
212 148 229 187 122 207 151 85 175 126 60 151 115 49 138
110 46 129 100 36 112 87 25 92 79 18 76 77 18 67
74 16 59 73 16 52 73 16 49 73 17 45 71 16 42
69 14 37 66 12 33 65 11 31 65 12 30 65 14 29
65 14 28 64 13 25 64 12 23 64 12 21 66 12 20
68 12 19 70 12 20 72 13 20 75 14 20 78 16 20
83 19 21 91 26 25 103 37 32 116 50 42 127 60 49
131 64 50 131 63 45 129 60 41 131 62 41 136 66 43
136 67 42 131 61 35 120 49 24 116 44 18 120 49 24
120 54 30 102 45 26 68 25 12 34 8 2 13 2 1
4 1 2 2 1 3 2 1 2 2 1 2 2 0 1
2 0 1 2 0 0 1 0 0 1 0 0 0 0 0
1 1 0 3 3 2 8 6 6 14 11 10 18 12 11
18 11 10 17 7 6 28 14 10 53 35 30 83 63 55
100 77 70 104 79 71 107 78 71 109 78 69 107 73 63
94 58 48 80 41 31 69 30 18 66 25 13 67 25 13
67 25 12 67 24 10 66 22 7 68 20 4 73 22 3
81 26 5 91 31 9 102 38 14 115 47 20 127 55 25
136 61 28 140 64 28 143 66 27 145 67 25 146 68 25
149 69 24 150 70 24 152 71 24 157 72 25 161 74 26
167 77 27 170 78 27 174 80 28 179 85 31 190 96 41
208 117 60 228 142 83 236 157 94 234 159 93 226 154 86
224 152 82 226 153 80 228 153 79 229 154 78 230 155 77
233 157 77 233 157 76 234 157 77 233 156 76 232 154 78
228 148 80 216 135 76 189 111 62 153 79 41 115 47 20
89 27 9 75 18 5 71 16 7 70 16 9 71 17 11
70 17 14 67 17 16 65 16 17 67 17 17 72 18 18
78 21 19 86 23 21 92 25 21 99 28 22 106 31 28
111 33 38 115 34 53 124 42 77 141 58 109 154 72 136
155 75 146 148 69 140 140 64 129 134 59 118 123 50 104
109 38 88 101 32 78 105 38 79 114 48 86 118 54 88
118 54 86 116 53 83 117 53 82 117 53 81 237 173 246
217 155 228 169 110 181 109 54 122 72 20 81 62 12 62
60 10 49 59 9 36 60 10 27 61 10 20 64 12 17
68 12 17 73 14 18 82 17 22 91 21 27 101 25 33
110 28 38 118 31 43 123 33 47 128 34 50 134 37 55
148 49 67 166 65 84 184 81 101 195 90 111 202 93 120
206 95 129 211 98 141 214 101 153 215 103 164 215 108 175
219 124 192 231 150 217 234 160 227 223 146 217 203 118 194
193 98 179 198 96 177 209 104 182 220 115 188 227 121 189
228 120 184 228 118 176 225 114 165 219 107 152 211 100 137
204 94 124 196 85 111 188 78 100 182 72 91 181 70 87
180 69 83 179 69 81 179 70 80 180 71 80 176 68 76
170 63 70 161 56 62 156 52 58 151 49 54 147 47 53
144 46 53 140 45 55 131 40 54 118 36 54 105 32 55
96 31 60 83 25 59 78 26 67 113 63 111 175 125 178
227 175 231 241 186 246 234 177 239 228 170 236 224 164 235
217 155 231 200 137 218 175 110 196 145 79 169 126 60 151
124 58 147 125 60 143 115 52 127 98 36 102 85 25 82
80 21 69 77 19 60 74 16 52 74 17 48 73 17 45
71 16 40 68 13 36 66 11 32 65 10 30 65 12 29
65 14 28 65 14 27 64 13 24 64 12 22 64 11 20
66 11 19 68 12 18 70 12 19 72 12 18 75 13 19
80 17 21 89 24 25 101 35 32 114 47 41 126 58 49
132 64 52 133 65 50 132 63 45 133 63 43 137 66 45
142 71 47 142 71 46 134 63 37 123 51 25 120 47 20
126 53 27 126 58 33 105 47 26 69 24 12 35 7 1
16 2 1 6 2 2 4 2 3 3 1 2 3 1 2
2 0 1 2 0 0 2 0 0 1 0 0 1 0 0
1 1 0 1 1 0 1 1 0 1 1 0 2 1 0
3 1 0 4 1 1 7 1 1 20 10 7 47 33 29
81 63 56 102 81 75 109 86 79 112 85 78 113 84 76
110 77 69 97 62 54 84 48 39 77 40 30 77 40 29
78 42 29 78 41 28 76 39 25 72 35 19 69 29 13
67 23 7 68 20 3 72 19 2 80 23 5 93 32 10
107 43 16 120 52 23 128 58 26 133 62 26 136 64 25
139 66 25 141 67 24 143 67 23 145 67 22 149 68 23
154 70 25 160 73 27 165 77 29 170 80 30 176 85 33
188 97 43 207 118 62 226 141 81 234 152 90 230 152 87
223 148 80 222 146 77 224 147 76 225 147 74 226 147 72
226 147 70 229 148 71 230 149 70 230 148 69 228 146 69
227 144 71 223 139 72 213 129 71 194 114 66 165 91 52
129 63 33 96 37 16 74 23 7 63 17 6 57 14 5
52 11 4 46 7 4 41 5 4 39 4 5 42 5 5
49 8 7 60 13 11 72 19 15 81 22 17 90 24 20
99 28 27 107 31 39 112 32 54 122 41 78 139 57 110
153 71 136 154 74 145 147 69 139 139 64 128 132 58 117
121 49 102 107 37 86 100 31 76 103 37 78 112 47 83
116 52 85 116 52 83 115 52 80 115 52 79 115 52 79
233 168 242 218 156 228 175 116 186 116 60 128 75 22 83
62 11 63 59 9 49 58 8 37 59 9 29 61 10 23
63 11 20 67 12 19 72 13 20 80 16 24 89 19 29
96 21 33 103 22 37 110 24 42 118 27 48 126 30 53
133 36 59 146 46 70 161 60 84 178 74 100 191 85 112
201 92 124 208 96 135 213 99 146 216 101 157 217 104 168
219 111 180 225 127 197 236 153 221 238 161 229 222 145 216
201 116 191 190 96 175 192 92 172 198 94 173 209 103 178
219 111 183 226 115 183 228 115 179 226 112 170 219 107 157
212 100 143 205 93 130 195 83 113 186 74 100 178 67 88
177 66 84 176 65 79 175 65 76 175 66 75 176 68 75
171 64 71 165 59 65 157 53 58 153 51 54 149 49 52
146 47 53 142 46 53 138 44 55 129 40 55 118 37 57
108 35 61 99 33 65 87 28 66 95 41 86 141 89 139
201 149 203 241 187 244 243 187 248 235 177 242 230 171 238
225 164 235 217 155 231 204 141 222 186 121 206 162 96 185
144 78 168 141 75 162 137 72 154 121 58 131 100 38 102
86 26 81 81 22 68 77 19 58 74 17 50 74 18 47
73 18 43 71 16 39 68 13 35 66 11 32 65 10 30
65 12 29 65 14 27 65 14 25 64 13 23 64 11 20
65 11 18 66 11 17 69 11 17 71 11 18 73 12 18
78 15 19 86 21 24 98 32 32 112 45 42 124 56 50
131 63 54 134 65 53 133 64 48 133 63 44 136 65 44
141 69 47 146 74 49 145 73 47 137 64 38 126 52 25
123 49 20 131 57 29 130 60 35 108 47 26 70 24 10
36 6 1 18 3 2 9 3 3 6 3 3 4 1 2
3 1 2 2 0 1 2 0 0 1 0 0 1 0 0
1 0 0 1 1 0 1 1 0 1 1 0 1 1 0
1 2 0 1 2 1 2 2 1 4 1 1 13 7 4
37 26 22 71 57 51 99 81 76 111 91 85 114 91 85
116 89 83 111 81 74 98 66 59 86 53 45 84 51 41
88 54 44 91 57 46 90 56 44 86 53 40 81 48 33
75 40 25 69 31 16 64 23 8 61 16 2 64 15 1
74 20 3 87 29 7 103 42 16 114 51 21 123 58 26
127 61 25 131 63 24 134 64 24 136 64 23 138 64 22
141 64 22 145 64 22 151 68 25 158 73 29 165 79 31
172 85 34 185 98 44 206 119 62 224 138 79 230 147 85
226 144 80 220 141 74 220 140 72 221 140 70 222 139 69
221 139 66 221 137 64 223 138 63 225 139 64 224 139 64
223 138 65 222 135 67 217 129 68 206 120 67 190 108 64
165 91 54 132 66 38 97 41 19 72 25 9 57 18 5
48 13 3 40 8 2 34 4 1 28 2 1 27 1 1
29 1 0 38 4 2 51 10 7 65 17 11 75 19 14
85 22 19 95 25 27 104 29 40 110 31 56 122 40 80
139 56 111 153 70 137 154 73 145 146 68 138 139 63 127
131 58 116 119 48 101 105 36 85 98 30 75 102 36 76
110 45 82 114 50 83 113 50 79 112 49 77 112 49 75
112 50 75 228 163 237 218 155 228 178 118 189 120 63 131
76 23 85 62 10 64 59 9 52 58 8 40 59 9 31
60 9 25 62 11 23 65 12 22 70 12 23 78 15 26
86 18 31 93 19 35 99 19 40 106 20 44 116 25 52
127 32 61 140 42 73 155 54 86 170 67 99 184 79 112
195 88 123 206 95 134 213 100 144 219 104 155 221 105 164
221 107 172 221 111 181 225 123 194 236 146 215 241 160 228
232 152 223 211 126 201 195 103 180 190 92 171 193 91 169
203 96 173 214 103 178 223 109 182 227 111 180 225 110 173
218 105 162 211 98 148 204 92 134 195 82 117 186 73 102
177 65 89 173 62 81 170 59 74 169 58 70 168 59 68
168 60 67 164 58 64 160 54 60 154 51 55 151 50 53
147 48 52 143 47 52 139 44 52 133 41 53 126 38 56
116 36 59 108 35 65 99 33 69 94 34 75 117 61 109
169 115 168 223 170 225 248 193 251 244 188 250 238 179 245
234 175 243 230 169 241 226 164 240 220 156 237 207 142 227
189 123 211 168 102 191 151 86 172 131 67 146 108 45 116
90 29 90 81 21 72 77 19 62 75 17 53 73 16 46
72 17 42 71 16 39 69 15 35 67 12 32 66 11 30
65 11 28 66 13 28 66 14 27 66 15 26 65 13 23
64 11 20 65 11 18 67 11 17 70 11 17 72 12 18
77 15 20 85 21 25 96 29 32 107 39 39 118 49 46
127 57 51 130 60 51 132 62 49 132 62 46 136 65 46
141 69 48 148 74 51 152 78 53 149 75 49 140 65 38
129 53 26 128 51 22 136 60 31 135 63 37 111 48 26
72 24 10 38 6 0 22 4 2 14 6 4 9 5 5
4 2 3 2 1 1 1 0 1 1 0 0 1 1 0
2 1 0 1 0 0 1 1 0 1 1 0 1 1 0
0 1 0 1 1 0 1 1 0 0 1 0 2 1 0
6 3 1 21 14 12 48 38 34 79 66 62 102 86 81
111 92 87 111 88 84 100 73 68 88 60 54 83 53 46
91 59 51 98 65 56 100 67 57 98 65 54 92 61 48
86 54 42 79 47 34 73 39 25 65 29 15 59 18 6
57 13 1 61 13 1 68 18 2 81 28 8 94 39 14
108 50 21 117 56 23 124 60 25 127 61 24 129 61 23
133 61 22 136 60 23 139 60 22 143 61 23 150 67 26
159 75 29 169 84 34 184 98 44 205 119 61 221 135 75
227 141 79 222 137 73 217 133 67 215 131 64 215 130 63
216 130 62 217 130 61 217 128 58 217 128 57 218 129 59
218 130 61 216 129 64 213 126 67 207 120 68 196 111 66
176 95 57 149 76 44 117 53 27 88 34 13 66 22 6
52 16 3 42 12 2 35 8 1 30 5 1 26 4 2
24 2 1 27 1 0 35 4 1 47 9 4 61 15 9
73 18 13 85 22 20 94 24 29 104 28 44 113 33 62
127 44 90 143 59 118 153 69 139 153 72 145 145 67 138
138 63 127 130 57 115 118 47 100 104 35 84 98 30 75
101 35 75 108 44 79 111 48 79 110 48 76 109 47 73
109 47 72 109 47 71 225 160 234 220 156 230 182 122 195
126 69 138 79 26 89 63 11 67 60 9 55 58 8 43
58 8 34 59 9 29 61 10 26 65 11 25 69 12 26
77 14 29 85 18 35 93 19 40 100 21 46 109 23 53
121 30 63 137 40 76 153 53 91 169 67 106 182 79 118
194 88 128 203 95 136 211 100 144 218 104 152 221 106 160
221 105 165 219 105 170 219 107 177 221 115 185 229 132 200
238 150 217 240 157 226 227 142 215 207 118 194 195 99 177
194 92 171 201 93 172 211 98 176 219 102 179 223 106 179
222 106 175 217 104 166 210 98 153 204 91 140 196 82 124
188 74 108 177 65 92 171 59 80 165 55 71 163 53 65
161 52 62 160 52 60 157 51 58 154 49 55 150 48 52
148 48 51 144 48 51 140 45 51 135 42 51 129 38 53
122 36 56 114 35 61 108 35 68 101 34 74 105 44 89
140 82 134 194 138 193 238 184 240 251 195 254 246 189 252
243 183 249 240 181 248 238 178 248 236 174 248 231 168 247
220 156 239 203 137 224 178 112 198 147 82 166 115 51 127
89 27 94 77 16 74 73 14 62 74 16 55 73 16 47
72 16 42 70 15 37 69 15 34 68 14 31 67 12 29
66 12 27 66 12 26 67 14 27 67 15 26 67 16 25
65 13 22 65 12 19 66 11 17 68 11 17 71 12 17
74 13 18 82 19 23 92 27 30 103 35 37 111 42 41
118 48 45 125 54 48 129 58 48 132 60 47 135 64 47
140 68 48 147 73 51 154 79 55 157 81 56 153 77 51
142 66 38 132 54 26 131 53 23 140 62 33 139 65 38
115 49 27 75 24 10 41 7 0 25 6 3 18 9 5
12 8 6 6 4 4 2 1 1 1 0 0 1 0 0
2 1 0 2 1 0 2 1 0 1 0 0 1 0 0
0 0 0 1 1 0 1 1 0 1 1 0 0 1 0
1 1 0 3 1 0 9 5 4 26 19 17 51 42 39
74 62 59 85 69 66 83 64 60 71 49 45 68 44 38
77 50 44 94 66 58 104 74 65 106 74 65 103 71 61
98 66 55 90 59 48 83 52 40 76 45 32 66 34 21
57 22 9 53 15 2 55 14 1 59 15 1 68 21 3
79 30 7 94 42 15 107 52 21 117 58 26 123 60 26
126 59 25 128 58 24 131 58 23 133 56 21 137 57 20
144 62 22 154 71 27 167 83 33 184 99 45 204 118 60
218 131 71 222 135 72 219 131 68 215 127 63 212 125 60
212 124 59 212 123 58 213 122 57 213 121 56 212 121 56
213 122 59 211 123 63 208 122 67 201 117 68 189 107 64
173 93 56 150 74 42 124 55 28 98 37 14 77 25 6
60 18 2 48 13 1 39 10 0 33 7 0 29 5 1
26 4 2 26 3 1 28 2 0 35 4 1 47 9 3
60 14 7 73 18 13 85 22 22 95 24 32 107 30 51
120 39 74 136 52 103 148 63 127 153 69 142 151 70 146
144 65 138 137 62 127 129 56 114 118 47 100 104 35 84
97 30 74 101 35 74 107 43 77 109 46 77 108 46 73
107 46 71 108 46 69 108 46 68 226 160 234 225 161 235
190 130 203 134 77 147 85 31 96 67 14 72 62 11 59
59 8 46 58 8 38 59 8 32 60 9 29 63 10 28
68 11 30 75 14 34 85 18 40 95 22 47 105 27 56
118 33 66 132 41 78 147 51 91 162 62 104 176 72 116
187 82 126 196 89 133 203 94 139 209 97 144 214 100 150
216 100 154 215 99 157 213 98 161 214 101 168 216 106 173
221 115 182 230 132 198 240 151 219 240 154 225 224 136 210
205 112 188 198 98 176 201 94 173 209 97 176 214 97 176
217 100 177 218 104 176 216 106 172 212 101 162 206 93 148
198 84 131 192 77 116 181 67 98 171 58 82 164 52 70
160 49 63 157 48 59 155 47 56 151 45 54 148 44 51
146 45 50 145 47 50 142 47 51 138 45 52 133 41 53
128 38 55 121 35 59 114 35 66 107 34 71 101 34 77
118 55 104 162 104 158 215 158 215 247 190 249 252 196 255
250 193 254 249 191 253 247 188 253 242 182 251 233 171 245
220 156 235 205 141 224 189 124 210 163 98 183 128 63 144
95 33 106 78 17 81 73 13 67 72 14 57 71 14 49
70 14 41 68 14 35 67 13 31 67 13 28 67 13 27
66 13 26 66 13 26 66 14 25 68 15 26 68 17 26
68 16 25 66 14 21 65 12 19 66 12 17 69 12 17
73 13 17 78 16 20 87 23 27 98 32 35 106 37 39
111 40 39 115 44 40 123 51 43 130 57 47 136 63 49
141 68 51 146 72 52 154 78 56 161 83 60 163 85 60
157 80 53 144 66 38 134 55 25 135 54 24 145 64 35
145 68 41 119 51 28 79 25 11 46 8 0 30 8 4
24 13 9 19 14 12 11 9 8 4 3 3 0 0 0
1 0 0 2 2 1 2 2 1 2 1 1 1 0 0
1 0 0 1 0 0 1 0 0 1 0 0 1 0 0
0 0 0 1 1 1 2 1 1 3 1 2 8 5 5
21 16 15 37 30 28 46 36 34 45 32 30 37 21 18
46 26 22 70 47 41 97 72 64 108 81 73 109 79 70
107 76 67 104 72 63 96 66 56 88 59 47 78 50 38
67 37 24 57 25 12 53 19 5 56 19 5 60 21 7
62 22 5 68 24 4 79 33 8 94 43 16 108 52 24
117 57 27 121 57 26 123 56 24 127 55 23 129 53 20
133 54 18 139 58 18 151 68 23 166 82 32 185 100 45
204 117 58 215 127 65 217 128 65 214 124 61 211 121 58
208 119 56 208 119 56 208 118 57 208 117 57 208 117 58
206 115 59 202 114 61 196 112 63 187 108 63 173 98 58
155 82 48 134 64 36 114 47 23 96 33 11 79 23 4
67 19 1 57 16 1 49 13 1 40 9 0 34 6 0
30 4 1 29 4 1 28 3 1 31 3 0 38 5 1
49 10 3 61 15 8 73 18 15 85 21 25 96 26 39
113 36 63 132 50 93 148 64 121 154 70 140 153 70 147
149 68 147 142 64 138 136 61 127 129 56 114 118 47 100
104 35 84 98 30 74 101 35 74 106 42 75 107 45 74
106 45 71 106 46 70 107 46 68 107 46 66 228 162 236
230 165 239 198 137 211 143 85 157 91 37 104 70 17 78
64 12 64 60 9 51 59 8 42 59 8 36 59 8 33
62 9 32 67 11 34 75 14 38 85 19 44 97 25 53
109 32 63 124 41 76 138 49 87 151 56 97 162 62 105
171 67 112 178 73 118 185 78 123 191 82 127 196 84 131
200 86 135 202 87 138 205 88 143 208 92 151 213 98 159
215 102 164 216 105 168 220 114 178 229 133 199 239 150 218
235 147 219 218 126 201 203 105 182 199 95 174 205 95 175
208 94 174 210 96 175 215 104 180 219 111 181 215 108 173
207 95 156 198 83 137 192 77 121 183 69 104 173 59 87
164 52 73 159 48 63 155 46 59 151 44 55 147 41 52
144 41 49 142 41 48 140 43 48 139 44 50 136 44 53
132 41 55 127 38 58 120 35 62 113 34 68 104 31 72
105 37 84 134 71 123 184 124 182 231 172 233 250 192 253
253 196 255 253 196 255 253 195 255 249 190 253 237 177 245
217 155 229 195 132 210 179 114 197 160 95 180 136 71 155
106 42 120 85 24 94 76 15 76 73 14 65 71 14 54
69 14 44 67 12 35 65 12 29 64 12 25 65 13 24
66 14 24 66 15 24 67 15 25 68 16 25 68 17 25
68 17 24 67 16 23 66 14 20 66 12 18 67 12 16
71 13 17 75 14 18 82 19 22 91 26 29 100 33 35
105 35 36 109 37 36 116 43 38 126 52 44 134 60 50
142 68 54 148 73 56 152 76 56 158 81 58 164 85 62
167 87 62 160 81 53 146 66 37 135 54 24 137 55 23
149 67 36 150 71 43 124 54 30 83 27 12 49 10 1
34 10 5 31 18 13 29 23 20 21 18 16 10 8 8
2 1 1 1 0 0 2 1 0 2 2 0 2 2 0
1 0 0 1 0 0 1 0 0 2 0 0 2 0 0
2 0 0 1 0 0 1 0 1 1 1 2 2 1 3
2 1 2 6 3 3 10 6 5 13 7 6 14 5 4
15 3 1 31 16 13 61 43 38 92 71 64 107 83 76
110 83 76 110 81 74 109 80 71 104 76 66 95 67 56
81 55 43 67 40 27 57 28 15 57 26 12 63 30 15
69 34 17 69 32 13 68 29 8 71 29 6 81 35 10
94 43 17 107 50 23 115 54 27 119 53 25 121 52 22
124 51 18 130 52 17 137 57 17 150 67 22 167 82 32
187 101 46 204 116 58 212 122 62 212 121 60 208 117 57
205 115 56 203 115 57 203 115 58 202 115 59 201 113 60
199 111 61 192 106 60 182 100 57 168 92 53 152 81 47
131 66 38 109 47 25 91 32 14 82 25 7 77 22 4
73 22 4 66 21 3 59 19 2 52 15 1 44 10 1
38 6 0 33 3 0 32 3 0 32 3 0 37 5 0
45 9 2 54 13 7 65 16 12 74 18 19 84 20 30
100 29 50 123 45 81 145 63 114 157 73 139 159 74 150
154 71 153 149 68 150 141 63 139 136 61 127 129 56 115
118 47 101 104 35 84 98 31 74 100 36 73 105 42 75
107 45 74 105 45 70 106 47 69 106 47 66 106 46 65
231 162 238 232 166 242 201 138 214 145 86 161 94 38 109
73 19 82 67 14 69 62 10 56 60 9 47 59 8 41
59 8 37 61 8 36 67 11 39 76 15 43 85 20 49
98 27 58 110 34 67 124 42 77 135 46 84 145 50 90
152 53 94 159 56 98 164 60 101 169 63 104 174 66 107
179 68 110 185 71 114 191 76 121 199 83 131 207 92 142
213 98 152 215 99 155 214 99 157 211 101 161 216 114 177
229 135 202 238 147 217 229 137 211 210 115 190 199 98 176
200 94 174 202 93 173 204 95 175 212 106 183 221 117 190
219 114 184 207 98 164 197 83 142 192 76 126 185 69 109
174 59 91 165 51 75 158 47 65 153 44 59 149 41 54
144 39 51 141 38 48 138 39 47 136 40 47 135 42 50
133 42 53 129 39 57 124 36 60 118 33 65 110 30 69
101 28 73 112 43 94 154 90 145 207 145 205 242 182 245
251 192 255 253 194 255 254 195 255 251 193 253 240 181 246
219 159 228 191 129 204 165 101 180 148 83 166 131 66 150
111 48 130 89 28 103 77 17 85 71 13 71 68 12 59
66 11 48 64 11 37 62 10 29 60 9 23 61 10 20
62 12 20 64 14 21 66 16 22 67 17 24 67 18 24
68 17 24 67 16 23 66 15 22 66 14 20 67 13 18
68 12 17 72 14 17 77 16 19 85 21 24 93 27 30
101 32 34 105 35 35 111 38 36 120 45 40 130 54 46
139 63 51 147 71 57 154 78 60 158 80 61 162 83 62
168 87 64 169 88 62 161 80 53 147 65 35 136 53 22
140 56 23 154 70 38 156 76 46 130 58 33 88 30 13
54 13 2 39 13 6 40 25 19 42 33 30 34 29 27
18 15 14 5 3 2 1 1 0 1 1 0 1 1 0
2 1 0 1 0 0 2 0 0 2 0 0 3 0 1
3 0 1 3 0 1 2 0 1 2 1 3 2 1 4
2 1 5 1 1 3 1 0 1 2 0 0 4 1 0
6 1 0 8 1 0 21 11 8 46 33 29 76 60 54
98 78 72 107 85 79 111 86 80 111 86 79 109 84 76
98 73 63 81 57 46 65 41 29 61 35 23 66 39 26
74 44 31 78 46 31 75 41 24 69 33 15 67 28 7
71 28 6 80 32 9 92 39 15 104 46 21 111 49 24
116 50 22 120 50 18 126 52 16 134 56 16 148 66 22
169 84 34 190 103 49 205 116 59 210 119 61 207 116 58
202 112 56 198 110 56 194 110 58 192 110 60 189 108 61
185 105 60 179 100 60 166 90 55 148 77 46 125 60 34
104 45 24 84 30 15 70 19 6 62 12 2 66 16 4
71 22 7 74 28 10 70 26 8 63 22 5 56 17 3
50 12 1 45 8 1 40 5 1 39 5 1 40 6 1
45 9 3 53 13 7 61 17 13 70 19 19 77 19 27
87 21 40 107 35 66 135 57 104 159 77 138 166 82 157
163 79 162 156 74 161 149 69 154 141 64 141 135 61 127
129 57 115 118 48 101 105 36 85 98 31 74 100 36 73
104 42 74 106 45 73 105 45 69 106 46 67 105 47 65
105 47 63 230 161 238 230 163 241 198 135 212 142 83 159
92 37 109 74 20 85 69 16 74 65 12 61 61 10 52
60 9 45 61 9 42 64 10 42 71 14 45 79 19 50
88 23 55 99 29 61 109 33 66 119 38 71 127 40 75
135 42 78 143 44 82 149 47 84 154 50 86 157 52 86
161 54 88 167 57 91 174 63 98 184 70 107 195 80 119
204 89 131 208 93 138 208 91 139 208 91 143 205 92 148
206 101 161 217 120 184 233 139 208 236 144 216 223 130 204
208 112 188 202 102 180 200 98 177 200 98 177 210 109 187
221 122 197 219 117 191 206 99 169 195 81 146 191 75 130
185 68 113 174 58 94 164 51 78 158 46 67 153 43 60
148 40 56 144 38 52 139 37 49 136 37 47 134 38 47
132 39 50 130 39 54 126 36 57 120 32 60 114 30 65
105 26 68 104 31 78 131 62 115 181 116 174 228 166 228
247 186 252 247 186 254 245 183 251 242 181 247 232 171 237
213 153 221 187 126 197 159 98 173 138 74 153 124 59 141
110 45 127 94 32 112 79 20 94 71 13 79 66 9 65
62 7 52 60 7 41 57 7 30 56 6 22 55 6 17
57 8 15 59 11 16 62 14 18 64 16 20 65 17 21
66 17 22 65 16 21 65 15 21 66 14 20 67 13 19
68 13 17 70 13 16 73 14 17 79 18 21 87 23 26
95 28 30 101 32 34 106 35 35 114 40 38 123 48 42
133 57 48 142 66 54 152 75 60 159 82 64 163 84 65
167 87 65 170 89 65 170 88 62 161 79 51 146 63 33
136 52 20 142 57 24 159 74 42 163 81 51 136 63 37
93 33 15 59 16 3 44 16 8 48 30 24 52 40 37
45 36 35 25 19 18 8 5 3 2 1 0 1 1 0
0 1 0 1 1 0 1 0 0 2 0 1 3 0 1
4 0 1 4 0 2 4 0 2 3 0 2 3 1 4
2 1 5 1 1 4 0 0 3 0 0 1 1 0 1
2 1 0 3 1 0 5 1 0 11 5 4 27 18 15
49 38 33 73 59 53 91 75 69 104 85 80 111 91 85
110 89 82 94 73 65 74 53 43 64 41 31 69 45 35
81 55 44 87 59 48 86 56 44 79 47 34 71 37 22
67 29 12 67 26 7 70 25 5 79 28 7 90 35 13
101 43 19 109 47 21 115 50 18 120 51 15 131 56 17
148 68 25 171 88 40 193 106 55 205 117 63 206 116 63
202 112 60 194 107 58 188 105 59 182 104 61 177 104 63
171 100 63 163 94 60 153 86 57 135 72 48 110 52 33
83 30 16 63 15 6 52 8 2 50 7 1 55 10 3
68 22 11 76 31 16 80 35 18 74 30 12 66 24 7
58 17 3 54 13 2 51 10 2 49 8 3 49 9 4
51 11 5 55 14 8 62 17 13 69 20 20 76 21 29
82 21 38 96 28 57 121 47 89 151 72 129 170 88 159
173 89 172 167 82 172 159 76 168 151 70 158 142 65 143
136 62 128 130 58 116 119 49 102 105 37 85 98 32 75
100 36 73 104 42 74 105 45 72 104 45 67 104 46 65
104 46 62 104 46 61 227 157 236 228 160 239 196 132 211
142 82 159 93 36 110 75 20 88 71 17 77 66 14 65
62 11 55 61 10 49 63 11 47 67 14 49 75 18 53
83 23 58 91 26 61 98 29 63 105 31 63 113 33 64
120 35 66 129 37 69 137 39 72 144 42 74 148 46 75
150 46 73 153 48 73 159 51 76 169 59 85 180 68 96
190 76 107 196 82 114 198 83 118 197 81 121 198 81 127
199 85 136 201 93 150 209 108 170 224 128 196 236 144 215
235 144 217 224 133 207 214 120 196 209 113 190 206 110 188
214 119 197 223 129 205 220 122 197 205 100 174 193 81 149
190 74 133 185 68 116 174 58 97 164 50 80 157 45 68
152 42 61 147 40 57 143 37 54 138 37 50 135 36 48
131 36 47 130 37 50 127 37 54 123 34 57 116 29 60
109 25 63 104 25 70 120 46 96 161 93 148 210 145 205
239 176 239 237 175 243 228 165 236 217 154 226 207 145 216
190 128 199 169 108 179 146 85 157 127 65 140 115 50 129
105 40 121 94 30 111 83 22 101 74 16 89 67 11 76
61 7 61 56 4 47 54 4 35 52 4 26 51 4 18
50 4 12 53 6 11 56 10 13 59 13 15 61 16 18
62 16 19 62 16 19 62 14 18 63 13 18 65 13 19
67 13 19 69 13 17 70 13 16 75 15 18 81 19 22
89 25 27 96 29 31 102 32 34 107 36 35 116 42 39
125 49 43 135 58 49 146 69 56 157 79 64 165 87 69
168 89 69 172 92 69 174 92 68 171 88 62 161 77 50
145 61 31 137 51 20 144 58 25 164 77 45 168 85 55
141 67 41 97 36 17 63 19 5 49 19 10 52 32 26
55 40 38 47 35 34 27 19 18 10 5 4 3 1 0
1 1 0 0 1 0 0 1 0 1 1 1 2 0 1
3 0 1 4 0 2 5 0 2 5 0 3 4 0 3
3 1 4 2 1 4 1 1 4 0 0 2 0 0 1
1 1 1 1 1 0 1 1 0 2 1 0 5 2 1
12 7 5 23 17 14 41 32 28 61 50 46 81 69 65
96 82 78 95 80 74 78 61 54 61 41 34 62 41 33
80 57 50 96 71 63 99 72 64 94 64 56 84 53 43
75 42 30 69 33 19 67 28 11 67 24 6 71 23 4
79 28 7 89 35 12 98 42 15 105 46 15 113 49 14
127 56 18 149 73 32 175 93 49 194 109 62 202 115 66
200 112 64 194 107 61 184 101 59 175 98 60 167 97 63
160 97 66 152 93 66 143 86 64 128 75 57 105 56 43
76 32 23 53 12 7 40 2 0 39 2 1 48 9 5
63 20 12 79 34 22 86 40 25 84 38 20 74 30 11
66 21 4 59 15 2 57 12 2 56 11 4 57 12 6
59 14 9 61 16 11 64 17 13 69 20 20 77 23 29
84 25 41 92 26 54 112 40 81 140 63 117 168 87 156
179 94 177 177 91 183 169 83 180 161 76 172 151 70 160
143 66 144 136 62 129 130 59 117 119 50 103 105 37 86
98 32 75 100 36 73 104 42 74 105 45 71 103 44 66
103 44 62 102 44 60 102 44 58 223 153 234 226 158 239
199 134 214 146 85 164 96 39 114 76 21 91 71 17 79
67 14 68 63 11 58 62 11 53 64 13 51 69 16 53
76 20 57 83 23 60 88 24 60 93 25 59 99 27 57
107 30 56 115 31 57 123 33 59 130 34 60 136 37 61
141 41 62 144 42 61 147 43 60 153 45 62 164 55 72
177 66 85 188 75 97 192 78 103 190 77 104 190 75 107
191 74 113 195 80 126 199 90 143 205 102 161 215 117 182
228 135 204 236 145 216 235 146 219 230 139 214 228 135 211
225 132 209 229 139 216 234 144 221 225 131 208 208 105 182
193 83 155 190 75 138 184 68 120 173 58 100 163 49 84
156 44 71 151 41 63 146 38 58 141 36 55 137 35 51
133 34 49 129 34 48 127 35 51 125 35 56 121 32 60
113 27 61 105 22 63 109 31 78 143 70 122 193 124 182
228 162 225 229 165 232 209 145 217 191 127 202 174 110 186
160 97 172 142 79 153 125 63 136 109 48 120 97 36 111
91 28 106 86 22 102 83 20 100 78 19 96 73 17 89
66 12 75 58 6 59 53 3 44 51 3 33 51 3 25
49 3 17 48 2 10 50 5 9 54 9 11 57 12 14
59 14 16 59 14 17 59 13 16 59 12 16 61 11 16
65 12 17 67 13 18 69 13 17 71 13 16 76 15 18
83 20 22 91 26 28 98 30 32 103 33 34 108 37 36
117 43 40 126 50 44 136 58 49 148 71 58 160 83 68
170 92 74 173 94 74 177 97 74 178 96 71 172 89 63
161 77 49 145 61 31 138 52 20 147 59 27 167 80 47
173 89 58 145 70 42 101 39 18 67 21 6 53 21 11
53 31 25 52 34 32 42 28 27 24 14 14 10 3 3
4 1 0 2 1 0 1 1 0 1 1 0 2 1 1
3 1 1 5 0 1 6 0 1 6 0 2 6 0 2
6 0 2 5 0 3 4 1 3 2 1 3 1 1 2
1 1 1 1 1 1 1 2 1 1 2 0 2 2 1
2 1 0 4 2 1 8 4 2 15 11 8 28 23 20
44 38 35 60 53 50 61 51 47 50 37 33 43 28 23
61 43 38 90 69 64 107 84 79 108 82 77 101 72 66
90 60 53 79 48 38 71 38 25 67 31 16 65 25 8
67 23 4 72 25 4 78 29 6 86 34 9 93 39 9
104 45 12 122 57 21 150 78 40 178 100 59 194 112 69
195 112 68 190 107 64 182 101 62 172 95 61 161 91 62
152 91 65 144 91 70 137 89 71 127 84 70 106 66 56
80 43 38 51 17 16 37 5 4 33 1 0 41 6 4
58 18 13 79 34 25 93 45 33 94 45 30 84 35 18
73 25 7 65 18 2 60 14 0 59 12 2 61 13 6
65 16 11 68 18 15 69 19 16 71 19 19 75 21 26
83 25 38 92 29 53 101 33 69 128 55 105 158 80 144
183 101 179 184 99 189 177 90 189 169 82 183 160 75 174
151 69 160 143 65 145 137 63 131 131 60 119 120 50 103
105 38 86 98 32 75 100 37 73 104 42 74 104 44 70
102 42 64 101 42 60 101 42 58 100 42 57 222 150 236
228 158 243 204 138 220 153 90 171 102 42 120 78 21 94
72 17 82 67 14 71 64 13 62 63 13 56 64 14 53
68 16 54 72 18 55 76 19 55 80 19 53 84 20 49
89 21 45 97 23 44 105 26 45 113 28 47 120 29 47
127 32 48 135 37 50 141 40 51 145 42 51 150 43 52
160 51 61 174 63 75 186 75 88 192 80 95 191 79 97
190 77 99 189 74 104 191 78 116 195 86 131 201 95 149
209 107 169 218 120 188 223 128 199 226 133 206 226 132 207
230 135 210 231 137 213 237 146 222 243 154 230 237 145 222
218 120 197 199 94 167 190 79 145 183 70 127 173 60 108
164 52 92 156 45 78 150 41 69 144 37 61 140 35 57
135 33 53 129 32 51 126 32 51 125 34 56 124 36 62
119 33 65 110 26 65 105 25 71 125 50 102 173 101 159
220 151 213 236 169 236 217 151 223 187 120 196 161 95 172
139 73 151 124 58 136 108 44 120 97 35 109 87 26 100
80 20 95 78 17 93 77 17 93 78 19 95 77 21 94
74 21 89 67 16 76 60 10 60 55 7 47 54 8 38
53 7 29 49 5 19 46 2 11 47 4 9 51 8 10
55 11 13 56 13 15 57 13 16 57 12 16 59 12 16
61 12 16 65 13 17 68 14 18 70 14 18 72 14 17
76 16 18 83 20 22 91 26 28 98 30 32 104 34 35
111 39 38 120 46 42 128 52 46 137 60 51 150 72 61
162 84 71 172 93 77 175 96 77 180 100 78 180 98 74
171 89 63 159 75 47 144 59 30 140 53 22 150 61 28
171 82 48 177 93 59 151 75 45 106 43 20 71 23 7
57 22 12 57 31 25 59 37 34 53 35 33 37 23 22
19 9 8 7 2 1 4 2 0 3 2 0 3 2 1
4 1 0 6 1 0 8 0 0 10 0 1 11 0 1
12 0 1 12 0 1 11 1 2 9 1 2 7 1 2
6 1 1 5 1 0 4 2 0 3 2 0 2 2 0
2 2 1 2 2 0 2 2 1 3 2 1 4 3 1
8 6 4 15 12 10 24 21 19 25 20 18 22 15 12
29 18 16 58 45 42 94 77 74 115 94 91 115 91 88
106 79 75 95 67 61 84 55 47 75 44 33 69 36 22
65 30 13 66 27 8 68 25 5 71 25 4 76 27 4
83 32 6 95 39 11 116 55 24 147 79 47 174 101 67
186 110 74 183 106 70 175 99 65 167 94 64 157 90 64
147 88 66 140 90 72 133 91 77 121 84 73 104 71 63
78 48 43 52 25 24 33 7 8 29 2 2 37 4 2
54 15 10 77 32 23 98 48 37 105 52 39 99 45 31
83 30 15 72 20 5 65 15 1 62 13 1 63 13 3
65 14 8 70 18 14 74 21 19 75 21 21 75 20 24
79 22 32 86 26 45 99 35 66 118 50 93 154 83 139
184 108 177 198 118 200 187 104 198 175 90 191 165 81 183
158 74 173 150 68 160 144 65 146 138 63 132 132 60 120
120 51 105 106 38 88 99 32 76 101 36 74 105 42 75
106 44 72 103 42 65 102 41 61 100 41 58 100 41 56
223 151 242 230 159 247 208 141 225 158 94 177 106 46 125
80 22 96 73 17 85 68 15 74 66 15 65 64 14 58
64 15 54 65 15 52 67 15 50 70 16 48 72 16 44
75 16 39 80 17 34 88 19 33 96 22 34 104 24 36
111 25 35 118 28 36 128 33 39 137 39 42 143 41 43
148 42 45 157 49 52 171 61 66 185 75 81 194 83 91
195 85 94 191 80 94 187 76 96 187 76 104 191 82 119
197 90 137 204 99 155 211 108 171 211 110 178 213 113 185
214 114 188 220 120 195 223 125 200 229 134 208 237 145 220
239 147 223 230 135 211 212 112 186 196 90 159 184 76 138
175 66 121 166 57 105 158 49 90 152 45 80 146 40 70
141 38 65 135 35 60 129 33 58 126 34 60 126 37 67
122 38 71 114 32 71 104 25 70 112 36 87 149 76 134
201 132 194 236 167 234 234 166 237 205 136 212 172 103 181
143 75 154 123 55 135 110 44 123 99 35 113 90 28 104
81 21 95 73 15 88 71 13 86 72 16 87 75 21 91
77 26 92 76 26 88 69 21 77 62 15 62 58 13 51
57 13 42 55 11 33 49 6 20 45 3 12 46 4 9
50 7 11 53 10 14 55 12 15 56 12 17 57 12 17
60 12 17 63 13 17 67 14 18 70 16 19 72 15 18
73 15 18 77 16 19 83 20 22 92 27 28 99 31 32
106 36 36 113 41 39 121 48 44 129 53 47 137 60 52
149 72 61 161 83 71 170 92 78 174 95 78 180 100 79
179 97 74 169 86 61 155 72 44 143 57 29 141 53 22
151 62 29 172 84 48 180 96 59 155 79 45 111 46 21
76 24 7 63 23 13 64 32 26 71 45 41 74 52 49
62 45 41 36 25 22 14 8 5 6 2 0 6 3 1
6 2 1 7 1 0 10 0 0 14 0 0 16 0 0
18 0 0 19 0 0 19 1 0 19 1 1 17 1 1
15 1 1 12 1 0 11 1 0 9 1 0 7 1 0
5 1 0 4 1 0 2 1 0 2 1 0 2 2 1
2 2 1 2 2 0 1 1 0 3 2 1 4 2 2
5 3 2 16 11 10 45 37 36 83 69 68 109 91 89
115 93 91 110 86 82 100 75 70 90 65 57 80 54 43
72 45 31 67 38 21 66 32 15 67 30 12 70 29 10
75 29 10 81 32 11 89 37 14 108 50 26 135 72 47
159 93 66 169 101 73 167 98 70 160 94 68 153 93 70
147 93 74 141 94 79 131 91 80 114 82 73 92 65 58
70 46 41 49 26 24 32 11 10 26 2 2 32 4 1
49 13 6 73 29 18 97 45 32 113 56 42 111 51 38
99 40 27 82 25 12 72 17 5 67 14 3 67 14 4
68 15 7 70 17 11 74 20 17 78 22 22 80 23 27
80 22 32 82 24 41 91 31 57 113 50 86 144 79 126
185 117 176 206 134 205 206 131 214 188 110 202 173 93 191
163 82 182 157 75 173 149 69 160 143 65 147 137 63 133
132 60 121 120 51 106 106 38 89 99 32 78 101 35 76
106 41 77 108 44 75 105 43 69 103 41 63 101 41 59
100 40 57 228 154 249 230 158 249 208 140 225 159 94 178
109 47 127 81 23 99 74 18 87 70 17 77 66 16 68
64 15 59 63 15 53 63 14 49 63 13 46 65 14 43
67 14 38 69 15 32 73 15 27 79 16 25 87 20 26
96 23 29 104 25 29 113 27 30 124 33 33 134 38 38
142 41 40 147 42 42 154 47 47 165 56 58 179 69 71
189 78 82 192 82 88 189 79 87 183 74 87 181 71 91
182 74 103 187 79 117 193 86 134 199 92 150 199 93 157
199 93 161 198 92 163 202 97 168 204 101 172 207 107 178
215 118 191 227 133 207 233 140 215 225 129 203 205 105 176
187 83 150 177 72 133 171 66 121 162 57 107 155 50 94
147 44 82 141 40 75 133 35 68 127 33 66 126 36 71
125 39 77 118 36 77 106 28 73 99 24 73 119 46 103
165 95 159 213 145 214 231 163 236 217 148 224 188 118 197
158 88 169 133 63 145 116 48 129 107 40 120 99 35 113
89 28 104 79 20 93 71 15 85 68 14 83 70 18 84
74 23 87 75 27 87 74 28 83 68 24 73 63 19 62
61 17 53 60 16 44 55 12 33 48 6 20 44 3 12
46 4 10 50 8 12 53 10 15 55 12 16 56 12 18
58 13 20 62 14 20 66 15 20 70 16 20 72 17 21
73 16 20 74 16 19 77 17 20 83 21 23 93 28 30
101 34 34 109 39 39 115 43 41 122 48 44 128 53 46
135 58 50 146 69 59 158 80 69 167 88 76 172 92 77
178 97 79 175 94 72 164 82 57 151 67 41 140 54 26
141 53 22 151 62 28 173 84 47 182 97 59 160 83 47
117 51 23 82 27 8 68 24 14 71 35 29 86 56 51
99 75 70 91 71 66 57 44 40 22 14 11 7 2 0
7 3 0 9 2 0 10 1 0 14 0 0 18 0 0
22 0 0 24 1 0 26 1 0 27 2 0 27 2 1
26 1 1 24 1 1 22 1 1 19 1 1 16 1 0
13 1 1 10 2 1 8 2 1 5 2 0 3 1 0
2 1 0 2 1 0 2 1 0 1 1 0 1 1 0
2 2 1 3 2 2 10 7 7 27 21 21 57 46 45
84 68 67 99 79 78 104 83 80 102 81 75 98 77 69
89 68 57 81 58 45 73 49 34 69 41 26 71 39 23
77 40 24 82 41 25 85 40 24 90 41 24 103 51 32
123 67 47 140 82 60 148 88 66 148 90 68 148 93 74
145 95 78 139 97 83 131 94 84 114 84 76 87 63 57
58 38 34 36 19 16 26 8 6 21 2 1 28 3 1
43 11 4 68 26 14 95 45 29 115 57 40 122 60 43
112 48 33 97 35 21 81 21 9 74 16 5 72 16 6
73 18 9 74 20 13 75 20 16 77 21 20 80 22 25
83 24 33 84 25 41 87 27 51 101 40 73 137 75 117
183 119 171 220 155 217 226 159 230 212 141 223 188 115 204
172 96 191 162 85 181 156 77 172 150 71 161 143 66 148
137 63 134 131 60 121 120 51 107 107 38 91 99 31 80
101 33 78 106 40 79 109 44 78 107 43 72 105 42 67
103 41 63 102 41 61 229 156 253 226 154 247 202 133 220
156 90 174 109 47 128 83 24 101 74 18 88 70 18 79
66 16 68 63 15 58 62 14 52 61 13 47 61 12 44
61 12 40 63 13 35 64 13 28 67 12 22 72 14 20
80 17 21 89 21 24 98 24 25 108 27 27 119 32 31
131 38 36 138 40 38 143 41 39 149 43 42 158 50 51
170 61 63 179 69 73 183 74 78 181 72 78 177 69 78
176 67 82 176 68 91 176 67 100 178 69 111 183 74 124
186 78 134 190 81 142 191 83 146 194 88 152 193 89 154
191 89 155 193 93 162 205 109 180 226 131 204 233 138 212
218 121 194 194 94 164 178 77 144 173 72 134 165 65 122
157 57 108 148 48 96 141 43 87 134 39 81 130 38 80
129 41 83 123 39 84 111 31 78 98 22 72 95 21 75
118 47 107 155 87 155 191 124 198 199 133 209 183 115 193
156 87 168 133 63 145 115 46 128 105 37 119 99 34 113
95 32 109 86 26 99 76 19 89 68 14 80 66 14 77
68 18 78 71 23 80 72 26 79 69 25 74 64 21 65
59 16 55 57 14 46 56 13 38 51 9 28 46 5 18
44 3 12 47 6 12 50 9 13 53 11 15 55 12 17
57 13 20 59 14 21 63 15 22 67 16 22 71 17 22
73 17 22 73 16 21 74 15 21 78 18 23 85 23 26
95 31 33 104 36 37 111 41 41 116 44 42 121 47 44
125 50 45 131 55 48 141 65 56 154 76 66 164 86 74
170 91 77 175 95 77 171 90 69 160 77 54 148 64 39
139 53 26 140 52 22 150 61 27 173 84 47 184 99 60
165 86 50 123 54 25 87 30 10 73 26 14 76 37 30
90 58 53 107 81 76 100 80 74 65 51 47 26 17 14
8 1 0 8 2 0 10 2 0 12 1 0 16 0 1
21 0 1 25 1 1 28 2 1 31 3 1 33 4 2
34 4 2 35 3 3 34 3 4 32 3 4 30 3 4
27 4 4 23 4 4 20 5 5 16 4 4 12 3 2
9 2 1 6 1 0 5 1 0 4 1 0 3 1 0
2 0 0 3 2 1 3 2 1 5 2 2 13 6 6
30 19 18 49 34 33 67 49 48 81 63 60 91 73 68
96 78 71 92 75 65 82 65 53 73 53 40 72 49 36
79 53 39 89 58 45 96 61 48 98 59 46 101 60 46
109 65 49 120 72 55 128 78 59 133 84 64 140 92 74
143 99 82 135 95 82 121 87 77 104 76 69 82 58 53
52 34 31 28 13 11 18 4 2 19 2 1 25 2 0
38 8 2 61 22 11 91 43 26 116 60 40 128 65 45
125 59 40 110 43 26 94 29 14 81 18 6 78 18 6
78 20 10 81 24 16 82 26 20 81 25 22 81 24 25
81 22 29 86 24 39 88 26 50 95 32 65 119 56 98
166 105 153 215 154 208 242 180 241 236 170 241 217 148 227
193 122 208 176 102 193 165 90 183 157 80 173 150 73 163
143 67 149 137 63 135 130 59 123 120 51 109 107 38 94
99 31 82 101 33 80 106 39 81 109 43 80 108 43 75
106 43 71 105 42 67 104 42 65 227 154 252 219 147 241
193 124 213 149 83 167 107 45 125 84 25 101 74 18 88
71 18 79 65 16 66 61 14 56 60 13 50 58 11 45
58 10 41 58 10 37 59 10 32 60 11 25 62 11 19
66 12 17 73 15 18 83 19 21 92 22 23 102 26 25
113 30 29 124 35 33 131 37 35 135 36 35 140 38 38
148 43 45 159 52 55 168 59 64 172 64 68 173 64 70
172 64 71 171 63 75 168 60 79 164 56 83 164 55 90
169 60 102 174 65 113 178 70 121 180 72 125 183 76 131
181 76 133 178 75 135 178 77 140 188 90 157 213 117 187
233 138 211 228 133 207 205 109 183 184 87 159 176 79 148
169 73 138 163 67 128 154 59 117 148 54 109 142 50 104
138 49 101 131 45 97 119 38 90 103 26 79 91 17 71
91 19 75 105 35 98 128 60 131 151 84 162 158 92 172
147 80 161 126 58 140 108 41 123 98 32 113 92 27 107
88 25 102 85 24 98 78 21 90 72 17 82 67 14 75
65 15 72 66 18 72 66 20 70 64 20 66 60 17 59
56 14 52 53 11 44 52 10 37 52 9 31 48 6 22
45 4 15 45 4 12 49 7 13 52 10 14 55 11 16
57 12 18 58 13 21 61 14 23 65 16 25 69 17 25
72 17 25 73 17 24 73 15 23 74 15 22 79 18 25
87 24 30 97 32 36 105 37 40 111 41 43 116 44 44
120 47 44 124 49 44 129 54 47 139 63 55 153 75 66
163 85 74 170 90 78 173 93 77 168 86 67 155 73 51
145 61 37 139 53 27 141 52 23 151 61 28 174 85 48
188 101 63 171 91 55 129 59 29 92 32 11 76 27 14
79 39 31 91 59 53 103 77 72 92 72 66 58 44 40
23 14 11 8 1 0 9 1 0 11 1 1 15 1 1
19 1 1 23 1 2 28 2 2 33 4 3 37 5 4
39 7 5 42 7 6 44 7 8 45 7 9 44 7 9
41 7 9 39 8 9 36 8 10 32 9 10 27 8 8
22 7 6 17 4 3 14 4 3 12 3 2 9 1 1
6 1 0 5 0 0 5 1 1 5 1 1 8 2 1
11 1 1 17 4 4 24 9 9 35 19 18 48 32 30
62 47 42 71 57 50 71 58 50 64 50 41 59 44 34
66 49 38 84 64 53 101 77 67 109 82 72 112 83 73
116 84 73 117 83 70 115 78 63 114 76 59 121 82 65
133 95 79 130 95 82 109 79 69 83 58 51 63 42 38
46 28 25 28 14 12 15 3 2 14 1 0 19 1 0
31 5 0 50 15 5 80 35 19 112 57 38 133 71 49
137 69 47 125 56 35 108 39 20 93 26 10 85 20 6
85 23 10 87 27 16 89 30 22 88 31 25 86 29 28
85 26 30 84 23 36 88 25 47 93 28 60 106 40 82
141 75 126 193 129 185 237 174 233 254 191 253 245 179 249
229 160 236 207 136 219 187 114 202 171 97 187 160 84 175
152 76 164 145 70 152 138 65 139 132 61 127 122 52 114
110 40 99 102 33 88 103 35 85 107 41 86 110 44 84
108 44 79 107 44 75 106 43 72 105 43 70 221 147 246
212 140 235 187 118 207 144 78 163 104 42 123 83 24 100
74 19 88 70 18 78 63 14 64 59 12 53 57 11 47
56 9 42 55 8 38 55 8 34 55 9 29 56 10 23
57 10 17 61 11 15 67 13 16 76 17 18 84 21 21
94 23 23 104 27 26 114 30 28 120 31 29 124 30 29
129 31 31 137 36 38 148 43 47 156 51 55 161 55 59
163 57 61 164 57 62 163 56 64 159 52 66 155 47 69
156 48 76 162 54 88 168 60 98 171 63 105 171 63 107
171 64 110 167 62 111 165 62 115 167 65 124 176 77 140
198 100 168 224 129 202 234 140 217 225 133 211 206 114 191
197 104 180 190 97 170 185 93 163 177 87 154 169 80 145
158 70 133 144 59 120 129 46 106 112 34 93 97 22 80
86 14 72 85 15 74 90 22 86 100 34 106 114 50 127
125 61 141 122 58 138 107 42 123 93 28 109 86 22 101
81 19 95 77 17 90 74 16 85 70 16 80 68 16 75
66 17 71 65 18 68 63 18 64 59 16 58 55 13 51
51 9 44 48 7 39 47 6 34 48 7 30 50 8 26
47 6 20 47 5 15 47 6 13 52 9 14 54 11 15
56 11 17 58 12 19 59 13 21 62 15 24 66 16 26
70 17 27 73 17 27 74 17 26 74 16 26 76 16 25
81 19 28 88 25 33 98 32 39 105 37 42 111 41 44
116 44 45 120 47 46 124 50 46 131 56 50 141 65 58
155 77 69 164 86 76 171 90 79 172 91 76 164 83 64
151 69 48 143 59 36 139 53 28 142 54 26 152 62 29
176 86 49 193 105 67 178 96 59 136 64 33 97 35 13
79 28 13 81 39 30 89 54 48 90 62 57 72 50 46
42 27 24 18 7 6 9 1 0 10 1 0 12 1 1
16 1 1 21 1 2 26 2 3 32 4 4 38 6 6
42 8 8 46 10 8 50 10 10 53 10 12 54 10 13
53 10 13 51 11 13 49 11 14 46 12 15 43 13 15
39 12 14 34 10 11 29 8 9 25 7 7 21 5 5
17 3 3 13 1 1 11 0 0 10 0 0 9 0 0
11 1 0 14 1 1 15 1 1 16 1 1 18 3 3
23 8 7 31 18 16 38 27 23 40 30 25 35 26 20
34 25 18 46 36 28 69 56 48 90 74 67 100 82 75
106 86 80 110 87 80 105 80 71 93 65 54 88 59 46
97 68 54 108 80 67 97 72 61 70 48 41 41 24 20
27 13 11 20 8 6 16 4 3 12 1 0 15 0 0
24 2 0 41 9 2 67 24 10 101 48 28 131 69 46
145 77 52 140 68 43 124 51 28 106 35 14 96 27 8
93 26 10 96 30 17 96 32 22 94 33 26 91 32 28
89 30 31 88 27 36 89 25 45 92 26 57 100 32 74
121 52 104 162 93 154 209 142 207 241 175 243 251 186 254
248 180 252 241 171 247 225 153 234 203 130 214 181 107 194
166 91 178 156 81 168 148 74 157 141 69 146 136 64 136
127 56 123 114 44 108 106 38 97 107 39 94 111 44 94
113 47 91 111 46 85 109 46 80 107 45 77 106 45 75
213 138 238 211 138 234 190 121 210 148 82 166 105 43 123
82 23 99 74 19 88 68 17 76 61 13 62 56 9 50
54 9 44 52 7 39 52 7 35 52 7 31 53 8 26
53 9 21 54 10 16 56 10 13 61 12 13 68 15 15
75 17 17 83 19 18 92 21 20 101 24 22 107 25 22
112 24 23 118 26 26 127 31 33 137 37 40 145 43 48
149 47 51 151 49 52 152 48 52 150 46 52 147 42 52
146 40 57 151 45 68 160 54 81 165 59 90 167 61 94
165 59 94 162 57 95 155 51 93 152 50 96 154 53 106
162 63 122 178 81 146 204 109 181 222 130 209 227 138 220
218 128 211 215 126 207 210 121 201 202 114 193 191 104 181
179 93 168 162 78 149 138 56 125 116 38 104 100 25 89
88 16 77 80 10 70 78 11 70 79 15 78 82 20 89
93 32 106 105 44 120 107 46 122 95 34 111 82 21 97
75 15 89 72 14 85 69 13 80 66 13 75 64 13 71
64 15 68 64 17 65 62 17 60 58 15 54 53 11 46
48 8 39 45 5 33 44 4 29 45 5 27 48 8 26
51 9 24 50 8 20 50 8 17 51 8 15 54 10 16
56 11 17 58 11 18 59 12 20 61 13 22 64 15 26
68 17 28 71 17 30 74 18 31 76 19 31 77 18 31
79 18 30 84 21 33 91 27 38 99 32 42 105 37 44
111 41 46 116 45 48 121 48 49 126 52 50 135 59 55
145 69 64 157 80 73 166 87 79 170 90 80 170 90 76
160 79 62 146 65 45 139 57 34 138 53 29 142 55 27
152 62 30 178 87 50 196 108 69 184 100 63 143 68 37
103 38 14 83 29 13 82 37 27 85 49 42 80 51 45
62 39 34 37 20 17 19 7 4 12 2 1 12 2 0
14 1 1 18 1 2 23 2 3 29 3 4 36 5 6
43 8 8 48 10 11 53 12 12 57 13 13 59 12 14
60 12 15 59 12 15 58 13 16 56 13 16 54 14 17
52 15 18 49 15 17 46 14 16 42 13 15 39 11 13
33 8 10 28 4 6 23 1 3 20 0 1 17 0 0
16 0 0 16 1 1 18 2 1 19 2 1 18 1 1
16 0 0 15 1 0 14 2 1 14 4 2 13 6 3
11 5 3 12 7 4 23 18 13 40 34 29 58 50 46
67 57 54 73 61 59 74 59 57 67 50 46 54 36 29
51 32 23 60 39 30 66 46 38 54 36 30 32 19 15
16 5 3 11 1 1 11 1 2 12 1 2 13 1 1
18 1 1 31 4 1 54 15 5 87 36 18 123 61 38
148 78 53 153 77 51 141 63 36 124 46 21 108 34 11
102 30 11 102 33 16 105 37 24 103 36 27 98 33 28
93 31 30 91 30 35 90 28 43 93 27 55 100 30 71
115 43 95 143 71 133 183 110 180 218 146 221 235 164 242
239 169 246 239 168 247 242 171 249 236 164 244 218 145 227
193 120 204 174 100 185 162 88 173 153 80 163 146 73 154
141 69 146 133 61 135 121 50 120 113 43 109 113 45 105
117 50 104 118 52 100 115 50 93 113 49 87 111 48 83
109 48 81 206 130 231 214 141 236 201 131 219 158 92 175
109 47 127 82 24 99 74 20 88 67 16 74 59 12 60
53 7 46 51 7 40 50 6 36 50 6 33 50 6 30
51 8 25 52 10 20 51 10 15 52 9 12 55 10 11
60 12 12 66 13 12 72 14 12 79 15 13 88 17 15
95 19 17 102 21 20 109 24 23 118 28 30 127 34 36
134 38 42 138 41 45 139 41 44 139 40 42 137 37 40
135 35 42 138 36 49 147 44 63 157 54 77 162 58 84
162 58 86 159 56 85 155 52 85 146 45 81 140 40 81
140 41 89 147 49 104 158 62 124 181 88 159 200 110 190
211 123 209 210 122 210 220 132 220 223 136 222 210 124 210
188 103 187 168 86 167 149 68 146 121 43 117 99 24 94
86 14 80 77 9 71 72 6 65 71 7 65 72 11 71
71 12 76 79 21 88 88 30 99 91 33 102 83 26 94
72 15 84 67 12 78 67 12 76 65 13 72 64 14 69
61 14 64 60 14 60 58 14 55 55 12 49 50 9 41
46 6 35 44 4 30 43 3 26 42 3 23 45 5 24
49 9 25 53 11 24 53 11 21 53 10 19 54 10 18
56 11 19 58 12 19 59 11 20 60 12 21 62 13 23
65 15 27 69 17 31 73 18 34 77 19 36 80 21 38
81 21 38 83 22 37 88 24 39 94 29 42 101 33 45
106 38 48 113 42 49 118 47 52 123 50 52 129 55 54
138 63 60 149 73 69 160 82 77 166 88 80 169 89 79
167 88 75 155 75 59 140 61 42 135 54 33 136 52 28
141 54 27 151 61 29 177 86 50 198 109 70 188 104 66
149 72 39 108 41 16 88 31 14 84 37 26 88 50 43
90 59 54 80 56 51 56 37 33 30 15 13 16 4 2
14 2 1 16 2 2 20 2 3 25 2 4 32 3 5
40 6 8 47 9 10 53 12 13 58 14 14 62 15 16
64 14 17 64 14 17 64 14 18 63 15 18 62 15 18
60 16 19 59 16 20 58 17 20 56 17 21 54 17 20
51 15 19 45 11 15 38 5 10 33 2 5 30 0 3
27 1 2 26 2 3 25 4 4 25 4 3 24 3 3
23 3 3 22 3 3 18 2 2 14 1 1 10 1 0
7 1 0 4 1 0 4 2 1 7 5 4 13 12 9
21 19 16 27 23 23 31 25 27 32 23 25 28 17 17
23 11 8 23 9 5 26 13 8 27 15 11 22 11 8
14 6 4 9 2 1 9 2 3 11 1 3 13 1 3
18 2 3 27 4 3 44 11 4 72 24 10 109 49 27
143 73 47 161 83 55 157 74 46 141 58 30 126 44 18
114 36 13 111 36 16 111 38 22 111 40 28 107 37 30
100 33 31 95 31 33 93 30 39 92 28 50 96 28 65
110 37 89 136 61 123 170 95 166 202 126 205 221 145 230
225 150 237 223 148 236 223 149 235 233 160 243 239 166 247
229 156 237 206 133 215 183 110 193 168 95 178 159 85 169
152 78 161 147 74 155 139 67 145 127 56 130 120 49 119
120 50 115 123 54 114 123 56 109 121 54 103 118 53 97
116 52 92 115 51 89 203 127 228 220 147 239 214 145 230
170 104 185 115 53 133 82 24 99 73 19 87 65 15 73
57 10 57 50 5 43 47 4 36 46 3 32 46 4 30
48 5 27 49 8 23 49 9 18 48 9 13 48 8 10
50 8 9 54 9 9 59 10 9 63 10 8 68 11 8
76 13 11 84 16 13 92 19 18 99 22 21 108 27 27
116 31 33 122 34 38 125 36 39 126 35 37 127 35 35
126 33 34 127 32 37 131 35 45 140 43 59 150 52 72
155 56 79 154 55 79 151 52 78 145 47 76 137 40 72
130 34 71 128 32 76 132 37 88 140 46 105 159 67 137
175 85 166 183 95 183 182 95 187 199 112 204 214 128 219
204 120 210 175 92 180 147 66 152 129 51 133 108 34 111
89 18 90 78 9 76 71 6 68 67 5 62 65 5 60
66 8 63 64 8 65 67 13 71 70 17 76 72 19 78
68 16 75 64 12 70 62 12 69 63 14 68 61 14 65
59 14 61 57 13 56 54 11 50 50 9 43 46 6 37
42 3 30 41 3 26 41 3 23 42 2 21 42 3 20
46 6 22 51 10 24 54 12 24 55 12 23 56 12 22
57 12 22 58 12 21 59 11 21 59 10 21 60 10 22
63 12 25 67 15 29 71 17 34 76 19 38 82 23 43
86 27 47 88 27 47 89 27 46 92 28 46 96 31 47
101 33 48 106 37 50 113 42 52 119 47 54 124 50 55
129 55 57 139 64 63 150 74 71 159 82 78 164 86 80
166 87 79 164 85 73 150 72 57 135 57 38 131 51 30
133 51 28 139 54 27 149 60 28 175 85 48 199 109 69
192 106 67 155 76 42 115 46 19 96 35 17 92 42 30
98 58 50 110 78 72 116 90 85 92 70 66 54 37 33
22 8 6 16 3 2 18 3 3 21 3 3 26 2 4
33 4 6 41 6 8 50 10 11 57 13 15 63 16 17
66 17 18 68 17 19 68 17 20 68 17 20 68 17 20
67 17 20 66 18 21 65 18 21 65 18 22 65 19 23
64 19 24 62 18 23 57 14 20 52 10 16 47 6 11
42 3 6 38 2 4 35 4 4 34 6 6 33 6 5
31 5 4 29 4 4 28 5 6 26 6 6 21 4 5
15 2 3 9 1 1 5 1 1 3 1 1 2 2 2
1 2 2 2 3 3 4 4 6 6 4 8 7 2 7
7 1 4 8 1 1 9 1 0 10 2 0 10 3 1
9 2 1 9 3 3 7 2 2 8 1 3 11 0 2
16 1 2 25 4 4 37 8 5 60 19 9 95 39 20
134 65 39 159 81 52 168 82 53 161 72 42 147 58 30
134 49 23 124 44 20 121 44 24 117 42 26 113 40 29
107 34 30 101 32 33 97 30 38 95 31 46 94 28 57
102 31 78 128 53 114 166 89 160 199 121 200 216 138 223
220 141 231 216 137 231 209 132 225 209 133 224 221 145 234
235 161 245 237 163 244 223 150 230 202 129 210 183 110 192
172 98 181 165 91 175 160 86 169 150 76 158 137 64 143
129 56 131 129 57 127 132 63 126 133 64 123 129 61 116
124 57 107 120 54 101 118 52 96 204 128 228 225 152 242
222 152 236 177 111 189 119 56 136 83 24 99 73 19 86
64 15 72 55 10 56 47 4 42 44 3 33 42 2 29
43 3 27 45 5 25 47 7 21 47 8 16 46 8 12
45 7 8 47 8 8 50 8 8 53 9 8 57 9 7
60 9 6 67 11 9 74 14 11 82 18 16 89 21 19
97 25 25 105 29 29 110 31 34 113 32 35 116 32 34
117 33 33 118 32 33 120 32 37 125 35 45 134 42 57
142 49 68 147 53 74 145 52 75 141 48 72 134 41 67
126 35 64 120 29 63 118 27 68 122 31 79 128 37 94
147 57 125 161 72 153 167 79 169 161 74 167 173 87 181
198 112 206 201 116 209 174 92 183 139 60 148 118 42 125
103 30 108 87 18 91 77 12 78 71 9 70 66 8 63
62 6 58 61 7 56 58 6 54 57 7 55 56 7 55
57 8 56 55 8 56 55 8 56 55 10 57 56 12 58
55 13 55 53 12 52 51 10 47 47 8 41 43 6 34
40 3 29 37 1 24 38 2 21 39 2 19 41 2 18
42 2 18 46 6 20 51 10 23 54 12 25 56 13 25
57 12 24 59 13 25 60 12 24 60 12 24 60 10 23
62 11 25 66 14 29 70 16 33 74 18 38 79 21 44
87 27 51 93 32 57 95 32 57 94 31 54 95 30 52
98 32 52 102 33 51 106 36 51 113 41 54 118 46 55
123 49 56 129 55 58 138 63 65 148 72 72 156 79 77
160 83 78 162 84 77 159 82 71 145 68 54 129 53 36
127 49 29 131 51 28 138 54 27 147 60 28 173 84 46
198 108 68 194 108 68 161 80 45 122 50 22 102 39 19
99 46 34 108 66 58 128 94 89 147 119 115 124 100 96
76 56 53 28 12 11 17 2 2 18 3 2 21 2 3
26 2 3 33 4 5 42 6 8 51 10 12 60 14 16
67 17 19 70 19 21 72 19 22 72 19 22 72 19 22
72 19 22 72 19 22 72 19 23 72 19 24 71 19 24
71 20 25 71 20 25 69 19 25 67 17 24 63 14 21
58 10 17 52 5 10 47 3 7 44 5 6 43 7 7
40 6 6 38 5 5 36 6 7 36 8 9 35 9 11
30 8 10 23 5 7 16 2 4 10 1 2 6 1 2
3 2 2 1 2 3 0 2 3 1 2 5 2 1 7
3 2 8 5 2 5 7 2 3 9 3 2 10 4 2
10 5 3 9 4 3 9 4 4 7 2 3 8 1 3
13 1 2 21 2 2 33 6 5 49 13 7 80 31 18
119 56 34 156 80 50 171 86 54 172 81 49 164 70 40
152 60 32 142 54 28 134 51 28 130 52 32 121 45 31
114 39 31 106 32 31 102 30 36 98 29 42 96 30 52
96 27 65 112 40 94 149 73 142 194 115 193 220 140 224
224 144 233 218 137 232 210 129 226 202 122 220 201 122 219
211 133 226 228 152 240 239 164 247 236 162 243 223 150 230
209 136 217 202 128 210 196 121 205 191 116 201 181 106 190
166 92 172 154 80 157 149 77 149 148 77 145 143 73 137
136 67 127 129 60 117 124 56 109 120 52 103 207 131 231
227 153 243 225 154 237 179 112 190 120 57 136 83 25 99
73 20 86 64 16 73 54 9 55 45 4 40 40 1 31
38 0 26 39 2 24 42 4 21 44 7 18 44 7 13
43 7 10 43 7 7 44 8 7 46 8 8 49 9 8
52 9 7 54 9 6 59 11 8 64 12 9 71 15 13
78 18 16 85 22 21 92 25 25 98 27 28 101 28 30
105 30 31 108 31 31 110 31 33 112 32 37 117 34 45
124 39 54 130 43 63 134 47 68 135 48 70 131 45 67
125 39 62 117 32 58 113 27 58 111 25 64 113 27 72
118 31 84 136 49 114 151 63 143 158 70 159 149 62 156
154 68 162 183 97 191 201 117 210 186 104 195 146 66 155
113 37 122 97 25 104 86 18 91 78 15 81 72 13 72
66 10 64 61 7 56 57 6 50 53 5 46 50 4 42
47 3 40 45 2 39 44 2 40 45 4 42 45 5 44
46 6 44 45 7 43 44 6 39 42 5 36 40 4 31
38 3 27 36 2 23 35 1 19 36 1 18 38 1 17
40 1 16 42 2 16 46 4 19 50 9 23 55 12 27
58 14 29 59 13 29 60 13 29 60 11 28 61 11 28
62 10 28 64 11 30 68 14 34 72 16 37 76 19 42
83 23 50 93 32 60 101 39 67 101 37 65 97 33 60
97 31 57 99 32 55 101 32 53 105 35 52 111 39 54
116 44 55 121 47 56 127 52 58 136 61 64 144 69 70
150 75 74 154 79 75 155 80 73 152 77 67 137 63 49
123 49 33 122 47 28 129 51 29 136 55 28 144 60 27
169 82 43 196 108 66 197 111 69 168 87 50 130 56 27
108 43 21 104 49 35 111 67 59 130 95 90 155 125 121
134 109 105 86 65 63 32 15 14 16 1 1 17 2 1
20 1 1 25 2 3 33 3 4 42 6 8 52 10 12
62 15 17 70 19 21 74 20 22 75 21 23 75 20 22
75 20 22 76 20 23 76 21 23 77 21 24 77 21 25
77 20 25 77 20 26 77 21 27 77 21 27 76 21 28
74 20 27 70 16 23 61 9 15 54 4 8 49 4 5
48 5 6 46 6 6 45 7 7 45 8 9 45 10 13
45 13 16 42 13 16 37 11 15 29 7 11 20 4 6
11 1 2 5 0 1 2 1 2 1 2 4 0 1 5
0 1 7 2 1 8 4 2 6 10 6 7 17 12 10
21 15 12 17 12 9 11 7 4 8 4 3 8 2 3
10 1 2 16 1 1 26 3 1 41 9 4 62 20 10
103 47 30 146 76 50 177 94 62 181 90 56 176 81 48
169 72 41 159 64 36 149 59 34 143 59 37 137 58 41
125 48 36 115 38 33 106 30 33 102 29 41 97 27 47
97 28 59 99 28 74 127 53 115 173 95 171 217 138 220
232 151 239 225 144 236 214 131 229 204 121 222 198 116 217
197 115 216 203 123 220 218 140 232 233 156 243 237 162 245
232 157 239 224 150 232 222 147 231 221 145 231 222 145 231
217 140 223 206 130 211 192 118 196 179 105 181 166 93 165
152 80 148 141 70 135 133 62 124 127 57 116 122 52 110
208 132 232 226 152 243 221 149 234 175 107 187 117 55 133
83 26 99 74 21 87 64 17 72 53 10 54 43 3 38
39 1 29 37 0 24 37 1 22 40 4 19 41 6 16
41 6 11 40 6 8 40 6 6 41 7 6 42 8 6
44 9 7 46 9 7 49 9 6 52 10 7 57 12 8
63 14 11 68 16 13 75 19 17 81 22 20 87 24 24
90 25 25 94 27 28 98 28 29 101 29 33 104 30 37
108 32 44 114 35 51 119 38 58 122 41 61 123 42 63
120 40 61 115 36 57 109 30 54 105 25 54 103 24 58
106 25 66 110 28 78 124 41 103 136 51 127 142 57 143
138 52 143 141 55 147 169 84 177 199 115 207 195 112 204
156 76 165 113 36 122 93 21 101 86 18 92 80 17 83
74 16 75 66 12 65 59 8 56 54 5 47 49 5 39
45 4 34 42 2 31 39 0 30 37 0 30 37 1 32
37 2 34 37 2 34 37 3 32 36 2 30 35 2 28
35 2 25 34 1 22 33 1 19 33 1 16 35 1 15
37 1 15 39 1 15 41 1 16 44 3 18 49 7 23
55 11 29 59 14 33 61 14 34 61 12 34 60 10 32
62 10 34 65 11 35 67 13 37 71 15 40 74 16 43
80 20 48 88 26 57 98 35 67 104 41 72 102 38 69
98 33 63 97 30 59 98 31 57 101 31 55 104 34 54
109 38 55 114 42 56 118 45 56 124 50 57 132 57 62
140 65 68 146 71 71 148 74 71 147 73 67 142 69 60
128 55 43 116 44 28 117 45 26 126 51 29 133 55 27
140 58 25 164 78 40 193 106 64 200 114 72 175 94 55
138 63 32 113 46 23 106 50 34 112 67 57 130 92 87
147 116 112 126 98 95 80 58 55 31 13 12 15 0 0
15 0 0 18 1 0 24 1 1 31 3 3 41 6 7
52 10 11 63 15 17 72 20 22 76 21 23 77 21 22
77 20 21 78 20 22 80 21 23 81 22 24 83 22 26
83 23 27 84 23 28 84 24 29 84 24 31 84 25 31
83 25 32 82 24 31 77 19 27 69 12 19 60 6 11
54 3 6 53 5 7 54 8 10 56 11 13 57 13 16
56 14 18 56 15 19 55 17 22 53 18 24 47 16 21
35 10 14 22 4 6 12 1 2 6 1 1 3 1 3
1 1 4 1 0 6 2 1 6 5 2 5 18 13 13
36 29 26 42 35 30 32 25 20 17 11 7 11 4 2
11 3 2 14 1 1 22 2 0 33 4 0 52 13 4
81 32 18 128 66 44 168 93 63 190 102 69 188 93 59
183 85 53 175 77 47 164 68 41 154 63 40 149 64 44
142 61 46 128 50 41 115 38 37 107 31 39 103 29 47
98 26 53 97 26 65 106 34 87 145 69 137 193 115 194
230 151 235 237 156 245 226 144 238 214 130 229 201 117 220
195 111 215 193 109 213 197 114 216 211 130 228 224 144 237
225 147 236 219 142 228 214 138 223 217 140 226 221 143 231
228 149 237 230 152 238 230 152 236 224 147 229 208 132 211
182 107 183 157 83 155 142 69 137 135 62 128 130 59 123
126 55 118 206 129 230 222 147 241 215 143 230 169 102 183
114 52 130 83 25 98 73 21 87 63 16 71 52 9 52
41 2 36 37 1 28 35 0 23 35 1 20 37 3 17
38 5 13 38 5 8 37 4 6 36 4 4 37 5 4
38 6 5 39 8 6 41 8 6 43 9 6 46 10 7
50 11 8 55 13 10 60 15 11 66 16 14 72 19 17
77 20 20 80 22 22 84 23 24 87 25 26 91 27 31
95 28 36 100 30 43 105 32 49 109 34 53 110 35 55
110 36 56 108 35 54 105 32 50 100 27 47 96 23 47
95 21 51 98 22 59 102 25 70 110 31 89 119 38 109
126 43 124 128 44 131 131 47 135 157 73 164 195 111 202
199 116 207 164 84 173 116 39 126 96 23 105 91 23 98
86 23 91 79 21 82 69 15 70 59 9 57 51 5 46
46 5 37 42 3 31 38 2 27 35 0 26 33 0 26
32 0 27 32 1 28 32 1 29 32 1 27 31 1 25
31 1 23 31 1 21 31 1 19 31 1 17 32 1 14
33 1 13 36 1 13 39 0 14 40 0 15 43 1 18
47 5 24 55 11 32 62 16 39 64 16 41 64 14 41
63 11 40 65 11 41 69 13 44 72 15 47 76 17 50
80 20 53 86 24 58 93 30 65 100 36 71 103 38 74
101 36 70 97 31 65 96 28 60 97 29 57 99 30 56
103 32 54 108 36 55 112 40 55 116 43 56 121 47 56
128 54 59 136 61 64 141 67 67 143 69 67 139 67 61
133 61 52 118 48 36 108 39 24 112 43 24 123 51 29
129 54 27 136 56 23 159 74 35 190 104 61 203 117 74
184 102 62 148 73 39 118 51 26 108 50 34 112 65 55
123 84 79 128 95 91 103 74 71 64 41 38 26 8 7
16 1 0 15 0 0 17 0 0 22 1 1 29 2 2
39 5 5 51 10 10 63 15 17 73 20 22 77 21 23
79 21 21 79 20 20 81 20 22 84 22 24 86 23 26
88 25 28 90 26 30 92 28 33 94 30 35 95 32 37
94 32 38 93 31 38 91 31 38 86 27 34 78 19 26
67 10 16 61 6 10 60 6 9 63 11 14 67 16 19
69 19 23 69 19 23 68 19 24 70 21 27 71 25 32
68 25 32 56 19 25 38 9 14 22 2 5 12 0 1
7 0 1 4 1 3 4 1 5 4 1 5 8 3 5
31 23 21 60 49 45 68 56 50 49 38 32 25 14 9
16 4 1 16 3 1 21 3 0 31 4 0 43 7 0
66 19 7 103 47 28 153 84 56 186 104 72 197 105 70
194 97 62 191 92 60 185 86 57 173 76 51 163 71 50
156 70 54 144 62 51 128 49 44 114 37 40 107 31 44
103 29 53 100 26 62 101 28 75 119 46 106 165 89 161
211 133 214 239 160 245 240 159 248 228 145 240 215 130 230
199 114 218 193 107 214 190 104 211 194 108 214 206 122 224
215 132 229 209 129 222 197 117 208 187 109 198 190 111 201
195 115 206 204 122 213 211 130 218 221 140 227 229 150 234
224 145 227 198 120 199 166 89 164 145 69 141 138 62 133
134 60 128 130 57 124 201 124 225 217 141 237 209 137 225
165 97 179 112 49 127 81 24 97 72 20 85 61 15 69
49 8 50 39 2 34 35 1 26 34 0 21 34 1 18
34 2 15 35 3 10 34 3 6 33 2 3 33 2 2
33 3 3 34 5 4 35 6 4 36 7 5 37 8 5
41 9 7 45 11 8 50 13 11 54 14 11 59 14 12
64 16 14 69 17 16 72 19 18 75 20 20 78 22 23
82 24 28 87 27 35 93 29 42 97 31 46 100 31 49
101 32 50 100 31 48 98 30 45 94 27 41 90 23 39
88 20 40 88 19 45 91 21 53 95 23 63 100 25 77
106 28 94 112 32 108 117 36 117 119 37 121 143 60 148
186 103 193 201 118 209 176 95 185 128 50 139 106 32 117
100 32 110 95 32 102 87 29 92 75 21 78 62 12 62
52 6 48 45 5 38 41 4 31 37 2 27 34 0 26
31 0 25 31 0 27 31 1 27 31 2 28 30 2 27
30 2 25 30 2 23 30 2 20 31 2 18 31 2 15
31 2 13 33 1 12 36 1 12 39 0 13 40 0 15
42 1 18 47 5 25 57 12 35 65 18 44 69 19 49
69 18 50 69 15 50 69 13 50 73 15 53 78 19 58
85 25 65 90 29 69 93 30 70 95 32 71 97 32 71
98 32 71 97 30 68 95 28 64 95 27 61 95 26 57
98 28 56 102 31 55 107 35 56 111 39 56 114 42 55
118 45 55 124 50 57 132 57 62 137 63 65 139 66 65
134 62 58 125 55 47 111 42 31 103 35 20 108 41 22
119 49 27 125 52 25 131 53 20 153 70 30 186 101 57
205 120 75 192 111 70 158 82 47 125 57 30 110 51 33
109 61 50 110 70 65 101 66 63 73 44 42 43 21 18
21 4 3 16 1 0 14 0 0 16 0 0 20 0 0
27 1 1 36 4 4 48 8 8 61 14 15 71 20 20
77 21 22 80 21 21 82 20 21 85 22 23 88 24 26
92 26 29 95 28 32 97 30 35 101 34 39 104 38 43
107 41 46 106 41 47 105 40 48 103 40 47 98 36 43
89 28 35 78 18 24 70 11 16 68 10 14 73 15 19
78 21 26 81 24 29 81 24 30 81 24 30 84 27 34
88 31 39 87 34 42 77 30 37 59 20 25 37 8 11
21 2 3 12 0 0 9 1 2 8 1 4 10 3 6
20 9 10 51 37 34 84 68 62 90 73 65 65 47 40
33 16 10 22 5 1 24 4 0 32 6 0 43 8 0
58 13 1 86 31 13 129 64 39 172 96 65 195 109 74
199 104 69 198 100 66 199 99 68 194 95 67 182 86 63
172 80 62 162 74 61 145 61 54 127 47 46 113 36 44
107 31 50 104 29 59 106 31 74 114 39 94 142 67 132
184 108 183 223 146 227 241 162 247 240 160 248 229 146 240
214 129 230 197 110 217 190 103 213 187 99 210 189 102 211
198 112 217 204 119 219 196 113 209 181 99 193 169 88 181
169 87 181 171 88 182 176 93 187 181 99 191 192 110 200
211 129 217 223 142 226 213 133 215 184 105 183 157 78 154
143 64 138 136 59 131 132 56 127 195 118 218 211 135 231
205 133 222 163 95 178 111 48 126 80 23 96 70 18 83
59 13 67 47 6 48 38 1 32 34 0 25 32 0 19
32 0 16 32 1 12 32 1 8 31 1 3 30 1 1
29 1 1 29 2 1 30 3 2 31 4 3 32 5 3
33 6 4 37 9 6 41 12 8 46 13 11 49 13 10
53 12 10 57 13 11 62 14 13 66 15 15 68 17 17
71 19 21 75 22 27 81 26 34 87 28 40 90 29 43
92 28 44 93 28 43 90 26 39 88 24 36 84 21 32
82 20 31 81 18 33 82 18 39 86 20 48 90 22 58
94 23 70 97 23 83 100 25 94 103 26 101 105 26 106
127 47 132 174 91 181 201 119 211 191 110 202 152 74 165
126 51 139 114 44 126 104 39 114 93 34 101 80 26 86
66 16 69 54 9 53 46 7 41 41 5 33 37 3 29
33 1 28 31 0 27 29 0 28 29 2 28 30 3 29
30 4 28 30 4 27 30 4 24 30 3 21 30 3 18
31 3 16 31 3 13 33 2 12 36 2 11 39 1 12
40 1 14 43 1 18 48 5 26 58 12 37 68 20 50
76 25 59 78 25 62 77 22 62 75 17 60 78 19 63
87 26 72 97 34 81 100 38 84 97 33 79 94 30 73
93 27 69 92 25 67 91 24 65 92 24 63 93 25 61
93 25 58 98 27 57 102 30 57 108 35 58 111 38 56
114 41 56 117 44 54 122 48 55 129 55 60 135 62 64
137 65 65 131 61 57 121 53 45 107 40 29 99 34 19
105 39 21 115 47 25 121 50 23 127 50 17 148 66 26
182 98 53 206 122 76 199 119 75 166 91 54 131 62 34
111 51 33 105 55 44 98 56 51 83 47 44 60 30 28
38 14 12 23 5 4 16 2 0 15 1 0 16 1 0
19 0 0 25 1 0 33 2 2 45 6 6 57 12 13
68 18 18 77 21 21 82 22 22 86 23 23 90 25 26
94 28 30 98 31 33 102 34 37 106 37 41 110 41 46
115 45 50 118 49 55 118 49 56 117 50 57 116 49 57
111 46 54 103 39 46 91 29 35 83 21 26 80 18 23
83 21 26 88 26 32 91 29 35 93 29 37 95 30 38
99 33 42 103 37 47 103 41 50 98 41 49 81 33 39
57 19 22 34 7 8 20 1 1 15 0 1 14 1 4
19 5 8 37 20 20 73 53 49 105 82 75 105 81 72
77 52 43 44 19 13 32 6 2 33 5 0 42 8 0
56 13 1 77 24 7 112 49 25 156 83 53 187 105 70
199 109 72 200 103 67 201 102 68 201 102 71 194 96 70
184 89 67 174 82 67 161 73 63 142 58 54 124 44 48
113 35 47 108 32 55 107 32 67 118 44 92 138 63 123
171 97 166 203 128 204 228 152 233 237 160 243 237 157 244
227 145 238 212 127 228 195 108 215 188 100 211 185 96 209
184 96 206 188 100 207 190 104 206 185 100 199 173 89 187
164 81 177 162 78 174 161 77 172 163 78 171 164 79 171
169 85 175 185 102 189 207 125 210 219 138 220 206 125 205
180 99 178 154 74 151 141 62 137 135 56 131 189 112 211
207 132 226 204 132 220 164 96 179 112 49 127 81 23 97
70 17 83 58 12 67 45 4 47 37 0 32 34 0 24
31 0 18 31 0 14 31 0 10 30 0 5 28 0 2
27 0 0 26 0 0 26 1 0 27 2 1 27 3 2
28 5 2 30 5 3 34 9 6 38 11 8 43 13 10
45 11 9 48 10 9 52 10 9 56 11 10 60 12 12
62 14 14 65 17 19 70 21 26 77 25 33 82 28 38
84 27 40 85 25 39 84 24 37 81 20 32 79 19 28
77 17 25 76 17 26 76 16 29 78 17 35 83 21 45
87 22 54 89 23 64 90 21 73 90 19 81 90 17 86
93 17 93 113 35 117 158 77 165 193 112 204 204 123 217
182 103 196 156 80 171 132 61 146 112 45 124 96 35 107
83 26 91 70 18 76 59 12 62 50 10 49 44 7 40
39 5 35 35 2 33 32 0 31 30 0 31 29 1 31
29 2 30 29 3 30 30 3 28 31 3 26 31 3 23
32 4 20 32 4 18 33 4 16 36 3 14 38 2 13
40 1 13 41 1 15 44 2 21 50 5 30 59 12 42
71 21 56 85 32 72 89 34 78 88 30 77 81 22 71
86 24 76 98 35 88 106 42 95 104 40 93 96 31 81
91 25 72 88 22 66 87 21 64 88 20 63 89 21 62
92 23 61 93 24 59 98 28 59 103 31 59 108 35 59
111 38 58 114 41 56 116 43 55 120 47 55 127 53 59
133 61 65 136 66 67 130 62 59 119 53 46 105 40 29
97 34 19 103 39 21 112 45 24 118 48 21 123 48 15
144 64 24 178 95 50 206 122 76 204 123 79 173 97 59
136 67 37 112 51 31 103 51 39 96 52 46 92 54 51
85 53 51 68 42 41 45 25 24 24 7 6 16 1 1
16 1 0 18 0 0 23 0 0 30 1 1 41 5 4
53 10 10 65 16 15 76 20 21 84 24 24 91 27 28
95 30 31 100 33 35 106 37 40 111 40 44 115 43 47
119 46 52 123 50 56 127 53 61 128 55 63 128 57 65
128 58 66 125 55 63 117 49 57 106 39 47 97 31 38
92 26 32 93 27 33 97 31 38 101 34 41 103 35 43
108 37 46 112 40 50 115 43 53 116 46 56 114 50 58
102 46 52 78 32 35 51 15 16 31 3 3 22 0 1
21 2 4 29 9 10 54 30 30 93 66 62 121 91 85
115 83 75 85 52 43 54 22 14 42 9 4 42 6 0
51 9 0 68 17 2 98 38 15 140 70 41 179 100 65
197 110 73 201 107 69 201 103 67 201 102 69 195 97 67
185 88 63 175 81 62 167 75 62 153 65 59 135 50 52
121 40 49 112 34 51 108 32 60 111 36 77 135 61 113
169 95 158 202 129 199 220 147 222 230 155 234 232 157 238
233 154 241 226 144 238 212 127 229 197 110 218 189 101 213
186 97 209 181 92 202 178 90 196 177 90 192 174 89 187
167 83 180 160 75 172 157 73 168 156 71 164 155 70 161
154 70 159 155 71 159 163 80 166 183 100 184 209 127 209
219 137 218 204 123 203 174 92 172 151 70 149 140 59 138
187 110 205 207 132 223 211 138 226 176 106 191 123 58 139
86 26 104 71 17 86 59 11 69 46 3 49 38 0 34
34 0 24 31 0 18 30 1 13 29 1 8 28 1 4
26 1 1 24 0 0 23 0 0 22 0 0 23 1 0
25 2 1 26 3 1 28 4 2 32 7 5 36 9 7
39 10 8 41 9 7 44 8 7 48 8 7 52 9 9
57 12 12 61 16 17 66 21 23 72 26 30 77 30 36
80 30 38 80 27 37 79 23 35 78 21 32 75 18 28
74 17 25 72 15 23 71 15 23 71 15 26 74 16 31
77 19 39 80 20 46 80 19 52 79 15 57 79 13 64
80 11 71 86 13 82 107 32 109 145 68 153 176 97 188
190 111 206 187 108 203 179 103 196 159 86 175 132 63 148
109 44 122 92 31 104 78 22 88 67 17 74 58 14 61
51 11 52 44 6 45 39 3 42 37 1 40 34 1 38
34 1 37 33 2 36 35 3 36 37 5 36 37 5 34
37 4 30 37 4 27 38 4 26 40 5 25 42 4 22
43 3 20 45 2 20 47 2 24 51 3 31 56 6 39
65 13 53 80 26 71 97 40 90 101 41 96 97 34 93
94 30 90 103 38 100 113 47 109 114 46 108 106 38 99
97 29 86 93 26 78 91 24 72 90 23 68 90 22 67
91 23 66 94 25 65 97 29 65 102 33 65 106 35 65
108 37 62 110 38 59 112 40 57 115 42 56 119 47 57
126 53 61 132 61 67 134 66 69 129 63 62 119 54 48
105 42 32 96 34 20 99 36 19 109 42 23 117 46 22
123 48 18 141 61 24 173 91 47 203 120 74 208 127 82
183 105 65 146 73 41 118 51 29 106 48 35 105 54 48
115 70 66 127 89 86 126 94 92 95 70 68 53 33 31
23 6 6 17 1 0 18 0 0 21 0 0 27 0 0
36 3 2 47 8 7 60 13 12 72 20 19 83 25 24
92 30 30 99 33 34 106 38 40 113 42 46 119 45 50
123 47 53 126 49 56 130 52 59 133 55 63 135 58 66
138 61 69 139 63 71 138 63 71 133 58 66 124 51 59
115 42 50 107 35 42 104 33 40 105 35 42 109 38 45
112 40 48 117 43 51 121 45 54 124 47 57 125 49 59
125 54 63 119 54 62 100 45 49 73 26 28 47 9 10
32 1 1 31 4 5 39 11 12 66 36 36 107 73 71
134 98 93 125 87 80 93 53 46 64 23 16 54 12 5
54 8 0 64 13 0 85 27 7 122 55 28 165 90 56
194 111 73 202 112 72 202 106 68 202 104 68 196 98 66
183 86 59 170 74 53 162 69 53 156 65 56 143 55 55
128 42 51 116 34 51 110 31 59 108 32 69 120 47 93
157 85 140 201 131 192 230 160 226 235 165 235 234 163 237
235 161 241 234 157 244 228 146 242 216 131 234 205 118 226
198 109 220 192 104 214 182 94 200 173 87 188 169 83 180
167 82 176 163 79 171 157 73 165 155 71 160 152 69 155
150 66 151 147 63 147 146 63 145 148 65 147 161 79 160
186 104 185 212 130 211 218 137 218 199 117 198 170 88 170
149 68 149 184 108 199 207 131 220 217 143 231 188 117 203
135 67 153 94 31 113 75 18 92 63 11 75 48 3 53
40 0 38 35 0 26 32 1 18 30 1 12 29 2 7
27 2 3 24 2 1 22 1 1 20 0 0 20 0 0
22 1 0 24 1 1 25 2 1 28 3 3 31 5 5
35 7 6 37 7 7 39 7 6 41 6 6 44 6 7
48 8 9 53 12 13 60 18 19 66 24 27 74 30 35
78 33 38 79 32 39 77 28 36 74 23 33 73 20 30
71 18 27 70 16 25 68 14 22 67 13 22 67 13 24
68 15 27 70 17 32 72 18 36 70 15 38 70 12 42
72 10 50 75 10 59 82 13 74 106 35 106 139 65 146
158 81 170 164 87 181 167 90 186 180 103 198 180 106 198
167 96 185 145 76 161 120 53 135 95 32 109 78 21 90
65 16 75 58 13 66 50 8 58 46 4 53 42 2 50
40 1 47 41 2 46 41 2 46 44 4 48 46 6 47
48 7 46 48 6 44 48 6 42 49 7 41 51 8 41
52 7 38 54 6 36 55 5 35 57 5 39 61 7 46
65 9 55 75 17 69 93 32 91 110 47 111 117 52 119
116 49 120 121 53 124 132 63 134 136 65 136 127 56 126
118 47 114 111 40 103 107 38 95 103 35 87 100 33 81
99 32 78 99 32 75 101 34 73 105 37 73 108 39 72
109 39 69 108 37 65 109 38 61 111 40 59 115 43 59
120 48 61 126 54 65 131 61 70 132 65 70 127 63 64
117 55 51 105 43 35 95 34 21 96 33 18 106 40 23
116 46 25 124 48 22 138 58 24 167 85 45 199 117 71
211 129 84 193 113 70 157 80 44 127 55 29 114 49 33
117 59 50 134 83 78 160 116 112 175 139 136 146 115 113
88 64 63 36 16 15 19 1 0 19 0 0 20 0 0
24 1 0 32 2 1 42 6 4 55 12 10 68 18 17
80 24 23 91 30 30 100 34 36 109 40 43 118 45 49
125 48 54 130 50 56 133 51 58 135 53 61 137 55 63
141 59 67 145 63 72 148 67 75 149 68 77 146 65 74
140 60 69 131 52 61 121 44 53 115 38 47 113 37 45
115 40 48 119 43 51 123 46 55 127 48 57 129 49 59
131 51 61 133 56 65 131 59 67 120 54 59 96 37 41
69 18 20 48 5 6 44 7 8 53 18 18 84 48 48
123 84 83 144 102 100 130 86 82 98 52 46 72 24 17
64 13 5 65 11 0 78 19 2 104 40 15 145 73 41
183 104 66 200 115 73 202 110 69 201 105 66 200 102 67
189 92 62 171 75 51 158 64 45 151 60 48 147 57 53
137 49 55 125 39 56 116 32 62 113 32 72 112 35 84
133 60 114 177 109 165 224 159 216 245 182 241 243 178 241
238 170 240 236 164 242 233 158 245 226 145 242 213 129 234
204 118 226 197 111 219 192 105 211 181 95 195 170 86 179
165 81 170 162 79 164 159 76 160 155 71 155 152 69 151
149 67 146 146 64 141 143 61 138 142 60 138 142 60 138
150 68 147 167 85 165 196 114 195 216 134 216 215 133 216
192 110 194 170 88 172 180 104 193 206 130 217 224 149 237
201 128 217 148 78 169 103 37 123 81 20 99 67 13 81
52 4 60 43 0 43 37 1 30 34 1 20 31 3 13
29 4 9 27 4 5 25 3 3 22 2 2 20 1 1
20 1 0 22 1 1 23 1 1 25 1 1 28 2 2
31 3 3 34 4 5 36 4 5 37 4 4 38 4 4
40 4 5 44 6 7 49 10 11 58 18 19 65 25 27
73 31 35 76 33 38 76 32 37 73 27 33 70 22 30
69 19 28 68 17 26 66 15 24 63 12 21 62 10 20
61 10 20 62 11 22 63 13 24 63 13 26 62 10 26
64 8 31 67 7 39 72 9 51 82 16 69 113 44 110
145 73 150 151 77 163 137 62 153 132 56 151 154 78 173
175 100 193 182 109 200 174 102 191 152 82 169 122 54 138
95 33 110 75 21 89 65 16 79 57 10 70 54 7 67
53 7 64 52 6 62 51 5 60 53 6 60 56 8 62
58 11 62 58 10 60 57 8 57 57 8 55 59 9 56
61 11 56 64 11 56 65 10 54 67 10 54 69 10 58
73 13 66 78 16 75 87 23 87 104 38 108 121 53 127
134 65 142 141 71 149 150 79 157 155 83 160 150 78 153
140 68 141 133 61 131 124 53 118 116 47 105 106 39 91
102 35 84 100 33 79 99 33 74 100 34 72 103 36 71
106 38 71 107 39 69 107 38 65 108 39 63 111 42 62
116 46 63 122 52 65 126 57 68 129 62 71 128 63 70
124 61 64 115 54 51 104 44 37 94 34 22 92 31 17
103 38 23 115 45 27 124 49 25 134 54 24 159 77 39
192 110 66 212 130 84 203 122 78 170 91 52 138 62 33
121 51 32 123 59 48 137 80 73 165 116 111 195 155 151
179 145 143 120 92 91 52 28 27 23 2 1 21 1 0
21 1 0 24 1 0 29 2 0 39 5 3 50 9 7
62 15 13 75 20 20 86 26 27 97 32 34 110 39 43
121 45 51 130 49 56 135 51 59 138 52 61 141 54 63
142 55 64 146 59 68 151 65 74 156 70 79 159 73 82
158 72 81 155 69 79 148 63 73 138 55 65 127 46 55
121 41 50 120 42 50 124 45 54 128 48 57 131 49 58
134 50 61 137 53 64 139 57 67 139 61 70 135 61 68
120 51 57 95 33 37 70 16 19 59 14 15 70 29 29
103 61 61 135 91 91 145 98 96 126 77 74 98 47 41
78 24 17 71 15 4 75 16 1 95 31 8 130 60 29
170 93 57 196 114 73 200 113 70 199 107 64 200 104 65
198 101 67 182 86 58 163 68 46 150 57 42 147 55 47
144 55 55 136 48 59 129 42 66 122 36 75 119 37 88
121 43 101 151 77 138 197 131 189 239 179 234 252 194 249
246 185 244 239 174 241 233 165 241 228 154 241 218 139 236
204 121 226 194 108 217 189 103 210 184 99 202 176 92 188
167 84 173 162 79 163 159 77 157 155 73 151 151 69 146
148 66 141 145 64 137 142 62 134 140 60 133 138 58 132
138 57 133 143 62 139 153 72 150 175 94 174 203 121 203
218 136 220 214 132 216 199 117 201 176 100 189 203 128 215
224 150 238 205 133 223 155 85 178 109 43 132 87 25 107
72 16 88 57 7 67 46 2 48 40 2 35 36 2 25
33 4 17 31 4 13 28 4 8 26 4 6 24 3 4
23 3 3 23 2 2 23 1 1 24 1 1 25 0 1
28 1 1 31 2 2 34 3 3 35 3 3 36 3 2
36 2 2 37 2 2 40 3 4 43 5 6 51 11 13
57 17 20 64 23 27 66 25 29 67 24 29 65 21 26
63 17 23 62 15 23 62 13 21 60 11 20 57 8 17
56 6 16 56 6 16 58 8 18 59 10 21 60 10 22
60 8 22 63 9 28 66 7 35 71 10 48 82 18 67
115 47 110 149 78 152 151 78 162 132 58 147 114 39 131
126 51 144 144 71 163 161 89 179 171 100 189 169 98 186
152 83 169 128 64 145 106 49 123 90 37 107 78 27 95
70 19 86 66 15 81 64 14 79 64 12 76 65 13 76
65 13 74 65 13 73 65 12 71 66 12 70 67 13 70
69 15 71 70 15 71 73 16 72 75 16 72 79 17 76
83 20 81 90 26 91 98 33 102 106 40 113 118 50 126
129 60 138 141 70 150 148 77 156 152 80 158 149 77 153
143 71 144 137 65 136 133 61 128 122 52 114 111 43 97
101 34 83 97 31 76 96 30 72 95 29 67 95 29 64
97 31 63 100 33 63 103 35 63 105 37 62 109 41 63
114 45 65 119 50 66 123 55 67 126 58 69 127 61 70
125 61 68 120 59 62 112 52 50 102 43 36 92 34 23
91 30 18 101 36 22 113 44 27 122 47 25 130 50 21
150 69 32 184 102 59 211 129 83 211 129 84 182 103 62
148 71 39 128 55 34 127 60 47 138 79 70 162 110 104
191 148 143 182 146 143 127 97 96 60 34 34 26 3 2
25 4 1 24 3 0 26 2 0 30 2 0 38 4 2
48 7 5 59 12 10 70 16 16 82 22 22 93 28 30
107 36 40 121 44 50 132 50 58 140 54 63 145 56 66
147 57 67 148 58 68 150 61 71 156 67 77 162 73 83
166 77 87 166 77 87 165 75 86 161 72 83 153 65 77
140 55 66 129 46 56 125 43 53 128 46 56 132 49 59
136 50 61 139 53 64 143 56 68 145 59 70 144 61 71
143 64 73 137 61 68 118 48 54 93 32 36 77 24 26
88 40 40 115 68 68 136 86 85 132 80 77 112 58 53
93 37 29 81 23 13 78 18 3 87 23 4 114 46 19
153 80 47 188 109 72 203 118 77 199 110 67 196 103 62
198 103 65 193 97 65 176 81 55 157 63 43 146 53 41
144 52 47 143 53 57 137 48 64 134 46 76 130 43 88
127 44 101 133 54 119 167 92 159 211 145 207 245 185 243
253 197 252 248 189 247 237 175 239 227 160 234 219 146 232
208 130 227 194 112 216 182 97 205 175 90 197 171 86 189
167 83 178 162 80 167 159 77 159 155 74 152 151 69 145
147 65 139 142 61 134 140 59 131 137 57 128 137 57 128
135 55 128 134 53 128 137 56 133 145 64 142 159 78 157
181 99 180 200 118 200 212 130 213 212 130 214 173 98 188
201 126 214 225 151 240 213 141 231 167 97 190 119 53 144
93 32 116 77 20 95 62 12 75 50 4 55 44 4 42
39 3 31 36 4 23 33 5 17 30 5 12 28 5 9
28 5 7 27 5 5 26 4 3 26 2 2 26 1 1
26 0 0 28 0 0 31 1 1 33 2 2 34 2 2
34 1 1 35 0 0 35 0 0 37 1 1 40 2 2
44 5 6 48 8 11 53 12 16 55 14 18 56 14 18
55 12 16 54 10 15 54 9 15 54 8 15 54 7 15
52 5 13 52 4 12 53 4 13 55 6 15 57 8 18
59 8 19 60 8 21 64 9 27 67 9 34 72 12 47
82 18 65 110 43 102 144 74 145 150 78 158 132 59 144
107 33 121 106 33 122 114 42 130 123 52 140 137 67 154
155 85 171 165 97 182 163 99 181 151 92 171 136 81 156
124 70 144 111 57 131 99 45 117 88 34 106 80 25 96
78 23 93 76 21 89 76 20 87 75 19 85 75 17 83
75 17 82 77 19 83 83 25 89 93 33 98 100 37 105
104 39 109 108 42 114 116 49 124 122 55 131 123 55 133
122 54 133 124 54 133 128 58 136 131 60 136 129 59 131
123 53 122 119 49 115 118 48 112 114 45 104 103 36 89
93 27 74 86 21 63 85 20 59 85 20 56 85 21 53
86 21 51 88 23 51 92 26 52 97 30 54 102 35 57
107 41 60 114 47 64 119 53 66 123 56 67 124 58 67
124 59 67 121 59 65 115 56 59 107 49 48 98 41 35
90 33 23 89 30 18 97 34 21 111 42 26 119 45 24
124 46 18 141 60 24 174 92 50 207 125 80 216 134 89
195 115 73 160 82 49 136 63 39 131 64 49 139 79 68
158 105 97 182 137 131 179 140 137 131 99 97 71 43 42
34 10 8 31 8 4 28 5 2 28 3 0 30 1 0
37 3 1 46 6 4 56 9 8 67 13 12 77 17 18
89 24 26 105 33 37 120 43 49 134 51 59 145 57 67
151 61 71 155 63 74 155 63 74 157 65 76 161 70 80
167 75 86 170 79 90 171 80 90 172 79 91 171 78 90
166 74 87 153 63 76 139 51 63 132 45 57 134 47 58
137 50 61 141 52 64 145 54 67 150 58 71 151 60 73
149 61 73 149 65 75 148 67 76 137 61 68 114 47 52
95 36 38 101 47 47 119 66 65 128 73 70 116 59 55
101 42 35 91 30 20 86 24 10 88 24 5 104 37 13
138 67 37 178 101 67 202 120 83 205 118 77 198 107 65
195 101 61 196 100 65 187 91 62 169 74 51 150 56 39
140 47 38 140 48 47 141 51 59 137 47 68 136 47 82
133 46 95 133 49 110 146 66 135 182 107 178 222 154 221
246 184 246 251 194 251 250 192 250 240 180 242 225 160 232
212 141 225 202 126 220 191 110 212 179 95 201 170 85 191
165 79 182 161 77 173 159 75 165 155 73 156 151 69 148
145 64 139 141 60 134 138 57 129 136 55 127 133 53 125
132 52 125 129 49 123 127 47 121 130 49 125 137 56 134
147 65 144 159 78 157 173 91 172 188 106 188 196 114 196
171 97 187 197 123 212 224 152 239 223 151 240 185 116 206
136 71 161 103 42 127 81 24 101 67 15 81 54 7 61
48 6 49 43 5 37 39 6 29 36 5 22 32 5 16
31 5 12 31 6 9 31 7 8 29 5 5 28 2 3
27 1 1 28 0 0 29 0 0 31 1 1 32 2 1
34 2 1 34 1 0 35 1 0 36 2 1 38 2 1
39 2 2 41 2 3 43 3 6 46 5 8 47 6 10
48 6 10 47 5 10 47 5 9 47 4 9 48 5 11
49 5 11 49 4 12 49 3 11 51 4 12 54 6 15
57 8 17 59 9 19 62 10 22 65 10 26 67 10 33
72 13 44 80 17 61 101 35 90 131 62 129 147 76 151
137 65 146 113 41 124 99 28 113 98 28 112 98 29 113
105 36 119 125 56 139 153 86 169 169 105 187 173 113 194
165 108 187 165 108 187 159 103 181 147 90 168 133 75 152
121 62 139 111 52 128 100 41 115 90 30 105 90 30 103
93 32 105 98 36 108 105 43 115 119 56 128 134 70 144
141 75 152 139 71 151 136 67 148 136 67 148 134 66 146
128 59 139 119 51 129 111 42 118 107 37 110 103 33 102
100 30 95 96 27 88 95 27 84 94 26 80 90 23 73
85 19 64 81 16 56 80 16 51 80 17 49 82 19 48
84 20 47 84 20 45 86 22 45 89 24 46 93 28 48
98 32 51 104 39 55 111 45 59 116 51 61 119 53 62
120 55 62 119 56 62 116 56 61 110 53 55 102 46 45
95 40 34 88 33 24 87 29 18 93 32 20 106 40 25
115 43 23 120 43 16 133 53 18 164 83 41 201 119 74
218 136 90 206 125 82 174 95 60 147 72 47 137 68 51
141 79 66 155 100 89 173 125 118 178 137 132 148 113 110
96 66 64 54 28 25 39 14 10 34 9 5 30 4 1
30 1 0 36 2 1 46 6 4 55 8 7 65 11 10
74 14 15 86 20 22 102 30 34 118 41 47 135 51 59
147 59 69 157 66 76 163 70 81 165 71 83 165 71 83
167 73 84 170 76 87 172 78 90 174 79 91 175 79 92
177 80 94 174 78 92 164 70 83 150 58 71 141 50 62
140 48 61 142 50 63 147 54 67 152 57 71 156 60 75
158 62 76 156 63 77 155 65 78 155 68 80 151 68 78
132 57 64 113 45 49 117 55 56 132 71 70 135 72 69
116 53 46 101 37 26 95 29 15 95 28 9 102 33 9
127 55 27 165 89 57 198 118 83 209 124 87 203 113 73
196 102 62 194 98 61 192 95 63 179 83 58 159 65 46
141 48 35 133 41 35 135 43 46 138 47 60 135 45 71
136 46 86 135 47 102 140 55 122 161 80 154 195 119 196
228 157 230 243 178 245 247 188 249 250 193 251 245 187 247
229 166 235 212 142 224 199 124 216 190 110 211 179 96 201
169 84 190 163 77 181 159 75 172 156 73 163 152 70 153
146 65 143 140 60 134 137 57 129 135 54 126 133 53 125
131 51 123 128 48 121 123 43 116 120 40 113 123 43 117
131 50 126 139 58 134 145 64 141 150 69 147 158 76 155
163 82 161 169 96 184 192 118 207 220 148 234 230 159 245
206 138 224 161 96 184 119 57 142 88 30 108 70 17 86
58 9 67 51 7 55 46 6 43 41 6 34 38 6 26
35 5 19 34 5 14 33 6 11 34 7 9 32 5 7
30 2 4 29 1 2 30 1 1 30 1 1 32 1 1
33 2 1 35 2 1 35 2 0 37 3 1 39 5 3
42 6 4 43 6 4 43 4 4 43 3 5 44 3 6
45 4 7 45 4 7 44 4 7 44 4 7 44 4 7
46 5 9 47 5 10 47 5 10 48 4 10 50 5 12
54 7 15 57 9 18 60 10 19 63 11 22 64 10 24
67 11 30 72 13 42 80 18 58 93 28 80 117 50 112
140 71 141 142 72 148 124 54 133 103 33 113 94 26 106
90 22 102 90 23 102 100 34 113 126 60 140 146 83 164
157 96 178 157 98 179 167 108 190 176 117 198 177 117 199
170 110 191 163 101 182 152 90 170 139 77 156 126 63 142
125 61 139 131 67 144 139 74 151 147 82 159 159 93 170
165 97 178 162 92 176 150 80 166 142 71 157 136 65 149
128 59 139 118 48 126 106 37 111 96 28 98 90 22 87
86 19 78 85 19 73 84 19 68 83 18 64 81 17 59
79 15 54 78 15 50 77 14 45 77 15 42 78 16 41
81 19 42 83 20 41 83 20 40 83 21 39 86 23 39
89 26 41 93 30 44 98 35 48 104 40 51 109 45 54
112 48 55 114 50 55 113 52 56 110 53 56 105 50 51
97 44 42 91 38 33 86 33 24 84 29 19 89 30 18
102 37 23 112 42 22 117 42 16 128 49 16 155 75 34
192 111 66 216 134 88 213 131 87 185 106 69 156 80 52
141 70 50 142 78 62 153 95 82 167 116 107 181 138 131
171 133 128 127 94 90 77 48 44 48 20 15 40 13 8
33 6 3 32 2 0 36 3 1 45 6 4 54 9 7
63 11 10 72 13 13 84 18 20 99 27 31 116 39 45
134 50 58 148 59 69 161 69 80 170 76 88 176 80 92
175 79 91 174 77 90 173 76 89 174 76 89 176 78 91
179 80 94 180 81 96 179 79 95 173 75 90 163 66 80
152 56 70 146 50 65 146 51 65 152 55 70 158 60 75
163 63 79 164 65 80 164 66 81 162 67 81 162 69 82
161 73 85 146 64 73 132 56 62 143 71 73 160 90 89
160 90 86 132 62 53 111 40 27 103 32 14 105 34 10
118 45 17 151 75 44 188 109 74 211 127 90 210 122 84
200 107 68 195 99 61 193 95 61 186 89 61 171 75 54
151 57 42 134 41 32 128 36 34 130 39 46 133 43 61
132 43 74 134 45 90 138 51 110 152 67 138 178 97 176
208 131 212 231 159 237 237 170 243 240 179 244 247 190 249
248 190 250 235 174 241 217 149 228 201 128 217 190 112 210
179 97 200 169 84 189 163 77 180 158 73 171 154 70 162
148 67 151 143 62 141 137 57 131 134 55 126 132 53 123
132 53 124 130 50 122 126 46 117 119 39 110 115 35 106
118 38 110 127 46 119 134 54 127 138 57 131 139 58 133
140 59 134 141 60 136 168 96 182 185 113 199 211 140 225
230 161 244 223 156 239 186 121 206 138 76 160 97 38 116
74 19 90 61 11 71 54 9 59 49 7 47 44 7 37
41 7 29 37 5 21 36 5 16 35 6 13 36 7 11
34 5 8 32 2 4 31 1 3 32 2 3 32 2 3
34 2 2 34 2 1 36 2 1 37 3 1 40 5 3
44 9 6 47 11 8 48 11 8 47 9 8 46 6 7
45 5 6 45 4 7 45 4 6 45 5 7 44 5 7
44 5 8 45 5 9 45 5 9 46 5 9 46 4 9
49 5 11 54 8 15 58 10 18 61 11 20 63 12 21
63 10 22 68 12 30 73 15 41 81 20 56 89 26 73
108 43 100 130 63 128 141 73 143 132 64 136 110 42 117
94 27 102 86 20 94 83 18 93 88 23 98 102 38 114
117 54 132 123 62 142 124 63 145 133 72 154 151 90 172
166 104 186 171 108 191 171 108 190 168 104 186 167 102 183
164 98 179 162 96 177 162 95 176 162 95 176 165 97 177
168 98 180 163 92 176 152 81 167 138 66 153 128 56 141
119 48 129 111 41 118 103 34 106 96 27 94 89 22 83
85 19 74 82 17 65 79 16 59 77 15 53 75 14 48
75 14 44 73 13 41 73 13 38 73 13 36 74 14 34
77 16 35 80 19 36 82 20 35 81 20 33 81 20 32
83 22 33 86 24 35 89 27 38 92 30 41 96 34 43
101 39 45 105 42 47 107 46 48 108 49 51 106 50 52
100 48 48 93 42 40 88 37 32 84 33 25 83 28 19
86 28 18 97 34 21 109 40 23 115 42 18 125 48 16
149 70 31 184 103 60 212 130 84 216 135 90 194 114 75
163 86 56 144 71 48 143 75 57 152 90 76 163 108 97
180 133 124 176 135 129 139 103 98 89 57 52 55 24 19
46 17 12 38 9 5 35 4 1 38 3 1 45 6 4
53 9 6 62 11 10 71 13 13 82 18 19 96 26 30
114 37 43 132 49 57 147 58 68 164 71 82 176 81 93
185 88 100 184 86 99 181 81 95 177 77 90 176 76 89
179 79 92 183 81 96 184 82 97 183 81 97 181 80 96
174 74 90 162 63 78 151 52 68 149 50 65 156 56 71
163 61 77 167 64 81 168 66 82 169 68 84 168 69 84
167 70 85 168 75 88 160 71 82 156 72 79 175 94 98
190 111 111 182 104 100 146 69 58 120 44 27 112 36 13
117 40 12 137 59 27 173 92 58 204 120 83 214 127 89
207 115 77 197 102 65 194 96 61 190 91 61 181 83 59
164 68 51 144 50 40 128 36 31 123 32 34 125 35 46
128 40 61 129 41 76 133 45 94 143 57 120 164 80 155
195 113 196 219 141 226 233 160 243 234 165 243 235 171 241
241 183 244 247 191 249 243 184 248 227 162 237 208 137 224
192 116 211 178 98 198 168 84 187 161 76 178 156 71 169
151 67 160 146 64 150 141 61 141 135 56 131 131 54 124
130 52 121 131 52 122 130 50 121 125 45 115 117 37 107
112 33 101 116 36 105 124 44 113 131 52 121 135 55 125
136 56 126 135 55 125 134 54 125 168 98 179 181 110 193
204 135 217 227 159 240 232 166 247 207 143 224 160 98 180
113 54 131 81 26 96 65 13 76 57 10 63 52 8 50
47 8 40 43 6 30 40 6 23 39 6 18 38 7 15
38 7 13 37 6 10 35 4 7 34 2 5 35 3 6
36 4 6 37 4 5 37 3 3 37 2 1 38 3 2
41 6 4 46 11 8 52 15 12 54 17 14 53 14 13
51 11 11 49 8 9 48 7 8 46 6 7 45 6 7
45 6 8 45 6 8 45 6 8 45 5 8 45 5 8
46 5 8 50 6 12 55 9 16 60 12 20 63 14 21
65 14 22 65 13 23 70 15 31 75 18 41 82 23 56
89 27 70 101 37 89 114 49 108 126 60 123 122 56 123
109 43 110 91 26 95 82 18 87 80 17 86 83 21 90
90 29 100 101 40 113 103 42 119 101 39 119 100 38 119
111 49 130 125 63 144 135 71 153 141 76 158 147 82 164
162 96 177 176 108 190 178 109 191 167 98 181 156 87 169
150 80 162 144 72 155 131 58 142 118 44 129 108 35 118
104 31 111 100 29 105 98 27 98 95 26 91 92 24 82
86 20 71 81 17 61 76 15 52 74 14 46 73 14 41
73 14 38 72 14 35 71 14 32 71 13 31 71 13 29
73 14 29 75 16 29 78 18 30 79 20 29 78 20 28
78 20 27 80 21 28 82 22 29 85 25 32 88 28 35
91 31 37 95 34 39 98 38 40 100 41 42 102 45 46
101 48 49 97 46 46 91 41 38 86 37 31 83 33 25
82 29 20 84 28 18 95 34 21 106 40 23 114 43 20
121 46 17 141 63 26 174 94 52 205 124 78 218 136 91
202 122 82 173 95 63 149 74 49 143 72 52 149 84 68
159 101 88 170 119 109 158 113 106 123 83 77 82 47 41
58 25 20 52 21 15 45 13 8 39 6 3 38 3 1
42 5 3 52 9 6 61 12 10 70 14 14 79 17 18
92 23 26 109 33 39 128 45 53 144 56 65 163 70 81
177 82 94 190 92 105 191 91 105 188 87 101 182 80 94
179 77 91 182 79 94 186 82 98 187 83 99 186 82 99
185 82 99 181 79 96 171 70 86 159 58 74 154 53 69
158 56 72 165 61 78 169 65 82 171 66 83 172 68 85
172 69 86 171 71 87 173 75 90 172 76 89 178 86 95
196 106 112 201 114 115 185 99 94 147 64 52 123 41 22
118 38 11 131 50 18 160 79 43 194 110 72 213 126 87
211 121 83 201 108 70 195 98 63 193 94 61 187 87 60
176 77 58 158 61 49 139 44 37 124 32 30 119 29 34
121 33 47 124 38 63 125 40 78 133 48 100 152 68 134
181 97 175 209 128 213 225 146 234 232 157 243 231 160 242
231 166 238 237 178 241 245 190 247 249 192 252 239 178 247
221 154 234 202 128 219 183 105 201 169 87 187 160 76 177
156 71 169 153 69 162 149 67 155 146 66 147 142 64 139
140 64 134 139 62 130 138 60 129 136 56 125 131 52 119
124 45 112 120 41 107 122 43 108 126 47 111 130 51 115
131 52 116 132 53 117 131 52 116 131 52 116 171 102 178
183 114 192 206 138 217 227 161 238 235 169 248 215 151 230
172 110 190 124 64 141 89 33 103 70 18 81 63 14 68
56 11 55 50 9 42 45 6 32 43 6 24 41 6 19
41 7 16 40 7 14 40 7 12 38 5 10 37 3 8
38 5 9 41 7 11 42 7 10 40 6 6 38 3 2
38 3 2 41 5 4 47 10 8 53 16 13 56 19 16
56 17 16 55 14 14 52 11 12 50 10 10 48 8 9
47 8 8 46 7 8 46 7 9 46 7 8 45 6 7
45 5 7 47 6 9 52 8 13 58 12 18 63 15 22
65 17 24 68 18 25 69 18 27 74 20 34 77 21 43
82 24 54 87 26 65 94 31 78 99 35 89 105 41 98
104 40 100 98 35 95 87 24 86 80 18 80 78 17 80
80 20 84 85 25 91 92 32 101 93 33 106 92 31 107
89 28 106 92 30 108 96 34 112 99 36 115 101 37 117
110 44 125 132 65 146 157 88 170 165 95 177 149 78 161
127 56 139 115 44 127 111 38 121 106 32 115 99 26 107
96 23 101 93 21 95 91 20 89 90 20 83 88 20 77
87 20 69 82 18 60 79 17 52 76 16 45 74 15 39
72 14 34 71 14 31 71 15 29 70 14 27 70 14 26
70 14 24 73 15 25 74 16 25 76 18 25 77 19 24
77 19 24 77 20 23 78 20 24 80 22 26 84 25 30
88 28 33 91 32 36 94 34 36 95 36 37 96 38 37
98 42 42 98 46 45 95 46 45 90 42 38 85 37 31
82 33 26 81 29 21 82 28 18 93 34 22 103 39 24
112 43 22 117 45 17 133 58 23 163 85 45 197 117 73
217 136 91 210 129 88 184 104 70 158 81 53 145 71 48
146 78 59 152 91 75 153 98 86 130 82 73 97 54 47
67 29 23 57 22 16 56 22 16 51 17 12 43 10 6
39 5 2 40 4 1 48 8 5 58 11 9 68 14 13
76 16 16 87 20 23 103 29 34 122 41 48 139 53 62
160 68 79 177 81 93 192 93 106 195 95 109 194 91 106
187 84 99 184 79 94 185 80 95 188 83 99 189 84 101
188 84 101 188 84 101 185 83 99 177 76 92 166 65 81
159 57 74 161 57 74 166 61 78 171 65 82 173 67 84
174 68 86 174 70 87 175 71 88 177 75 91 180 80 94
191 92 103 203 107 113 198 105 106 175 84 78 142 54 40
124 38 16 125 41 11 147 63 27 181 97 56 209 123 81
215 127 86 207 116 77 197 103 67 193 96 64 190 91 62
180 81 58 169 71 55 152 55 46 133 39 35 121 29 30
117 28 36 119 32 49 122 38 65 127 43 84 142 59 113
168 85 153 198 115 194 220 138 225 227 148 237 229 153 241
229 157 240 228 162 236 232 172 238 240 185 243 249 195 252
246 187 252 231 166 242 213 142 228 195 119 212 180 100 198
168 87 185 161 78 176 158 75 169 156 74 162 154 74 156
152 75 150 151 75 146 150 73 142 149 71 139 147 67 134
142 63 128 137 58 122 134 55 118 133 55 117 135 56 117
135 57 116 134 56 115 133 55 113 132 54 112 131 53 111
182 115 188 197 129 203 220 153 227 236 171 244 237 173 248
216 153 229 175 113 191 130 70 145 95 38 109 77 23 88
70 19 76 62 15 61 54 10 46 48 7 33 45 6 25
44 6 20 42 6 17 42 7 15 42 7 14 41 6 13
40 5 11 43 7 13 48 12 17 48 12 16 45 9 11
40 3 5 39 3 3 40 3 3 45 7 6 51 13 12
55 17 16 57 18 17 56 16 16 55 14 14 53 13 13
51 11 12 50 10 11 49 9 10 48 9 10 47 8 8
46 6 7 46 6 8 49 7 10 55 11 15 61 15 20
66 19 24 69 21 26 72 22 28 74 23 31 76 23 35
77 22 41 79 22 50 82 23 58 83 22 64 83 21 69
88 25 76 88 26 79 86 24 78 78 17 72 74 15 70
75 16 73 77 20 77 80 23 83 81 24 87 81 23 92
81 22 94 82 22 96 84 23 97 85 23 98 85 23 99
86 23 99 88 23 101 101 34 113 122 53 133 138 68 149
133 62 144 117 45 127 104 32 114 98 26 107 95 22 101
90 18 94 88 16 87 86 15 82 85 15 77 85 16 72
84 17 67 83 17 60 79 16 52 76 15 44 74 15 38
73 15 34 73 16 31 72 16 28 71 16 27 71 16 26
71 16 25 72 16 24 73 17 23 73 17 22 74 18 21
74 19 21 75 19 20 75 19 20 76 20 21 80 22 25
85 27 30 90 32 35 94 37 39 96 38 39 95 38 37
94 38 36 95 41 39 95 45 42 94 46 43 88 42 37
84 37 30 81 33 25 80 30 22 81 28 19 90 33 22
99 38 24 109 43 24 113 43 18 125 52 19 151 74 36
185 107 64 213 133 89 216 135 93 195 115 78 168 88 57
148 72 45 140 69 47 141 76 58 134 76 62 112 61 50
88 42 34 74 33 26 72 34 28 68 31 25 56 20 15
44 10 6 38 4 2 37 2 1 44 5 3 53 10 7
63 14 11 71 15 14 81 18 19 95 25 28 115 36 42
132 48 56 155 65 75 172 78 90 190 92 105 197 97 110
199 96 110 195 91 106 191 86 101 190 84 100 191 85 101
191 86 102 190 86 103 189 86 103 188 85 102 183 81 98
174 72 89 165 63 80 163 60 77 167 63 80 173 67 85
176 70 87 177 71 89 177 71 89 178 72 90 181 76 93
186 81 97 195 91 104 199 97 105 189 89 92 164 68 62
138 46 30 128 39 14 137 50 17 168 82 43 201 115 71
219 132 88 214 125 83 203 112 73 196 102 68 192 96 66
183 86 61 171 73 54 160 62 50 145 49 43 129 35 34
120 29 32 118 30 39 119 34 52 124 40 69 135 52 94
158 76 131 188 106 174 214 132 211 227 146 232 227 148 237
224 147 236 225 152 235 223 155 231 225 165 232 233 177 238
245 190 248 247 189 252 236 174 244 221 153 234 207 135 223
194 117 210 181 101 197 170 89 185 165 83 177 161 80 169
160 80 164 160 82 159 160 83 155 159 82 150 157 79 145
153 74 139 149 71 134 146 68 129 144 66 125 142 65 122
141 63 119 138 61 115 136 59 112 134 57 109 133 56 108
132 55 107 208 142 212 220 155 224 238 173 241 246 184 250
241 180 248 215 154 226 172 110 187 127 67 142 96 38 110
82 27 93 77 25 84 68 19 68 58 12 51 51 7 36
48 5 27 45 5 21 43 4 17 43 5 16 43 5 15
42 5 14 42 5 13 46 9 17 52 16 22 52 16 21
48 12 16 42 5 8 40 3 5 41 2 4 42 4 5
46 8 8 51 12 12 54 15 14 55 16 15 55 14 15
54 14 14 53 13 13 52 12 12 51 11 11 50 9 10
49 8 9 48 7 9 49 7 9 52 8 11 57 12 16
63 17 20 68 20 25 70 22 27 72 23 28 73 23 30
75 22 34 74 21 38 74 18 43 74 16 48 75 15 53
75 15 57 82 21 67 83 23 70 81 22 69 73 14 62
71 14 62 73 17 66 74 20 70 74 20 73 72 17 74
71 15 77 71 14 80 73 15 83 76 18 86 78 19 88
79 19 90 79 17 89 80 16 90 85 20 94 100 33 109
120 51 129 131 61 139 125 54 133 112 40 119 100 29 107
93 21 97 88 16 87 85 14 80 84 14 74 83 14 70
82 14 65 81 15 59 80 15 53 77 15 46 75 14 40
74 15 35 73 15 32 73 16 29 72 16 27 71 16 25
71 15 24 71 16 24 72 17 23 73 17 23 73 18 21
74 19 20 74 19 19 75 19 19 75 19 19 78 22 22
82 26 27 89 32 34 95 38 40 99 42 43 100 43 43
98 42 40 95 41 38 95 43 39 95 46 41 93 46 40
87 42 35 82 36 29 79 32 25 79 29 21 79 27 19
86 31 21 95 36 23 105 41 25 111 44 21 120 49 19
140 66 30 172 96 55 205 126 83 218 138 95 205 123 84
177 96 62 152 74 44 137 63 39 130 61 42 121 59 44
109 54 42 103 54 45 109 65 57 114 73 67 101 62 56
72 35 30 48 12 9 39 3 2 36 1 0 40 4 2
47 7 4 58 12 8 66 15 12 77 17 17 90 23 25
108 32 38 126 44 51 147 60 69 166 74 85 185 89 101
195 96 109 201 99 113 202 98 113 200 95 110 199 93 108
196 90 106 194 89 106 191 87 104 192 88 105 191 89 106
188 86 102 179 77 94 169 67 84 166 63 80 168 65 82
175 70 87 179 73 91 181 74 92 181 74 92 182 74 92
184 76 94 190 82 99 197 89 105 198 91 102 184 80 84
159 60 54 138 44 27 137 46 19 155 67 32 189 103 61
213 127 81 219 132 87 208 119 77 199 108 70 195 102 70
190 95 69 177 81 61 162 66 51 148 52 44 137 42 39
124 32 32 120 31 35 120 33 43 120 35 54 127 44 73
148 66 108 180 97 153 209 126 194 225 143 221 231 150 235
227 148 235 222 146 232 220 148 230 217 150 226 217 156 225
224 167 230 238 183 242 245 187 250 237 176 244 223 158 235
212 143 225 201 128 217 189 113 205 176 97 191 168 88 181
162 81 171 158 78 163 157 78 157 155 78 151 154 76 145
152 74 140 150 71 135 147 68 130 144 66 126 143 65 122
141 64 119 140 63 115 137 61 110 135 59 106 132 56 103
131 55 101 130 54 100 234 171 237 239 175 242 246 183 249
248 186 251 242 181 248 220 159 231 179 118 194 132 72 148
98 39 113 84 27 97 80 26 89 72 21 74 61 13 56
55 8 41 50 6 31 48 4 24 44 3 19 44 4 18
44 4 17 43 4 16 43 5 15 47 9 18 54 16 24
55 17 25 52 14 20 44 7 11 41 3 6 40 2 4
41 2 4 43 5 6 47 9 8 50 12 12 53 14 13
54 14 13 54 14 13 54 14 14 54 13 13 53 11 12
51 9 10 51 8 9 51 8 9 52 8 11 54 9 12
58 12 15 63 16 19 67 19 23 69 20 24 69 19 24
69 19 25 70 18 28 70 16 32 69 13 36 68 11 40
69 10 44 71 12 50 79 20 60 80 22 63 77 20 61
69 12 54 68 13 55 71 17 60 71 18 62 67 15 61
62 10 60 59 7 62 60 7 65 64 9 69 69 13 74
72 16 77 74 16 79 74 14 79 74 13 80 76 12 81
84 19 90 100 34 106 118 50 123 125 57 130 120 50 125
108 39 113 97 27 98 90 20 86 85 16 76 83 15 71
82 14 66 80 14 60 78 14 54 78 14 48 76 14 42
74 14 36 73 14 32 72 14 29 72 14 27 71 14 25
71 14 24 70 14 23 71 15 23 72 17 23 73 18 23
73 19 21 74 19 20 74 20 19 75 20 19 75 20 19
80 24 24 85 30 30 93 38 39 98 43 44 102 46 46
101 47 45 99 45 43 97 44 40 96 45 39 94 46 39
91 45 37 86 41 32 81 35 27 78 31 23 77 28 21
77 27 19 82 28 19 91 33 22 101 39 24 108 43 22
115 46 19 129 57 23 157 82 43 193 116 73 216 137 93
212 131 90 187 104 68 159 78 46 138 61 34 126 54 33
120 54 38 119 60 47 128 76 66 149 102 94 164 120 114
153 112 106 112 72 68 68 30 28 44 8 7 36 2 2
39 4 2 43 6 2 53 11 6 63 15 11 73 18 16
85 21 22 101 29 33 118 39 46 138 53 62 157 68 78
177 83 94 191 93 106 201 101 114 207 105 119 209 105 119
208 103 118 202 97 113 197 93 110 193 89 106 194 91 108
195 92 109 192 90 107 184 83 99 174 73 89 169 67 84
170 68 85 177 73 90 182 77 94 185 78 96 185 77 95
185 76 95 187 77 96 192 81 100 199 87 105 199 88 102
185 78 84 161 59 54 144 47 30 150 58 30 177 89 52
209 123 79 221 136 88 215 129 82 201 113 70 193 104 67
191 100 70 186 93 70 171 78 61 154 61 49 138 45 39
128 37 34 120 30 30 121 33 37 122 36 46 121 37 55
130 47 76 160 76 119 197 114 169 226 142 209 236 153 230
239 158 239 233 155 238 225 149 233 219 147 227 213 147 222
211 150 219 215 158 223 229 174 235 241 185 247 240 182 247
228 166 237 213 147 225 200 130 214 188 114 203 177 100 192
169 90 182 161 81 171 156 76 162 153 73 154 150 71 146
148 69 139 145 66 133 142 63 128 140 61 123 138 60 119
137 60 115 135 59 110 133 57 106 131 55 101 129 53 97
127 51 94 125 50 92 124 49 91 240 178 243 236 173 240
232 170 237 229 168 235 229 168 237 221 159 233 193 132 209
148 87 166 106 47 124 86 28 102 82 26 93 75 21 79
65 15 62 58 9 46 54 7 36 51 5 28 47 4 23
47 5 22 46 5 21 45 4 18 44 4 17 47 6 18
52 12 23 55 16 26 54 15 22 47 8 15 42 3 8
40 1 6 42 3 6 43 5 7 46 8 9 49 11 11
51 12 12 53 13 12 54 13 12 54 13 12 54 12 12
54 10 11 53 8 10 53 8 10 54 8 10 56 9 12
56 9 12 59 11 15 62 14 17 64 16 19 65 16 20
64 15 20 64 14 21 65 13 24 66 12 28 66 10 32
66 9 36 67 9 41 69 11 46 76 18 54 76 20 56
73 17 53 67 12 47 67 13 49 68 17 54 66 16 55
60 10 51 54 4 48 52 2 48 53 2 52 57 5 56
63 10 62 68 14 68 70 15 71 71 14 71 72 13 72
73 13 74 77 15 78 85 21 85 99 34 99 112 45 112
117 50 118 116 48 116 107 39 105 99 31 92 89 21 78
85 18 70 83 16 65 81 15 58 78 14 51 77 13 45
75 13 39 74 14 34 72 13 30 71 13 27 71 14 25
70 13 23 70 13 22 70 13 21 71 15 22 72 17 22
73 18 23 74 19 22 74 20 20 74 20 19 75 21 19
75 21 19 81 26 25 88 33 33 96 41 42 100 45 45
102 47 47 101 48 46 99 46 43 97 46 41 96 46 39
94 47 37 91 44 34 85 40 30 81 34 25 77 30 22
76 28 20 75 26 18 79 26 18 87 31 21 97 37 24
106 43 24 111 45 20 121 50 19 143 70 32 178 102 60
209 131 87 216 135 92 197 114 75 167 85 51 144 64 35
129 55 31 125 57 39 131 70 55 145 90 79 166 117 108
186 140 133 191 148 142 159 118 114 104 65 63 59 23 21
38 5 3 38 5 2 40 6 1 48 10 4 59 15 9
69 18 15 81 21 21 95 26 29 111 35 40 129 47 54
149 61 70 169 77 88 186 91 102 199 101 114 208 108 121
212 110 124 213 109 124 206 102 118 200 96 112 194 91 108
196 93 110 197 95 111 196 94 110 189 88 104 179 78 94
173 71 87 173 70 87 180 75 93 185 80 97 189 81 99
189 79 98 188 77 96 188 77 96 194 80 100 200 85 105
203 90 106 192 83 90 171 67 63 158 60 43 169 77 47
199 111 72 222 137 91 222 138 89 206 122 74 193 107 64
187 99 63 185 96 68 179 89 69 165 75 61 148 58 49
131 42 37 122 33 31 117 29 29 121 35 38 124 39 48
123 38 57 132 48 77 164 79 121 202 116 171 229 144 210
239 155 229 244 163 242 241 164 244 233 159 238 222 152 229
214 149 222 209 149 218 211 153 219 221 165 228 235 179 241
242 187 248 237 178 244 219 157 229 200 133 213 184 113 198
176 101 190 169 91 183 162 82 172 155 75 162 151 70 152
147 67 144 144 65 136 141 62 130 138 59 124 136 57 119
134 57 115 133 56 110 132 55 105 129 53 100 126 50 94
123 48 89 120 46 85 119 44 83 118 43 82 217 156 223
210 148 216 204 141 211 200 137 209 205 143 217 212 150 227
204 142 222 169 108 189 124 64 144 94 34 112 85 27 99
78 23 86 70 17 69 62 11 53 57 8 41 54 7 33
51 6 28 50 7 26 50 7 25 48 5 22 46 4 19
46 5 19 50 9 21 54 14 24 55 14 23 50 11 18
44 4 10 41 2 7 43 4 8 46 8 10 48 11 12
50 12 13 52 13 12 53 12 11 53 13 11 54 12 11
54 11 11 55 10 11 55 8 10 56 8 11 57 9 11
57 9 12 57 9 12 59 10 13 61 12 15 61 13 17
61 13 17 62 12 17 62 12 19 64 12 23 65 11 27
65 11 32 66 10 36 67 10 40 68 11 44 72 15 49
72 16 49 70 15 47 66 13 44 67 15 47 67 17 50
63 14 49 55 8 44 50 2 40 47 0 39 48 1 41
52 4 45 58 8 52 64 14 58 69 16 63 70 16 64
71 15 66 73 15 67 74 14 69 76 15 71 84 21 79
94 30 89 103 38 99 111 46 107 114 48 108 110 44 101
98 31 85 89 24 74 85 20 66 83 19 59 79 16 52
77 15 44 75 14 38 74 14 34 73 13 29 72 14 26
72 14 24 72 14 22 71 13 21 71 13 20 71 15 22
72 17 23 74 19 23 74 19 22 74 20 21 75 20 20
75 21 20 75 21 20 80 27 26 87 33 33 94 41 41
98 45 45 99 47 46 99 47 45 98 46 43 97 46 41
95 46 38 94 46 35 90 43 32 85 38 27 80 33 23
76 29 20 74 27 19 74 25 18 76 25 17 84 29 21
94 36 23 103 42 25 110 45 21 116 48 18 133 61 25
162 87 46 198 120 76 217 135 91 208 125 84 180 96 60
153 71 41 136 59 34 131 61 42 137 74 59 148 92 80
159 109 99 175 129 121 195 150 144 184 141 137 133 93 90
74 37 35 41 7 5 37 5 2 38 6 1 43 9 3
54 13 7 65 17 13 76 20 19 89 24 26 104 31 35
121 41 48 140 55 64 162 72 82 182 88 99 196 100 112
205 106 120 211 110 124 214 111 125 208 104 120 201 97 114
196 92 109 197 94 111 198 95 112 198 95 112 193 91 107
184 82 98 176 74 91 175 72 89 181 77 94 188 82 100
192 83 102 191 81 100 190 78 97 189 76 96 194 78 100
200 83 105 206 91 108 200 89 98 184 80 76 176 79 61
189 98 67 216 128 88 225 141 93 216 133 83 197 114 66
187 102 59 180 94 59 177 90 64 172 84 66 159 72 60
142 55 48 127 40 36 118 32 30 116 30 29 121 36 38
125 40 48 125 40 57 133 47 76 161 73 115 191 104 158
215 128 193 227 142 214 239 158 233 244 167 244 240 168 243
231 163 236 222 158 228 217 156 225 215 157 224 218 162 227
226 172 234 238 184 244 242 187 248 231 173 239 209 145 220
188 119 202 176 103 191 171 94 185 164 84 175 157 76 164
152 70 153 148 67 145 145 64 138 142 62 131 139 60 126
137 59 121 136 58 116 134 57 111 132 55 105 129 53 98
124 49 91 120 45 85 117 42 81 115 40 78 113 39 77
185 122 193 180 117 187 176 112 184 174 111 184 183 120 195
198 135 214 206 143 225 186 123 208 144 82 167 106 45 127
91 31 108 84 27 94 76 21 79 65 13 60 59 8 47
56 7 39 54 8 34 54 9 32 54 10 31 52 8 28
49 6 23 47 5 21 48 7 21 53 11 24 54 14 24
52 12 21 47 7 14 43 4 10 45 5 11 48 10 14
52 15 17 54 16 17 54 15 15 54 13 13 54 13 11
54 12 11 55 11 10 56 10 11 58 10 12 59 10 12
59 9 12 58 8 11 58 8 11 59 9 13 60 11 15
60 12 16 60 12 16 61 12 17 63 13 20 65 13 24
65 13 28 67 13 33 68 13 37 68 13 40 67 12 41
68 13 43 68 14 43 68 15 43 67 15 42 67 17 45
65 17 45 59 12 42 51 6 36 47 2 33 45 0 31
45 0 32 48 3 35 54 7 42 61 14 49 67 18 55
69 18 58 70 17 59 71 16 60 71 14 60 73 15 62
78 18 67 83 22 72 89 26 79 99 36 88 110 46 99
115 50 103 108 44 94 97 33 81 88 25 69 83 20 60
80 18 54 79 17 47 77 16 41 76 15 36 75 15 32
75 15 28 74 15 26 74 15 24 74 15 22 73 15 21
73 16 22 73 17 23 74 19 24 74 19 23 75 20 22
75 21 21 75 21 21 76 22 21 79 26 26 84 31 31
91 38 39 95 43 43 97 46 44 97 46 44 96 46 42
95 45 39 94 45 36 92 45 34 89 43 30 83 38 25
78 33 21 75 29 18 73 26 17 73 25 16 75 24 16
82 29 20 91 35 23 101 42 25 110 47 25 115 48 21
125 55 22 148 75 36 185 109 65 214 134 89 218 134 92
193 109 71 164 82 51 145 67 41 138 66 46 141 76 59
147 89 76 153 100 90 161 113 105 179 133 126 176 132 127
134 93 89 77 39 37 41 7 4 36 4 1 36 5 1
39 6 1 48 10 5 60 15 11 72 19 17 84 22 23
97 26 30 114 35 42 133 49 57 156 68 78 177 85 96
192 97 109 201 103 116 208 108 122 213 110 125 209 105 121
202 98 115 197 93 110 197 94 111 198 95 112 198 95 113
195 93 110 187 85 101 179 76 93 176 73 90 182 78 95
189 83 101 193 85 103 192 82 101 190 78 98 189 75 96
193 76 99 199 82 105 206 91 110 204 93 103 196 91 88
194 96 79 208 116 86 225 138 97 223 138 90 208 126 75
191 109 61 182 98 56 174 89 56 171 86 62 165 80 65
152 67 58 135 51 46 123 40 35 117 34 31 115 32 31
121 37 39 125 40 48 127 40 58 134 45 74 154 64 105
175 85 137 193 103 166 206 119 188 224 141 214 239 162 235
245 174 245 242 176 245 236 173 240 232 173 238 229 172 236
225 169 233 222 168 230 229 176 235 240 186 245 241 185 246
223 161 231 200 133 212 182 111 197 175 100 189 167 88 179
160 80 168 155 73 158 151 70 150 147 66 142 144 63 135
141 61 129 139 60 124 137 59 119 135 58 114 132 55 106
128 52 99 123 48 91 118 44 84 115 41 79 113 39 77
111 38 75 160 96 164 158 94 163 157 93 164 158 94 168
167 102 180 183 118 200 200 134 221 196 130 220 165 100 191
125 61 149 102 40 122 91 31 106 82 25 91 71 16 73
63 11 59 60 10 51 59 11 45 57 11 41 56 11 38
54 10 34 51 8 29 50 7 26 49 7 23 51 10 23
53 12 23 53 13 22 50 10 18 46 7 14 46 7 13
48 10 16 53 15 19 56 18 21 58 18 20 59 17 18
58 16 16 58 14 14 59 14 13 59 13 14 60 13 15
61 12 15 60 11 14 59 9 13 59 9 13 60 11 14
62 12 16 62 14 17 62 14 17 63 14 18 65 14 21
67 16 26 70 18 32 72 19 36 71 19 39 69 16 39
65 13 37 63 12 37 62 12 36 64 14 38 66 17 40
66 19 41 63 17 39 55 11 34 47 5 27 43 1 24
42 0 24 43 1 25 45 3 28 51 7 33 57 12 40
64 17 46 68 20 50 70 19 52 70 17 52 69 15 51
72 16 54 76 18 59 78 19 60 80 19 62 84 23 67
95 34 78 106 44 90 112 50 96 109 47 91 99 37 80
88 27 67 82 21 59 81 20 54 80 19 50 79 18 44
79 18 40 79 19 36 78 18 32 77 17 28 75 16 25
74 16 23 74 16 22 73 17 23 74 18 23 75 19 23
75 20 22 75 21 22 76 21 22 76 22 22 79 25 26
82 29 30 87 36 36 92 42 41 97 47 44 98 48 45
96 47 43 94 46 40 92 45 37 90 45 34 87 42 30
82 38 25 77 33 21 74 30 18 73 27 16 73 26 16
74 25 16 79 28 18 87 32 21 98 40 25 107 46 27
112 48 24 119 52 23 134 64 30 169 95 55 204 126 82
221 141 96 206 124 83 178 97 62 155 77 48 146 73 49
145 78 58 147 87 71 151 96 83 156 105 94 161 114 106
150 105 99 112 69 65 68 28 26 41 4 2 35 2 0
33 3 0 35 4 0 43 7 4 55 12 9 67 15 15
79 18 20 91 23 27 108 32 38 127 45 52 149 62 70
170 78 88 187 91 103 199 100 113 207 107 122 213 111 127
212 108 125 207 102 120 202 97 115 200 95 114 198 94 113
198 94 113 197 93 111 191 87 105 182 78 96 179 75 93
183 78 96 190 85 102 194 87 105 194 85 104 191 81 100
188 76 96 190 76 98 195 80 104 203 89 109 204 94 106
205 100 99 212 113 99 225 131 103 229 140 100 217 131 84
200 117 67 186 103 57 175 93 53 167 85 56 165 83 63
158 77 66 143 63 57 127 47 44 117 38 35 115 34 33
115 34 34 121 37 41 127 41 50 133 43 61 140 47 75
153 58 98 166 71 121 180 86 144 194 102 166 213 126 193
232 151 219 245 171 237 250 183 247 249 186 250 247 188 251
242 185 248 233 178 239 221 168 229 221 169 229 233 180 239
244 189 248 236 177 242 219 155 229 199 130 212 187 115 201
176 101 189 168 91 179 162 82 169 156 75 160 152 70 151
149 66 144 145 63 137 142 61 131 139 60 125 137 59 119
134 57 112 129 53 103 122 48 93 118 44 86 114 41 80
112 40 77 110 38 75 147 83 148 147 83 149 148 84 153
151 85 159 158 91 171 173 105 190 191 123 213 200 131 225
186 118 213 151 85 178 120 55 143 100 37 119 87 27 102
77 19 87 70 14 75 65 13 66 63 14 59 60 12 51
58 12 46 56 11 41 54 10 36 52 8 31 50 7 26
49 8 23 51 10 22 52 12 22 52 12 20 48 9 17
45 7 14 45 8 15 50 12 19 56 16 22 60 18 22
62 18 21 62 17 19 61 16 17 61 16 16 62 15 16
62 15 17 62 14 17 61 13 16 60 12 15 61 12 16
62 13 17 63 14 18 64 16 19 65 17 20 66 17 21
69 18 25 72 20 29 74 23 34 73 24 37 70 21 36
64 17 33 58 12 30 55 10 28 56 10 29 59 14 32
62 18 35 63 20 36 60 17 33 52 11 27 44 5 20
40 1 17 39 1 17 42 2 20 45 4 22 49 6 26
54 10 31 60 15 37 67 20 43 70 21 46 69 19 46
69 16 45 71 17 47 74 18 49 75 18 50 76 18 51
77 18 52 83 23 59 92 31 70 106 45 87 115 53 96
114 52 95 103 42 84 92 31 73 85 24 64 82 21 58
80 18 53 81 19 49 81 21 46 81 21 41 79 20 35
77 19 30 75 17 25 74 16 23 73 15 21 74 16 21
75 17 22 76 19 22 76 21 23 77 22 23 78 23 24
79 26 26 81 29 29 85 34 33 90 40 38 96 47 44
98 50 47 97 49 45 94 47 41 91 46 38 89 45 35
85 42 31 80 38 25 76 33 21 74 31 18 73 29 17
73 28 16 74 26 15 77 28 16 84 31 19 94 38 24
104 45 28 109 48 27 114 50 26 124 58 29 153 83 47
189 115 72 218 141 94 215 136 93 191 113 74 166 88 55
153 79 51 149 79 56 149 85 65 151 92 76 154 99 87
150 99 89 126 79 71 88 44 40 58 16 13 47 8 6
46 11 9 40 9 7 35 5 3 39 5 3 50 9 9
63 13 14 75 16 19 86 20 23 103 29 33 122 41 46
143 57 64 163 72 81 182 86 98 196 98 111 207 106 122
215 112 130 216 112 131 213 108 127 208 102 123 204 99 119
201 96 117 201 96 116 200 95 115 196 91 110 187 82 101
182 77 96 185 79 98 192 86 105 196 90 107 196 89 107
192 85 103 188 79 98 187 76 98 191 79 102 199 88 108
203 94 107 209 104 107 221 121 111 231 136 111 227 136 99
211 124 79 194 110 63 180 97 54 167 86 51 160 79 55
157 78 64 150 72 65 135 58 55 120 44 42 112 35 34
113 34 34 115 34 37 121 37 43 129 42 53 140 47 67
149 53 81 160 61 98 169 68 114 180 80 134 193 95 154
209 115 176 223 136 198 236 155 218 246 173 234 252 186 246
255 194 253 249 192 252 237 182 242 222 169 230 218 165 226
227 174 235 241 186 246 242 184 248 235 173 242 222 156 232
211 143 223 200 129 213 191 117 204 185 107 196 179 98 188
172 89 177 165 81 165 156 72 152 148 65 141 142 60 132
137 58 124 133 56 116 128 53 108 122 48 97 117 45 89
112 42 82 110 40 78 109 39 76 139 76 137 140 76 139
141 76 143 143 77 150 149 81 161 162 93 180 182 111 204
199 129 225 202 131 230 181 112 209 147 80 173 116 51 139
95 32 115 83 22 100 76 18 90 71 16 80 68 17 71
64 15 61 61 14 55 59 12 49 57 11 42 54 9 35
50 7 28 48 6 23 49 8 21 52 11 21 52 12 21
49 10 18 44 6 14 42 4 13 45 7 15 52 12 20
59 16 22 62 17 22 63 17 20 62 17 19 62 17 17
62 17 17 62 17 18 62 17 19 63 16 19 63 16 20
63 16 20 64 16 20 66 18 21 68 20 22 70 22 24
72 23 26 75 24 29 76 25 33 76 26 35 71 24 34
64 19 29 55 13 24 49 8 20 47 6 19 48 7 21
52 11 25 56 15 29 58 18 30 56 17 27 50 12 22
43 6 15 39 2 12 38 1 13 42 3 16 45 5 20
48 7 22 51 9 25 57 13 31 65 19 37 69 22 42
71 22 43 71 19 42 71 19 42 72 18 43 72 17 43
72 16 42 72 14 42 74 15 46 80 20 54 93 33 71
109 49 88 118 57 99 116 55 98 107 46 90 99 37 81
94 32 75 89 27 67 87 25 61 84 24 54 83 23 47
81 22 40 78 20 33 75 18 27 73 16 22 72 14 20
73 14 20 75 16 21 76 18 22 77 21 24 79 23 25
79 25 26 80 28 27 81 30 29 83 33 31 88 39 36
94 47 43 98 51 47 97 51 46 94 49 43 92 48 40
88 46 37 84 42 32 78 38 26 75 34 21 74 32 19
74 30 17 74 29 16 74 27 15 76 27 14 81 30 17
90 36 22 99 42 27 106 46 29 111 49 29 117 53 29
138 71 38 170 100 59 207 134 87 219 145 99 205 129 88
178 102 66 159 84 52 152 80 52 150 81 59 148 85 66
146 87 72 134 80 68 108 58 49 80 33 27 68 24 20
75 34 32 80 45 42 69 38 35 49 20 18 40 7 6
47 7 7 59 11 12 70 14 16 81 16 19 98 26 29
117 37 42 139 53 59 157 66 75 176 81 92 192 94 108
205 105 122 215 113 132 220 116 137 220 114 136 215 109 131
210 104 126 206 100 122 205 99 120 204 98 120 200 94 115
191 85 106 186 80 101 187 81 101 194 89 108 199 93 111
199 93 112 196 90 108 190 84 103 185 78 98 188 79 101
195 86 106 201 94 108 211 106 112 223 122 116 229 132 112
221 128 96 205 116 76 188 103 60 172 88 50 158 76 47
151 72 53 148 71 61 140 65 61 126 52 51 114 40 40
109 33 33 111 34 35 115 35 39 121 37 45 131 43 56
146 53 73 160 62 90 170 68 104 177 73 116 185 81 129
194 92 145 204 105 161 212 117 176 221 132 192 234 152 213
246 174 234 253 190 249 250 191 251 237 181 240 222 168 229
217 164 226 225 170 234 234 178 241 236 178 243 236 175 243
234 170 243 231 165 240 223 156 235 214 143 227 206 130 220
200 120 213 196 112 205 188 103 192 177 91 177 164 79 161
153 70 147 145 65 136 139 62 126 132 58 116 125 52 104
118 48 94 114 45 86 111 43 81 110 42 79 133 71 128
134 71 131 135 71 135 138 71 142 143 75 154 155 86 172
172 101 193 190 119 215 201 130 229 195 125 224 170 102 198
137 71 163 109 44 132 91 28 111 81 21 99 76 18 89
72 19 79 69 18 70 65 16 63 62 14 55 59 12 48
55 9 39 50 6 31 48 6 25 49 7 23 52 11 23
52 11 22 49 9 18 44 5 14 42 3 12 44 5 14
50 10 18 56 13 20 59 14 19 60 14 18 60 15 16
59 15 15 59 15 15 59 14 15 61 16 18 62 17 19
63 17 21 63 17 20 64 17 20 66 19 22 69 22 24
73 26 27 76 27 29 77 27 31 74 25 31 69 22 28
61 17 24 53 11 19 46 6 15 42 3 13 42 3 13
43 5 16 47 9 20 51 13 23 53 15 24 51 14 22
47 11 18 42 6 13 39 2 10 38 2 11 42 3 15
45 5 18 48 7 21 50 9 23 55 12 28 62 18 34
68 22 39 71 23 42 72 22 42 72 20 40 72 18 39
71 17 39 72 15 39 72 15 39 73 15 42 76 17 47
84 24 58 96 36 73 108 47 86 112 51 93 112 51 95
113 52 96 113 51 95 107 45 87 96 34 72 88 27 59
84 24 50 82 23 43 79 21 35 75 18 27 73 16 22
72 14 20 73 14 20 75 16 21 77 19 22 79 22 25
80 25 27 81 27 28 80 28 28 80 29 28 81 31 29
85 37 34 91 44 40 95 49 45 95 50 45 94 49 43
92 48 41 88 46 38 83 42 32 78 38 26 74 34 21
73 32 18 73 30 16 73 29 15 74 28 15 76 28 15
81 30 17 88 34 20 96 40 25 103 45 28 109 49 30
114 52 29 127 62 31 153 85 45 189 119 73 216 144 98
218 144 101 196 121 83 171 96 62 155 81 51 148 76 51
142 74 53 133 70 53 119 61 48 102 49 39 91 43 36
96 51 47 113 73 69 123 87 83 109 77 73 77 48 44
52 19 17 47 8 7 56 10 9 67 13 13 76 14 15
91 21 22 110 33 36 134 51 56 154 65 72 170 77 88
186 89 103 201 101 120 214 113 134 222 118 141 223 118 141
219 113 136 213 107 130 209 103 126 208 102 125 207 101 124
203 97 119 194 88 110 189 83 104 190 84 105 197 91 111
201 96 115 203 97 116 200 94 114 194 88 108 188 81 102
188 80 102 194 85 106 201 93 109 209 104 112 217 115 113
219 120 106 212 118 92 199 109 75 183 96 60 164 81 48
150 69 45 144 64 50 139 63 55 131 56 54 118 45 44
109 35 36 107 32 32 111 33 35 114 35 39 119 36 45
130 43 56 145 53 73 162 65 91 175 74 108 183 80 119
187 83 128 191 86 137 194 92 146 197 98 155 203 107 167
216 126 186 235 154 215 249 178 239 251 188 250 241 181 242
229 171 234 224 168 232 227 172 237 228 171 237 224 165 232
220 160 228 223 161 232 231 167 240 233 166 244 226 156 239
215 141 230 208 129 222 204 121 215 198 113 205 190 105 193
183 98 183 175 93 173 167 88 162 157 81 149 146 73 133
133 62 115 123 54 101 115 48 90 112 45 84 110 44 81
124 65 117 126 65 120 128 66 125 131 66 133 137 70 145
147 78 161 161 91 180 174 103 198 184 113 210 186 115 214
175 106 203 152 85 178 124 59 148 101 37 123 88 26 107
82 23 97 78 23 87 75 22 79 70 19 71 66 15 62
61 13 54 57 10 46 53 7 37 51 7 31 52 8 28
53 10 27 53 11 25 50 9 21 46 6 17 45 5 15
47 7 16 52 11 19 56 13 21 59 14 20 58 14 17
57 13 15 56 12 13 54 11 12 54 10 11 55 11 13
56 12 15 58 13 16 58 13 16 59 14 16 61 16 18
64 19 20 67 22 22 70 23 24 69 22 24 65 19 22
59 14 18 51 9 14 45 5 11 41 3 9 39 3 10
40 4 11 41 6 13 43 8 15 45 10 17 46 11 18
45 10 16 42 8 13 38 4 10 37 2 8 37 2 10
41 3 14 45 6 18 47 7 20 49 8 21 53 11 25
59 15 30 66 21 36 70 23 40 73 23 41 72 21 39
71 18 37 70 16 36 70 15 36 71 15 37 73 15 40
75 17 44 79 20 50 86 26 59 92 32 68 98 38 77
105 44 86 117 56 99 125 63 106 121 59 100 105 43 81
92 31 63 85 25 52 82 23 43 79 21 35 76 18 28
74 17 23 74 16 22 76 17 22 77 18 23 78 20 24
79 22 26 80 25 27 81 27 28 79 27 27 78 27 26
78 29 27 82 34 31 88 41 36 92 46 41 94 49 43
93 49 43 91 48 40 88 46 37 83 42 32 77 37 26
74 33 21 73 31 18 72 30 16 72 28 15 74 28 15
76 28 16 80 29 17 85 32 19 92 37 23 100 43 26
106 47 29 110 49 27 117 54 24 135 70 31 167 99 55
202 132 87 222 149 107 214 140 100 189 114 77 164 89 56
147 73 44 135 63 39 121 54 35 109 47 32 105 48 38
112 61 53 126 80 75 140 99 95 146 110 106 134 102 96
104 73 67 70 36 31 52 13 10 53 8 6 63 11 10
72 13 12 84 17 17 102 28 30 125 45 49 145 59 67
161 70 81 177 81 97 195 96 116 213 111 134 224 120 145
225 121 145 220 115 139 214 109 132 210 105 129 210 105 128
208 103 126 204 98 121 197 91 114 193 87 109 193 88 110
198 93 114 203 98 119 206 101 122 204 99 120 199 94 115
194 87 109 192 85 107 195 87 108 201 94 112 208 102 114
212 109 112 211 112 103 205 110 91 193 102 76 176 89 61
159 74 49 146 64 45 140 60 49 134 57 52 124 49 48
112 38 39 105 32 32 104 30 30 108 32 33 112 34 37
117 36 44 125 41 53 138 49 67 153 59 84 170 71 103
182 80 118 187 83 127 188 83 131 187 83 135 185 83 138
186 86 144 195 99 158 215 127 189 235 156 219 248 177 241
246 181 244 240 179 243 236 178 242 235 178 243 228 172 237
216 159 225 205 146 214 203 142 213 213 149 222 224 158 235
223 153 235 209 135 222 197 119 209 191 110 202 190 106 198
187 104 194 186 103 191 184 103 186 178 100 177 168 93 163
155 84 146 140 70 124 127 60 107 116 50 92 111 46 84
107 43 79 116 58 104 118 60 108 121 61 113 124 62 122
131 66 135 141 73 150 151 82 165 158 88 178 164 93 186
166 95 191 164 95 190 153 85 178 133 67 157 112 46 134
95 32 116 88 27 104 83 26 95 81 25 88 76 21 80
71 18 72 66 15 64 62 13 55 58 10 46 55 9 40
54 9 35 55 11 33 55 11 30 52 10 27 50 8 23
49 8 21 51 10 22 55 13 24 59 15 25 60 16 23
59 14 20 56 12 16 53 10 13 51 8 11 49 6 9
49 6 8 49 6 9 50 7 10 51 7 10 52 8 10
53 10 11 55 11 12 56 13 12 57 13 13 56 12 13
53 10 12 48 6 9 43 4 6 39 3 6 38 3 7
38 4 9 38 6 10 39 6 11 40 7 12 40 7 12
40 6 12 38 6 10 36 4 8 34 2 5 34 1 6
36 2 9 41 4 14 44 6 17 47 7 19 48 8 20
51 9 22 56 13 26 63 18 33 68 22 37 71 23 39
70 21 37 70 18 36 69 16 34 69 14 34 69 14 35
70 13 35 73 15 39 77 18 44 81 22 51 84 24 56
85 25 60 90 30 68 105 45 84 120 59 99 121 59 98
107 45 81 93 32 63 85 25 51 82 23 43 80 22 35
77 19 29 77 19 26 77 19 25 79 20 26 80 21 26
80 22 26 80 23 26 80 24 26 79 26 26 78 26 25
76 26 25 77 27 25 80 31 28 84 37 32 88 42 38
91 46 41 92 47 41 90 46 39 86 44 35 82 41 30
76 36 25 74 33 20 72 31 18 73 30 16 73 29 15
74 29 16 76 29 17 79 30 18 82 31 18 89 34 21
96 40 24 103 45 27 106 47 25 110 49 20 120 57 21
143 78 36 178 110 67 210 139 97 221 148 107 206 131 93
179 102 67 153 75 44 133 57 31 117 45 23 109 42 25
113 53 40 128 74 65 141 93 87 144 103 99 143 107 103
134 102 95 114 83 75 83 50 42 58 21 16 51 8 5
58 9 6 68 12 10 79 15 14 93 23 23 113 37 40
134 51 58 150 61 73 167 72 89 188 89 111 209 108 133
223 120 146 225 121 146 219 115 140 214 109 133 211 106 130
210 105 129 208 103 127 204 99 123 199 95 118 197 92 115
196 91 114 198 94 116 203 99 122 208 103 125 208 104 126
205 100 122 201 95 118 199 92 115 200 93 115 203 96 116
207 101 116 210 107 114 208 109 106 200 105 94 187 95 78
170 82 63 155 69 53 145 62 49 139 58 52 132 54 52
120 45 45 108 34 35 102 29 29 102 28 28 105 30 31
109 32 35 114 35 42 120 38 49 128 42 58 140 48 71
158 62 91 175 75 110 185 81 122 187 81 127 187 80 131
182 77 130 178 73 129 179 78 136 195 99 160 216 128 192
236 156 222 245 172 238 248 182 247 247 186 250 244 186 250
235 178 242 220 163 229 201 143 210 188 129 199 191 129 202
208 143 220 217 148 229 205 132 217 187 110 198 172 92 184
169 87 180 167 86 178 170 90 180 172 94 179 170 95 174
163 91 163 153 83 148 138 71 127 126 61 110 115 51 93
107 45 83 103 40 76 113 57 95 115 59 99 118 61 106
122 63 115 129 67 127 137 72 141 145 78 154 149 80 163
152 82 170 154 83 175 154 85 177 151 82 173 141 74 163
127 60 148 110 45 130 96 33 114 88 28 103 85 26 96
81 24 90 78 21 83 74 19 76 70 17 68 65 14 59
61 12 51 59 11 44 58 11 40 57 12 37 55 11 33
53 10 29 53 10 28 55 12 28 58 15 30 60 16 30
61 16 28 59 14 24 56 12 21 53 9 16 50 7 13
48 6 11 47 5 9 47 4 9 47 4 8 46 4 7
47 5 6 46 5 6 46 5 4 46 5 4 47 5 4
47 5 5 44 4 5 41 2 3 37 1 2 35 2 3
35 3 4 34 4 5 35 5 7 35 5 7 36 5 8
35 4 7 34 3 6 32 2 4 31 1 3 30 0 2
31 0 4 34 2 8 40 4 13 43 7 16 45 8 17
46 7 18 49 8 19 53 10 22 59 16 28 65 19 32
68 21 35 68 20 34 68 18 33 67 16 32 67 15 32
68 14 31 68 13 32 70 14 33 73 15 36 75 17 41
77 19 46 78 19 50 81 22 56 90 30 66 104 43 80
108 47 83 103 41 75 91 31 60 85 25 49 82 23 42
80 22 36 79 22 32 81 23 31 82 23 30 83 24 30
83 24 29 82 24 27 81 24 27 79 24 26 78 24 25
76 24 24 76 25 24 76 26 24 78 29 26 80 33 29
85 39 34 88 43 38 89 45 39 88 44 37 84 42 33
79 38 28 75 35 23 72 32 20 72 31 18 73 31 18
73 30 18 75 30 18 77 30 18 79 30 18 81 31 18
86 33 20 92 37 22 99 42 25 102 45 23 104 47 19
110 50 15 124 62 22 150 86 44 185 117 76 211 140 99
215 140 100 197 119 82 169 89 55 144 64 35 125 48 24
117 45 26 119 55 40 131 73 63 138 88 82 137 94 89
131 94 89 123 90 82 109 78 69 85 52 43 61 25 19
50 9 4 55 9 5 66 13 8 75 16 12 85 19 18
101 29 31 121 41 47 139 52 64 156 63 81 178 80 103
203 101 127 219 115 143 223 119 146 217 113 139 212 108 134
210 106 131 208 104 130 206 102 127 203 99 124 202 98 123
200 96 121 198 94 119 198 94 118 202 98 123 208 104 128
210 107 131 209 105 129 208 103 126 207 101 124 207 100 123
206 100 121 207 101 119 209 106 118 208 108 113 199 102 99
183 90 83 165 75 66 153 66 58 144 60 55 138 56 55
129 50 51 117 41 43 106 32 33 100 27 27 99 26 25
102 28 29 107 31 34 113 35 41 118 38 47 124 39 54
133 43 63 151 56 82 168 69 101 182 78 116 187 81 124
191 83 131 189 80 131 181 73 125 176 70 125 183 80 140
198 101 166 216 128 195 234 153 220 246 175 240 252 187 251
250 190 254 243 187 249 230 174 239 208 152 218 187 129 198
179 118 190 195 131 206 213 144 224 209 137 220 189 113 200
166 88 178 157 78 172 152 74 168 151 74 166 150 75 162
148 75 157 144 74 149 139 72 139 131 67 125 123 61 111
113 52 95 104 44 82 98 38 73 116 63 92 118 65 97
122 67 104 126 69 112 132 72 124 139 76 137 143 79 147
146 79 154 150 81 162 153 84 169 155 86 173 158 89 176
160 92 179 156 88 174 140 73 158 116 51 133 97 34 114
88 26 102 85 24 97 83 23 92 80 22 87 77 20 80
73 18 72 67 15 63 63 13 55 61 12 49 59 12 45
57 11 40 55 10 36 55 10 34 56 12 34 57 13 34
59 14 34 59 14 32 58 13 30 56 12 27 54 10 24
53 9 21 51 8 19 51 8 17 51 8 16 50 7 14
47 6 11 45 4 7 44 3 4 43 2 2 42 2 1
43 3 2 42 2 3 40 2 3 36 0 1 33 0 1
32 1 1 31 2 2 30 2 2 30 3 3 31 3 3
32 3 4 30 2 3 29 1 2 27 0 1 27 0 1
28 0 1 30 1 3 34 2 7 39 5 12 43 8 15
45 8 16 45 7 16 47 7 17 50 9 19 56 13 24
61 17 28 64 19 31 65 18 31 67 18 31 67 17 30
67 15 30 66 14 28 66 12 27 67 12 28 70 13 30
72 15 34 73 15 37 73 14 40 75 16 45 81 22 53
93 33 65 99 39 70 99 39 68 92 31 58 86 26 49
82 24 42 82 23 38 83 25 37 85 26 36 85 26 34
85 26 32 84 25 30 83 25 28 81 24 27 79 24 26
77 24 24 76 24 23 75 25 24 76 26 24 77 28 25
78 31 27 82 36 31 86 41 35 87 43 37 85 42 34
81 39 31 77 36 26 73 33 22 71 31 19 72 31 19
73 32 19 74 32 20 75 31 19 76 31 19 78 31 19
80 31 19 83 32 19 89 35 20 95 40 23 98 43 22
100 45 18 103 46 13 111 52 14 128 66 26 157 92 51
191 122 81 213 139 99 212 135 96 192 111 75 165 84 52
140 62 34 126 52 30 122 55 37 127 67 54 132 79 71
131 85 79 122 82 76 111 76 68 97 65 55 79 46 36
60 25 17 52 13 7 57 14 9 66 17 11 72 18 13
79 18 15 92 24 24 110 34 39 129 45 56 147 56 73
169 72 94 195 94 120 214 110 138 220 116 143 215 111 138
212 108 134 210 106 132 207 103 130 204 100 127 203 99 126
205 101 128 204 100 126 200 96 122 197 93 118 201 97 123
208 104 129 212 108 134 212 108 134 213 108 133 214 108 132
213 106 130 209 103 126 206 101 122 208 105 122 209 108 120
198 100 106 180 86 87 160 69 69 151 62 62 142 57 58
134 51 55 124 44 48 113 36 40 103 29 30 98 25 24
96 24 22 100 27 27 106 31 33 112 35 41 119 40 48
127 44 57 135 47 65 150 56 80 165 66 95 181 77 111
188 81 121 195 86 129 196 86 132 190 79 128 182 72 124
181 73 130 187 84 147 198 103 169 218 130 197 238 160 226
251 182 246 253 192 254 250 194 253 241 186 248 219 164 227
194 136 204 176 116 186 186 122 197 208 140 218 212 140 222
194 119 205 164 88 178 149 73 167 142 66 162 139 64 158
136 63 153 133 63 148 131 63 141 127 63 133 124 63 123
120 60 111 112 54 97 102 45 82 96 39 73 120 70 92
123 73 97 127 75 104 132 77 114 137 80 124 142 82 135
145 82 142 147 81 149 149 82 156 154 85 165 161 92 174
174 104 188 188 119 203 194 125 209 183 114 199 151 83 168
119 54 137 96 32 113 88 25 104 84 21 97 81 20 92
79 19 87 78 20 83 76 19 77 71 17 69 65 13 60
60 10 53 57 8 47 55 7 43 55 8 40 54 8 38
55 10 38 57 11 39 59 12 40 60 13 39 60 13 38
59 14 36 58 13 33 57 12 30 57 13 28 56 12 26
54 11 22 50 8 17 48 7 13 47 7 11 46 6 8
44 4 5 43 3 5 41 3 5 39 3 5 34 1 3
31 0 1 28 0 1 26 1 0 26 1 0 27 1 1
28 2 1 28 1 1 27 0 0 26 0 0 25 0 0
26 0 0 27 1 1 30 2 3 34 4 7 39 7 12
42 9 15 44 10 16 44 8 15 45 7 15 48 8 16
52 10 19 55 13 21 59 14 24 61 16 26 64 16 28
65 17 27 65 15 27 65 14 25 65 12 25 66 12 24
67 11 25 68 11 27 68 11 29 69 12 32 72 14 37
77 19 43 86 28 53 92 33 59 96 36 61 92 33 56
89 30 50 86 27 45 85 27 42 87 29 42 88 29 40
88 29 37 87 28 34 87 28 32 85 27 30 82 25 29
80 24 26 77 23 24 75 23 22 75 24 23 76 26 24
76 28 25 77 30 26 80 34 30 84 39 33 84 40 34
82 38 31 78 36 27 75 34 24 73 33 22 72 32 20
72 32 20 73 32 20 74 32 21 74 31 20 75 31 20
77 30 20 79 31 19 81 32 19 86 34 20 90 38 21
94 41 20 96 42 17 99 44 13 104 47 12 114 54 16
133 69 30 163 95 55 194 123 81 215 140 99 211 132 94
191 111 76 162 83 52 140 65 39 127 57 37 126 62 47
128 71 60 125 75 67 114 71 63 100 63 53 85 51 41
71 37 27 60 25 16 59 22 14 64 23 16 68 23 16
71 21 15 75 19 15 85 21 21 101 29 33 120 39 49
138 50 65 160 64 85 185 85 109 206 103 130 215 112 139
215 111 138 213 109 136 211 108 135 209 105 132 206 102 130
205 101 129 207 103 131 206 102 130 201 97 125 196 93 120
199 96 123 207 103 131 213 109 137 215 111 138 217 112 138
218 113 138 215 110 135 210 105 130 206 101 125 208 104 126
209 108 126 197 99 112 178 83 92 157 65 72 147 57 64
137 51 58 128 45 52 119 39 45 109 32 36 102 26 28
97 23 23 95 23 22 99 28 27 106 33 34 111 36 40
116 38 45 125 42 54 138 50 66 153 59 80 167 67 94
179 74 106 187 80 115 193 83 123 193 83 125 189 78 122
183 72 119 180 71 123 183 76 136 190 88 153 206 112 178
228 144 210 246 173 237 254 190 252 253 195 255 248 192 252
230 175 237 209 151 218 187 127 197 189 125 199 207 138 216
213 142 223 198 124 209 165 91 181 144 71 165 135 62 159
131 59 155 127 57 149 122 55 142 119 54 134 116 55 126
114 55 117 110 54 106 103 48 92 95 41 78 89 36 69
120 73 89 124 76 94 129 79 102 134 82 112 139 84 122
144 85 132 146 84 139 147 83 146 149 83 152 155 87 162
167 97 176 187 116 197 207 136 219 217 146 229 210 140 224
182 113 198 148 80 165 115 48 133 98 32 116 89 23 105
84 20 99 82 19 95 83 22 93 83 23 91 79 21 84
71 15 73 63 9 62 58 5 54 55 4 49 54 4 46
52 4 43 53 5 43 55 6 44 59 9 47 61 12 48
63 15 49 64 16 48 63 16 46 61 16 42 61 16 39
60 15 35 56 13 30 52 10 24 52 10 21 52 10 19
49 8 15 45 5 10 42 3 9 40 3 9 38 3 9
33 2 7 29 1 4 25 0 1 23 0 0 24 1 1
25 1 1 26 1 1 26 1 0 25 0 0 25 0 0
24 0 0 25 1 0 27 2 0 30 3 3 34 5 6
39 8 11 42 10 14 44 10 15 44 9 14 44 8 14
46 8 14 49 9 16 51 10 17 54 11 19 58 14 21
61 15 24 63 16 25 64 15 25 63 13 23 63 12 22
65 11 21 66 11 23 68 11 24 68 11 25 69 12 28
71 14 32 74 17 35 80 23 42 86 27 47 91 32 52
92 33 52 91 32 50 89 31 47 89 31 45 89 31 45
89 31 42 89 30 38 88 29 35 87 28 33 86 28 31
83 26 30 80 25 27 77 24 24 76 24 23 76 25 24
77 27 25 77 28 25 77 30 26 80 34 29 82 37 32
82 37 31 79 35 28 75 33 24 73 32 22 72 32 22
72 32 21 72 32 21 72 32 20 73 32 20 73 31 20
74 31 20 75 30 21 77 31 20 80 32 20 83 34 19
86 36 20 89 38 19 92 40 16 95 42 14 100 45 12
106 48 12 118 56 18 139 75 34 171 103 60 203 131 88
218 142 101 211 134 95 186 109 74 159 83 54 137 66 42
129 62 43 125 64 50 119 64 52 104 56 46 87 46 36
72 35 24 61 27 16 59 24 15 65 29 20 70 32 24
69 28 21 68 23 17 71 20 16 80 21 20 93 25 28
110 34 42 130 45 58 151 59 77 175 77 99 197 95 121
209 106 133 214 110 137 214 111 138 213 110 137 211 107 134
208 105 132 207 103 131 208 104 133 207 103 132 202 99 127
197 94 122 199 96 124 207 103 132 213 110 138 215 112 140
217 113 141 218 114 140 216 111 138 211 106 133 207 102 129
208 105 130 209 107 130 199 100 119 178 82 98 155 61 75
140 49 62 130 43 55 122 38 48 114 33 41 105 28 33
99 24 26 95 22 22 95 23 22 99 28 27 106 33 34
109 35 38 111 34 39 119 37 46 135 48 62 150 57 76
165 66 89 175 72 100 186 80 111 191 82 116 188 79 115
181 71 110 176 66 107 175 65 112 178 69 124 182 76 138
193 94 158 213 123 187 233 154 218 247 178 240 251 189 250
250 191 252 236 179 242 221 163 229 202 142 212 200 136 210
213 145 223 221 149 231 208 135 221 174 101 191 145 73 167
128 58 154 119 50 146 111 44 137 105 40 128 100 38 119
98 40 112 97 41 104 94 41 93 88 38 81 82 33 69
78 30 61 117 71 84 120 74 89 125 77 98 132 81 108
137 83 118 142 84 127 145 84 135 148 84 143 152 86 151
161 92 164 174 103 179 190 118 197 203 132 212 209 137 219
208 136 219 191 120 205 163 93 180 128 59 147 105 36 123
93 24 110 87 20 104 84 18 100 84 20 99 87 24 100
85 24 96 79 19 87 69 12 75 62 7 66 59 5 60
58 5 57 57 6 55 58 6 55 60 8 57 64 11 60
67 15 63 69 17 63 68 18 61 66 17 57 64 16 53
63 16 49 61 15 43 57 13 37 55 11 32 55 12 30
55 12 27 51 9 22 45 5 16 42 3 14 40 3 14
38 4 15 33 3 12 28 1 8 24 0 4 22 0 2
23 1 2 24 2 2 25 2 2 25 1 0 24 0 0
24 0 0 24 0 0 25 1 0 26 2 0 30 4 2
34 6 6 39 9 10 41 11 12 43 11 13 43 10 12
43 8 12 44 8 11 46 7 12 48 8 12 50 9 14
54 11 17 58 14 20 61 15 21 61 14 22 61 13 20
63 12 20 64 11 19 66 11 20 66 11 20 67 11 22
69 13 23 71 15 26 73 17 29 77 20 33 80 23 37
85 26 41 87 29 43 88 30 45 89 30 45 89 31 45
89 31 45 89 31 42 89 30 39 89 29 35 88 29 34
87 29 33 85 28 31 83 27 29 80 27 27 79 27 26
78 27 26 78 29 27 79 30 27 79 32 27 80 34 29
81 36 31 80 35 29 76 32 25 73 30 22 73 31 22
73 32 23 73 33 22 73 33 21 72 32 20 71 31 19
71 31 20 72 31 21 74 31 22 76 31 21 78 32 20
81 33 19 82 33 18 84 34 16 87 37 15 92 40 14
97 43 13 102 46 11 107 49 11 119 58 17 143 78 36
176 107 64 205 133 90 217 143 102 208 133 95 184 110 76
158 86 58 139 70 47 126 60 42 112 52 37 95 42 29
77 32 20 62 22 12 55 18 9 59 24 15 68 34 25
72 36 28 67 30 23 65 24 18 67 21 17 74 21 19
84 22 24 99 27 33 118 38 48 141 52 67 163 68 88
184 85 108 198 97 122 209 106 133 214 111 138 215 112 139
212 109 136 209 106 133 207 104 132 207 104 132 207 104 133
204 101 130 200 97 126 201 98 127 206 103 132 211 108 137
214 111 140 216 112 140 217 113 141 216 112 140 212 108 137
209 105 134 209 106 134 209 108 134 203 104 128 181 84 105
155 61 79 132 41 58 123 36 50 117 33 45 110 30 38
103 25 31 98 22 26 96 22 23 95 24 23 99 27 26
104 32 32 107 32 35 107 30 35 113 32 40 130 44 55
142 51 66 156 59 78 165 63 87 179 74 101 187 80 109
186 78 109 178 70 102 171 62 98 167 58 100 170 60 110
174 65 122 181 78 138 194 100 161 214 129 192 234 159 222
245 177 240 247 184 247 236 176 241 225 165 232 211 150 221
207 143 218 216 148 227 226 155 237 218 145 231 184 112 202
148 78 172 124 55 152 112 45 141 101 35 129 92 29 117
86 26 108 83 27 100 80 28 90 77 28 80 72 26 68
68 24 58 65 22 52 113 69 82 116 71 86 121 74 93
127 78 102 134 81 112 140 83 123 145 85 132 151 88 143
159 93 155 170 101 169 179 108 181 185 113 189 186 114 193
187 114 195 188 115 197 184 112 196 168 96 182 143 72 159
121 50 138 108 38 125 100 31 118 95 26 112 91 24 108
92 26 108 90 27 106 87 25 102 80 20 93 73 15 84
69 12 77 67 11 74 66 11 72 66 12 71 67 13 72
69 14 74 70 15 74 70 15 73 68 15 70 66 14 66
65 14 61 63 14 56 61 12 50 58 11 44 56 10 40
55 10 37 52 8 31 47 5 26 43 2 21 42 2 21
40 4 22 38 4 21 33 3 17 28 1 12 23 0 7
22 0 5 22 1 4 23 2 3 24 2 2 24 1 1
24 1 0 24 0 0 24 0 0 25 1 0 26 3 0
29 5 2 33 6 5 37 8 8 39 9 10 41 9 11
41 9 10 42 8 10 43 7 10 44 7 9 46 7 10
49 8 11 52 11 14 56 13 17 59 14 18 60 14 19
61 13 18 62 12 18 64 11 18 66 11 19 67 11 19
68 12 20 69 14 21 71 16 23 73 18 25 75 19 27
77 20 29 79 22 32 82 25 36 84 26 38 85 27 39
85 28 40 86 28 41 87 29 40 88 29 37 89 29 35
90 31 35 90 32 35 89 32 36 89 33 35 88 34 35
85 33 32 83 32 31 81 32 30 81 32 29 80 33 29
80 34 29 80 35 29 78 33 28 76 32 25 74 31 23
74 32 23 74 34 24 74 34 23 73 34 22 72 33 21
71 32 21 71 32 22 73 32 23 74 32 23 76 32 22
77 31 20 78 31 18 78 31 16 79 31 14 83 34 13
88 37 12 94 42 13 98 44 12 102 46 10 109 50 11
124 63 20 146 82 38 177 109 65 201 130 87 213 141 100
204 132 95 183 112 79 157 87 59 132 63 40 109 44 25
88 29 14 70 19 7 56 12 3 52 12 4 58 20 12
66 31 22 69 35 27 63 29 22 60 24 18 62 20 16
68 19 17 76 18 20 88 22 26 106 31 39 128 44 56
152 61 77 171 74 95 186 86 110 201 99 125 214 111 138
219 116 143 215 112 139 209 106 133 206 103 131 206 103 132
208 105 133 206 103 132 203 100 129 203 100 129 206 103 132
209 106 135 211 108 137 213 110 139 216 112 141 216 113 142
215 112 141 213 109 139 210 108 137 210 109 137 208 110 136
189 93 116 162 68 89 132 41 59 121 33 48 115 31 44
110 29 38 103 25 31 98 22 26 95 22 23 95 23 22
98 27 26 102 30 30 104 31 33 108 32 35 115 36 42
128 44 53 137 48 60 146 52 68 155 57 76 169 66 88
179 74 99 183 77 102 179 71 99 170 62 92 163 54 90
163 54 98 166 58 109 172 67 122 180 82 139 197 106 166
220 138 199 238 165 227 245 178 241 234 171 237 220 159 227
208 145 218 204 139 216 213 145 226 226 155 239 225 153 241
196 124 215 158 88 182 128 61 156 113 47 143 99 35 128
88 27 116 80 23 105 74 21 94 69 20 82 65 20 71
62 20 61 59 19 52 57 18 46 113 70 83 115 71 86
119 73 92 124 76 99 132 80 109 139 84 120 145 87 131
154 91 142 163 96 154 171 102 166 175 104 173 174 102 175
171 98 174 171 98 176 175 101 181 177 104 186 170 98 182
158 85 170 144 72 158 134 62 149 125 54 142 114 44 133
104 35 123 99 32 119 96 31 116 95 31 114 90 28 109
85 24 102 80 21 96 77 18 91 74 17 87 74 17 87
74 17 86 74 16 86 73 15 85 72 14 83 70 14 80
69 13 76 68 14 72 67 14 68 65 14 62 62 12 56
59 11 51 55 8 45 51 5 39 47 3 34 46 3 33
45 5 33 43 6 32 38 5 28 33 3 23 28 1 17
24 0 12 22 0 9 22 1 7 23 2 5 23 2 3
23 1 1 23 1 1 24 0 0 24 0 0 25 1 0
26 3 0 29 4 2 32 6 4 35 7 6 36 8 7
38 8 7 39 8 7 40 7 7 41 7 7 43 6 7
44 6 7 47 7 9 50 10 11 54 12 14 56 13 15
58 14 16 59 13 16 61 12 16 64 12 16 66 12 17
67 12 18 69 14 19 70 15 19 72 17 21 73 18 22
73 18 23 74 18 24 76 19 26 79 21 30 81 23 32
81 24 34 82 24 35 83 25 36 85 27 36 87 29 36
91 31 37 94 35 40 97 39 42 98 41 44 98 42 44
97 43 44 92 40 40 88 37 36 84 34 32 83 34 31
81 34 30 80 34 29 79 34 29 78 33 27 77 33 26
78 34 26 78 36 27 78 37 27 77 37 26 75 37 25
74 36 24 72 34 23 72 34 23 73 33 24 74 33 24
75 32 23 75 31 20 75 30 17 75 29 14 75 29 12
79 31 11 83 34 11 89 39 12 93 42 11 97 44 10
101 45 8 109 51 10 122 61 17 145 81 36 170 104 59
195 127 84 207 137 97 202 132 95 182 111 77 153 81 52
122 53 28 94 30 10 72 16 2 57 8 0 53 8 2
56 16 8 61 24 16 61 27 20 56 24 18 54 20 15
55 17 14 60 15 15 67 15 16 78 17 21 93 23 30
114 36 46 138 53 66 156 64 82 174 77 99 192 92 117
213 111 137 222 120 146 218 116 142 210 108 135 206 104 131
206 104 131 207 105 133 207 105 133 206 104 133 205 103 132
205 103 132 206 104 133 209 107 135 211 109 137 215 112 142
217 114 143 217 114 144 215 113 142 212 110 139 211 111 139
212 114 141 202 106 130 178 84 106 145 54 72 125 37 53
116 32 44 110 29 39 104 26 32 99 23 27 96 23 24
96 25 24 97 26 25 98 27 27 100 27 29 106 32 35
118 41 46 130 49 55 138 52 62 144 54 66 153 57 73
163 63 81 172 69 89 176 71 93 174 68 91 168 61 86
163 55 85 163 55 93 167 59 104 171 65 115 176 75 128
188 93 150 208 122 181 230 152 214 243 172 236 238 171 238
222 157 228 206 141 216 199 132 212 205 137 221 220 150 235
228 157 244 207 136 225 173 104 197 141 73 168 122 57 151
105 42 135 91 32 121 81 26 108 72 22 95 64 19 81
59 18 68 55 17 57 53 18 49 52 17 44 114 73 85
115 74 87 118 75 91 123 77 98 130 80 107 138 84 117
145 87 127 153 91 138 159 94 147 164 95 155 164 93 158
163 91 161 164 91 163 166 93 168 171 98 175 175 101 180
175 101 181 172 99 180 169 96 179 164 91 176 155 83 170
142 70 160 127 56 147 115 46 137 107 40 130 104 38 127
100 36 123 95 32 118 90 29 112 86 26 106 82 23 101
81 22 100 81 21 99 81 20 98 79 19 97 78 18 96
78 19 94 77 19 91 76 20 88 75 19 83 71 17 76
66 14 68 62 11 61 59 9 57 57 9 53 55 8 52
55 10 51 52 9 48 47 9 43 39 5 34 34 2 28
28 0 23 24 0 18 23 0 14 22 1 11 23 1 8
23 1 5 23 1 3 23 0 1 24 0 0 24 0 0
25 1 0 26 2 0 29 4 2 31 5 4 33 6 4
33 5 4 35 5 4 36 6 5 38 6 5 39 6 5
41 5 5 42 5 5 45 6 6 48 8 8 51 10 11
54 12 12 56 13 13 58 14 14 61 13 15 63 12 15
66 12 16 68 13 17 70 15 18 71 17 19 73 18 20
73 19 21 73 18 21 73 18 22 75 18 23 78 21 27
79 22 29 79 22 30 80 22 31 80 23 32 84 26 34
88 30 36 95 35 41 101 42 46 105 47 51 107 50 54
106 51 53 103 50 50 97 45 44 91 40 39 85 36 34
84 35 32 82 35 31 81 35 30 79 34 29 79 34 28
81 36 30 82 39 32 83 41 33 82 41 32 80 41 31
78 40 28 76 38 26 73 35 24 72 34 24 72 34 24
73 33 24 73 32 23 73 31 20 73 30 17 74 29 15
74 29 12 76 30 11 79 32 9 84 36 9 88 39 10
93 42 9 97 44 7 102 46 6 109 51 8 121 60 16
138 75 30 162 97 53 186 120 76 202 132 91 200 129 91
182 109 75 153 81 50 119 51 26 91 29 11 69 14 3
59 9 1 54 10 4 53 14 7 50 16 10 47 15 10
44 13 9 45 11 9 50 11 10 58 12 13 68 14 17
82 18 23 101 29 37 124 44 56 143 55 71 162 68 88
184 85 108 209 108 133 222 121 146 221 120 145 213 112 138
208 107 133 205 104 131 206 105 132 207 106 133 208 107 135
207 106 134 205 104 133 205 104 132 207 106 134 210 108 137
214 112 141 217 114 143 217 114 144 216 113 143 213 112 141
212 112 140 214 116 142 212 116 140 196 104 124 167 76 94
137 50 65 119 35 47 109 29 37 103 25 31 99 24 28
98 25 26 97 26 26 95 25 24 92 22 21 92 22 22
102 30 31 118 44 47 132 54 58 142 60 67 150 62 71
160 67 79 168 71 85 173 73 89 175 71 89 172 67 86
168 62 83 167 60 85 168 62 94 172 65 104 173 66 111
175 71 120 182 83 137 198 107 165 222 139 200 241 166 230
245 175 243 232 165 236 214 147 224 200 132 214 199 129 217
211 140 229 224 153 242 218 148 238 197 128 219 166 99 192
140 75 168 116 55 146 98 40 128 85 31 113 73 24 97
63 19 81 56 17 67 52 17 56 50 18 48 49 19 44
114 75 85 116 75 87 118 75 90 122 76 95 128 79 103
134 81 111 140 83 119 147 86 129 151 87 136 154 87 142
155 85 145 157 85 150 161 88 156 167 93 164 171 97 170
174 100 174 176 102 178 179 105 182 181 108 187 181 108 190
177 104 189 167 95 184 155 84 175 145 75 167 137 69 162
131 64 157 123 57 149 112 48 139 101 38 127 92 30 117
86 25 110 84 22 107 84 21 106 85 21 107 85 22 107
85 22 107 84 22 105 84 23 104 84 24 101 83 25 98
80 24 92 78 23 87 77 24 84 78 26 83 77 26 81
72 22 77 68 19 72 59 14 62 50 11 51 40 5 40
34 2 33 29 0 27 25 0 22 23 0 17 22 1 13
22 1 10 23 1 6 23 0 4 23 0 2 24 0 0
24 0 0 25 1 0 26 2 1 29 4 2 30 5 3
31 5 3 31 4 1 32 4 1 34 5 2 36 5 3
38 5 3 39 4 3 41 5 3 43 5 4 46 7 6
49 9 8 52 11 9 55 13 11 57 14 12 60 13 13
63 13 13 66 13 14 69 14 16 71 16 18 72 18 19
73 19 20 74 19 20 73 18 20 74 18 21 76 19 23
78 22 26 80 23 28 80 23 29 80 23 30 81 24 31
86 28 35 92 33 40 100 41 46 106 47 52 111 53 57
112 55 58 108 53 55 103 50 50 96 44 43 90 39 38
85 36 34 84 36 33 83 36 32 81 35 31 80 35 30
81 36 31 85 41 34 88 44 38 89 47 39 87 46 37
84 44 34 80 42 31 76 39 28 73 35 25 71 33 23
71 32 23 71 32 23 72 32 22 73 31 21 73 31 18
74 31 16 75 31 14 76 31 12 76 31 9 78 33 7
83 36 8 89 40 9 95 43 8 99 45 7 105 47 6
110 50 7 118 57 12 132 69 23 154 89 44 179 111 67
198 126 85 200 127 87 186 111 75 155 84 53 124 58 33
94 34 18 74 19 8 59 11 3 50 8 2 43 8 3
38 7 3 35 6 3 36 5 4 41 6 6 49 8 9
60 11 14 73 14 20 89 22 30 109 35 45 130 46 60
150 58 77 173 75 97 197 97 120 213 114 137 218 118 142
215 115 140 210 110 135 207 107 132 206 106 132 208 108 134
209 109 136 208 108 136 206 106 134 204 104 132 205 105 133
207 106 135 211 109 139 213 111 141 214 112 142 214 112 142
213 112 141 212 113 140 213 115 141 215 119 142 209 116 136
189 99 116 158 71 85 130 46 57 113 32 40 105 27 33
101 26 30 100 27 29 98 27 27 93 23 22 85 16 15
84 15 15 94 25 24 112 41 42 128 55 57 142 64 68
152 69 75 165 76 85 176 81 92 182 83 96 181 78 93
177 72 88 173 66 85 172 65 87 173 67 94 173 67 101
170 64 104 169 64 110 173 71 123 185 90 147 207 120 181
231 152 217 246 174 241 243 174 245 227 159 236 208 139 222
195 125 214 196 125 218 208 137 229 218 147 238 215 146 236
196 129 219 166 102 193 135 74 164 109 52 139 90 37 118
75 27 100 63 21 82 56 18 68 52 19 57 50 21 50
49 22 46 113 74 83 114 74 84 116 74 86 119 75 91
123 76 96 128 76 103 132 77 109 138 79 117 143 80 124
147 82 131 150 81 136 153 82 141 157 84 148 162 89 155
168 94 162 171 96 166 172 98 170 174 100 174 179 105 182
183 109 189 183 110 193 181 108 195 180 107 198 180 109 201
178 108 202 170 102 196 155 88 182 136 70 163 116 52 143
102 39 129 96 33 121 93 29 117 94 28 117 95 29 118
95 30 120 94 29 119 92 29 116 93 31 116 97 36 117
100 40 118 103 45 119 109 53 122 118 63 128 121 67 130
112 59 122 95 42 105 77 26 87 62 15 71 51 10 57
42 5 45 35 2 37 30 0 30 26 0 25 24 0 20
23 0 15 22 0 11 22 0 7 23 0 5 23 0 2
24 0 1 24 0 0 25 1 0 26 2 1 29 4 2
30 5 2 30 4 2 29 2 0 30 2 0 32 3 1
35 4 2 37 4 2 38 4 2 39 4 2 42 5 2
45 6 4 48 8 5 51 10 7 54 12 9 57 14 11
60 14 12 63 13 12 66 14 13 69 16 15 71 18 17
72 19 19 73 20 20 74 20 20 73 19 19 74 19 20
76 20 23 79 23 26 81 25 29 82 26 29 83 26 31
84 27 32 90 32 38 97 38 44 105 46 51 109 51 55
111 54 57 110 53 56 105 49 51 98 44 44 91 39 38
86 36 35 84 34 32 83 35 32 83 36 32 82 37 32
82 37 31 84 40 34 89 45 38 92 49 42 92 50 42
89 48 39 85 46 35 80 42 31 75 38 27 71 34 23
69 31 22 68 31 21 69 31 22 70 32 22 72 32 22
74 33 20 76 33 19 77 34 18 77 34 15 75 32 10
74 31 6 78 32 5 84 36 7 91 41 7 97 44 8
102 47 8 106 48 7 110 51 7 116 54 9 127 64 18
146 80 35 170 101 57 191 118 76 198 124 84 187 114 79
162 93 64 131 67 45 101 42 26 75 23 12 55 11 3
43 5 0 35 4 0 31 3 0 29 2 0 33 2 2
41 5 6 53 8 11 66 12 17 80 18 24 95 26 34
116 37 49 137 49 66 161 65 85 181 83 104 200 101 123
212 112 135 215 115 139 213 113 137 210 110 135 209 109 134
210 110 136 211 111 138 210 110 137 207 107 134 204 104 132
202 103 131 203 103 131 206 105 134 208 107 137 210 109 139
211 111 139 211 111 139 212 113 139 212 114 139 214 118 140
212 119 138 204 113 130 183 96 110 155 70 81 127 46 54
111 32 39 105 28 34 105 30 34 100 29 30 91 21 21
80 12 11 76 9 9 84 18 17 101 34 33 120 49 49
135 59 62 147 66 71 163 76 83 179 86 95 188 90 101
188 85 98 184 78 92 179 71 87 175 68 87 171 66 90
168 63 93 165 58 94 162 55 98 162 58 108 170 71 126
187 96 155 213 130 194 235 160 227 246 175 246 236 166 244
214 144 229 190 120 212 179 107 204 182 111 209 197 127 223
211 143 235 212 145 235 190 127 217 157 96 186 123 66 153
98 45 126 79 32 104 66 24 85 58 21 71 55 22 61
53 24 54 51 25 50 109 70 77 110 70 78 112 70 80
114 70 84 116 70 88 119 70 93 122 69 97 128 72 105
135 76 114 144 81 124 148 83 131 151 83 136 153 83 141
158 86 147 164 92 155 169 96 162 172 98 167 174 100 172
178 105 179 182 109 186 184 111 192 188 115 198 196 124 210
208 136 224 212 141 231 204 134 226 185 117 208 161 94 185
139 73 164 125 60 150 121 56 145 121 55 144 123 55 145
123 54 144 120 52 143 114 48 139 113 48 137 120 57 143
132 70 153 141 81 160 151 93 167 164 108 176 177 122 188
171 117 182 144 89 156 108 53 122 79 26 94 65 16 79
56 13 67 49 11 57 40 6 45 33 3 35 28 1 27
25 1 20 23 0 14 22 0 10 22 0 7 22 0 5
22 0 3 23 0 2 24 0 1 25 1 1 26 3 1
29 5 2 30 5 1 30 4 1 30 3 0 31 2 0
33 3 1 35 4 1 36 4 2 38 4 1 39 4 1
41 5 2 43 6 3 46 7 4 49 9 6 52 11 8
55 13 10 58 13 10 61 13 10 63 13 10 66 15 12
68 17 15 71 19 17 72 19 18 72 19 18 72 18 18
74 19 19 77 22 23 82 26 27 85 28 30 85 29 30
86 29 31 87 29 32 91 33 36 95 36 40 99 41 44
100 42 45 101 44 46 99 44 46 96 42 42 91 39 38
88 37 36 86 37 35 86 38 35 84 38 34 84 38 33
83 39 33 84 41 35 87 45 38 91 49 41 93 51 44
92 51 43 89 50 40 85 46 36 80 42 31 74 38 27
70 34 23 68 32 22 69 33 22 70 34 23 71 34 23
73 34 23 74 34 22 76 35 21 77 35 19 76 35 16
74 32 12 73 30 7 74 29 4 78 32 4 85 35 5
92 40 7 98 44 9 103 47 9 106 49 8 109 50 8
113 52 9 121 58 14 137 71 28 158 89 47 175 105 64
184 113 75 179 109 77 163 96 70 137 75 53 106 51 33
77 28 15 54 13 4 40 6 0 33 4 0 29 3 0
29 2 1 34 2 3 44 5 6 57 10 11 69 15 18
81 20 24 102 30 39 124 41 54 149 57 74 167 71 90
184 87 107 199 101 121 209 110 132 213 114 136 213 113 137
212 112 136 212 113 138 212 114 139 211 112 138 208 109 136
205 105 133 201 102 130 199 101 129 200 102 130 203 105 133
205 108 135 208 110 137 209 111 137 211 112 138 211 113 137
212 115 138 211 117 137 210 118 136 202 112 128 185 97 111
158 74 86 133 51 62 117 37 47 110 33 40 101 29 32
90 20 22 79 12 12 74 9 9 78 13 12 90 24 24
109 40 40 128 54 56 141 62 65 155 69 74 170 78 85
181 84 93 184 82 93 182 76 88 176 68 82 170 62 78
164 58 78 162 56 81 161 55 86 159 52 90 157 52 97
159 58 109 166 72 128 186 99 160 212 133 197 235 160 229
234 161 239 214 142 229 187 115 210 169 97 198 164 92 195
173 102 202 188 119 214 205 137 229 201 136 228 177 115 205
142 84 170 110 57 138 88 40 112 72 29 91 62 23 76
59 24 67 56 26 61 55 27 57 105 64 70 105 64 72
106 65 74 108 65 77 109 65 81 111 65 85 114 64 88
119 67 95 127 72 104 137 79 115 143 83 124 147 84 130
149 83 134 153 85 140 159 90 148 166 94 157 169 96 164
172 99 169 177 104 177 183 110 184 186 113 190 191 118 197
202 130 211 216 143 227 221 149 234 213 142 229 197 127 214
177 109 196 161 94 181 154 86 174 155 87 174 158 88 175
160 89 177 158 87 176 155 84 174 150 81 171 151 84 172
160 96 181 173 111 191 184 124 200 197 140 211 214 159 224
223 169 232 205 150 213 160 104 172 112 56 127 80 25 98
70 18 87 62 18 78 55 16 66 44 9 50 36 4 37
30 2 27 26 1 19 24 0 13 22 0 9 22 0 7
21 0 6 21 0 5 22 0 3 23 1 2 24 2 2
26 4 1 28 5 1 30 5 1 31 4 1 31 3 0
32 3 0 34 4 1 35 4 1 36 4 2 37 4 1
39 5 1 41 5 1 42 6 3 45 7 4 48 9 6
50 11 8 53 12 9 56 13 9 58 12 8 60 12 8
62 13 9 65 16 12 68 18 15 70 19 16 70 19 16
72 19 18 76 22 20 81 26 26 86 31 31 89 33 33
89 32 32 88 30 31 87 29 30 89 31 33 91 33 35
93 35 37 92 36 38 92 37 38 92 38 38 90 38 37
88 37 34 87 38 35 87 40 36 88 42 38 87 42 37
86 42 37 86 44 37 88 47 39 91 50 43 93 52 44
93 53 44 91 51 41 89 50 39 84 47 35 79 43 31
74 39 27 71 36 25 70 36 24 71 37 24 72 37 25
72 37 24 73 36 24 74 36 23 75 35 22 76 36 21
76 35 18 74 33 14 73 30 9 72 28 5 74 28 3
78 31 4 85 36 7 92 41 9 97 45 10 101 47 11
104 48 10 106 48 9 107 48 7 114 52 11 127 64 22
143 78 37 159 92 54 168 100 65 168 101 71 154 90 64
129 71 48 98 46 28 70 26 12 52 15 4 41 10 2
34 7 1 29 3 0 30 3 1 37 4 3 48 8 6
60 13 11 70 17 17 89 24 29 110 34 43 135 50 63
153 63 79 169 76 93 184 89 107 199 102 122 210 112 132
213 115 137 213 114 138 213 115 139 213 116 140 212 114 140
209 111 138 206 107 135 201 103 131 198 101 128 196 102 127
198 105 129 201 107 131 203 109 133 206 110 134 208 111 135
210 112 135 212 114 137 211 114 136 211 116 137 210 117 136
203 113 130 186 99 115 163 77 92 140 57 71 123 44 55
105 32 39 90 21 24 81 13 16 78 12 14 78 13 14
85 19 20 100 31 32 121 47 49 134 55 58 146 60 65
157 66 72 169 72 80 174 73 82 173 68 78 169 63 73
163 56 69 158 52 68 156 50 71 159 52 78 159 52 84
156 51 90 154 52 98 155 58 109 167 77 133 194 111 172
224 145 213 231 155 233 213 138 227 185 111 209 164 92 196
154 82 189 153 81 187 161 91 191 181 113 209 195 129 222
191 127 218 164 104 191 130 75 155 102 53 126 81 36 101
69 28 84 63 26 74 60 26 68 58 26 64 96 56 60
96 57 62 97 57 64 98 58 68 100 58 71 102 58 75
104 58 77 110 62 85 118 68 94 130 77 106 137 82 116
143 84 124 145 84 129 147 84 133 151 85 140 157 87 148
161 89 155 167 94 163 174 101 172 181 108 181 186 113 187
191 119 194 201 129 206 210 137 216 211 139 219 204 132 214
194 124 206 185 115 199 180 110 194 181 111 195 185 115 199
188 117 202 190 117 202 188 115 201 185 113 200 183 113 200
186 119 205 195 130 213 204 142 220 214 155 228 227 170 237
242 187 248 240 186 246 208 154 215 154 98 166 107 49 123
83 26 102 78 25 98 71 25 88 61 21 73 47 11 55
38 5 39 33 3 28 28 1 19 25 1 12 24 1 9
23 1 8 22 1 8 22 0 6 22 0 5 23 1 4
25 3 3 27 4 2 29 5 1 30 5 1 32 4 1
33 4 1 34 4 1 35 5 1 36 5 2 36 5 2
37 5 2 39 5 1 40 5 1 41 6 2 44 7 4
46 9 6 49 10 7 51 11 8 53 12 8 55 11 7
56 9 5 58 10 6 62 13 9 65 16 12 67 18 14
68 18 15 72 20 18 78 25 22 85 31 29 91 36 35
94 37 37 93 36 35 91 32 32 89 30 30 88 30 31
88 31 32 88 32 33 88 33 33 88 34 34 89 36 35
89 38 35 88 38 35 89 41 37 90 43 39 91 46 41
91 47 42 92 49 43 93 51 44 94 54 46 95 56 48
94 55 45 92 52 43 89 50 39 88 49 38 84 47 35
79 44 32 75 41 29 73 40 28 74 41 28 75 42 28
75 42 28 74 41 26 74 38 25 74 37 23 74 35 23
75 35 22 75 35 20 75 34 16 74 31 12 71 28 7
71 26 4 73 27 4 78 31 5 84 36 8 90 40 9
95 43 11 99 46 11 102 47 11 103 47 9 104 47 8
107 49 10 114 54 14 125 62 24 137 72 37 148 82 50
148 84 55 135 76 50 111 57 35 84 38 19 65 25 10
50 17 5 39 12 2 31 6 0 30 4 0 33 4 0
41 6 2 51 10 6 63 14 11 77 18 19 96 26 31
118 40 49 138 54 66 153 65 79 167 76 91 185 90 108
201 105 124 209 112 133 211 113 136 213 114 138 214 116 140
213 115 141 210 113 139 208 109 137 203 106 133 199 104 130
196 103 127 196 105 127 197 105 128 199 106 129 202 108 131
205 109 132 207 109 133 209 110 134 209 111 135 209 112 135
208 113 135 209 116 137 206 115 135 194 104 125 173 86 105
147 65 80 117 42 51 96 25 31 87 18 22 88 21 24
87 20 23 88 20 22 97 27 29 116 42 45 129 49 53
137 51 56 144 53 58 154 58 64 163 63 70 167 63 71
166 61 70 161 55 65 157 50 64 155 48 65 158 51 72
160 54 81 159 54 88 157 54 94 154 55 101 160 67 118
185 98 155 216 134 199 227 149 225 211 135 224 185 111 210
167 93 200 155 82 191 146 75 182 144 73 176 157 87 185
176 109 203 191 127 217 184 124 209 155 99 179 122 71 144
92 45 112 77 34 93 69 29 81 64 27 74 61 25 69
86 50 52 86 50 53 87 50 55 88 51 58 90 52 61
92 52 64 94 52 66 99 56 73 107 62 82 118 70 94
126 76 104 133 79 114 136 79 120 138 78 124 140 77 128
145 78 136 150 79 143 158 85 153 166 93 162 175 102 172
182 109 181 189 116 189 198 125 200 202 130 205 201 129 206
194 122 201 190 118 198 187 116 197 187 116 198 189 118 200
191 120 202 192 120 202 191 119 201 191 119 202 193 122 206
197 128 212 201 134 217 205 141 220 209 148 223 220 161 231
234 177 241 247 192 251 238 184 242 200 145 207 147 90 159
106 48 122 89 32 109 82 29 103 72 26 90 59 18 72
48 10 55 40 5 40 35 4 30 31 3 21 28 2 14
26 2 11 25 2 10 25 2 10 24 2 9 24 2 7
24 2 5 26 4 3 27 5 2 29 5 1 31 5 1
32 4 1 33 4 1 34 4 1 35 4 2 36 5 2
36 5 2 37 4 1 38 4 1 39 4 1 41 6 2
43 7 3 46 9 5 49 10 7 51 11 8 53 11 8
53 10 6 53 8 4 55 8 4 60 12 8 64 15 11
67 17 13 68 17 14 73 21 18 79 26 24 88 33 31
93 38 36 96 39 38 95 38 37 93 35 34 92 34 33
92 35 34 93 37 37 95 39 40 95 41 41 95 42 41
93 41 39 91 41 37 89 40 36 89 41 37 89 43 39
91 47 42 95 52 46 98 56 49 99 59 51 98 59 51
97 58 49 93 54 45 89 50 41 87 48 37 86 48 37
84 47 35 80 45 33 78 43 31 76 43 31 77 44 31
77 45 30 76 43 28 74 41 26 73 39 24 73 37 23
74 36 23 75 36 23 76 36 22 76 36 19 75 33 15
72 29 10 70 26 6 70 26 4 74 28 5 78 31 6
83 35 7 88 38 9 93 42 10 97 44 11 98 45 10
99 45 9 101 46 9 105 48 10 109 50 13 116 53 19
122 58 26 125 63 34 120 61 35 106 53 30 88 40 21
71 30 13 54 20 7 42 15 3 34 9 0 32 7 0
33 5 0 38 6 1 47 8 3 57 12 7 68 14 12
82 18 21 99 27 34 117 40 48 132 50 61 148 62 75
168 78 93 187 94 111 198 102 122 204 107 128 209 110 134
213 114 139 212 114 139 209 112 137 207 109 135 204 106 133
200 105 131 197 104 128 195 104 126 195 104 126 196 103 126
198 104 127 201 105 129 203 106 130 205 106 131 206 107 132
205 108 132 205 109 133 206 112 135 208 115 138 207 115 137
198 109 130 176 92 108 139 61 73 107 34 42 94 23 29
97 28 32 97 29 32 94 25 28 97 25 28 110 34 37
122 42 46 131 46 50 138 48 53 148 52 58 156 56 63
162 60 66 166 62 69 165 60 69 162 56 68 157 51 65
158 52 70 160 55 78 162 57 86 160 57 93 157 57 99
161 66 113 181 92 146 208 124 188 222 142 218 213 136 225
193 118 217 175 100 208 159 86 196 145 73 181 137 66 169
140 71 168 153 87 180 175 111 201 187 128 212 175 119 199
142 91 164 107 59 127 86 43 104 77 36 90 70 31 81
65 28 75 79 46 47 79 46 47 78 46 48 79 46 49
80 46 51 82 47 53 84 47 55 89 51 61 95 55 68
105 62 80 113 67 90 120 71 101 125 72 109 127 72 114
128 70 118 134 70 125 141 72 133 150 78 143 159 86 153
169 97 165 178 105 175 186 113 184 194 121 194 197 124 197
195 122 197 189 117 193 188 116 193 190 117 196 192 120 200
194 122 202 193 121 201 191 120 199 190 118 196 190 119 198
193 123 203 198 130 211 203 137 217 207 144 221 215 154 227
229 171 238 242 186 247 252 198 254 237 184 241 198 143 204
147 90 159 110 52 126 96 38 115 84 31 104 72 25 90
59 17 72 50 12 58 43 8 44 38 6 32 34 4 23
30 3 17 30 4 15 29 5 14 29 5 14 27 4 12
26 3 10 26 3 7 27 4 5 28 5 3 30 5 2
31 4 1 32 4 1 33 4 1 34 4 1 35 4 2
36 5 2 36 5 2 36 4 1 37 4 1 39 4 1
40 5 2 43 7 4 46 9 6 49 10 8 51 12 9
53 11 8 52 9 5 52 6 2 54 7 3 58 11 7
63 14 10 65 16 12 67 17 13 72 20 17 77 25 23
85 31 29 89 35 33 92 36 35 92 35 34 92 35 34
93 36 35 95 39 38 98 43 42 100 46 46 100 47 47
98 46 44 94 43 41 91 41 38 90 41 37 89 42 38
90 45 40 93 49 44 98 56 50 102 61 54 102 62 54
99 60 51 94 56 47 89 50 41 86 47 37 85 46 36
85 47 36 84 47 35 81 46 34 79 45 33 79 46 33
79 46 33 78 46 32 77 44 29 75 41 27 74 39 24
73 37 23 73 36 23 74 36 23 76 37 22 77 37 21
75 34 18 72 31 13 69 27 9 69 25 6 70 26 4
72 26 3 76 29 4 80 32 5 86 37 8 91 41 10
94 43 10 96 44 10 97 44 10 99 45 11 102 46 11
105 46 13 108 48 17 110 50 22 108 51 26 100 48 26
86 39 20 71 30 13 55 20 6 44 15 3 38 12 1
36 10 1 35 7 0 37 5 0 43 6 2 52 9 5
61 11 8 71 13 14 82 18 21 95 25 31 109 34 42
125 45 56 146 61 74 166 77 93 181 88 106 192 95 116
201 102 125 208 108 133 209 110 135 207 108 133 205 106 132
204 106 132 201 105 131 199 105 129 197 103 128 196 103 127
197 102 127 198 102 127 199 102 128 200 102 128 201 103 129
201 103 129 202 104 130 202 105 131 204 108 133 206 111 136
208 115 139 208 117 140 197 110 128 163 82 95 124 48 57
103 30 36 104 32 37 109 38 43 104 33 37 99 26 30
103 27 30 113 33 37 128 43 47 139 49 54 148 53 59
153 55 60 157 56 62 161 58 65 164 61 69 163 59 68
159 55 66 157 53 67 159 55 74 162 58 83 162 59 90
158 58 96 160 63 108 172 80 133 192 106 168 209 127 202
213 134 222 202 126 225 184 108 215 163 90 198 145 74 179
135 65 166 131 63 159 135 69 161 151 89 177 174 115 198
181 126 204 158 107 180 123 75 142 96 52 113 85 44 100
78 39 90 74 36 84 74 44 44 74 44 44 73 43 44
73 43 44 74 44 45 77 45 47 79 47 49 83 49 55
88 52 60 95 57 70 102 60 79 109 63 89 114 66 98
118 67 106 122 68 113 130 70 122 139 72 131 150 78 141
158 86 151 167 95 161 175 103 170 182 110 178 190 118 187
193 121 192 192 120 192 188 116 190 189 116 191 192 120 196
197 125 202 199 127 205 197 126 203 194 123 199 190 120 195
188 119 194 191 123 198 197 130 207 204 139 216 213 150 224
225 164 234 239 180 245 249 193 252 254 199 255 240 185 243
204 148 210 157 100 168 119 61 135 100 42 119 85 30 104
72 24 90 61 18 74 55 15 62 47 10 48 39 6 34
35 4 25 34 5 20 35 7 19 34 8 19 33 8 18
31 7 16 29 5 13 28 5 9 28 5 7 29 5 4
30 5 3 31 4 1 32 4 1 33 4 1 34 4 2
35 4 2 36 5 2 36 5 2 36 4 1 37 4 1
39 4 1 41 6 3 44 8 5 47 10 7 50 11 9
53 13 10 54 12 9 53 9 5 52 7 2 53 8 3
58 11 6 62 14 10 64 15 12 65 16 12 69 19 15
73 22 19 79 26 24 83 29 27 85 30 29 86 31 29
88 32 31 91 35 34 96 41 40 99 46 45 101 49 48
100 48 47 96 45 44 92 42 40 90 41 37 89 41 37
90 43 39 92 47 42 95 52 46 99 57 51 102 61 54
100 61 53 95 57 48 89 51 42 85 47 37 84 46 36
85 47 36 86 48 37 85 48 36 83 47 35 81 47 35
81 47 35 81 47 34 79 47 32 78 44 29 76 42 27
75 39 25 74 37 23 73 36 23 73 35 22 75 36 22
76 36 22 75 35 20 72 32 16 69 29 12 68 26 8
67 25 6 68 24 3 70 26 3 74 28 4 79 32 6
84 36 9 89 40 11 92 42 12 94 43 12 96 45 14
99 46 15 102 47 16 103 47 17 103 47 20 101 48 24
96 46 24 84 38 19 68 27 11 54 19 5 46 16 2
42 15 2 39 13 2 37 9 1 38 6 0 41 6 1
48 8 3 56 10 7 64 12 11 71 14 15 78 16 19
88 21 27 102 30 38 121 42 54 141 57 71 159 70 87
174 81 100 188 91 113 199 99 123 203 103 128 203 104 129
203 104 130 204 106 131 203 106 132 202 106 131 200 105 131
200 105 131 200 104 130 200 103 130 199 101 128 198 100 127
199 101 128 200 101 128 200 102 129 201 103 130 202 105 132
204 108 134 205 110 136 208 114 138 206 116 136 182 98 112
144 64 74 116 39 47 109 35 41 119 46 51 116 43 47
106 31 35 100 23 26 106 25 29 125 40 44 142 52 57
152 58 63 153 57 62 152 53 58 152 52 57 156 55 61
157 55 62 155 53 62 152 50 62 155 51 67 158 55 75
160 57 84 158 57 90 157 60 100 161 68 118 177 88 149
199 114 188 213 132 220 206 128 227 182 107 212 157 84 191
140 69 173 132 64 162 129 63 156 129 64 154 135 73 159
156 98 179 175 120 197 165 114 186 134 87 153 103 59 120
93 51 107 86 47 98 82 43 93 68 40 39 68 40 39
67 40 39 69 42 40 72 44 43 76 48 47 80 51 51
84 54 56 87 56 60 92 57 67 95 58 73 99 58 80
104 60 89 111 65 100 120 70 111 132 75 124 144 79 135
154 83 144 160 89 152 165 94 158 169 98 163 175 103 169
182 110 177 186 114 182 186 114 184 184 112 183 184 113 185
189 118 191 195 124 198 200 129 204 201 131 205 198 128 201
194 125 196 192 124 195 195 129 201 202 137 210 212 147 221
222 159 231 232 171 240 240 181 246 244 187 248 248 192 250
241 185 245 214 157 221 171 113 183 130 71 146 103 44 122
85 29 104 74 24 92 66 21 80 59 17 67 49 10 50
40 5 35 37 5 26 38 9 24 40 11 25 39 12 24
37 11 22 34 9 19 32 7 15 30 5 11 30 5 8
30 5 5 31 5 3 31 4 2 32 4 1 33 4 1
34 4 2 35 4 2 36 5 2 36 5 3 37 4 2
38 4 2 40 5 3 42 7 5 45 9 7 48 11 9
52 13 11 55 15 12 55 14 11 54 11 7 53 8 4
54 9 4 57 12 7 61 14 10 63 15 11 64 16 12
66 16 13 68 19 15 73 21 18 77 25 22 80 27 24
82 28 26 85 30 28 89 34 32 94 40 39 97 44 43
97 46 45 95 45 44 93 43 41 91 42 39 90 41 38
90 42 38 91 45 41 93 49 44 96 54 48 98 56 50
98 58 51 96 57 49 91 53 44 85 47 38 84 46 37
86 48 38 89 52 41 89 53 41 88 52 40 86 50 38
84 49 37 84 49 37 83 49 36 81 47 33 80 45 31
79 44 30 78 42 28 76 40 26 74 38 24 73 36 23
73 36 23 73 36 23 73 35 22 72 33 19 70 30 16
68 28 12 67 26 9 66 25 6 68 25 6 70 26 5
73 28 6 77 31 7 81 34 9 85 38 11 89 41 14
92 44 16 95 46 18 97 46 18 98 46 19 97 46 20
96 46 22 91 43 22 80 35 17 66 25 9 55 19 4
48 17 4 45 17 5 42 14 3 39 11 2 39 9 1
41 8 2 45 8 3 52 11 6 58 12 9 63 13 12
68 14 14 74 16 18 84 20 25 98 28 37 117 40 52
137 53 68 155 66 83 172 78 98 187 89 111 196 97 120
201 101 126 204 105 130 208 108 133 208 109 135 207 109 136
206 109 136 205 108 136 205 107 135 204 105 133 202 103 131
199 100 128 200 101 129 200 101 129 202 103 131 203 104 132
204 106 134 206 108 136 207 110 137 207 111 136 207 115 136
194 107 122 162 80 91 131 52 60 116 39 46 123 48 54
126 51 56 115 39 44 103 25 29 101 20 24 119 35 39
139 50 55 150 58 63 151 57 61 148 52 56 145 47 52
145 47 52 146 47 52 146 47 53 145 45 52 146 45 56
150 47 63 154 51 73 156 54 83 155 55 93 154 59 105
168 76 135 194 107 180 214 130 217 204 125 222 173 97 201
146 72 178 133 63 165 129 62 158 130 65 155 130 66 153
130 69 153 145 87 167 167 112 187 165 115 185 142 94 159
109 65 125 97 55 111 90 50 102 86 47 97 59 34 31
60 34 32 61 36 34 66 40 38 72 46 44 79 53 52
85 59 59 89 62 64 92 62 66 92 60 69 92 58 70
92 54 74 96 55 81 106 62 94 120 72 111 134 80 126
147 85 138 155 88 146 159 90 151 159 90 151 158 89 151
160 91 154 166 97 161 172 102 167 173 104 170 172 102 170
172 103 172 176 107 177 183 114 185 190 122 193 195 127 198
197 129 199 198 132 200 202 136 204 207 142 211 212 148 218
218 154 225 224 161 232 227 166 234 228 168 234 230 171 235
236 178 241 240 182 244 223 165 231 184 125 195 138 78 154
105 45 123 87 30 106 77 25 94 71 24 84 62 19 71
51 10 53 42 5 37 40 6 29 42 10 28 43 14 28
43 14 28 40 13 26 37 11 22 34 8 17 32 6 12
31 5 9 31 5 6 31 5 3 32 4 2 32 4 1
33 4 1 34 4 2 35 4 2 36 5 3 36 5 3
37 5 3 39 5 3 41 6 4 43 8 6 46 10 8
50 13 11 54 15 13 56 17 14 57 16 13 56 14 10
55 11 6 55 11 6 58 13 8 61 15 10 62 15 11
63 15 11 63 15 11 65 16 12 69 19 16 75 24 21
79 27 24 81 28 26 83 30 28 86 33 31 89 37 35
91 40 38 91 41 40 90 41 39 91 42 40 91 43 40
92 45 40 92 45 41 93 48 43 93 51 45 95 53 47
94 54 48 93 54 47 92 53 45 88 51 42 85 48 39
87 50 40 91 54 43 95 59 47 95 58 46 93 57 45
90 54 42 88 52 40 88 52 40 86 50 38 84 49 35
82 47 33 83 47 33 82 46 32 80 44 30 77 41 27
74 38 24 73 36 23 72 35 23 72 35 23 71 34 21
70 32 19 68 30 16 67 28 13 66 26 11 67 26 9
68 26 8 69 27 7 70 26 6 72 28 6 75 31 8
80 35 12 84 39 15 88 42 18 91 44 18 92 44 18
91 43 18 88 41 19 83 38 17 74 31 12 63 24 7
56 21 5 51 19 5 47 19 6 43 15 4 41 13 2
40 11 2 42 11 3 44 10 3 48 11 6 53 12 8
57 13 9 61 13 11 67 16 16 74 18 21 84 22 28
99 30 38 117 41 52 137 54 68 156 66 84 175 80 100
189 92 114 200 101 124 208 108 132 213 113 138 215 115 141
214 115 142 212 113 141 210 112 140 208 110 138 206 107 135
204 105 133 202 103 131 202 103 131 203 104 132 205 106 134
207 108 136 209 110 138 210 112 140 211 112 140 209 112 137
207 113 135 200 112 128 178 94 105 145 64 73 121 42 50
120 43 50 131 55 60 126 49 54 110 32 36 99 19 23
109 26 30 128 41 45 141 51 54 146 53 57 145 51 55
142 47 51 138 43 46 137 42 45 139 42 45 139 41 45
139 39 46 141 40 52 148 45 63 153 50 75 153 53 86
151 53 97 163 70 126 191 102 173 213 127 213 203 122 217
170 93 195 142 69 172 132 62 162 130 63 157 131 67 154
131 69 153 129 69 150 140 84 161 162 109 182 168 118 187
149 102 166 118 73 133 101 58 113 93 52 104 88 48 99
53 29 26 56 31 29 61 36 34 68 43 42 76 51 52
85 60 62 92 67 70 95 68 73 94 65 72 91 60 70
88 55 69 87 50 70 89 50 75 98 56 87 113 68 104
131 80 123 145 87 138 154 90 147 155 89 148 149 83 143
141 76 136 141 75 136 147 82 144 154 89 151 157 91 155
156 90 156 157 91 157 160 94 161 167 101 169 177 112 180
189 124 192 199 134 201 207 143 209 214 150 215 217 155 221
216 154 222 213 151 220 211 149 218 209 148 216 209 149 215
212 152 218 222 163 228 232 173 238 225 165 234 194 133 206
148 87 164 109 48 128 88 31 108 78 25 96 73 24 87
64 17 71 53 10 54 46 7 41 44 8 34 45 12 31
45 14 30 43 13 28 40 12 26 38 10 22 35 7 18
33 6 13 32 5 9 32 5 6 32 5 4 32 5 3
32 4 1 33 3 1 34 3 1 35 4 2 36 5 3
36 5 3 38 5 4 40 6 4 42 7 5 44 9 7
48 12 10 52 15 13 55 17 16 58 19 17 59 18 16
59 16 13 57 13 9 57 13 8 59 14 10 61 16 12
62 17 12 62 16 12 63 15 12 65 17 14 70 21 18
77 27 24 81 31 28 83 32 29 83 31 29 83 32 30
84 33 32 84 34 33 83 35 33 84 37 35 88 41 38
92 46 42 94 48 44 93 48 43 91 47 42 89 47 41
89 48 42 90 50 43 91 52 44 91 53 45 91 54 45
91 54 45 94 57 47 97 61 50 100 64 52 99 63 51
96 60 48 92 56 44 90 54 42 89 53 41 88 52 39
87 51 37 86 50 36 86 50 36 86 50 36 84 48 34
80 44 30 76 40 26 73 38 25 72 36 25 72 36 25
71 36 24 71 34 23 69 32 19 67 30 16 66 27 13
66 27 12 66 27 10 67 27 9 65 25 6 66 24 5
67 25 6 70 28 8 73 31 10 77 35 13 80 38 14
83 39 16 82 38 15 79 36 15 75 33 13 69 29 10
63 25 8 57 23 6 53 21 6 49 19 6 45 17 5
43 15 4 42 14 5 43 13 5 43 12 5 46 12 6
49 12 6 53 13 8 57 15 11 62 18 15 67 19 18
74 20 22 85 24 29 101 32 40 120 44 55 139 56 70
159 70 87 178 84 103 195 98 119 209 110 132 218 118 142
221 122 146 222 122 148 219 120 147 216 117 144 211 113 140
207 109 136 205 107 134 205 106 133 205 106 133 206 108 135
209 110 137 212 113 140 214 115 142 215 116 143 214 115 142
211 113 139 207 112 134 203 114 130 187 103 114 155 74 83
123 45 52 112 35 42 124 49 54 129 54 58 118 42 45
103 25 28 99 18 21 111 27 30 124 36 39 134 45 47
139 48 51 139 47 50 134 42 44 132 39 41 133 39 39
134 39 40 135 38 41 138 39 47 145 43 57 149 47 68
151 50 80 148 49 90 158 63 117 183 91 160 205 118 201
200 118 212 172 95 195 146 74 175 136 68 165 135 69 159
134 71 155 132 71 152 130 71 149 137 81 156 155 102 173
168 119 186 162 116 178 137 93 151 111 69 124 96 55 107
89 49 100 57 31 30 62 37 37 69 44 46 76 51 55
83 57 63 90 65 72 97 71 80 99 71 82 94 65 78
89 57 73 84 50 69 82 45 68 82 43 70 88 47 78
100 56 92 119 70 112 137 82 131 151 92 146 153 92 149
144 82 140 129 67 126 122 61 120 128 67 127 138 76 138
144 82 144 145 83 146 146 83 147 148 86 151 159 97 162
176 114 179 191 129 194 201 139 204 209 147 211 217 156 219
218 157 222 211 150 217 201 139 208 193 131 201 190 129 197
193 132 200 199 139 206 212 151 218 224 163 231 224 163 234
201 140 214 159 97 175 116 54 135 91 32 111 79 25 98
74 23 87 64 16 72 56 10 56 50 8 45 49 10 38
48 12 34 46 13 31 43 12 28 40 10 25 38 8 22
36 7 18 34 5 13 32 4 9 33 5 6 33 5 5
33 5 4 33 4 2 33 3 1 33 3 1 34 3 1
35 4 2 36 5 3 38 6 4 40 6 5 43 7 6
45 10 8 48 12 11 52 15 14 56 17 16 58 19 18
60 19 17 60 17 14 59 15 12 59 15 11 60 16 12
62 17 14 63 18 14 63 17 14 63 17 14 66 19 16
72 24 21 79 30 27 83 34 31 84 34 32 82 32 30
81 31 29 81 31 30 79 31 29 78 32 29 80 34 32
86 41 37 92 47 43 94 50 45 91 49 43 88 46 40
86 45 39 86 46 39 88 49 42 91 52 44 93 56 47
95 58 49 97 59 50 99 63 53 101 65 54 102 66 54
99 63 51 95 59 47 91 55 43 89 53 41 89 53 41
89 53 40 89 53 40 88 52 38 89 53 39 88 52 38
86 50 36 82 46 32 78 42 28 75 39 26 73 38 27
73 38 28 72 38 27 72 36 25 70 34 22 68 31 18
65 28 15 65 28 13 65 28 12 64 27 11 62 24 8
61 22 5 60 21 4 61 22 4 62 23 5 66 27 7
69 30 9 72 32 11 72 32 11 71 31 11 68 29 10
64 27 8 60 25 6 56 23 5 52 21 5 48 19 4
45 17 4 44 16 5 43 15 6 43 14 7 43 13 6
44 12 6 47 12 6 50 14 8 54 16 11 59 19 15
63 21 18 68 21 20 74 21 23 87 26 31 103 34 42
121 45 56 141 58 72 162 73 90 182 89 108 200 104 124
215 117 139 223 124 147 226 127 152 225 126 152 221 122 148
214 116 142 209 110 136 206 108 134 206 108 134 207 108 134
208 110 136 210 112 138 212 114 140 214 115 141 214 116 142
213 115 141 209 111 136 203 108 129 200 111 126 187 103 114
155 75 84 120 43 50 101 26 32 112 39 43 125 52 56
122 47 50 109 33 36 97 19 21 101 19 21 109 25 27
120 35 36 128 42 43 132 44 45 130 40 42 128 38 38
128 36 36 130 38 37 133 38 40 138 40 45 143 43 54
146 45 63 147 47 73 144 46 83 150 55 105 168 76 142
188 101 181 190 107 199 172 95 193 153 81 180 143 76 170
140 77 163 137 75 155 133 74 150 130 73 147 133 78 149
144 92 160 161 112 177 169 123 184 156 112 169 128 85 139
105 64 116 94 54 105 63 36 39 73 46 50 82 56 62
85 58 68 84 57 70 86 59 75 92 64 82 95 65 85
91 60 82 86 53 77 81 47 72 79 41 70 78 38 70
80 38 72 86 42 79 102 54 97 122 69 119 144 88 142
152 95 151 141 84 141 119 62 119 107 49 108 113 56 115
127 69 129 135 77 138 137 78 140 138 79 142 146 87 150
163 104 168 182 123 187 190 131 195 192 133 197 195 136 199
203 144 207 205 145 210 197 137 204 185 124 193 176 115 185
175 113 184 182 120 191 192 130 200 205 143 213 216 154 226
223 160 235 210 147 224 173 110 190 127 65 146 96 37 117
82 25 100 75 22 89 65 14 72 57 10 58 54 9 48
52 12 42 51 14 38 48 13 34 43 11 28 39 7 24
37 6 21 36 5 18 35 5 14 33 4 10 33 5 7
34 5 6 34 6 5 33 4 3 33 3 2 33 3 1
34 3 1 35 4 2 37 6 4 39 6 5 40 6 5
43 7 6 45 9 8 48 12 10 51 14 13 55 16 15
57 18 17 59 18 16 60 17 15 60 16 13 60 16 13
61 17 14 63 19 16 64 19 16 63 18 15 63 18 15
66 20 18 72 25 23 78 31 28 82 34 32 82 35 33
82 33 32 80 32 30 80 32 30 77 31 29 76 31 28
78 33 30 84 40 36 90 47 42 92 49 44 89 48 42
86 45 39 84 44 38 86 46 39 89 50 43 93 55 47
97 59 51 99 63 53 101 64 55 102 66 56 102 67 56
101 65 53 95 59 47 90 54 42 87 51 39 87 50 39
89 53 41 91 54 42 91 55 42 91 54 41 90 54 40
89 53 39 86 50 36 82 46 32 78 43 29 76 41 28
75 41 29 75 41 30 74 40 29 73 39 28 71 36 24
69 33 21 66 30 17 64 29 15 64 28 14 63 28 12
61 25 10 59 23 7 57 21 5 57 20 4 56 20 3
57 21 4 58 23 4 60 24 5 61 24 5 61 24 6
59 24 6 57 23 5 54 21 4 51 20 3 48 19 3
46 18 3 45 17 4 44 16 5 43 16 6 42 15 7
42 14 7 43 13 7 46 13 7 50 15 9 53 18 12
56 21 15 58 21 16 61 20 16 65 19 17 74 21 23
86 25 30 102 33 41 119 43 54 140 58 71 162 74 89
182 91 108 202 107 126 217 121 141 226 129 151 228 131 155
224 127 151 217 120 144 210 113 137 207 109 134 207 109 133
207 109 133 207 109 134 208 110 135 209 111 136 210 112 137
209 112 136 206 109 133 200 104 127 193 100 120 190 102 117
178 95 106 148 69 78 113 37 44 91 18 23 97 26 29
113 42 45 119 47 49 115 42 43 102 27 28 98 20 21
101 21 21 108 27 27 115 33 33 120 37 37 121 35 35
121 34 33 121 32 31 125 35 34 131 39 39 137 42 45
141 44 52 141 43 57 140 42 64 138 40 73 140 45 91
150 59 121 165 78 156 172 89 179 165 88 185 155 82 180
148 80 173 144 82 165 139 79 155 134 76 148 129 73 143
126 73 140 130 79 143 142 94 156 161 116 174 164 120 175
146 104 157 121 80 130 107 66 116 68 39 48 80 52 62
89 61 74 86 58 75 77 48 69 75 45 70 80 50 77
86 54 84 87 54 86 86 51 84 83 47 81 80 41 77
77 36 73 76 33 72 76 32 73 86 39 84 104 54 104
131 79 133 147 94 150 140 86 143 115 61 118 97 43 102
102 48 107 118 63 123 128 73 134 132 77 138 139 84 145
155 99 162 175 118 181 183 127 190 175 119 183 168 111 175
171 114 177 184 126 190 189 130 196 184 124 192 173 112 183
167 105 177 168 105 179 178 115 189 190 127 201 204 140 215
215 152 227 224 161 238 218 155 233 186 123 204 139 76 160
105 43 125 87 29 105 79 23 92 68 15 76 61 11 62
57 11 52 56 14 46 55 16 41 51 15 37 46 12 31
40 8 25 38 6 22 37 6 19 36 6 15 34 5 11
34 5 9 35 6 7 35 6 6 34 5 4 33 4 3
33 3 2 34 3 2 35 4 2 37 6 4 39 6 5
40 6 5 42 6 6 44 8 8 46 10 9 49 12 11
52 13 13 54 14 13 56 15 14 58 16 13 60 16 14
61 17 14 63 19 16 65 20 17 64 20 17 62 18 15
63 18 15 66 20 18 71 25 23 76 30 27 79 33 30
80 34 31 80 34 31 80 33 31 80 34 31 78 33 30
77 32 29 78 34 31 84 41 37 89 47 42 90 49 43
87 47 41 87 47 40 88 48 42 91 52 45 93 55 48
96 58 50 98 61 52 99 63 54 100 65 55 101 67 56
101 66 55 97 62 50 91 55 43 86 50 38 85 49 37
87 50 39 90 53 42 93 55 43 94 56 44 93 56 42
91 55 41 89 53 39 86 50 36 83 48 33 80 46 31
78 45 30 78 44 31 78 44 32 77 43 31 75 41 29
73 39 27 71 36 24 68 34 21 66 32 19 65 31 17
63 29 14 61 27 12 58 24 9 56 22 7 55 21 5
54 20 4 53 19 3 52 19 2 51 18 1 51 18 1
51 18 2 50 18 1 48 17 1 46 16 0 45 16 0
44 16 0 43 16 1 43 16 2 42 15 3 42 15 5
42 14 6 42 14 7 43 14 8 45 14 8 49 16 9
51 18 11 53 20 13 55 21 14 56 20 14 59 18 14
66 19 18 74 20 22 86 24 30 100 31 39 120 44 54
140 59 71 160 74 88 181 91 107 201 108 127 215 120 141
222 126 148 221 125 147 216 119 142 211 113 136 207 109 133
206 108 131 205 107 131 205 107 130 204 106 130 204 106 129
203 106 129 200 104 126 195 99 122 188 94 115 180 89 108
176 91 105 163 83 93 135 59 67 102 29 35 83 13 17
86 17 20 98 30 32 109 40 41 112 42 42 105 34 33
100 26 26 100 24 23 103 26 24 106 28 26 108 29 27
110 28 27 113 27 26 116 29 28 122 33 32 128 38 38
134 42 44 136 42 49 136 40 52 133 37 56 129 34 63
129 35 78 136 45 103 148 61 135 158 75 162 159 82 177
154 82 178 149 82 172 146 84 164 140 82 153 132 76 144
124 70 136 119 67 131 118 68 130 123 75 134 139 94 149
153 110 163 155 113 164 140 98 147 124 83 131 69 39 54
80 50 67 86 56 77 79 48 74 68 36 66 64 32 66
68 36 73 76 42 82 82 47 89 87 50 93 88 50 93
84 44 88 78 37 80 75 31 75 73 28 73 77 30 79
90 42 94 113 63 118 130 80 136 127 77 134 108 57 115
94 43 102 98 47 106 112 60 120 121 69 129 129 76 137
143 90 152 163 109 172 173 119 182 166 112 176 149 94 159
143 88 153 151 95 160 166 109 175 170 112 180 165 105 176
157 96 169 156 93 169 162 98 175 177 113 190 193 129 206
207 142 220 216 151 230 226 161 241 224 159 241 197 133 217
153 89 174 114 52 136 93 33 112 83 25 96 72 18 80
65 13 66 61 13 55 59 16 49 58 18 45 54 17 39
48 13 33 42 8 27 39 7 23 38 7 21 37 7 17
36 6 13 36 6 10 36 7 8 35 7 7 34 6 5
34 4 4 34 3 3 34 3 3 35 4 3 37 5 4
39 6 5 40 6 5 42 6 6 43 7 7 45 8 8
47 10 9 49 11 10 51 11 11 53 13 11 56 14 12
60 17 14 62 19 16 64 21 18 65 22 19 65 21 18
62 18 15 63 19 16 65 21 18 70 25 22 73 28 25
75 31 28 77 32 29 79 34 31 80 35 32 81 37 34
80 36 33 79 35 32 80 38 34 85 43 39 89 48 43
89 49 43 87 47 41 88 49 42 90 52 45 94 56 49
96 58 51 97 60 52 97 61 52 97 62 52 98 63 54
99 65 55 98 65 53 94 60 48 89 54 42 86 51 39
87 51 39 90 53 41 93 55 44 95 56 45 95 57 44
94 56 43 93 55 42 90 54 40 88 53 38 86 51 37
84 51 36 83 50 35 82 49 34 81 48 34 80 46 32
78 44 31 76 42 29 74 40 27 72 38 25 70 36 23
67 34 20 65 32 17 62 29 14 59 26 11 56 23 9
55 22 7 54 21 6 52 19 5 49 18 4 48 17 3
47 17 2 47 16 1 46 16 1 45 15 0 43 15 0
42 15 0 42 15 0 42 15 0 42 15 1 42 15 2
42 15 4 42 15 6 42 15 8 43 15 9 45 15 9
48 17 10 50 19 11 51 20 12 51 19 12 53 19 12
56 18 13 62 20 16 68 19 19 75 20 22 85 23 28
101 33 40 120 46 55 139 60 70 157 73 86 176 88 104
192 101 119 203 110 130 207 113 133 207 112 133 205 109 130
204 107 128 203 106 127 203 105 127 201 104 125 198 101 123
196 99 120 193 97 118 189 94 114 183 89 110 177 85 104
170 82 99 165 83 95 149 73 81 121 48 55 92 22 27
76 10 13 77 12 14 84 20 21 93 29 28 99 34 33
99 31 30 97 27 26 99 27 25 102 29 27 103 29 26
101 25 22 101 22 20 105 22 20 112 27 25 119 32 31
126 38 37 131 41 43 132 41 46 131 38 49 128 34 51
123 29 55 121 29 68 129 39 93 143 56 127 155 72 157
157 80 173 152 80 175 146 81 168 143 83 159 138 81 148
129 75 138 119 66 127 111 61 121 109 60 117 108 61 116
117 72 125 136 93 143 151 109 158 147 105 153 133 91 138
69 37 60 76 44 69 78 46 74 70 37 71 60 26 65
57 23 66 62 27 74 71 35 85 83 45 97 95 56 107
99 59 111 94 53 104 84 41 92 77 32 83 75 29 80
77 30 82 83 37 91 99 51 107 115 67 124 121 72 130
115 66 125 110 60 120 112 63 123 121 71 132 128 77 139
137 86 148 148 97 160 158 106 169 155 102 167 142 89 154
129 76 141 129 75 142 139 84 151 149 93 161 149 91 162
144 84 157 140 79 155 146 83 161 158 94 173 179 114 194
198 132 213 211 145 226 216 149 232 222 156 239 222 157 241
203 138 224 164 100 187 125 62 147 101 40 119 88 29 102
77 21 85 69 16 70 65 16 60 63 18 53 61 20 48
57 18 42 50 14 35 43 9 28 40 7 24 39 7 22
39 8 19 38 8 15 37 7 12 37 8 9 36 8 8
35 7 6 35 5 5 34 4 4 34 3 3 35 4 3
36 5 4 38 6 4 40 5 5 41 5 5 42 6 6
44 7 7 46 8 8 48 9 9 49 10 9 52 12 11
56 15 12 60 18 15 63 21 17 65 22 19 66 22 19
65 21 18 63 19 16 64 20 17 66 21 18 69 25 22
71 27 24 73 28 25 75 30 27 77 33 30 81 37 34
83 40 36 83 40 37 82 40 36 83 42 38 87 47 41
90 50 44 90 50 43 87 48 41 89 50 43 92 53 46
95 58 50 96 59 51 95 59 51 94 59 49 94 59 49
95 61 51 97 63 52 97 64 52 95 61 49 92 57 45
91 55 44 92 56 44 95 57 46 96 57 46 96 57 46
96 57 45 96 57 44 94 57 44 93 57 43 92 57 43
91 57 42 90 57 42 88 56 40 87 54 38 85 51 36
83 50 34 81 48 33 79 46 31 78 44 30 77 43 29
74 41 27 71 38 23 67 34 19 63 31 16 60 27 13
57 24 10 55 23 9 53 21 8 52 21 8 50 20 7
49 19 7 47 19 6 47 18 4 45 18 2 45 18 1
44 18 0 44 18 0 43 17 0 42 16 1 42 16 2
43 16 3 43 16 5 43 16 8 43 16 10 44 16 10
45 17 10 48 18 10 50 20 12 51 21 13 53 22 14
55 22 15 58 22 16 61 21 17 64 20 17 68 19 18
75 20 22 88 26 30 103 36 41 119 46 54 133 55 66
149 66 79 162 75 91 176 86 104 186 93 112 193 99 118
196 101 120 197 101 121 198 102 121 199 101 122 196 99 119
191 94 114 184 88 107 177 83 102 173 79 98 170 77 96
166 76 94 163 78 93 155 77 87 135 62 69 105 37 41
80 15 18 71 8 10 71 10 10 75 15 14 80 19 17
84 22 20 86 22 19 89 22 20 95 27 23 102 32 29
104 33 29 99 26 23 97 20 18 100 19 17 108 25 24
117 31 31 123 37 37 127 40 42 128 39 45 127 37 46
124 33 48 119 28 51 118 28 63 129 40 91 148 62 129
160 78 160 158 81 173 149 77 170 140 75 160 137 78 151
132 77 140 124 71 130 113 62 119 105 56 111 102 55 108
100 55 107 102 58 108 118 76 124 134 93 139 137 95 141
125 84 129 68 35 65 72 39 71 73 39 75 69 34 75
63 28 74 63 27 78 69 33 88 83 46 103 100 62 120
116 76 134 119 79 137 112 70 127 98 55 111 88 43 98
84 38 94 85 38 96 91 44 102 103 57 115 118 72 131
129 82 142 134 86 146 136 88 148 137 89 150 141 92 154
145 96 159 150 100 163 149 98 163 143 92 157 133 81 147
125 73 139 121 69 135 125 72 140 131 77 146 134 78 149
129 72 145 126 66 142 128 67 145 140 76 157 156 91 173
181 115 198 199 132 215 209 141 225 208 140 225 210 144 229
214 147 234 204 138 226 174 110 197 137 73 159 108 46 127
93 33 107 82 24 90 73 19 74 68 18 63 65 19 55
63 21 49 58 19 43 52 15 37 45 10 29 41 7 25
41 8 23 41 9 21 40 9 17 39 8 13 38 8 10
37 9 9 36 8 7 35 6 6 35 4 5 35 3 4
35 4 4 36 5 4 38 5 4 39 5 4 41 5 5
41 5 5 43 6 7 45 7 8 48 8 9 49 9 9
52 12 11 56 16 13 61 20 16 63 22 18 65 23 19
65 22 19 64 21 18 64 21 17 64 21 18 65 22 19
67 24 21 69 25 22 70 26 23 73 29 26 77 33 30
82 38 35 85 42 39 85 43 39 84 43 39 85 45 40
88 49 43 90 51 45 89 51 43 87 48 41 88 50 43
91 54 46 95 58 50 95 59 50 93 58 49 91 56 47
90 56 46 92 58 48 95 61 50 96 64 52 96 64 51
96 62 50 97 61 50 98 61 50 99 60 49 98 59 49
98 58 47 97 58 46 98 58 46 98 60 47 98 61 47
97 62 48 96 62 48 95 63 47 93 61 45 91 58 41
88 55 38 87 53 35 84 51 34 83 49 32 81 48 32
81 48 32 78 45 30 74 42 26 69 38 22 66 34 19
62 30 16 59 27 13 56 24 11 54 23 10 53 23 11
52 23 12 51 23 12 49 22 10 48 21 8 47 22 5
47 22 3 47 22 2 46 22 2 45 21 2 45 20 3
45 20 4 45 19 6 45 19 8 45 18 10 44 18 12
45 18 12 47 19 11 49 20 12 52 22 14 56 26 18
61 29 22 64 30 24 65 29 23 63 25 20 62 21 17
63 18 15 68 19 17 77 22 22 88 27 30 100 33 38
111 39 46 123 45 56 136 52 65 151 63 78 165 75 91
178 85 103 184 91 108 187 92 110 189 93 111 191 93 112
188 91 109 179 83 102 168 73 91 158 64 82 153 61 78
152 62 78 153 65 80 152 69 82 141 66 74 117 48 54
88 24 27 68 7 9 64 6 6 66 9 8 70 13 11
72 14 12 75 15 12 76 14 11 79 16 12 87 22 17
97 30 25 102 34 28 99 29 24 96 21 19 98 19 17
105 23 23 113 30 30 119 35 36 122 37 40 123 37 42
123 35 43 122 33 46 118 28 49 117 28 61 128 40 88
149 63 128 162 80 160 159 81 171 147 75 167 136 71 154
131 72 143 126 73 132 120 68 123 109 59 113 102 54 106
99 52 103 97 52 101 96 52 100 105 62 108 115 73 119
118 76 121 112 70 114 67 33 70 71 36 75 75 40 82
79 43 90 83 47 99 89 53 110 99 61 122 111 73 136
124 85 148 132 91 155 134 93 155 131 89 150 125 82 142
119 74 134 114 68 129 114 68 129 119 73 134 129 83 144
137 90 152 140 93 155 140 94 156 143 95 158 145 97 160
147 99 163 148 99 164 148 99 164 141 90 156 129 78 145
119 67 135 115 63 130 116 64 132 123 70 139 126 72 143
123 67 140 115 58 134 116 56 134 125 63 144 140 76 159
157 92 176 182 116 200 194 127 213 199 131 217 193 125 211
194 126 213 202 135 223 203 137 226 183 118 207 148 83 170
115 52 135 98 37 113 86 27 95 76 21 79 70 19 67
66 19 58 64 20 52 60 19 45 53 15 38 46 10 31
42 8 25 41 8 23 42 10 22 41 10 19 40 9 14
39 9 11 38 9 9 37 8 7 36 7 6 35 5 5
35 4 4 35 4 4 36 4 5 37 4 4 38 4 4
40 4 4 41 5 5 43 7 7 45 8 8 48 9 10
50 10 11 54 13 13 58 17 15 62 21 18 63 22 19
64 22 19 63 22 19 63 21 18 64 22 19 65 23 20
66 24 20 66 24 21 67 24 21 68 24 22 71 27 24
77 33 30 83 39 36 87 44 40 86 45 41 85 45 40
86 47 42 89 50 45 90 51 45 88 50 43 86 48 40
87 50 42 90 53 45 94 57 49 94 58 50 91 57 48
89 54 45 88 54 44 91 57 47 94 61 50 97 64 52
99 66 54 100 66 54 101 65 54 100 64 52 100 62 51
99 60 50 99 59 49 100 60 48 101 61 49 102 63 51
102 66 52 102 67 53 100 67 52 98 66 51 96 63 47
94 61 43 92 57 40 90 55 37 87 53 36 85 52 34
84 51 34 84 51 34 82 49 33 79 47 31 74 43 27
71 39 23 67 35 20 63 31 17 60 28 15 57 27 14
56 27 15 55 27 17 55 27 17 52 26 14 50 25 12
49 25 9 49 26 7 50 26 6 49 26 6 49 26 5
48 24 6 47 24 8 47 22 9 47 21 11 46 20 12
46 19 14 47 20 14 49 22 14 52 24 15 56 26 18
62 31 23 69 36 29 73 39 32 74 39 33 70 33 27
66 26 21 62 19 15 64 17 15 70 18 17 77 20 21
84 22 26 92 25 30 102 29 38 115 36 47 132 47 61
148 61 76 163 74 89 171 80 96 174 81 97 175 81 98
177 82 99 175 79 96 165 70 87 151 58 74 139 48 63
133 44 59 133 46 60 134 51 64 132 54 64 118 48 55
94 31 35 71 13 14 57 2 3 57 4 3 60 7 5
66 12 9 69 14 10 70 14 10 71 12 7 72 12 7
78 16 10 88 24 18 96 30 24 97 29 24 94 23 19
95 19 17 101 21 21 109 27 28 114 33 34 117 34 37
118 34 39 118 33 41 118 32 44 115 28 48 115 28 59
122 37 82 140 56 118 155 74 150 157 79 166 147 75 164
136 71 152 129 71 139 125 72 129 119 68 120 110 61 111
103 56 104 99 53 100 95 52 96 94 51 95 96 55 98
103 62 104 105 64 106 105 64 105 66 31 72 72 37 79
83 47 93 96 60 109 105 69 123 110 73 132 115 77 140
121 82 147 125 85 151 125 84 149 126 84 148 130 87 151
136 92 155 139 95 157 138 93 156 138 93 156 139 94 157
142 96 160 139 94 157 134 88 152 129 83 147 128 81 146
129 81 147 132 83 149 133 83 151 133 83 151 128 77 146
120 68 138 111 59 130 108 55 126 110 57 128 117 63 136
120 66 140 117 62 138 113 56 134 117 57 137 129 67 149
146 82 165 163 98 182 181 115 200 186 119 205 184 116 203
177 109 196 179 111 199 190 122 211 197 129 220 186 120 210
160 94 183 128 64 150 106 45 124 90 31 104 79 23 88
72 21 75 67 20 64 63 19 55 58 18 47 53 15 40
46 10 31 43 8 26 42 8 24 43 10 23 42 10 19
40 9 15 38 9 12 37 9 9 35 8 7 35 7 6
35 6 5 35 5 5 36 5 6 37 5 6 38 5 6
39 5 5 39 6 5 41 7 6 43 8 7 45 9 9
48 10 10 50 11 11 54 13 13 57 16 15 61 19 18
62 20 19 62 21 19 62 21 19 62 21 19 63 22 20
65 24 21 66 24 21 66 23 21 66 22 20 67 23 22
71 27 25 77 33 31 83 40 37 85 42 39 83 42 39
81 41 37 81 42 38 83 44 40 85 46 41 84 46 40
83 46 39 86 49 42 90 53 46 94 58 51 94 59 50
91 57 48 88 54 45 88 54 44 91 57 47 96 62 51
99 66 55 102 68 57 103 68 57 103 67 56 102 65 53
101 63 52 101 62 51 102 63 51 103 64 52 104 65 53
105 67 54 105 68 55 105 69 56 104 68 55 102 67 54
99 64 50 97 62 46 95 59 43 94 58 41 92 56 40
90 55 39 89 54 38 88 54 38 86 53 37 85 52 37
82 50 35 79 47 32 74 43 29 70 39 25 67 37 23
64 34 22 63 33 22 61 33 23 60 32 22 57 31 19
55 29 16 53 29 14 53 29 13 53 30 12 53 30 12
52 29 12 51 28 12 50 27 12 49 26 13 48 25 13
48 23 15 48 22 15 50 23 16 52 25 16 57 28 19
61 31 22 66 35 27 72 39 32 79 44 38 84 48 42
84 47 41 79 40 35 70 29 26 64 20 18 65 16 15
68 15 16 72 15 17 76 16 19 84 19 24 96 23 31
110 33 43 127 46 57 141 59 71 151 66 79 155 68 82
157 69 83 159 70 84 156 67 82 147 59 73 134 47 60
123 38 51 118 36 49 117 37 49 114 39 49 103 36 43
86 27 31 67 14 16 56 6 6 50 2 2 52 4 2
55 7 4 63 12 9 68 16 12 70 17 12 69 14 9
68 11 5 71 12 5 78 18 11 85 24 16 90 26 19
89 22 16 91 18 15 94 18 17 101 24 24 107 29 30
111 32 35 113 33 38 113 32 41 113 31 44 111 29 48
110 27 57 113 31 74 125 46 103 142 65 136 152 78 159
150 80 164 142 78 154 135 78 141 131 79 131 126 77 122
119 71 113 111 65 105 103 59 97 96 53 90 93 52 88
93 54 89 97 58 93 100 61 95 102 63 97 69 33 76
74 39 83 86 51 97 101 64 114 110 73 127 111 73 131
110 71 133 109 69 133 107 66 131 103 62 127 106 63 128
117 74 138 132 88 151 142 98 160 143 98 161 140 95 158
136 91 155 132 86 151 123 77 143 112 66 133 103 57 124
99 52 119 99 50 119 103 53 122 107 56 126 111 60 131
111 60 132 108 56 129 101 48 122 97 44 117 99 46 120
108 54 130 114 60 138 118 63 142 122 65 146 132 73 155
146 85 168 161 98 182 176 111 195 185 119 204 182 115 200
174 105 192 169 100 187 172 103 192 183 114 205 193 124 215
190 123 214 175 109 199 147 83 170 120 59 141 97 39 116
84 28 100 76 24 87 68 20 74 62 18 61 57 16 51
53 14 42 47 11 33 43 9 28 43 9 25 43 10 24
42 9 21 41 9 17 38 8 13 36 8 9 33 7 6
33 7 6 34 6 6 36 6 6 37 6 7 38 7 7
39 7 7 39 7 6 39 7 6 40 8 7 42 9 8
44 10 9 47 11 10 49 11 10 53 13 13 56 15 15
59 18 18 60 19 19 60 19 19 61 20 20 61 20 20
63 22 21 65 23 22 65 23 22 65 22 22 64 21 20
66 23 23 71 28 27 77 34 33 81 39 37 81 40 37
79 38 36 76 36 34 76 37 35 78 38 36 79 40 37
80 42 37 81 43 37 85 48 41 89 53 46 93 58 51
93 58 50 90 56 47 87 54 44 87 54 44 91 58 48
96 62 52 100 65 55 103 67 57 104 68 57 104 68 56
102 66 54 102 65 53 103 65 52 105 67 55 107 69 56
108 70 57 108 69 57 107 69 57 107 69 57 105 68 57
103 66 55 101 64 52 100 62 49 99 61 48 98 61 47
97 60 46 95 59 45 93 57 44 91 56 42 90 56 42
89 56 42 88 55 42 85 53 39 80 49 35 76 46 32
73 43 30 71 41 28 68 39 27 66 37 26 64 36 25
61 34 23 59 33 20 57 32 18 57 31 17 57 32 17
56 31 17 54 31 17 53 29 16 52 29 16 50 28 15
49 27 16 49 25 16 49 24 16 51 25 17 55 27 19
60 31 23 64 34 25 67 36 28 73 39 33 81 46 40
89 53 47 96 59 54 95 56 52 87 45 43 75 32 30
69 22 21 66 16 16 65 13 14 66 12 13 72 13 16
80 16 22 92 23 30 104 32 40 116 42 51 126 50 60
132 54 65 137 58 69 139 60 71 137 58 69 130 50 61
119 40 51 111 34 44 107 33 43 103 34 43 94 31 38
77 22 26 59 13 15 46 5 5 43 3 3 44 4 2
47 5 3 51 7 4 59 13 9 66 19 14 70 20 15
68 16 11 66 12 5 66 10 3 70 14 6 77 20 11
83 24 15 84 21 13 85 18 12 88 17 13 94 21 19
100 26 26 105 30 32 107 31 37 108 31 40 108 31 44
106 29 49 104 27 56 103 27 66 111 36 88 128 56 119
146 75 149 151 84 161 147 85 155 141 85 143 138 86 133
133 85 123 127 81 114 118 74 104 108 66 93 99 59 84
95 57 82 95 58 83 98 61 87 100 63 89 102 66 91
68 34 77 74 39 83 82 48 93 90 55 103 90 54 105
84 47 102 78 40 97 77 38 97 78 38 98 79 38 100
83 42 104 95 53 115 109 67 128 118 76 136 119 77 137
115 71 133 109 66 128 104 60 125 99 55 120 93 49 115
89 43 110 86 39 107 85 37 106 89 39 110 94 44 115
99 48 121 100 48 122 96 44 119 91 38 113 89 36 111
91 37 114 100 46 124 111 56 137 124 69 151 137 81 164
152 94 177 167 107 191 181 118 203 192 128 212 194 129 214
188 122 206 179 111 197 177 109 196 182 113 201 188 119 209
193 125 215 195 127 218 194 128 216 174 111 197 142 81 164
108 50 131 90 35 111 81 29 98 71 22 83 62 18 68
57 16 56 53 14 47 48 11 37 45 9 31 44 9 28
44 10 25 43 9 22 42 8 19 39 7 14 35 7 10
32 6 6 32 7 6 35 7 7 36 8 8 38 8 9
39 8 9 40 8 8 39 8 8 39 9 7 40 9 8
41 10 8 44 11 9 46 11 9 48 11 10 51 12 12
54 14 14 56 16 17 57 16 17 58 18 19 59 19 20
60 20 21 61 21 21 63 22 22 64 22 22 63 21 21
62 20 20 65 23 23 70 28 28 76 34 34 79 37 37
77 36 35 74 33 32 71 31 30 71 31 31 72 33 31
73 35 32 76 38 34 78 41 36 82 46 41 86 51 45
90 55 48 89 55 47 87 53 44 85 52 43 86 53 44
90 57 47 94 60 50 98 62 53 100 63 54 102 65 55
103 66 55 103 67 54 103 67 54 105 68 55 109 71 58
111 73 60 111 73 60 109 71 58 108 70 58 107 69 59
106 68 59 105 66 57 104 65 55 103 65 54 104 65 54
104 65 54 103 65 53 101 63 51 98 61 49 95 59 47
93 58 46 93 58 46 92 58 46 89 56 44 84 53 40
80 50 37 77 48 34 75 46 32 72 43 30 69 41 29
67 39 28 65 37 26 62 35 23 60 33 22 59 33 21
59 33 21 57 32 20 56 31 20 54 30 19 53 30 19
52 29 18 51 29 18 50 28 17 50 27 17 52 27 18
57 29 20 62 32 24 65 35 27 67 35 28 72 39 32
82 46 40 92 56 50 103 64 60 106 67 63 104 63 61
95 52 51 86 40 39 76 29 29 69 20 20 64 14 15
65 12 14 69 12 15 76 14 19 83 17 23 91 23 30
100 30 38 108 37 46 115 44 52 119 47 56 118 46 55
112 39 48 104 32 41 100 30 39 97 31 39 91 31 37
78 24 29 58 13 15 41 4 5 34 1 0 36 3 2
41 5 3 44 6 4 48 8 5 57 14 10 66 20 15
70 22 17 67 18 12 63 12 5 62 9 2 64 11 3
70 16 7 77 22 11 79 21 11 80 18 9 81 16 9
86 19 13 92 23 21 98 27 28 102 29 34 102 29 38
102 29 42 101 27 46 99 26 53 95 24 60 101 30 77
118 49 106 139 71 137 151 85 155 150 90 155 146 91 145
143 92 134 138 91 124 133 89 114 125 82 103 114 74 91
105 66 82 101 64 80 100 65 81 101 67 84 103 69 86
104 70 87 65 34 74 68 36 77 71 39 81 72 40 84
70 37 83 66 32 80 63 27 77 62 26 78 63 26 79
66 28 83 71 32 89 82 42 100 92 53 110 97 57 114
93 53 110 88 47 106 86 44 105 87 45 107 86 43 106
82 38 102 77 33 98 75 29 96 75 29 96 80 32 101
85 36 107 90 40 112 91 39 113 89 37 111 86 33 108
85 32 108 88 34 111 95 41 121 105 51 133 120 65 150
136 80 166 153 96 182 169 109 195 181 119 205 189 126 212
193 129 214 193 127 212 192 125 211 195 128 214 201 133 220
204 136 224 205 137 225 207 140 228 213 148 232 200 138 219
164 104 184 122 64 143 96 41 118 85 32 104 75 26 91
66 20 76 61 18 65 56 15 54 50 11 43 46 10 36
45 10 32 44 10 29 43 9 24 43 8 20 39 8 15
36 8 11 32 7 8 33 7 8 35 7 8 37 8 9
39 8 9 39 8 9 40 8 9 39 9 8 39 9 8
39 9 8 41 10 8 43 10 8 45 10 8 47 11 9
50 12 11 52 14 14 54 16 16 54 17 17 55 18 18
56 19 19 58 20 20 59 20 21 60 22 22 61 21 21
60 21 20 59 20 20 62 23 22 67 28 28 73 33 33
75 36 35 74 34 33 71 32 31 69 30 29 69 31 30
71 32 31 72 34 32 74 37 33 76 39 35 79 43 38
81 46 41 83 49 42 83 48 40 82 48 39 82 49 40
84 51 42 87 54 45 89 55 46 91 56 47 94 57 48
97 60 50 99 62 51 100 64 52 102 66 53 105 69 55
109 72 58 111 73 60 111 73 60 110 72 59 109 71 59
109 71 60 108 70 61 106 68 59 107 68 59 107 68 58
108 70 59 107 69 58 106 68 57 103 66 55 100 64 52
98 62 50 95 60 48 94 59 47 93 59 47 90 57 45
85 54 41 81 51 38 79 50 36 76 47 34 73 44 32
70 42 30 68 40 29 66 38 27 63 35 24 62 34 23
61 33 22 60 33 22 58 32 22 57 32 21 55 31 21
54 30 20 53 30 19 52 30 19 51 29 18 51 28 18
54 29 19 59 31 22 64 34 26 65 35 27 67 36 28
72 39 32 82 46 40 92 56 50 102 64 59 108 68 65
112 70 68 110 67 66 105 60 59 96 49 49 86 38 38
76 27 28 71 20 22 71 16 19 73 15 19 76 14 19
79 15 21 85 18 25 91 23 31 97 29 36 101 32 40
101 33 41 99 29 38 94 26 35 91 26 34 88 27 33
79 24 29 64 17 20 48 8 9 35 2 2 31 1 0
33 3 2 38 5 3 42 6 3 46 8 4 55 13 9
64 20 15 69 22 17 66 18 12 61 11 6 59 8 1
61 9 2 67 15 6 73 20 10 76 21 10 77 19 8
78 16 7 81 17 10 86 20 15 91 24 22 95 26 28
96 26 32 97 25 36 96 24 41 95 24 49 93 24 57
99 31 74 114 48 100 134 68 130 148 84 149 151 91 151
148 93 143 143 93 131 138 92 121 134 90 112 127 86 101
118 79 91 112 75 85 108 73 83 107 73 84 108 74 86
109 76 87 110 77 88 59 31 68 61 32 69 62 33 70
60 31 69 57 27 66 55 24 64 53 21 63 51 19 61
50 17 61 51 17 63 56 21 70 66 30 80 75 38 89
78 41 93 74 37 90 71 33 87 71 32 88 75 35 93
76 36 95 75 34 94 75 33 94 76 33 96 78 33 98
80 34 101 82 35 103 84 35 105 84 34 105 82 31 105
82 30 105 82 30 106 85 32 109 90 36 117 98 44 129
110 55 143 123 68 157 139 81 171 152 92 182 163 101 191
170 107 196 178 114 202 186 121 208 195 129 215 203 138 223
211 145 230 213 147 232 212 146 231 215 150 233 226 163 242
222 160 236 186 126 200 137 79 155 103 47 123 88 35 109
79 29 98 71 23 85 65 20 75 59 17 64 52 11 52
48 9 44 46 9 38 45 9 32 44 8 26 42 7 20
39 7 16 36 8 13 34 8 11 35 8 11 37 8 11
38 8 11 39 8 11 40 9 10 40 9 10 39 9 9
39 9 8 39 9 8 40 10 8 42 10 8 44 10 8
45 10 9 47 12 11 49 14 13 50 16 16 51 17 17
52 18 18 53 19 19 55 19 20 56 20 20 57 22 21
57 22 21 56 21 19 56 20 19 59 23 22 65 28 27
69 33 32 72 35 34 70 33 32 68 31 29 67 29 28
68 31 29 69 32 30 71 34 31 73 36 33 74 38 34
76 41 36 77 42 37 77 43 36 77 43 35 78 44 36
80 47 38 83 50 41 84 51 42 84 50 41 85 50 41
87 51 42 90 55 44 93 57 46 95 60 47 98 63 49
101 66 52 105 69 55 107 70 56 107 70 56 107 69 56
108 70 58 109 72 61 110 72 63 110 72 63 110 72 63
110 72 63 111 73 62 109 71 61 107 69 59 104 67 56
101 65 54 98 63 51 96 61 50 95 61 49 93 60 48
91 58 46 87 55 43 83 53 40 81 51 38 79 49 36
75 46 34 72 43 32 69 41 30 67 38 28 64 36 25
63 35 24 62 34 23 61 34 23 60 33 23 58 32 22
56 32 22 56 31 21 55 31 21 54 31 20 53 31 20
53 30 20 56 31 21 61 33 24 65 36 28 67 37 29
68 36 29 72 39 32 82 46 40 92 56 50 100 62 57
106 67 63 113 71 69 116 73 72 116 70 70 112 66 65
107 59 59 97 49 49 88 38 39 82 30 32 81 25 28
81 22 26 82 20 25 84 19 25 86 20 27 89 22 29
91 24 32 92 25 33 92 25 34 90 24 33 87 24 32
81 24 30 69 19 23 54 11 13 40 4 4 31 1 1
30 1 0 32 3 1 37 5 2 41 5 2 45 6 3
53 11 8 63 19 15 68 22 17 65 18 12 59 11 5
56 6 1 58 7 1 63 12 4 69 18 7 72 19 9
74 18 7 74 16 6 76 16 7 80 17 11 84 20 16
88 22 21 90 22 26 90 20 29 90 20 35 92 23 45
98 30 61 109 42 83 124 58 108 140 75 133 151 87 149
152 93 150 149 94 142 143 93 130 138 92 119 134 91 110
128 88 100 122 84 92 117 81 88 115 80 86 113 80 86
113 80 86 114 82 88 115 83 88 52 28 60 54 29 61
53 29 60 49 25 56 46 21 52 44 18 50 43 16 48
41 13 47 39 11 46 40 11 48 45 14 54 53 21 64
60 27 72 63 30 76 61 27 75 60 25 75 62 25 77
67 29 83 72 33 88 78 38 95 85 45 102 91 50 109
94 51 113 91 47 111 87 42 107 83 36 104 80 32 102
79 29 102 79 28 103 81 29 105 82 29 107 84 30 114
89 34 123 97 41 135 107 51 146 119 60 156 129 69 164
138 76 171 145 82 175 156 92 183 168 103 193 182 117 206
193 128 214 201 136 220 204 140 223 208 144 226 217 154 234
233 172 245 236 176 246 206 147 216 157 99 173 118 61 138
97 42 119 85 32 107 75 25 96 69 21 85 63 17 74
54 11 61 50 9 52 48 8 44 46 8 36 44 7 28
42 7 22 40 7 18 38 8 15 36 8 14 37 9 13
38 9 13 39 9 12 39 9 12 40 9 12 40 9 11
39 9 10 39 9 9 39 9 8 40 9 8 41 10 8
42 9 8 43 9 8 44 11 10 45 13 13 46 16 15
47 17 16 49 18 17 50 19 18 51 20 19 52 20 19
54 22 20 54 22 20 53 21 19 54 21 19 57 24 22
62 29 27 67 33 31 68 34 32 67 32 30 65 30 28
65 29 27 67 31 29 69 33 30 71 35 32 72 36 33
73 38 34 74 40 35 74 40 35 74 41 34 74 40 33
76 42 34 79 46 37 82 49 40 83 50 41 81 48 38
81 47 37 82 47 37 85 50 40 88 53 42 89 55 42
92 57 44 96 60 46 99 63 49 101 64 50 101 65 51
102 66 52 105 68 56 109 71 61 111 73 64 112 74 65
112 74 65 112 74 64 111 73 63 108 71 61 105 68 59
103 66 56 100 64 54 98 63 52 96 61 51 96 61 51
94 61 50 92 60 48 88 57 45 85 54 42 83 53 41
81 51 39 77 47 36 74 44 34 70 42 31 68 40 29
66 38 27 64 36 25 63 35 24 63 35 24 61 34 24
60 33 23 58 32 23 57 32 23 56 32 22 56 32 22
55 33 22 55 32 22 58 33 23 62 35 26 67 37 29
69 39 31 70 38 31 73 40 33 82 47 41 92 55 49
99 61 56 106 67 63 113 71 69 116 73 71 116 70 70
117 70 70 118 70 70 114 66 66 106 56 57 99 48 49
96 43 45 95 39 42 94 34 38 93 30 35 92 27 34
92 25 33 92 25 34 92 25 34 91 26 35 89 27 35
84 26 33 75 23 28 60 15 18 45 7 8 34 2 2
28 0 0 28 1 0 31 2 1 35 4 1 38 4 2
43 5 2 50 10 7 61 18 14 66 21 17 64 18 13
58 10 5 54 6 1 55 6 0 59 10 2 64 14 5
67 16 6 69 16 6 69 15 5 71 14 6 74 15 9
79 18 13 82 19 18 84 19 21 83 17 24 85 18 31
91 24 45 107 41 69 127 61 99 145 79 126 155 90 146
159 96 155 157 97 152 151 97 142 145 95 129 140 94 118
136 92 109 130 90 99 124 86 91 120 85 87 117 83 85
116 83 84 114 82 84 116 84 84 117 86 85 45 24 51
46 25 51 44 23 49 39 19 43 35 14 38 33 12 35
33 10 34 33 9 35 33 8 36 35 10 39 39 13 45
45 17 53 50 22 60 53 24 64 52 22 65 52 21 66
55 21 68 61 25 74 70 33 83 82 44 96 94 56 109
104 65 120 108 67 126 102 60 121 94 50 114 84 38 105
79 33 102 78 29 101 80 30 103 82 30 106 82 30 109
84 31 116 89 34 127 96 41 139 104 47 148 112 54 154
120 60 160 128 66 165 135 72 169 145 80 176 157 92 185
169 105 195 176 113 199 181 117 201 187 124 205 201 138 217
219 157 234 238 177 247 244 184 251 224 165 233 186 128 201
147 89 167 117 60 141 95 41 122 81 28 107 72 21 95
65 17 85 57 12 72 53 10 61 51 9 52 48 8 43
46 7 33 43 7 25 41 7 21 39 9 19 38 9 18
38 9 17 39 9 16 39 9 15 40 9 14 40 9 13
40 10 12 39 9 11 39 9 9 39 9 8 39 9 8
40 9 8 41 9 8 41 9 8 42 11 10 42 13 13
43 16 15 44 17 16 46 17 17 47 18 18 48 19 19
49 20 19 51 22 20 51 22 20 52 22 20 52 22 20
56 25 23 61 30 28 65 34 31 65 34 32 64 32 30
63 30 28 64 29 28 66 32 30 68 34 31 70 36 33
72 37 33 72 38 34 74 40 35 74 41 35 74 42 34
74 42 34 76 44 36 79 47 38 81 49 40 82 50 40
80 47 38 79 46 36 79 46 36 82 48 37 84 50 39
85 51 38 87 53 40 90 56 41 93 58 44 95 60 45
96 60 46 98 62 48 101 65 52 106 69 58 109 72 63
111 73 64 111 73 64 110 73 64 109 71 62 106 69 60
103 67 57 101 64 55 98 63 54 97 63 53 96 62 52
96 62 52 95 62 52 93 61 50 90 58 47 88 56 45
86 54 43 84 53 42 79 49 38 75 45 35 72 42 32
69 40 30 67 39 28 65 37 26 64 36 25 64 36 25
62 35 25 61 34 24 60 33 24 59 33 24 58 34 24
58 34 24 57 34 24 58 34 24 59 34 24 64 36 27
68 38 30 71 41 33 72 40 33 75 42 35 83 47 41
91 55 49 99 61 56 108 69 65 116 74 73 116 73 72
112 67 66 113 66 66 118 70 70 119 71 71 115 66 67
110 61 61 109 57 59 107 52 54 104 45 50 101 40 45
99 35 42 98 31 40 96 29 38 94 28 37 91 28 36
87 29 36 80 27 33 68 21 25 52 11 14 38 4 5
30 1 0 26 0 0 27 0 0 29 2 1 34 3 1
36 4 1 40 4 2 48 9 6 58 16 13 63 20 15
62 17 12 56 10 5 53 6 1 53 6 0 55 8 1
59 11 3 62 13 4 63 13 5 64 13 5 66 14 6
70 15 9 75 17 13 78 18 17 79 17 20 78 14 22
80 16 29 90 25 45 113 48 77 142 77 114 164 99 145
172 107 161 170 107 164 164 105 157 156 102 145 149 100 131
144 98 120 139 96 110 132 92 99 126 88 90 121 86 84
117 84 81 115 83 80 114 83 78 115 85 79 116 86 79
37 19 41 37 19 41 35 18 38 31 14 33 27 10 28
26 8 26 26 8 26 28 8 27 29 8 30 32 10 34
35 12 38 39 15 45 44 18 51 46 20 56 47 20 59
49 20 61 52 20 63 58 25 70 68 33 80 79 44 93
90 53 104 99 60 114 104 65 121 101 60 120 95 52 115
85 40 106 80 34 103 80 32 104 84 34 108 88 37 113
89 37 116 93 40 127 98 44 139 106 50 151 109 52 155
113 54 158 118 58 161 126 64 165 133 70 169 144 80 177
157 93 187 168 105 195 171 108 194 171 109 191 179 117 196
200 139 215 224 164 237 242 183 250 247 188 254 239 180 246
217 158 230 184 125 202 145 87 171 111 54 141 88 33 119
77 23 106 69 18 94 62 13 82 57 11 71 54 10 61
51 10 50 48 8 39 45 8 31 43 8 25 41 9 23
40 9 22 39 9 20 40 9 19 40 9 17 40 9 16
40 9 14 40 9 13 40 9 12 39 9 11 39 9 9
39 9 9 39 9 8 40 9 8 39 9 8 40 10 10
40 13 13 41 15 15 42 16 15 43 17 16 45 18 17
46 19 18 47 20 19 49 22 20 50 22 20 51 23 20
52 23 21 56 27 24 60 31 29 64 35 32 64 35 32
63 32 30 62 30 28 64 30 28 66 32 30 69 35 33
71 37 34 72 38 35 72 39 35 73 41 35 74 42 36
76 44 37 76 45 37 78 47 38 80 49 40 81 50 40
82 51 41 80 48 38 79 47 36 79 46 36 81 48 37
83 49 38 84 50 37 85 52 38 88 54 39 90 55 41
91 56 42 92 56 42 94 58 44 98 61 49 103 66 55
107 69 60 109 71 62 109 72 63 108 71 62 107 70 61
104 67 58 102 65 56 99 64 54 98 63 54 98 63 53
97 63 53 97 63 53 96 63 52 94 62 51 91 59 48
89 57 46 87 56 45 86 54 43 81 50 39 77 46 36
73 43 33 71 41 31 68 39 29 67 38 27 66 37 26
65 37 26 64 36 26 62 35 25 61 34 25 60 34 25
60 34 25 59 35 25 59 35 25 59 35 25 60 34 25
64 36 27 69 39 31 72 42 34 74 42 35 77 44 37
84 48 42 90 54 48 97 59 54 108 68 65 118 76 74
118 75 74 112 66 66 110 63 63 116 68 68 117 69 69
115 67 67 112 63 63 113 61 63 110 56 58 107 49 53
103 42 48 101 37 44 99 33 41 96 30 39 93 29 37
89 28 36 83 28 34 74 24 29 59 17 20 43 8 9
31 2 2 26 1 0 24 0 0 25 0 0 28 2 0
32 3 1 34 3 1 38 4 2 45 8 6 55 16 12
60 19 15 59 16 12 55 11 6 52 7 2 51 6 0
53 7 1 54 8 1 56 10 3 57 11 4 60 12 6
63 13 8 68 16 12 73 18 16 76 18 19 76 16 21
76 14 23 78 15 30 88 24 46 114 49 79 148 83 121
175 110 156 184 120 172 180 117 172 172 113 164 163 109 150
154 106 135 149 104 123 143 101 112 135 96 99 127 90 88
121 86 81 116 84 76 114 83 74 112 82 72 114 84 73
115 86 73 30 16 33 31 16 34 31 16 33 28 14 29
25 10 25 23 8 22 23 7 22 26 8 25 28 9 28
30 10 31 31 10 34 34 12 39 38 15 45 41 18 50
43 19 53 45 18 55 48 19 59 53 21 64 59 26 71
66 33 79 73 38 87 80 43 95 86 48 104 88 48 107
86 45 108 82 38 104 80 34 103 84 35 108 92 43 117
101 50 127 104 52 133 107 55 141 111 57 151 117 61 162
116 59 161 115 56 159 117 57 158 125 63 163 137 74 172
153 89 185 167 104 195 176 113 201 176 115 198 179 118 197
192 132 207 215 157 227 236 178 245 244 186 251 243 184 249
238 179 247 228 168 242 204 143 224 168 107 196 132 72 165
104 45 138 87 30 120 75 21 105 69 18 94 64 16 83
61 15 72 57 14 60 52 11 47 48 10 37 45 9 31
43 10 28 41 9 26 40 9 24 40 9 22 40 9 19
40 9 17 40 9 16 40 10 15 40 10 13 40 10 12
40 10 11 39 10 11 39 10 10 39 9 10 39 9 10
39 11 11 38 13 13 39 15 14 40 16 15 41 16 16
43 18 17 44 19 18 45 20 19 47 21 20 49 22 21
50 23 21 50 23 21 53 26 24 57 29 27 60 32 30
61 33 30 61 32 30 62 31 29 64 32 30 66 34 32
68 36 34 69 37 35 70 38 35 71 39 35 73 41 36
75 44 38 77 46 39 78 48 40 79 49 41 80 50 41
81 51 41 81 51 41 79 49 38 79 47 37 79 47 36
82 49 37 83 50 38 84 51 38 85 52 38 86 54 39
88 54 39 88 54 40 89 54 40 90 55 41 93 58 45
97 61 50 101 65 56 104 68 58 105 69 59 105 68 59
103 67 58 101 65 56 99 64 54 98 63 53 96 63 53
96 63 52 96 63 53 96 64 53 96 64 53 94 62 51
92 60 49 90 58 47 89 57 46 87 55 44 81 50 39
76 45 35 72 41 32 71 40 30 69 38 28 67 37 27
66 37 26 65 37 26 64 36 26 63 35 25 62 34 25
62 34 25 61 35 26 61 35 26 60 35 26 61 35 26
61 34 25 65 36 28 69 40 32 74 44 36 78 46 39
81 47 41 85 49 43 89 53 47 96 58 53 107 67 64
117 75 73 117 74 72 112 66 66 110 64 63 114 66 66
114 66 66 112 64 64 108 60 60 108 57 58 105 51 54
103 46 51 101 40 47 98 34 43 96 30 39 93 27 37
90 27 36 85 26 34 77 25 31 65 19 24 49 11 14
35 4 6 26 1 1 23 0 0 23 0 0 24 0 0
27 1 0 30 2 0 32 3 0 36 3 1 42 7 4
50 12 9 55 15 11 56 15 11 53 11 6 51 9 4
51 8 2 51 8 2 52 8 2 52 8 2 53 9 4
56 11 7 60 13 10 64 15 13 69 17 17 73 18 21
75 16 24 76 14 27 77 14 32 84 21 46 108 44 76
144 80 118 175 111 155 188 124 174 184 122 174 175 117 164
165 112 150 157 109 136 152 107 125 146 104 113 137 99 99
128 92 87 121 87 78 116 84 73 114 84 70 113 84 68
113 84 68 114 85 68 28 16 30 30 18 32 31 19 33
29 17 30 26 13 26 23 9 23 22 7 22 24 8 25
26 9 27 27 9 30 28 9 31 31 11 36 35 14 41
38 17 46 39 17 48 41 16 51 44 16 54 48 17 59
52 20 63 55 23 68 60 25 73 65 28 80 72 33 89
77 37 97 80 38 101 81 37 104 82 37 106 87 39 112
98 48 125 112 61 140 120 69 150 125 72 158 128 75 166
134 78 175 133 76 174 129 71 169 128 69 166 137 75 171
152 89 183 172 108 199 185 123 210 193 131 214 195 133 212
201 141 215 215 156 226 232 175 240 241 185 248 237 180 244
228 168 236 223 162 234 218 156 235 202 140 226 176 113 208
147 84 182 119 58 156 97 38 134 81 25 114 76 22 104
72 21 94 68 20 83 62 17 69 56 13 55 51 11 44
48 11 37 45 10 33 43 9 30 41 9 27 40 9 24
40 9 21 40 9 19 40 10 18 40 10 17 41 11 15
41 11 14 40 11 13 40 11 12 39 10 11 39 10 11
38 10 11 37 11 12 37 13 13 37 14 14 38 15 14
40 16 15 42 17 17 43 18 18 44 19 19 46 21 20
47 22 21 49 23 21 49 23 21 51 24 23 54 27 25
56 30 28 58 31 28 59 32 29 61 32 30 64 33 31
66 35 33 67 36 34 68 37 34 68 38 34 69 39 35
72 41 36 74 43 38 77 46 40 78 48 41 80 50 42
81 51 42 81 51 42 80 50 41 79 48 38 78 47 36
79 47 36 82 49 38 83 50 38 83 51 37 84 51 37
85 53 38 86 53 38 86 53 38 86 52 37 87 53 38
88 54 41 91 56 45 95 59 50 99 63 54 101 65 55
100 65 55 99 64 54 98 63 54 97 63 53 96 62 52
96 62 52 96 62 52 95 63 52 96 64 53 96 64 53
94 62 51 92 60 49 91 59 48 89 57 46 86 54 43
80 48 38 75 43 33 72 40 30 70 38 29 69 37 28
67 37 27 66 36 26 66 36 26 64 35 26 63 35 26
62 34 26 62 34 26 62 35 26 62 35 26 62 36 26
62 36 26 62 35 26 65 36 28 70 40 32 76 46 38
80 48 41 82 49 42 85 50 44 88 52 46 95 57 52
105 65 62 114 72 70 114 71 69 111 66 65 111 64 64
112 64 64 111 63 63 108 59 60 105 55 56 102 51 53
100 46 49 100 42 48 98 38 45 96 33 41 93 29 38
90 25 35 86 25 34 81 25 33 71 22 28 57 15 19
41 7 9 28 2 3 21 0 0 20 0 0 21 0 0
23 0 0 25 1 0 28 2 0 31 3 0 35 4 1
39 5 3 45 10 7 50 12 9 52 13 10 51 11 7
51 10 5 50 9 4 50 9 3 50 8 3 50 8 3
50 9 4 53 10 7 56 12 10 61 13 13 66 16 18
71 18 23 74 17 27 76 15 31 76 14 35 82 19 46
102 38 71 137 74 112 169 106 149 186 123 170 183 122 170
175 117 160 165 113 147 158 110 134 153 109 123 147 106 111
138 100 98 129 94 85 121 88 75 117 85 70 114 85 67
114 85 66 113 85 64 113 85 64 28 17 30 32 20 33
35 23 37 35 22 37 30 18 32 25 12 28 22 8 25
23 7 26 24 7 28 25 8 30 27 8 32 29 10 36
33 13 40 35 15 43 36 15 45 38 13 47 40 12 50
42 12 53 44 12 56 46 14 60 51 17 66 58 22 75
66 27 84 73 33 93 75 33 97 79 34 102 83 37 108
92 43 118 106 56 134 127 75 156 145 92 175 155 101 186
160 106 193 166 110 200 166 110 200 162 105 195 161 102 192
169 108 197 184 123 209 203 141 224 214 152 232 218 156 232
218 157 231 225 166 235 236 178 243 242 186 247 235 179 240
218 161 226 202 142 215 197 134 214 194 130 218 186 122 217
174 109 209 156 91 194 131 68 170 107 46 145 88 30 123
82 26 112 80 26 104 75 25 93 68 21 78 59 15 62
54 12 51 50 11 44 47 11 38 44 10 34 42 9 31
41 8 27 40 8 23 39 9 21 40 10 19 41 11 18
41 12 17 41 12 16 41 12 15 40 11 14 39 11 13
38 11 13 37 11 13 37 12 13 36 13 13 36 14 14
37 15 15 39 16 16 40 17 17 42 18 18 43 19 19
45 20 20 46 21 20 47 22 21 47 22 21 48 23 21
49 24 23 52 27 25 54 29 26 57 31 28 60 32 30
63 34 32 65 35 33 65 36 33 65 36 32 65 36 32
67 37 33 69 39 35 72 42 37 74 44 38 77 47 40
79 49 41 80 50 42 79 50 41 78 49 40 77 47 37
77 47 36 79 47 36 81 50 38 82 50 38 82 50 36
82 50 35 82 50 35 83 51 36 83 51 36 84 51 36
84 51 36 83 50 37 84 50 39 87 52 43 91 56 47
94 59 49 94 60 50 94 60 50 94 61 51 95 61 51
95 62 51 95 62 51 95 63 52 95 63 52 95 63 52
95 63 52 94 62 51 93 61 50 91 59 48 89 57 46
85 53 42 79 46 36 74 41 31 71 38 29 70 37 28
69 36 27 67 36 26 66 35 26 65 35 25 64 35 25
64 34 26 63 34 26 63 35 26 63 35 26 63 35 27
63 36 27 63 36 27 64 36 27 66 37 29 71 41 33
77 47 39 81 50 42 83 50 43 86 50 44 89 52 46
95 57 52 104 64 61 111 69 67 111 68 66 110 65 64
110 63 63 107 59 59 106 58 58 103 55 55 101 51 52
97 45 47 94 40 44 95 38 44 96 35 42 94 30 39
91 27 36 87 24 33 83 24 33 76 24 32 64 19 25
48 11 15 32 4 5 23 0 1 18 0 0 17 0 0
19 0 0 22 1 0 24 1 0 27 2 0 30 3 0
34 3 1 36 4 1 41 7 4 45 9 6 49 11 8
49 11 7 50 10 7 49 10 6 50 10 5 50 9 5
49 9 4 49 9 5 51 9 6 54 10 9 58 11 12
64 14 17 70 17 24 74 18 30 76 16 34 77 15 38
81 18 47 97 34 67 130 67 104 162 100 139 181 119 162
179 119 161 171 114 152 162 110 140 156 109 128 152 109 119
147 106 107 139 101 94 131 95 83 123 90 73 118 88 68
116 87 65 115 87 63 114 86 61 113 85 60 26 15 29
31 19 34 37 25 40 39 26 43 36 23 40 31 17 37
27 13 34 26 10 33 26 9 34 27 8 35 28 9 36
29 10 38 31 11 40 32 11 42 33 11 43 34 10 45
36 8 48 37 7 50 39 7 53 41 8 56 46 11 62
53 16 71 62 22 81 71 30 93 75 32 98 80 35 104
86 39 112 100 50 127 120 69 149 147 94 177 171 117 201
185 131 215 191 136 220 195 140 224 198 142 226 199 141 225
200 141 224 206 146 228 216 155 235 227 165 242 232 170 245
232 171 243 229 168 239 231 171 239 235 177 240 232 175 236
215 158 220 192 134 203 176 114 193 174 110 199 176 110 206
175 109 211 170 103 208 157 91 197 138 73 177 115 52 152
97 36 130 87 29 116 83 28 107 78 26 97 71 21 84
62 16 70 57 13 58 52 12 50 49 11 44 46 10 38
43 9 34 41 8 29 40 8 26 40 9 23 40 10 21
41 11 19 41 12 17 41 12 16 41 12 15 40 12 15
38 11 14 37 11 14 36 11 13 36 12 14 35 13 14
36 14 15 37 14 16 38 16 16 39 17 17 41 18 18
42 19 18 43 20 19 45 20 20 45 21 20 46 21 20
47 22 21 48 24 22 51 26 24 53 27 25 55 29 27
58 31 28 61 33 30 62 34 31 63 34 31 62 34 30
63 34 30 64 36 32 66 37 32 67 38 33 70 40 34
73 44 37 76 47 39 77 48 41 77 48 40 76 47 38
75 46 36 76 46 35 78 47 36 80 49 38 81 50 37
81 49 35 80 48 34 80 48 33 81 49 34 81 49 34
81 49 34 81 48 33 80 47 34 80 47 35 83 48 39
86 52 42 89 55 45 91 58 47 91 59 48 92 59 49
93 60 50 94 61 51 95 63 52 96 64 53 95 63 52
94 62 51 94 62 51 94 62 51 93 61 50 92 60 49
89 57 46 84 52 41 78 45 35 73 40 30 71 37 28
70 37 28 69 36 27 68 35 26 66 35 25 65 35 25
64 35 25 64 34 26 64 34 26 64 35 27 64 35 27
64 36 27 64 36 28 65 37 28 65 37 29 68 39 30
72 42 34 76 46 38 80 48 41 82 49 42 86 51 45
91 54 48 97 59 54 103 63 60 107 65 64 107 64 63
108 63 62 107 61 60 104 56 56 102 54 54 101 52 52
98 48 49 94 42 44 91 37 41 92 35 41 93 33 40
91 29 37 88 26 35 84 24 32 80 24 32 71 22 29
57 16 21 40 8 11 26 2 3 17 0 0 14 0 0
15 0 0 18 0 0 21 1 0 23 2 0 26 2 0
29 3 0 33 4 1 35 4 2 40 7 5 43 9 6
47 10 8 47 10 7 48 10 7 48 10 6 49 10 7
49 10 6 49 10 6 49 10 6 51 10 7 53 10 9
58 11 13 64 14 19 70 17 27 74 17 32 75 16 36
78 17 42 84 21 51 98 36 69 126 65 100 155 94 131
174 114 152 174 115 152 167 112 144 160 109 134 155 109 124
152 109 114 147 107 103 140 103 91 132 98 80 125 93 71
120 90 66 117 88 62 115 87 60 114 87 57 113 86 56
24 10 28 29 15 34 35 21 41 38 24 45 38 23 46
37 21 46 37 20 46 37 19 47 36 17 47 34 14 45
31 11 43 30 9 42 30 8 42 31 8 43 31 8 43
32 7 45 34 6 48 36 5 51 38 5 53 39 5 56
43 7 61 51 13 70 60 20 81 70 28 93 77 33 101
84 37 109 94 45 121 115 64 144 144 91 174 172 118 203
187 132 218 191 136 221 192 136 220 196 139 222 203 145 227
211 152 234 218 158 239 222 161 241 225 163 241 226 164 240
225 162 236 219 157 229 214 153 224 213 153 222 217 157 224
211 153 219 191 133 201 168 108 184 154 90 178 155 89 187
160 92 198 165 97 206 165 97 207 158 91 200 145 79 184
128 63 163 112 50 143 99 39 126 88 32 112 79 26 99
71 21 87 64 17 75 59 15 66 54 13 57 51 12 49
47 10 42 45 9 37 42 9 32 41 8 28 40 9 25
40 10 22 40 11 20 41 12 18 41 12 17 41 12 16
40 12 15 38 11 15 37 11 15 35 11 14 35 12 15
35 13 15 35 14 16 36 15 16 37 16 17 38 17 17
39 18 18 40 18 18 41 19 19 42 19 19 43 20 19
44 21 19 45 22 20 47 24 22 48 25 24 50 26 25
53 28 25 55 29 26 57 31 27 59 32 29 59 32 29
59 32 28 60 32 28 61 33 29 62 34 29 63 35 29
65 36 30 68 40 34 72 43 36 74 45 37 74 45 37
73 44 35 72 43 34 74 44 34 77 47 36 79 49 37
80 50 37 80 49 35 80 49 34 80 49 33 80 49 33
80 48 33 80 48 33 80 47 32 79 46 33 79 46 34
81 48 37 84 51 41 87 54 44 89 56 46 89 57 47
90 58 48 91 59 49 92 60 50 93 61 51 94 62 51
93 61 50 93 60 50 92 60 50 93 61 51 93 60 50
91 59 49 88 56 46 83 50 40 77 44 34 72 39 30
71 37 28 70 36 27 69 36 27 68 35 26 67 34 25
66 34 25 65 34 25 65 35 26 65 35 27 65 35 27
65 36 28 66 37 29 66 38 29 66 38 30 67 39 30
70 40 32 73 43 35 77 47 39 81 49 42 83 50 43
88 53 47 94 58 52 101 62 58 104 64 61 105 63 61
104 61 60 107 61 61 107 61 60 104 56 56 101 53 53
99 50 51 96 45 47 91 38 41 88 34 38 89 33 39
90 31 38 88 28 36 86 25 34 81 24 32 76 23 31
65 20 27 50 13 18 33 6 8 21 1 2 14 0 0
12 0 0 14 0 0 17 1 0 20 1 0 22 2 0
26 3 0 29 3 1 32 4 2 35 4 2 38 6 4
41 8 5 44 9 7 45 9 7 46 10 7 46 10 7
47 10 8 48 11 8 49 11 8 50 12 8 52 11 9
54 11 11 58 12 14 64 14 21 70 16 28 74 17 35
76 16 40 82 20 48 90 28 60 105 43 77 129 68 103
152 92 127 168 109 143 168 111 143 163 109 136 158 108 127
155 109 119 152 110 110 148 109 100 142 106 88 135 101 78
128 97 71 123 94 65 120 92 61 117 90 58 116 89 56
115 89 54 22 8 30 26 11 34 31 16 40 34 19 44
37 20 47 40 22 51 44 26 56 48 28 61 48 28 62
45 23 60 39 17 54 34 11 49 32 8 47 30 7 45
31 7 46 32 6 48 35 5 51 37 5 54 38 4 56
39 4 58 43 6 62 50 11 71 60 20 83 69 26 93
79 34 105 90 42 116 108 58 137 139 86 168 170 116 201
185 130 217 179 123 211 168 111 199 164 106 192 168 110 194
181 121 205 196 135 219 207 145 228 208 145 227 205 141 222
198 134 215 193 129 209 188 124 202 185 122 199 189 127 203
196 134 210 192 132 207 174 113 191 151 89 175 139 73 171
139 71 180 146 77 190 154 84 199 158 88 203 156 88 199
151 84 190 144 79 178 138 74 167 125 65 151 106 49 129
86 31 106 72 20 89 65 16 79 61 14 71 56 13 62
53 12 54 49 10 45 46 10 40 43 9 35 41 9 31
40 9 27 40 11 24 40 11 21 41 12 18 41 12 17
40 12 16 39 12 16 38 11 15 36 12 15 34 12 15
34 13 15 34 14 16 35 15 16 36 15 16 36 16 17
37 17 17 38 17 18 38 18 18 39 18 18 39 18 17
40 18 17 42 20 19 43 21 20 45 23 22 46 24 23
48 25 24 49 26 24 52 27 24 54 28 25 56 30 26
56 30 26 56 30 26 57 30 26 58 31 27 59 31 26
59 32 26 61 33 26 64 36 29 67 39 32 69 40 33
70 41 33 69 40 31 70 41 31 71 42 31 75 45 34
77 48 36 79 49 36 79 49 35 79 49 34 80 50 34
80 49 34 80 49 34 80 48 33 80 48 33 79 47 33
80 47 35 82 49 39 86 53 42 88 56 45 88 57 47
88 57 47 88 57 47 88 57 47 89 57 47 90 57 47
90 57 48 90 57 47 90 58 48 91 59 49 92 59 50
91 59 49 90 57 48 87 54 45 81 49 39 75 42 33
72 38 29 70 36 27 70 36 27 69 35 26 68 34 25
66 34 25 66 33 24 65 34 25 65 35 26 65 36 28
66 36 28 66 37 29 67 38 30 68 39 31 68 40 31
69 40 32 71 41 33 75 45 37 79 49 41 83 51 44
86 53 46 91 55 49 96 59 53 102 64 59 103 64 60
102 60 59 102 59 58 106 61 60 108 62 61 106 58 58
103 55 55 100 50 51 94 43 45 87 35 39 84 31 36
86 31 36 87 30 36 85 27 35 83 25 33 78 24 32
71 22 29 58 18 24 42 10 14 27 4 6 17 1 1
12 0 0 11 0 0 13 1 0 16 1 0 20 2 0
22 2 0 25 3 0 28 4 1 32 4 2 34 5 3
37 6 4 39 7 5 41 8 6 42 8 6 44 9 7
45 10 7 46 11 8 47 12 9 49 12 10 52 14 12
54 13 12 55 12 13 59 12 16 63 13 23 70 15 32
76 19 41 81 20 48 89 26 59 101 38 74 119 56 93
139 77 114 154 94 128 164 106 138 164 108 137 161 108 131
157 108 123 155 110 115 153 112 106 150 112 97 144 110 87
138 106 78 132 102 71 128 100 66 126 99 64 123 98 61
121 96 58 120 95 56 24 7 34 26 9 37 29 12 41
32 14 45 34 15 47 38 18 51 43 22 57 48 27 64
52 29 69 52 28 69 48 23 66 42 17 60 37 10 54
33 7 51 33 7 51 35 7 53 38 7 56 40 7 59
41 7 61 42 6 62 45 7 66 53 13 75 63 22 87
73 29 98 84 38 111 101 52 129 129 78 158 163 109 193
182 127 214 175 119 208 154 96 187 138 79 170 136 77 167
145 83 173 160 98 188 175 112 202 181 117 206 178 113 201
172 106 194 165 98 186 161 95 183 160 94 182 165 100 187
176 112 199 187 123 210 184 121 208 165 102 192 142 77 175
130 63 171 129 60 177 136 65 186 144 73 194 149 79 197
152 83 196 155 87 193 162 96 194 169 106 196 163 102 186
137 80 159 104 50 124 80 28 98 68 18 85 62 15 76
57 12 66 54 12 57 50 11 49 47 11 42 44 9 37
42 9 33 41 10 29 40 11 25 40 11 22 40 12 19
41 12 17 40 12 16 39 12 16 37 11 15 35 12 16
34 12 15 34 13 16 34 15 16 34 15 16 35 16 16
35 16 17 36 17 17 36 17 18 37 17 18 36 17 17
37 17 17 38 17 17 40 19 18 42 21 20 43 22 21
44 23 22 45 24 23 46 24 22 48 25 22 51 26 23
52 28 24 53 28 24 53 28 24 53 28 24 55 29 25
57 29 25 57 30 25 58 31 24 60 33 26 62 34 27
64 35 28 65 36 28 65 37 28 67 38 28 69 40 29
72 43 32 75 46 34 77 47 34 77 48 33 77 48 33
78 49 33 79 49 33 80 49 34 80 49 34 80 48 33
80 48 34 80 48 36 82 50 39 86 54 43 87 56 45
87 56 46 86 56 46 85 55 45 85 55 45 85 54 44
85 53 44 85 52 43 86 53 44 88 55 46 90 57 48
90 57 48 89 56 47 88 55 46 86 53 44 81 48 39
75 42 33 71 38 29 70 36 27 70 36 27 69 35 26
68 34 25 67 33 24 66 33 24 66 34 25 66 35 26
66 36 28 67 37 29 67 38 30 68 39 31 69 40 32
70 41 33 70 41 33 72 43 35 76 46 38 82 52 44
86 54 47 88 55 48 91 55 49 93 57 51 98 60 55
99 60 56 99 57 55 100 57 56 105 60 59 107 61 60
107 59 59 104 56 56 100 51 52 92 42 44 85 33 37
82 30 34 83 30 35 84 30 36 83 27 35 80 26 33
75 23 31 65 20 27 50 14 19 34 7 10 21 2 3
14 0 1 10 0 0 10 0 0 12 1 0 16 1 0
19 2 0 22 2 0 25 3 1 28 4 2 31 4 3
33 5 3 36 6 4 37 6 4 38 6 4 40 7 5
42 8 6 43 10 8 44 11 9 46 12 10 48 13 11
52 14 13 55 14 15 56 12 16 59 11 19 63 12 26
71 16 36 81 23 50 90 28 61 100 37 74 115 51 91
134 71 111 151 90 128 159 99 135 164 106 138 163 107 135
160 108 129 157 109 120 156 112 112 154 114 104 152 115 96
148 114 87 143 111 79 137 108 72 134 107 69 133 107 67
132 107 66 129 105 63 128 103 61 24 5 37 27 9 40
30 12 44 32 13 47 33 12 47 34 12 49 36 14 52
41 18 58 45 21 63 50 24 68 52 25 71 50 22 69
46 18 65 41 13 61 39 11 59 41 11 62 45 12 66
48 13 69 49 13 71 50 12 72 52 13 75 60 19 84
71 28 97 81 36 108 97 49 125 121 71 151 154 102 184
176 122 208 172 116 205 149 92 183 129 71 163 122 63 157
129 68 163 143 80 175 157 93 189 163 98 193 157 92 187
150 84 178 146 79 174 144 76 171 144 76 172 148 80 176
159 92 188 175 109 206 187 121 219 181 116 215 161 95 197
138 72 180 128 60 176 127 57 179 133 61 186 139 68 191
144 74 192 150 80 192 159 91 196 178 112 208 196 132 221
197 135 218 171 112 191 133 77 153 101 47 120 80 29 98
67 18 83 59 12 70 56 12 60 52 12 51 49 11 45
45 10 39 43 9 34 41 10 29 40 11 25 40 11 22
40 12 19 41 12 17 40 12 16 39 12 16 37 11 15
35 12 16 33 12 16 33 13 16 33 15 16 34 15 17
34 16 16 35 16 17 35 17 17 36 17 17 36 17 17
35 16 16 35 16 16 36 16 16 38 18 18 41 20 20
42 22 21 43 23 22 43 23 22 44 23 21 46 23 21
48 25 21 50 26 22 50 26 22 50 26 22 51 26 22
52 27 23 55 29 24 56 30 24 56 30 24 56 30 24
57 30 23 59 31 23 60 32 24 62 34 25 64 36 26
66 38 27 70 41 30 73 44 32 74 45 32 74 45 31
74 45 30 74 45 30 76 47 32 78 48 33 79 49 34
79 48 33 78 47 33 78 46 34 80 48 37 83 51 41
85 54 43 85 55 44 84 54 44 83 53 43 82 52 42
82 51 41 82 50 41 81 50 40 84 52 42 87 55 45
89 57 48 89 57 47 87 55 46 86 54 44 84 52 42
80 48 38 74 42 33 71 38 29 69 36 27 69 35 26
68 35 26 67 34 25 66 33 24 65 33 23 65 34 25
66 35 27 67 37 29 67 38 30 68 39 31 69 40 32
70 41 33 71 42 34 71 42 34 73 44 36 78 48 40
84 54 46 88 57 50 89 56 49 88 53 46 87 51 45
90 52 47 92 52 49 94 53 51 98 55 54 102 57 57
103 57 57 103 56 57 103 55 56 100 51 53 92 41 44
84 32 37 81 29 34 82 30 35 83 31 36 81 29 35
78 27 34 70 23 30 58 18 23 42 10 14 27 4 6
16 1 1 11 0 0 9 0 0 8 0 0 11 0 0
15 1 0 19 1 1 22 2 1 25 3 1 27 4 2
31 5 3 33 5 4 35 5 3 35 5 3 37 5 3
38 6 4 41 8 6 43 10 8 44 11 9 46 12 10
48 12 11 52 13 15 55 12 17 57 11 20 59 9 24
63 11 31 73 17 43 88 29 62 101 39 78 112 48 91
127 64 108 146 83 127 162 100 141 164 105 141 165 108 140
164 109 135 162 111 128 158 111 118 157 114 110 156 116 102
154 118 95 151 117 88 146 115 80 142 112 74 139 112 72
138 112 71 138 113 69 135 111 66 134 110 64 23 3 37
27 7 40 31 11 45 33 11 47 32 9 47 31 8 47
33 8 49 37 11 54 41 14 58 47 18 65 51 22 70
56 25 75 58 27 77 59 27 78 57 24 77 57 22 78
59 21 81 64 24 87 67 27 91 70 28 94 74 31 99
84 40 110 98 53 125 111 64 140 130 81 159 154 102 184
172 119 203 168 113 200 144 88 177 120 63 154 111 52 145
117 58 153 133 71 168 147 84 183 152 88 186 146 82 180
136 72 170 131 65 163 130 63 162 131 64 163 134 67 167
142 75 175 154 87 189 169 103 205 178 112 216 173 107 212
155 89 196 138 70 182 130 60 178 132 60 182 138 66 189
145 74 194 152 81 196 161 91 199 175 107 208 196 128 224
208 142 232 205 141 227 185 124 206 163 104 183 140 83 159
116 61 133 90 37 104 71 22 81 61 15 65 56 14 56
51 11 48 47 10 42 44 10 36 41 10 31 40 11 27
40 11 24 40 12 21 41 12 19 40 12 18 39 12 17
37 12 17 36 12 17 34 12 16 34 13 17 34 15 17
34 16 18 34 16 17 35 16 17 35 16 16 35 16 16
34 16 16 34 16 16 34 15 16 35 16 17 37 18 18
39 20 20 41 22 21 41 22 21 41 22 20 42 22 20
43 23 20 46 24 21 47 25 21 48 25 21 48 25 21
48 25 20 49 26 21 51 27 22 53 28 23 54 28 23
54 29 23 54 29 22 55 29 22 57 30 23 58 32 24
61 34 25 64 36 26 67 39 28 69 41 29 70 42 30
70 42 29 70 41 28 70 42 28 72 44 30 74 46 32
76 47 34 76 46 33 75 45 32 74 44 32 75 44 34
77 47 36 79 49 39 79 50 39 79 50 39 78 49 39
78 49 38 78 49 38 78 48 38 79 49 38 81 51 41
84 54 44 86 56 46 85 55 45 83 53 43 82 52 42
81 51 41 78 48 38 74 43 33 70 39 29 68 36 26
67 35 26 67 34 25 66 34 24 65 33 23 64 32 23
64 33 24 64 35 26 66 36 28 67 37 29 67 38 31
68 39 32 69 40 33 70 41 34 71 42 34 74 44 37
79 49 42 85 55 48 87 56 49 86 54 47 83 49 43
81 46 40 83 45 40 86 47 43 91 50 48 96 54 53
99 56 55 98 53 54 97 51 52 97 50 53 97 48 52
90 39 45 83 31 39 80 28 36 80 30 37 81 31 39
78 29 37 73 27 34 61 20 26 48 13 17 33 5 8
22 2 3 15 1 1 11 0 0 9 0 0 8 0 0
11 0 0 16 0 0 20 1 1 22 2 2 25 3 2
28 4 3 31 5 3 33 5 3 34 5 3 35 4 2
36 4 2 38 5 3 40 7 5 42 9 7 44 10 8
46 11 10 48 10 12 53 11 18 57 11 23 58 10 27
60 9 31 64 10 38 75 19 53 98 39 79 116 55 100
130 68 116 140 78 126 156 95 140 168 109 149 169 112 146
168 113 140 166 114 134 163 114 125 158 114 114 156 116 106
156 118 100 155 119 95 153 119 89 148 116 83 143 113 76
139 111 71 136 110 68 136 110 66 135 111 65 136 112 64
24 3 37 28 6 40 31 9 44 32 10 46 31 8 45
32 6 46 34 8 49 38 10 54 43 13 59 48 16 65
53 20 70 60 25 78 68 33 86 78 42 97 88 51 107
93 54 115 97 54 121 102 57 128 109 63 135 115 68 141
120 73 146 130 81 157 142 93 170 151 100 180 160 109 190
167 114 197 163 108 193 141 85 173 114 58 148 99 43 134
99 42 134 117 59 152 136 76 171 148 86 183 141 79 177
131 69 167 122 60 157 118 55 153 119 55 154 120 55 155
123 58 159 131 66 167 142 77 179 152 88 190 156 92 196
152 87 192 142 76 183 133 66 176 133 63 177 143 71 188
156 83 200 167 95 208 174 103 212 182 112 216 192 123 222
201 133 228 201 133 226 194 128 218 185 120 208 180 117 202
175 113 194 159 100 175 130 72 142 98 44 105 73 25 77
61 17 62 53 13 52 48 11 45 45 10 38 42 10 32
40 10 28 40 11 25 40 12 23 40 12 22 40 12 20
39 12 19 38 11 18 37 11 17 35 12 17 35 13 18
35 14 18 35 15 19 35 15 18 35 15 17 35 15 16
34 15 15 34 15 15 33 15 15 33 15 16 34 16 17
37 17 19 38 20 21 39 21 21 39 22 20 39 22 19
40 22 19 42 23 19 44 24 20 45 24 21 46 24 20
46 24 20 46 25 20 47 26 20 48 26 21 49 27 22
50 27 22 51 28 22 51 28 22 52 29 22 53 30 23
55 31 24 58 33 25 61 34 25 63 36 27 65 37 27
66 38 28 66 39 28 67 39 28 67 39 28 69 41 30
71 43 31 73 44 33 73 44 33 72 43 32 71 41 31
71 41 32 72 43 33 74 44 35 73 45 35 73 45 34
72 45 34 73 45 34 73 45 35 75 46 36 76 47 37
78 50 39 80 52 41 82 53 43 81 52 42 79 51 40
78 50 39 77 49 38 76 48 37 72 43 33 69 39 29
66 36 26 66 35 25 65 35 25 64 34 24 63 33 23
62 33 22 63 33 24 63 34 25 65 35 28 65 36 29
66 37 30 67 38 31 67 38 32 68 39 32 70 41 34
74 44 38 79 50 44 83 54 48 85 55 48 83 52 45
80 48 41 79 44 38 79 43 37 83 45 41 89 49 47
95 54 53 96 54 54 93 50 52 90 46 50 91 45 50
91 43 51 87 36 47 81 30 42 78 27 39 79 29 41
79 31 42 74 29 39 65 24 32 50 15 21 37 7 11
25 3 4 18 1 2 14 1 0 11 0 0 9 0 0
9 0 0 12 0 0 16 0 1 21 1 2 24 2 3
27 4 4 29 5 4 31 5 4 32 5 3 34 5 2
34 4 1 36 4 1 38 5 2 40 6 4 43 7 6
45 9 8 47 9 9 50 9 15 55 9 23 59 10 31
60 9 35 63 9 41 67 12 49 83 26 68 115 57 103
137 78 128 150 91 142 150 91 141 162 103 148 170 114 152
172 117 147 171 118 140 168 118 131 164 118 121 159 117 109
156 118 102 155 119 97 154 119 94 152 118 90 147 114 83
140 109 74 133 104 65 128 101 59 127 101 56 129 105 57
132 108 60 28 5 40 31 7 43 33 9 46 34 9 47
33 7 46 33 6 47 37 7 51 42 11 57 47 15 63
54 19 70 59 22 75 65 27 83 79 40 97 102 63 121
127 86 147 139 96 161 142 96 167 143 95 170 146 97 174
149 99 176 151 102 179 158 107 186 165 113 193 166 113 195
161 108 190 149 95 179 130 75 161 109 54 141 93 37 126
89 33 123 99 42 133 125 68 160 144 86 179 145 87 181
128 69 164 117 57 152 110 50 146 105 45 141 103 42 139
102 40 138 106 44 143 115 53 152 125 63 162 129 66 167
127 64 166 125 62 163 123 59 162 125 59 165 134 65 174
150 80 190 164 93 202 174 103 210 181 111 214 187 117 218
191 121 219 188 120 216 180 112 207 173 105 201 173 106 201
182 117 208 196 132 218 198 134 213 175 114 185 131 75 137
91 40 95 66 21 69 56 15 57 50 12 48 46 11 41
42 10 34 40 10 29 39 11 26 39 11 24 40 12 24
40 12 22 39 12 21 38 11 19 37 11 18 36 11 17
36 12 18 35 14 19 36 15 20 35 15 19 35 14 17
34 14 16 33 14 15 33 14 14 32 14 15 33 14 16
34 15 17 36 17 19 37 19 20 38 21 20 38 21 19
37 21 17 38 21 17 40 22 18 42 23 19 43 23 20
43 24 20 44 24 20 44 24 19 44 25 19 45 25 19
46 25 20 47 26 20 48 27 21 49 27 21 50 28 22
50 29 22 51 30 23 54 30 23 56 31 23 58 32 24
59 33 24 61 35 26 62 36 27 64 37 28 65 38 29
66 38 30 67 39 31 69 41 32 70 42 33 70 42 33
69 40 32 68 39 31 68 40 31 69 40 31 68 40 30
67 40 29 67 40 29 67 40 29 68 41 30 70 43 32
72 44 33 74 47 36 76 48 37 77 49 38 76 49 38
75 48 37 74 47 36 73 46 35 73 46 35 70 42 31
68 40 28 65 37 25 65 36 25 64 35 25 63 34 24
62 33 23 61 33 23 62 33 24 63 34 25 64 35 28
64 35 29 65 36 30 65 36 30 66 37 31 66 37 31
69 40 34 72 43 38 77 49 44 80 51 46 81 52 46
80 50 44 79 47 41 78 45 39 79 44 39 83 46 42
88 49 47 92 52 51 92 51 52 88 46 49 84 42 46
84 39 46 85 38 48 83 33 47 79 29 45 77 27 43
78 29 44 76 31 45 69 27 39 54 18 27 38 8 14
26 2 5 19 0 1 16 1 1 13 1 0 12 0 0
11 0 0 11 0 0 15 0 1 19 1 2 23 2 4
26 3 5 28 4 6 30 5 5 31 5 4 32 5 2
33 4 1 34 4 1 36 4 1 38 5 3 41 5 4
43 7 6 45 8 7 47 8 10 52 9 18 56 10 28
61 11 38 62 9 42 65 11 49 71 17 59 94 39 86
138 81 133 164 107 161 174 117 170 163 107 157 168 112 156
172 118 154 174 122 149 173 123 141 169 121 131 165 120 119
160 119 107 156 119 99 153 118 95 151 117 91 148 114 86
141 108 78 132 101 67 122 93 54 116 89 46 115 89 43
120 96 47 125 101 52 34 6 46 35 8 48 37 9 50
37 9 51 36 7 51 37 6 52 39 7 55 44 9 60
51 14 68 58 20 76 65 25 82 76 34 94 99 57 118
131 88 151 156 112 176 162 116 184 158 110 183 151 102 179
149 99 177 147 97 176 149 98 177 152 101 181 152 100 181
143 90 173 128 75 158 111 57 142 96 42 127 86 31 118
85 30 117 94 39 128 113 57 146 135 79 169 142 86 176
134 77 168 116 60 151 104 47 139 96 39 131 90 32 126
87 29 123 87 28 123 93 33 129 101 42 137 108 49 145
108 48 145 104 44 141 103 42 140 103 42 141 117 53 155
135 69 174 153 84 191 157 88 194 159 90 194 163 94 196
167 99 198 168 100 197 163 95 193 159 91 189 160 91 191
166 98 197 178 111 206 195 128 218 204 139 221 194 131 204
150 92 157 104 52 108 69 23 73 59 17 60 52 13 51
47 12 42 43 11 35 39 10 29 39 10 27 39 11 25
40 12 25 39 12 23 39 11 21 38 11 20 37 10 18
35 10 17 35 11 18 34 12 19 35 13 20 34 13 20
34 13 18 34 13 17 33 13 16 32 13 15 32 13 15
32 14 15 34 15 16 35 17 18 36 18 18 37 19 18
36 20 17 35 20 15 36 20 16 38 21 17 40 22 18
41 22 18 42 23 18 42 23 19 42 23 18 43 24 18
43 24 18 43 24 18 44 24 19 45 25 19 46 25 19
47 26 20 47 27 20 48 28 21 50 28 21 52 28 20
53 28 21 55 29 22 57 31 24 59 33 25 61 35 27
63 36 28 64 36 29 65 37 30 67 39 32 69 42 34
70 42 35 70 41 34 68 39 33 67 38 31 66 38 30
65 38 28 64 37 27 64 37 26 64 37 26 65 38 27
66 39 28 67 40 29 70 43 32 71 44 33 72 45 34
71 44 33 71 44 33 70 43 32 70 43 32 69 42 31
68 40 29 66 38 27 65 37 25 64 36 25 64 36 25
63 35 24 62 34 24 62 33 24 62 34 25 63 35 26
65 36 28 65 36 29 65 36 30 65 36 30 66 37 31
66 37 31 67 38 33 69 41 37 73 44 41 76 47 43
78 48 44 77 47 42 77 46 41 77 45 40 78 44 40
81 45 42 84 46 44 85 46 47 85 45 47 82 41 46
80 38 45 79 36 45 80 34 46 79 31 47 77 29 46
76 28 46 75 29 46 71 28 43 61 22 35 44 12 22
29 4 9 20 1 2 16 0 1 14 0 1 13 1 1
13 1 2 14 2 2 15 2 3 18 2 4 21 2 5
25 3 7 28 4 8 30 5 8 31 5 7 32 5 5
32 4 3 33 4 2 34 4 2 37 5 3 39 5 4
42 6 6 45 7 8 47 8 10 49 9 13 53 10 22
57 10 31 61 10 41 62 9 45 66 13 53 77 23 67
110 56 105 159 104 157 187 131 186 189 134 188 174 119 169
174 120 164 176 123 159 176 125 153 175 125 144 169 122 131
164 120 119 159 119 106 155 118 98 149 114 90 145 111 84
140 106 77 132 100 68 123 92 56 113 85 44 109 81 37
109 83 36 113 89 39 117 94 43 42 10 57 42 10 57
43 11 58 43 11 59 44 10 60 45 9 62 46 9 64
49 11 68 56 16 75 63 21 83 75 31 94 97 53 118
129 84 151 154 108 176 158 111 180 146 99 170 133 85 159
123 74 151 115 67 144 112 63 142 116 66 145 120 69 149
116 65 146 105 54 135 95 42 125 88 35 119 83 29 114
81 28 113 91 38 123 109 56 142 125 72 158 132 77 164
124 70 156 112 57 144 97 43 130 86 31 119 78 23 112
74 19 108 73 18 108 75 19 110 84 27 118 93 36 128
98 41 133 94 36 130 89 32 125 90 32 126 95 37 132
118 57 155 138 74 175 147 81 185 136 69 173 127 61 163
127 61 161 134 68 166 139 74 171 143 76 175 145 79 179
152 84 186 162 94 196 173 106 204 183 117 209 188 123 208
183 120 196 146 88 154 104 53 109 68 23 72 58 17 60
52 13 50 47 12 42 43 11 36 40 10 30 39 11 27
39 11 25 40 12 25 39 11 23 38 10 21 37 10 19
36 9 17 34 9 16 33 10 17 33 10 19 33 11 21
33 12 20 33 12 19 33 12 18 32 12 17 32 12 15
31 12 15 32 13 14 33 14 15 34 16 15 35 17 16
36 18 15 35 18 14 34 18 13 35 18 13 36 19 14
38 20 16 39 20 16 39 21 17 40 21 17 41 22 17
41 22 17 41 22 17 42 23 17 42 23 17 43 23 18
44 23 18 44 24 18 45 25 18 45 25 18 47 25 18
48 25 18 49 25 18 51 27 19 53 29 22 55 31 24
58 33 26 60 34 27 61 35 28 63 36 29 66 39 32
69 43 36 72 45 38 71 44 37 70 41 35 68 39 33
66 38 30 65 37 28 63 35 26 62 35 25 62 34 24
62 35 25 63 36 26 64 37 27 66 38 28 67 39 29
68 40 30 67 40 30 67 39 29 66 39 29 66 38 28
66 38 28 65 37 27 64 36 26 63 36 25 63 35 25
63 35 25 62 34 24 62 34 24 61 33 24 62 34 26
63 35 27 64 36 29 64 36 29 64 36 30 65 36 30
65 36 30 65 36 30 64 36 31 65 37 33 66 38 35
69 41 37 71 42 39 73 43 39 73 43 39 74 42 39
75 42 39 76 41 40 77 40 40 77 39 41 77 38 42
77 36 42 76 35 43 76 33 43 77 32 45 76 30 47
75 29 48 73 28 46 69 26 44 62 22 38 49 14 28
35 7 16 23 2 7 16 0 2 14 0 2 13 1 3
14 2 4 15 3 5 17 4 6 19 5 7 22 5 8
25 4 8 28 4 9 30 5 9 31 6 9 32 6 9
32 5 7 32 5 5 33 4 4 35 4 5 38 5 7
40 6 8 43 7 11 46 8 13 48 10 15 50 10 18
54 11 26 57 11 35 61 11 43 62 10 48 67 15 57
84 31 77 128 74 125 178 124 178 204 149 205 199 145 199
183 130 181 180 128 173 178 127 165 176 127 156 173 124 145
167 120 132 162 118 119 155 115 105 149 112 94 141 106 83
135 101 75 131 97 67 124 93 58 117 86 48 110 82 39
107 80 34 108 82 33 110 85 35 113 89 38 51 14 69
51 14 69 52 14 70 53 15 72 55 17 74 57 17 77
58 17 79 60 17 81 65 21 86 76 30 98 97 51 119
128 80 150 152 104 175 154 105 178 136 85 159 112 62 137
96 47 122 86 38 114 81 33 109 82 34 111 90 41 119
96 47 126 93 44 123 85 34 115 79 28 109 79 27 109
82 30 113 92 39 123 108 56 140 123 70 154 123 71 155
112 59 143 98 46 128 88 36 117 79 27 109 70 18 101
64 13 95 63 11 95 65 12 97 72 18 104 82 29 115
90 35 122 90 36 123 87 32 120 87 32 120 94 39 128
106 50 141 127 69 162 137 76 173 133 70 170 115 51 152
104 40 140 102 39 137 108 45 142 119 55 152 129 64 163
137 72 173 147 81 185 159 93 196 167 100 201 168 103 197
165 101 187 157 95 172 127 69 137 92 41 98 63 17 66
54 13 54 49 11 46 45 11 40 43 11 35 41 11 31
40 12 28 39 11 26 39 11 25 39 11 23 37 10 21
36 9 19 35 8 16 33 8 15 32 8 16 31 8 18
31 9 20 31 10 20 31 10 20 31 10 19 31 11 18
31 11 16 31 11 15 31 12 13 32 13 13 33 15 13
34 16 13 34 17 12 34 16 11 33 16 10 33 16 11
34 17 12 36 18 14 37 18 14 37 19 15 38 19 15
39 20 15 39 20 16 39 20 15 40 21 16 41 22 16
41 22 16 42 22 16 43 22 17 43 22 17 43 23 17
44 23 16 45 23 16 47 24 16 49 25 17 51 27 19
53 29 21 55 31 24 57 32 25 59 33 26 61 35 28
65 39 32 69 43 36 72 46 39 72 45 38 70 43 36
68 40 34 66 38 31 65 37 29 63 35 26 62 34 25
61 33 24 61 33 24 62 33 24 62 34 25 63 35 26
63 35 26 64 35 26 63 35 26 63 35 26 63 35 26
63 34 25 62 34 25 62 34 25 62 34 25 61 34 24
61 34 24 61 34 24 61 33 24 61 33 24 60 33 24
61 34 25 62 35 27 63 36 28 63 35 29 63 35 29
63 35 29 63 35 28 62 35 29 61 34 29 60 33 29
60 32 29 62 34 31 65 36 33 67 38 34 68 39 35
69 38 36 70 37 36 70 36 36 70 34 36 70 32 37
71 32 38 72 32 40 73 32 42 74 32 43 74 31 46
74 30 48 73 28 48 68 25 44 60 20 38 49 13 29
38 7 20 27 3 13 19 1 8 15 0 5 13 0 4
13 1 5 14 3 6 16 4 7 19 6 9 21 6 10
24 6 11 27 6 11 29 5 11 31 6 11 33 7 11
33 7 11 34 6 10 34 5 8 35 5 8 36 5 9
39 6 11 41 7 14 44 8 17 47 10 20 49 11 22
52 12 25 55 13 32 58 12 40 61 12 47 63 11 52
70 18 62 95 43 90 147 94 145 197 143 197 217 163 219
207 153 208 191 138 190 185 133 179 179 128 167 174 125 156
170 121 145 164 118 133 159 116 121 152 112 105 144 107 91
135 100 78 129 95 69 127 94 62 124 92 56 119 89 48
114 86 42 112 84 37 111 84 36 112 86 36 113 88 37
72 31 93 72 30 92 72 30 93 75 33 97 80 37 102
83 39 106 84 39 107 85 39 108 90 42 113 105 56 128
130 80 153 151 101 175 151 100 176 131 79 155 105 53 130
87 36 113 78 28 104 72 24 99 69 22 97 72 25 100
79 31 107 83 36 113 80 32 110 76 27 105 71 22 101
74 24 105 86 36 117 106 56 137 121 72 152 120 70 150
104 55 134 87 38 116 76 27 104 70 21 97 66 17 93
62 13 89 59 10 87 60 10 88 64 14 93 74 24 104
83 32 113 86 34 115 83 32 113 85 34 116 95 43 126
108 56 139 120 68 152 127 72 160 123 66 158 111 51 146
99 39 135 93 33 128 92 31 126 96 35 131 107 45 142
119 57 156 130 67 168 142 78 181 153 89 192 158 93 195
156 92 188 149 86 174 136 75 153 108 51 118 77 27 82
55 10 55 47 7 45 44 6 39 42 8 35 41 10 32
40 11 29 40 12 27 39 12 25 39 11 24 38 10 22
37 9 20 35 8 18 33 7 15 32 6 14 31 6 15
30 7 17 30 7 19 30 8 19 30 8 19 31 9 19
31 10 18 31 10 17 31 11 14 31 11 13 31 12 11
32 14 11 33 15 10 33 15 9 32 15 8 31 14 7
32 14 9 33 15 11 34 16 13 35 17 13 35 17 14
36 17 14 37 18 14 37 18 14 38 19 15 39 20 16
41 22 16 41 22 16 41 22 16 41 22 16 42 21 16
42 21 16 42 21 15 43 22 15 44 22 15 46 24 16
47 25 18 49 27 19 51 29 21 53 30 23 55 31 24
57 33 26 61 37 30 66 41 35 68 44 37 69 43 37
67 41 35 66 39 33 65 38 31 64 36 29 63 35 27
62 33 26 60 32 24 60 31 24 60 31 24 60 32 24
60 32 24 60 32 24 60 32 24 60 32 24 60 32 24
60 32 24 60 32 24 60 32 24 60 32 24 59 32 24
58 32 24 58 32 24 58 32 24 58 32 24 58 32 23
58 32 23 59 33 25 60 34 26 61 35 28 61 34 27
60 34 27 60 34 27 60 33 26 59 33 27 58 32 26
55 30 26 54 28 25 56 29 27 59 31 29 61 34 31
64 35 33 65 35 34 65 33 33 64 31 33 64 29 33
65 29 35 67 29 37 69 29 39 70 30 41 71 30 43
72 30 46 72 29 48 69 26 46 61 20 40 49 12 30
38 6 21 28 2 15 22 1 11 17 1 9 15 1 8
13 1 7 13 2 7 14 3 8 17 4 8 19 5 9
21 5 10 25 5 11 28 5 11 30 5 11 33 6 12
34 7 13 35 8 13 36 7 13 36 6 13 37 6 14
38 5 15 40 6 17 42 7 20 45 8 23 48 10 26
50 12 30 53 13 32 56 14 38 59 13 45 62 13 52
64 14 57 74 23 69 108 57 106 163 111 162 210 158 212
225 173 228 215 163 218 201 149 201 191 140 187 181 131 172
173 125 158 168 121 147 165 119 138 161 118 127 155 115 112
146 109 96 138 102 83 133 98 74 133 99 69 133 101 65
130 99 59 124 95 51 120 91 45 117 89 41 116 89 40
116 90 41 111 66 134 110 65 134 111 66 135 116 70 140
123 76 147 128 80 152 130 81 154 130 80 154 134 84 159
146 95 171 157 105 182 152 100 177 129 76 154 101 47 126
83 29 109 76 24 102 71 22 97 67 20 93 65 19 91
66 19 93 69 22 96 70 23 98 68 21 97 67 20 96
65 18 94 74 26 103 95 47 125 118 70 147 121 74 150
104 56 132 82 34 110 70 23 97 64 19 90 60 16 85
58 14 83 57 13 82 58 13 83 61 17 87 69 23 95
77 32 104 80 33 108 79 32 107 81 33 108 91 44 119
106 58 134 116 68 144 117 68 146 107 57 138 96 43 128
87 31 120 83 27 117 80 24 115 80 23 115 87 29 122
98 39 134 113 53 151 124 64 164 136 74 177 144 81 183
147 84 184 146 83 178 139 77 164 122 62 139 93 38 102
64 16 67 47 5 44 41 2 34 39 3 30 38 5 27
38 8 26 39 10 24 39 11 24 39 11 23 39 12 22
38 10 20 36 9 19 35 7 17 33 6 14 31 5 13
30 5 13 29 5 15 29 6 17 29 6 18 30 7 19
30 8 19 30 9 18 31 10 17 31 10 15 30 11 12
30 12 10 31 13 9 32 14 9 31 14 8 31 13 7
29 12 7 30 12 8 31 14 10 33 15 12 33 15 13
34 16 13 34 16 13 35 16 13 35 17 13 37 18 14
39 20 16 41 22 17 41 22 17 41 22 17 41 22 16
41 21 16 41 21 15 41 20 15 41 20 14 42 21 14
43 22 14 44 23 16 45 24 17 47 25 18 48 26 19
50 27 20 52 29 23 56 33 26 60 37 30 62 39 32
63 38 32 62 37 31 61 36 29 61 35 29 62 35 28
62 34 27 60 33 25 59 31 24 58 30 23 57 30 22
58 30 23 58 30 23 58 30 23 58 30 23 58 30 23
58 30 23 58 30 23 58 31 23 58 31 23 57 30 23
56 30 22 56 30 22 55 30 22 56 30 22 56 30 23
56 30 23 56 31 23 57 31 24 58 33 25 59 33 26
58 33 26 58 32 25 57 32 25 57 31 24 56 31 25
55 30 25 53 29 24 52 27 24 53 27 24 55 28 27
58 31 29 61 32 32 62 32 33 61 30 32 61 28 33
62 27 34 64 27 36 66 27 39 67 27 40 68 27 42
68 27 43 70 28 46 70 28 48 64 23 44 53 15 34
40 6 23 30 2 16 23 0 12 19 1 11 17 2 11
16 3 11 15 4 11 15 4 10 16 4 10 18 4 9
20 4 10 22 3 10 25 3 10 28 4 11 31 5 12
34 6 13 36 7 15 37 8 17 38 8 18 38 7 19
39 6 19 39 5 21 41 5 23 43 7 26 46 8 30
49 11 34 52 12 37 54 14 40 57 14 45 59 13 50
62 13 56 67 17 62 79 29 76 118 68 117 169 118 170
212 161 215 226 175 230 223 171 226 215 164 216 204 154 202
190 141 184 178 130 166 171 124 154 169 124 146 168 125 138
163 122 124 155 117 109 148 111 96 145 110 89 147 112 85
147 114 80 143 112 73 136 106 63 128 99 55 122 94 49
120 92 47 119 92 46 147 99 172 142 94 167 138 90 163
139 91 165 145 96 171 150 101 176 152 102 178 154 103 179
161 109 186 166 114 191 157 104 182 130 77 156 100 47 126
80 26 106 72 18 97 68 17 93 64 17 89 62 17 87
61 17 87 60 16 86 61 16 88 60 15 87 59 14 87
61 16 89 69 24 97 88 43 117 110 64 138 118 72 145
105 60 131 83 38 109 67 22 92 60 17 85 56 14 79
54 13 76 54 13 76 57 16 79 60 19 83 65 24 87
71 30 94 75 33 98 76 33 100 77 34 102 84 40 108
93 49 118 101 57 126 102 58 127 93 49 120 80 35 109
73 24 102 71 20 102 72 20 104 73 20 106 77 24 111
87 33 122 102 46 137 113 56 151 119 60 158 123 63 163
127 66 166 129 68 166 130 69 160 124 65 147 107 49 122
80 27 86 56 9 54 43 2 35 38 1 26 36 1 22
34 2 19 34 4 17 34 6 16 34 7 16 35 8 16
36 9 17 35 8 17 35 8 17 34 7 16 32 6 15
31 5 14 30 5 14 30 6 15 30 6 16 30 7 18
31 7 19 31 8 20 31 9 19 31 10 18 31 10 15
30 10 12 30 10 9 30 11 8 30 12 8 30 12 7
29 11 7 28 11 7 29 11 9 30 12 10 31 13 12
32 14 12 32 14 13 33 15 13 34 16 13 35 16 13
37 18 15 39 19 16 40 21 18 40 21 17 40 21 17
40 21 16 40 21 16 40 21 15 41 20 15 40 21 14
41 21 14 41 21 14 41 21 14 41 22 15 42 22 15
43 23 16 44 23 16 46 24 18 49 27 20 51 29 23
53 31 25 54 32 26 55 32 26 55 32 26 57 33 26
58 33 26 59 33 26 58 32 26 57 31 25 57 31 24
57 30 24 57 30 24 56 30 24 56 30 23 55 29 23
55 29 23 56 29 23 56 30 24 57 30 24 57 31 24
55 30 23 53 29 22 52 28 21 51 28 21 52 28 21
52 28 21 52 28 21 51 28 21 52 29 22 53 29 22
54 30 23 53 30 23 53 29 22 52 29 22 52 29 22
52 29 22 53 29 23 52 28 23 52 27 24 52 26 24
54 27 26 56 29 29 59 30 31 59 29 32 59 28 33
59 27 34 61 26 37 63 27 39 65 26 41 66 25 43
67 25 44 67 25 45 67 25 46 65 24 45 57 18 39
45 9 28 33 3 19 26 0 14 21 0 12 18 1 12
18 4 13 19 6 15 21 8 17 22 8 16 22 7 15
23 6 14 24 4 12 24 3 11 27 3 12 30 3 12
33 4 14 35 5 15 37 7 18 40 8 21 42 9 24
42 9 26 41 6 27 42 6 28 43 6 31 47 8 36
49 9 39 51 11 42 54 14 47 57 15 50 60 16 54
62 15 58 66 17 63 72 22 70 87 38 87 124 74 125
165 115 168 199 148 202 212 161 217 216 165 220 218 168 220
214 164 213 203 155 198 190 142 180 182 135 167 181 136 162
181 137 154 175 133 140 165 126 123 159 121 112 157 120 105
158 123 100 157 123 94 153 120 86 145 113 76 137 106 66
129 99 59 125 95 54 122 92 52 151 101 177 143 93 168
135 85 160 133 83 158 137 86 162 141 90 166 142 91 167
144 93 170 153 102 179 154 102 179 136 84 161 105 52 130
81 28 106 72 19 97 68 16 93 63 14 88 61 15 85
59 15 82 60 16 84 59 15 83 58 15 84 56 12 83
58 14 85 68 24 95 86 42 113 106 62 133 113 70 139
104 61 129 84 41 108 68 25 91 58 16 80 54 13 75
51 12 71 50 13 69 51 15 70 54 17 74 58 21 78
61 25 81 65 29 86 65 28 86 69 30 90 76 37 98
86 47 109 88 49 111 84 45 107 76 37 100 68 28 92
62 21 87 61 17 88 64 18 93 66 19 96 69 21 101
76 27 108 87 37 121 100 47 134 107 53 143 108 52 145
107 50 145 108 50 145 109 51 143 111 53 138 106 49 125
90 36 101 70 19 70 52 6 43 43 2 28 38 1 20
35 1 15 32 1 12 31 2 10 30 3 9 30 4 9
31 4 11 32 5 13 33 6 15 33 6 16 33 5 16
32 5 17 32 5 17 31 6 17 31 7 17 31 7 18
31 8 19 31 8 20 32 8 20 31 9 20 31 10 18
30 10 15 30 9 12 29 9 10 29 10 9 29 11 8
29 11 8 29 10 9 28 10 9 28 10 9 28 11 10
29 12 11 30 13 12 32 14 13 33 15 13 34 16 13
35 16 14 36 18 15 38 19 16 39 20 17 39 20 17
39 20 16 40 21 16 40 21 16 40 21 16 40 21 16
40 21 15 40 21 14 40 21 14 40 21 14 40 20 13
39 20 13 39 20 13 40 20 13 41 21 14 43 22 15
44 23 17 46 25 18 47 26 19 49 28 21 50 29 22
52 30 24 54 30 24 56 31 25 56 31 25 57 31 25
57 31 25 56 31 25 56 30 25 56 30 24 55 29 24
55 29 23 55 29 23 55 30 24 56 30 24 56 31 25
56 31 25 54 30 23 51 28 22 49 27 20 48 27 20
48 26 19 48 26 19 48 26 19 48 26 19 48 26 19
48 27 19 49 27 20 49 27 20 49 27 20 48 27 20
49 27 20 49 27 20 50 28 21 50 27 22 52 27 24
52 26 25 53 26 26 54 27 28 57 27 31 57 27 33
57 25 34 58 24 36 60 25 39 63 25 43 65 25 45
65 24 47 66 24 47 65 22 47 62 20 45 57 17 41
49 11 34 39 5 25 30 1 19 25 0 16 22 0 15
20 1 15 21 5 17 23 7 19 26 10 21 27 9 20
28 8 20 28 7 18 29 5 17 29 3 15 32 4 16
35 4 17 38 6 19 39 6 20 41 7 23 44 10 28
47 11 32 47 11 35 47 9 37 47 8 38 48 9 42
50 10 45 52 11 49 54 12 52 56 14 56 59 15 58
62 17 63 65 17 66 69 20 70 77 27 79 96 46 97
129 79 131 161 111 165 185 135 189 198 147 202 204 154 207
210 160 212 214 164 212 212 163 207 204 156 195 195 148 182
191 145 175 187 143 165 180 137 150 171 130 134 165 126 123
162 123 114 159 123 107 157 121 99 152 118 91 147 114 83
141 109 76 135 103 70 129 97 64 125 93 61 124 74 149
114 64 140 104 54 129 99 50 125 100 51 125 102 52 127
102 53 127 105 56 130 114 65 139 117 67 141 105 55 128
85 35 109 73 23 96 68 19 92 65 16 89 60 13 83
59 14 81 57 15 79 58 16 80 56 14 79 55 13 80
55 13 80 64 22 91 85 42 111 106 64 132 114 72 140
101 60 126 82 41 105 66 25 87 57 17 77 53 13 72
50 11 67 48 13 65 47 14 63 49 16 65 51 18 67
52 19 69 52 19 69 52 19 69 51 17 68 61 26 78
74 38 92 81 45 100 74 38 94 64 28 84 59 23 79
58 22 78 58 20 80 58 19 82 61 19 86 64 21 92
70 26 99 78 33 108 86 39 117 92 44 124 92 42 125
90 38 125 87 34 123 89 34 123 91 36 121 93 38 115
88 34 101 76 24 79 61 12 54 49 5 34 44 4 23
39 3 16 35 1 11 32 1 7 29 0 4 27 0 3
26 0 4 27 1 6 28 2 9 30 3 13 31 4 17
32 4 19 33 5 21 33 6 22 34 8 22 34 9 22
33 10 21 33 10 21 33 9 22 32 9 21 32 9 21
31 9 19 30 9 17 30 9 14 29 9 12 29 9 11
29 9 10 29 10 10 29 10 10 29 10 11 28 10 11
27 10 11 27 11 11 29 12 12 31 13 13 32 14 13
34 16 14 34 16 15 36 17 16 37 18 16 38 18 16
38 19 16 38 19 16 39 19 16 39 20 17 39 20 17
40 21 16 40 22 16 39 22 15 39 21 14 38 21 13
38 20 13 37 19 12 37 19 12 37 19 12 37 19 12
38 19 12 38 19 12 39 19 13 41 21 14 43 23 16
45 25 19 48 26 20 50 27 22 52 28 23 54 29 25
55 30 26 56 31 26 55 31 26 55 30 26 54 30 25
54 29 25 54 29 25 54 29 25 54 30 25 55 30 25
55 30 26 55 31 26 52 29 23 49 27 21 45 25 18
45 25 18 44 24 18 44 24 17 44 23 17 43 23 17
43 23 16 43 23 16 43 23 16 43 23 17 44 24 17
44 24 17 44 24 17 45 24 18 48 26 20 49 26 21
51 26 23 51 25 23 51 23 25 51 23 27 53 23 30
55 24 34 56 23 37 57 22 40 60 22 43 61 22 46
63 22 49 65 23 51 65 22 52 62 19 49 56 13 43
49 9 37 42 4 31 36 2 26 30 0 22 26 0 20
24 1 20 23 2 20 24 4 21 26 6 22 29 8 24
30 8 23 32 7 23 33 6 23 34 5 22 35 5 22
39 6 24 42 8 26 45 9 28 45 9 29 47 10 32
50 13 38 53 15 43 55 15 47 55 15 50 56 14 52
56 13 55 57 13 57 58 13 59 59 15 62 62 17 66
67 21 72 71 24 76 73 25 78 76 26 80 86 36 90
108 58 111 136 86 139 161 111 164 176 126 179 185 134 188
189 139 191 194 144 194 202 152 201 211 162 207 214 166 207
208 161 198 198 151 183 186 141 167 176 133 151 169 127 138
163 122 128 155 115 114 147 108 101 141 103 90 138 102 84
139 104 83 139 104 82 137 102 79 131 96 73 127 92 69
89 41 114 84 36 109 78 30 102 76 28 100 76 28 100
76 29 100 76 29 100 79 33 103 86 40 109 89 43 112
83 37 105 73 27 95 67 22 89 65 20 87 62 17 84
59 16 81 59 17 80 61 20 81 63 22 83 64 23 86
67 26 90 72 31 96 90 49 115 110 69 135 116 76 141
101 61 125 77 38 100 63 24 84 57 18 75 52 13 69
49 11 64 46 11 61 45 14 59 44 15 57 43 15 57
44 15 57 43 15 57 42 13 56 41 12 56 40 11 55
50 20 65 62 31 77 68 37 84 62 30 78 53 22 71
52 20 69 53 20 71 53 20 72 54 19 75 58 21 80
63 24 87 68 29 94 73 32 100 75 32 103 76 31 104
75 28 105 76 26 106 76 26 107 79 27 108 83 31 106
84 32 99 78 26 83 66 16 62 55 9 41 48 6 27
45 6 18 40 5 12 36 3 8 32 2 4 29 1 3
27 1 3 26 0 4 26 0 6 28 1 11 30 2 16
33 4 22 35 5 26 36 7 29 36 8 30 36 9 30
35 10 28 35 10 26 34 10 25 33 9 24 32 8 23
32 8 23 32 8 22 31 9 20 31 9 18 30 9 16
30 9 15 30 10 14 30 10 13 30 10 13 29 10 13
28 10 13 27 10 12 27 11 11 28 12 12 30 13 12
31 14 13 33 15 14 34 16 15 35 16 15 36 17 16
37 18 16 37 18 16 37 18 16 38 18 16 38 19 17
39 19 17 39 20 16 38 21 15 37 21 14 37 21 14
37 20 13 36 19 12 36 18 11 35 18 11 35 17 10
35 17 10 35 17 10 35 16 10 36 16 10 37 17 11
38 19 13 40 21 14 43 23 17 46 24 19 50 26 21
51 27 23 52 28 24 52 29 24 52 28 24 51 28 23
52 28 24 52 29 24 53 29 25 53 29 25 53 29 24
52 29 24 52 28 24 52 28 24 49 26 21 45 25 19
42 23 16 42 22 16 41 22 16 41 22 15 41 21 15
40 21 15 40 21 14 40 21 14 40 21 14 41 21 14
41 22 15 41 22 15 42 22 15 42 23 16 46 25 19
48 25 20 50 24 22 49 22 22 49 20 24 50 21 27
53 22 32 56 23 38 57 23 42 59 22 46 60 21 49
62 22 53 64 22 56 65 22 58 63 19 56 57 13 50
49 7 42 44 3 36 41 1 33 37 1 30 33 0 28
30 0 26 28 1 26 29 4 28 30 5 29 30 5 28
31 5 27 33 4 27 36 4 27 38 5 28 41 6 30
43 7 31 48 9 34 51 11 37 54 13 39 54 13 41
56 15 45 58 17 50 61 18 55 62 19 58 64 20 63
65 21 66 65 19 68 63 18 68 62 16 68 63 17 71
69 23 78 81 34 90 86 38 95 85 36 93 84 33 90
98 47 103 120 70 124 144 93 147 161 111 163 170 120 172
175 125 177 179 129 180 182 132 182 190 141 189 204 155 200
215 167 209 214 167 205 198 151 186 180 134 165 169 124 149
164 121 140 158 116 129 146 104 113 132 92 95 124 84 82
122 83 77 127 89 79 130 93 82 132 94 82 128 91 78
126 88 76 70 25 94 67 23 91 65 20 88 64 19 87
64 19 86 63 19 86 64 21 86 69 26 91 73 30 94
73 31 93 68 26 87 62 20 81 60 19 79 60 19 79
59 19 78 59 19 78 61 22 79 67 27 84 71 32 89
80 40 99 90 51 111 101 61 123 115 75 138 118 78 140
106 68 129 80 42 102 60 23 81 53 16 71 51 14 67
48 12 62 45 11 59 44 12 56 42 14 53 40 14 50
38 14 49 38 12 49 36 11 47 34 8 46 33 7 45
32 6 45 39 12 51 48 21 61 54 26 67 50 22 64
45 17 60 45 17 60 47 18 62 48 18 65 51 19 68
54 21 73 58 24 79 62 26 84 63 26 86 63 24 87
62 21 87 63 20 89 66 21 92 70 22 95 74 25 96
78 29 94 78 28 85 70 22 68 60 13 48 53 9 32
49 9 22 46 8 15 41 6 10 37 4 7 33 3 4
30 2 2 28 1 3 26 0 5 26 0 8 27 1 14
33 4 23 38 8 33 42 12 40 43 13 44 41 11 43
38 10 39 36 9 34 34 9 30 33 8 28 32 7 27
32 7 26 33 8 26 33 9 26 33 9 25 32 9 23
31 9 20 31 9 19 31 9 18 31 10 17 31 10 17
30 10 16 29 10 15 28 10 13 27 10 11 27 11 11
28 12 12 30 13 13 31 14 14 32 14 14 33 15 15
34 16 15 35 17 15 35 17 15 36 17 15 37 17 16
37 17 16 37 18 16 37 19 15 36 20 14 35 20 13
34 20 12 34 19 12 34 18 11 33 17 10 33 17 10
32 16 9 32 15 8 32 15 8 32 14 8 33 14 8
34 15 9 35 17 11 37 18 12 40 20 15 43 22 17
46 24 20 47 25 21 48 25 22 48 26 22 48 25 21
46 24 20 47 25 21 48 26 22 49 27 23 48 26 22
48 26 22 47 25 21 47 24 21 46 24 20 44 23 18
41 22 17 39 20 15 39 20 15 38 20 14 38 19 14
37 19 13 37 19 13 37 19 12 37 19 12 37 19 11
37 19 12 38 20 12 39 20 13 39 21 14 40 21 14
44 23 17 46 23 19 48 22 21 48 19 22 49 19 25
51 20 30 53 21 36 56 21 42 57 20 46 60 21 52
63 22 57 67 24 63 69 24 67 68 22 67 63 16 63
55 9 55 48 3 47 44 1 41 42 0 40 40 0 38
36 0 36 34 1 35 35 4 36 38 7 40 40 9 42
41 9 41 41 7 38 42 6 38 44 5 37 47 6 39
49 8 40 52 9 42 55 12 45 58 14 47 61 16 51
63 18 55 65 20 59 66 21 63 67 21 66 68 22 69
70 23 74 72 25 77 71 23 78 70 22 78 67 18 75
69 21 79 84 36 95 103 54 114 109 60 120 105 54 114
104 53 111 118 67 124 135 84 139 150 98 152 158 107 160
162 111 162 164 113 163 168 117 167 172 122 171 181 130 178
193 143 188 208 159 201 215 166 206 203 155 192 184 137 170
168 123 152 161 117 142 153 109 131 139 96 114 124 82 96
115 74 83 113 72 78 118 77 80 122 82 83 125 84 84
124 83 83 123 83 82 60 18 82 59 17 81 58 16 79
57 15 78 57 15 77 57 16 77 59 19 78 65 25 84
66 28 85 64 26 82 57 20 74 53 16 69 52 16 68
54 18 70 56 20 72 59 23 75 63 25 78 69 30 83
76 37 92 93 55 111 111 72 130 118 79 138 116 78 137
101 63 122 83 46 104 61 25 82 52 16 70 48 13 64
46 12 60 44 11 56 43 12 54 42 13 51 38 13 47
35 12 43 33 11 42 32 9 41 30 8 40 29 6 39
28 5 38 27 4 38 31 7 41 36 11 46 40 15 51
40 14 51 38 13 50 39 13 51 41 15 55 44 17 59
47 19 63 49 20 66 51 21 69 53 21 72 54 20 74
54 18 75 55 17 76 57 17 79 61 19 83 66 22 86
70 24 87 74 28 83 73 26 73 65 20 55 57 13 37
53 10 25 51 11 19 47 10 14 43 8 10 38 5 6
33 3 4 30 2 3 28 1 5 26 0 8 27 0 13
30 3 21 38 9 35 48 17 49 54 23 60 54 23 63
49 18 59 42 12 50 37 8 41 34 6 35 32 6 32
31 5 30 31 6 30 33 7 30 34 9 30 34 9 29
33 9 27 32 9 24 32 9 23 31 9 22 31 9 21
31 10 20 31 10 19 30 10 16 28 10 13 27 10 11
27 11 11 28 11 12 28 12 12 30 13 13 31 13 13
32 14 14 33 15 14 34 15 14 34 16 14 35 16 14
35 16 15 36 16 15 36 17 15 35 17 14 34 18 13
33 19 12 32 19 11 32 18 10 32 17 9 31 16 9
31 15 8 30 14 7 29 14 7 29 13 6 29 12 6
31 13 6 32 14 8 34 16 10 36 18 12 38 20 14
40 21 16 42 21 17 43 22 18 43 23 19 43 23 19
43 22 18 41 21 17 42 21 17 42 21 17 43 22 18
42 22 18 42 21 17 41 21 16 41 20 16 40 20 16
39 19 15 38 19 14 37 18 14 36 18 13 36 18 13
35 17 12 35 17 12 35 17 11 34 17 10 34 17 10
34 17 9 35 17 10 36 18 10 37 19 11 38 20 12
39 20 13 42 21 16 45 21 19 47 20 21 48 19 24
51 20 29 53 21 35 54 19 39 55 19 44 60 21 53
68 27 65 77 34 77 82 36 84 80 33 84 73 25 79
66 17 73 59 10 66 54 6 59 50 4 54 48 3 50
45 3 48 42 2 47 41 4 46 43 7 50 49 13 55
54 16 58 56 17 58 56 15 56 56 13 54 57 11 53
58 11 53 60 12 54 61 13 55 62 13 55 64 15 57
67 18 62 71 22 67 74 24 72 74 24 74 73 24 76
74 24 78 76 25 82 76 27 85 75 25 85 76 26 86
75 24 85 84 34 96 108 59 120 127 78 140 134 83 145
127 75 136 131 78 138 140 88 146 147 95 151 151 99 152
153 101 153 154 102 152 154 103 152 157 106 155 163 112 160
172 121 168 182 131 176 196 145 188 208 159 200 209 160 199
197 150 186 181 135 168 169 124 155 159 114 144 147 102 129
135 91 115 127 84 104 123 80 98 124 81 96 125 83 95
127 84 95 126 83 94 126 83 94 54 14 73 53 13 72
52 13 71 52 13 70 51 13 69 52 14 69 54 18 72
59 24 76 60 25 76 56 22 71 50 17 65 47 14 61
47 15 61 50 18 63 53 21 66 57 24 70 61 26 74
64 27 77 73 35 87 94 56 110 111 73 128 109 72 128
92 55 111 73 37 93 62 26 82 51 16 69 46 13 63
43 10 57 42 10 54 42 11 52 42 12 50 39 12 46
34 12 41 31 11 38 29 10 36 28 8 35 27 7 34
26 6 34 26 6 35 26 5 34 27 5 35 28 6 37
31 8 40 32 9 42 32 9 42 33 10 44 36 13 47
40 15 52 43 17 56 43 16 58 44 16 60 46 17 63
48 17 66 50 17 68 52 16 70 54 17 73 58 18 75
63 21 78 68 24 78 70 25 73 67 22 60 61 17 43
56 13 28 53 12 20 52 13 17 48 11 14 44 9 10
39 6 7 34 4 5 30 2 5 28 1 7 27 0 12
29 2 19 36 7 32 47 17 50 59 27 68 67 33 80
66 33 83 60 27 78 50 18 66 43 12 54 38 8 44
35 7 39 33 6 36 32 5 34 32 6 33 33 8 33
34 8 32 34 8 31 33 8 29 32 9 27 32 9 26
32 9 25 32 10 23 32 11 21 30 10 18 28 10 14
27 10 12 26 10 11 27 11 11 27 11 12 28 12 12
29 12 12 30 13 13 31 13 13 32 14 14 33 15 14
33 15 14 34 15 14 35 15 14 35 15 14 34 16 13
32 17 12 31 18 11 30 17 10 30 16 9 29 15 9
29 14 8 28 14 7 28 13 7 27 12 6 27 12 5
27 12 5 29 12 6 30 14 7 32 16 9 34 17 11
36 18 13 37 19 14 38 19 15 39 20 16 39 20 16
39 20 16 38 19 15 36 18 14 36 17 13 36 17 13
36 17 13 36 17 13 35 16 13 35 16 12 35 16 12
35 16 12 35 16 13 35 17 13 35 17 14 35 17 13
34 16 12 34 16 12 34 16 11 33 16 10 33 16 9
33 16 9 33 16 8 33 16 9 35 18 10 36 19 11
37 20 12 38 20 13 41 20 16 44 19 19 47 18 23
50 19 27 52 20 33 54 20 38 56 20 44 63 24 55
80 39 77 98 55 100 113 67 118 114 66 122 105 56 115
90 39 102 77 25 90 70 18 83 65 14 77 61 12 71
57 9 65 53 8 62 50 7 60 50 9 60 53 13 64
59 18 69 65 22 73 68 23 74 70 22 73 71 20 71
71 19 70 71 18 69 71 18 68 71 18 68 70 17 68
71 18 69 74 22 73 79 26 79 80 28 83 79 27 84
79 26 86 80 28 89 84 31 93 85 32 95 87 35 99
93 41 105 100 48 112 117 66 130 144 93 156 156 105 168
158 106 169 148 95 158 155 102 163 160 106 165 159 106 162
155 102 155 152 100 150 151 99 147 150 98 146 152 100 148
158 106 153 166 114 161 174 122 167 184 133 176 198 148 189
209 159 199 208 159 198 197 150 188 187 140 177 178 132 168
169 124 158 162 116 149 156 111 142 153 108 136 151 106 131
149 104 127 147 102 123 144 99 119 141 97 117 52 14 70
51 14 69 50 14 68 51 15 67 50 15 67 51 16 66
53 20 68 55 22 69 53 23 68 50 20 63 45 16 58
43 14 55 43 15 55 46 17 57 48 20 61 52 22 64
55 23 68 57 22 69 66 30 79 87 50 101 97 60 112
87 51 104 64 29 82 52 17 70 49 15 67 45 12 61
42 10 56 39 8 50 39 8 48 41 11 48 42 14 47
39 14 44 34 13 39 30 12 35 27 10 33 26 8 32
26 8 32 26 7 32 27 8 33 26 7 32 26 6 33
26 5 33 27 6 34 28 7 36 29 7 37 29 8 38
31 9 40 34 11 43 37 14 48 39 14 51 40 14 54
43 15 57 46 17 61 49 18 64 51 17 65 53 17 67
56 18 69 61 20 70 64 22 69 65 22 61 60 18 47
56 14 31 54 13 21 53 14 16 52 14 15 49 13 13
44 10 10 39 7 7 34 5 5 30 2 6 28 1 10
28 0 16 33 4 27 43 12 44 57 25 66 70 36 85
76 41 96 75 40 99 70 35 95 62 28 84 55 22 72
48 17 61 44 13 53 39 10 47 35 7 41 34 6 38
33 7 36 33 7 35 34 8 34 33 8 32 33 9 31
33 9 29 33 10 28 33 10 26 32 11 23 31 10 20
29 10 16 27 9 13 26 10 12 26 10 12 26 10 12
27 11 12 27 11 12 29 12 13 30 13 13 31 13 14
31 14 14 32 14 14 33 14 14 33 14 14 34 15 14
33 15 13 31 16 12 30 16 11 29 16 10 29 15 10
28 14 9 27 13 8 27 13 7 27 12 7 26 12 7
27 12 7 26 11 6 27 11 6 27 12 7 29 13 8
30 15 10 32 16 11 33 17 13 35 17 14 35 18 14
36 18 14 35 18 14 34 16 13 33 15 11 32 14 10
31 13 9 31 13 9 31 13 9 31 13 10 31 14 10
32 14 10 32 14 10 33 15 12 33 16 13 34 17 14
34 17 13 34 16 12 34 16 12 33 15 11 33 15 11
33 15 10 32 15 9 32 15 8 32 16 9 34 18 10
35 19 11 37 20 12 38 21 13 41 20 16 45 19 20
49 19 26 51 19 31 53 19 36 56 20 43 67 28 58
87 46 83 119 76 120 147 100 152 163 114 171 158 108 169
142 91 156 121 69 136 102 49 119 89 36 106 79 26 95
72 20 86 65 15 78 61 13 75 59 13 73 60 15 74
63 18 77 67 21 80 72 24 83 76 25 84 79 26 85
81 26 85 82 25 84 82 24 83 82 24 83 81 23 81
79 22 81 80 24 82 82 27 85 86 31 90 86 31 92
84 29 92 85 30 94 89 34 99 96 41 107 99 45 111
112 58 124 128 74 140 146 93 158 165 113 176 183 132 194
188 136 198 182 130 192 171 118 179 176 122 183 178 125 183
176 123 178 170 117 169 163 110 160 158 106 153 154 103 149
154 103 148 156 105 150 162 111 156 168 117 161 176 126 168
189 138 179 199 150 190 204 155 195 201 153 193 197 150 190
193 147 187 190 143 183 188 141 180 187 140 177 187 140 175
186 140 173 184 138 168 179 133 161 171 125 153 166 120 147
49 13 66 48 13 65 48 14 65 49 15 64 49 16 63
49 17 62 50 19 62 50 20 61 48 20 59 45 18 55
43 16 52 41 15 50 40 15 50 41 16 52 43 18 55
46 19 58 50 20 62 54 22 67 65 31 78 80 45 93
81 46 94 69 35 83 52 19 67 46 13 60 44 12 57
41 10 52 38 9 48 36 8 44 36 10 42 38 13 42
40 16 43 38 17 41 35 16 37 31 15 35 30 13 33
29 12 32 28 11 31 28 10 32 28 11 32 27 9 31
26 8 31 25 7 30 26 7 31 26 7 32 27 7 32
27 7 33 26 7 33 28 9 36 31 11 41 35 13 46
37 15 50 40 15 53 43 16 55 46 17 57 49 17 59
53 18 60 56 19 61 59 20 60 61 21 57 60 19 48
55 15 36 53 13 23 52 13 15 52 15 13 50 15 12
47 13 12 43 11 9 37 7 6 32 4 5 29 2 7
28 1 12 31 3 22 39 9 37 52 19 58 64 30 78
74 38 94 79 41 103 79 41 106 76 39 105 72 35 98
67 31 90 62 27 80 57 24 73 52 19 65 46 14 56
40 10 48 36 8 42 34 7 38 34 8 37 35 9 36
35 10 35 35 11 33 35 12 32 34 11 29 33 11 27
31 10 23 29 10 19 27 9 16 26 9 15 26 9 15
26 9 15 26 10 15 27 11 15 28 11 15 28 11 15
29 12 15 30 13 16 31 13 16 31 13 16 31 13 15
31 13 15 30 14 14 28 14 12 27 15 11 26 14 11
26 14 10 25 13 9 25 12 9 25 12 8 25 12 9
25 12 9 26 12 9 25 12 8 25 11 8 26 11 8
26 12 9 27 13 10 29 14 11 30 15 12 32 16 13
32 16 14 32 16 13 31 15 13 31 14 12 29 13 11
29 12 10 28 12 9 28 11 9 28 12 9 29 12 10
29 13 11 30 14 11 30 14 12 31 15 13 32 16 14
33 17 15 33 17 14 34 16 14 33 16 13 33 15 12
33 16 12 33 16 11 32 16 10 31 16 9 31 16 9
32 17 9 34 18 10 35 20 11 37 20 13 40 19 16
45 18 22 49 17 28 53 18 35 61 24 47 75 36 67
98 56 94 125 80 126 158 110 163 181 132 190 193 141 204
187 135 200 177 124 192 165 111 180 149 94 165 131 75 148
108 52 124 89 35 106 76 22 91 71 18 86 69 17 84
69 18 85 71 20 87 73 22 88 76 23 89 79 24 90
82 25 91 84 26 92 86 27 93 88 28 93 88 28 93
87 27 92 86 27 91 86 28 92 88 31 95 90 32 97
89 32 97 89 32 98 96 39 106 110 54 121 126 70 137
137 81 147 153 98 163 171 116 181 186 132 196 195 142 204
202 149 210 204 152 211 198 146 204 190 137 195 190 136 193
191 137 192 189 137 188 184 132 181 177 125 172 170 120 164
163 113 156 160 110 152 157 107 149 160 110 151 163 113 153
167 119 157 175 126 164 181 133 170 186 139 176 188 141 179
188 142 182 189 142 182 189 143 183 191 144 184 194 147 186
197 150 188 199 152 188 198 151 186 196 148 181 191 144 176
188 140 172 48 13 65 48 13 65 48 14 64 48 16 63
49 17 61 49 19 58 49 20 56 47 19 53 44 18 50
41 16 47 39 15 45 37 13 44 36 14 44 37 14 46
39 16 50 41 16 53 45 17 58 52 22 66 64 33 77
74 41 85 70 38 81 58 26 68 46 15 56 42 11 50
39 10 46 37 10 43 35 10 40 34 10 37 33 11 36
35 14 36 36 18 37 36 19 36 35 19 35 33 17 33
32 16 32 31 15 31 30 14 30 30 13 31 30 13 31
28 11 30 27 10 29 26 9 28 27 9 29 27 9 29
27 9 29 27 9 30 26 8 29 27 9 32 29 11 38
33 15 44 37 16 48 39 16 50 41 16 50 44 16 51
48 17 52 52 19 54 55 20 53 58 21 50 59 20 45
56 17 36 52 14 25 50 12 16 51 14 12 51 15 11
49 16 10 45 14 9 40 11 6 34 8 3 29 5 3
27 3 7 28 3 14 37 9 30 48 18 50 62 29 72
71 35 87 76 38 98 78 38 103 78 39 106 78 39 107
76 37 104 74 36 100 71 33 95 68 31 89 63 27 81
57 22 71 49 16 61 42 11 51 37 8 44 34 7 39
33 8 37 34 9 36 34 11 35 34 11 34 33 11 32
32 10 30 31 10 27 30 10 24 29 9 22 27 9 20
26 9 19 26 9 18 26 9 19 27 10 19 27 10 19
27 10 18 27 11 18 28 12 18 29 12 19 29 12 18
29 12 18 28 12 17 27 12 15 25 13 13 25 13 11
24 13 11 24 12 10 23 12 10 23 11 9 23 11 9
24 11 10 24 12 10 25 12 11 25 12 10 25 11 10
25 11 10 25 11 10 26 12 10 27 13 12 28 14 13
30 15 14 30 15 14 30 14 13 28 14 12 28 12 12
27 12 11 26 11 10 26 11 10 26 11 10 27 12 11
28 12 11 28 13 12 29 14 13 29 15 13 30 16 15
31 17 16 33 18 17 33 17 16 34 17 15 34 16 14
33 16 14 33 16 13 32 16 12 31 16 10 29 15 8
28 15 8 29 16 7 30 17 8 32 18 9 35 18 11
39 17 15 45 16 23 54 18 34 66 28 51 87 45 76
111 67 106 136 89 136 158 108 163 177 125 186 187 134 199
190 136 203 188 133 202 190 134 203 192 136 206 187 131 201
172 115 186 146 89 162 124 67 140 106 49 122 95 38 111
85 29 101 80 23 96 77 20 93 76 19 92 77 19 92
79 21 93 82 22 94 84 24 95 85 25 97 87 26 97
87 27 98 87 27 97 88 28 98 89 29 99 92 32 101
95 35 104 99 39 108 107 48 117 124 66 134 148 91 158
167 110 176 178 122 186 187 132 195 197 143 204 202 148 208
199 146 205 196 144 201 195 144 199 192 140 194 188 135 187
187 133 183 188 134 183 187 135 181 184 132 176 178 128 170
173 124 164 166 117 156 161 113 150 157 109 145 157 110 145
157 110 144 158 112 145 161 115 147 163 118 149 165 120 152
166 120 154 167 121 157 169 123 160 171 125 162 174 128 165
178 131 168 182 135 171 185 138 173 187 140 174 188 141 174
188 140 173 188 139 172 47 12 66 48 13 66 48 15 64
48 16 62 48 17 59 47 18 55 46 18 52 43 16 47
40 15 44 37 13 40 36 12 40 35 12 39 34 13 41
34 13 43 36 14 46 38 14 50 42 16 55 51 23 65
61 32 74 64 34 74 57 27 66 47 18 54 41 12 47
38 10 43 36 9 39 35 10 36 33 10 34 32 11 32
31 12 31 31 15 30 32 17 30 32 17 30 33 17 30
32 16 29 32 16 29 32 16 29 32 15 29 31 15 29
31 14 29 30 13 29 29 12 28 28 12 27 28 12 27
28 12 28 28 12 28 29 12 29 29 11 30 29 13 33
31 14 38 34 17 43 36 18 46 39 18 47 41 17 47
44 17 47 48 18 47 52 20 48 56 22 46 58 22 43
57 20 36 55 17 28 52 14 19 51 14 13 51 15 11
51 17 11 48 17 10 44 15 7 38 11 4 32 8 1
27 5 2 27 5 8 31 7 18 46 19 40 61 30 62
74 40 83 77 39 92 77 37 97 76 36 100 77 36 103
78 37 104 77 37 104 77 37 103 76 37 101 75 36 98
72 34 92 67 29 83 59 24 73 52 19 63 44 14 53
38 10 45 34 8 40 34 9 38 34 10 37 33 10 35
32 9 34 30 8 32 30 8 30 30 9 27 30 10 25
29 9 23 28 9 22 27 9 22 26 9 21 26 9 21
26 9 20 26 9 20 26 10 20 27 11 20 28 12 21
28 12 21 27 11 20 26 10 19 25 11 16 23 11 14
22 12 12 22 12 11 21 11 11 21 11 10 21 10 10
21 10 10 22 11 10 23 11 11 24 12 12 24 12 12
24 12 12 24 12 12 25 12 12 25 12 12 26 12 13
27 13 13 28 13 13 27 13 13 27 12 12 26 12 11
25 11 10 24 10 10 24 10 10 25 10 10 25 11 11
25 11 11 26 12 12 27 13 13 28 13 13 28 14 14
29 15 15 29 15 15 30 16 15 30 15 15 31 15 15
32 14 14 32 15 13 31 15 12 29 14 10 28 14 8
25 13 6 24 13 5 24 13 4 25 13 4 28 14 5
31 15 8 37 15 14 45 14 22 60 22 40 85 43 70
118 74 109 147 100 144 164 113 167 171 117 179 174 118 186
174 116 187 172 114 186 172 114 186 181 122 194 195 137 209
205 146 218 199 141 213 183 124 198 165 105 181 149 89 165
133 73 149 116 56 133 104 44 120 97 37 113 94 34 110
94 34 110 96 35 111 96 35 111 94 33 108 91 30 105
88 27 102 88 27 102 91 30 104 97 36 110 103 42 115
111 49 123 119 57 130 129 68 140 145 85 155 166 107 175
189 131 197 200 144 207 204 148 210 200 146 205 197 144 201
190 137 193 181 129 183 174 123 176 172 122 173 173 122 169
172 120 165 171 118 161 170 118 158 168 117 156 166 116 153
165 116 152 164 116 150 160 113 146 157 110 142 154 108 138
153 108 136 150 106 133 147 103 129 145 102 127 145 102 127
145 102 128 145 102 129 145 101 131 146 102 132 148 104 134
151 106 136 153 108 139 156 110 141 156 110 141 159 112 143
163 116 146 168 120 151 171 123 154 51 16 71 51 17 70
51 18 68 51 19 65 49 18 60 46 17 55 43 15 49
39 13 44 37 11 40 34 10 37 33 10 36 32 10 36
32 11 38 33 12 40 34 14 43 36 14 47 39 15 52
46 21 60 54 28 66 55 28 65 49 22 57 42 15 48
38 11 42 36 10 38 33 8 34 33 9 32 31 10 30
29 10 28 29 11 27 29 13 26 29 15 26 29 16 26
30 15 26 30 15 26 30 15 26 31 15 27 31 15 27
32 16 28 32 16 29 31 15 29 31 15 29 31 14 28
31 15 29 32 15 30 32 16 30 33 16 32 33 16 33
34 17 36 35 18 39 37 20 43 39 21 45 42 20 45
43 19 45 46 19 45 50 19 44 54 21 44 57 23 42
58 23 38 56 20 31 54 17 22 52 15 15 52 15 11
53 17 10 53 20 11 50 19 11 44 16 7 37 11 3
32 8 1 29 6 3 30 8 10 37 13 23 54 27 46
69 38 67 80 45 84 80 42 90 78 38 92 77 37 95
78 37 98 80 39 100 80 39 101 79 38 100 77 37 98
76 37 96 75 36 93 72 34 88 68 32 82 64 30 76
56 25 67 49 20 58 42 15 50 40 14 46 37 12 42
34 10 38 31 7 36 29 6 33 29 7 30 30 8 27
30 10 26 30 10 25 29 9 24 28 9 23 26 8 22
25 7 21 25 8 20 26 8 20 27 10 21 27 11 21
28 12 22 28 12 22 27 11 21 25 10 19 24 10 17
22 11 14 22 11 13 21 11 12 21 10 12 20 10 11
20 10 11 20 9 11 21 10 11 22 10 12 23 11 13
23 11 13 23 11 13 23 11 13 23 11 13 23 11 13
24 11 13 25 12 12 26 12 12 25 11 11 25 11 11
24 10 10 23 9 9 22 8 8 22 8 8 23 9 9
23 9 9 23 9 9 24 10 10 25 11 11 26 12 12
26 12 12 26 13 13 26 12 12 26 11 12 26 11 11
27 11 11 28 11 11 28 11 10 27 11 9 25 10 7
23 9 5 21 9 3 20 8 2 20 9 1 22 9 2
24 10 2 28 11 4 35 11 10 44 12 19 64 25 42
97 54 80 136 89 125 161 111 157 169 116 171 169 112 175
170 111 180 168 108 181 165 104 179 161 100 176 166 104 180
178 117 192 190 129 205 194 133 209 192 132 208 187 126 203
181 120 197 168 107 185 153 92 170 141 80 158 134 73 150
131 70 148 131 69 147 130 68 146 125 63 141 116 54 131
106 44 122 100 38 116 103 40 119 112 50 128 125 63 140
136 74 151 148 85 161 157 95 170 169 108 181 184 124 195
196 137 206 201 145 210 199 143 205 193 138 197 186 132 189
179 127 181 172 121 173 165 116 166 159 110 159 154 105 151
153 104 146 153 103 141 153 103 137 152 102 134 151 101 132
150 101 131 150 102 131 151 104 132 151 105 132 151 106 130
151 106 129 149 106 126 146 103 123 141 99 118 137 95 113
134 93 110 131 89 107 129 87 107 128 86 107 130 87 109
132 90 112 136 92 116 139 95 120 142 98 122 143 98 123
144 99 124 147 101 127 150 104 130 152 106 132 60 24 81
59 24 79 58 24 76 55 22 70 51 20 64 46 16 56
41 13 49 37 10 43 35 9 38 33 8 36 32 9 35
32 9 35 32 10 37 33 12 39 34 14 42 35 14 44
37 16 49 43 20 54 47 24 58 46 23 56 42 18 49
38 14 43 35 11 38 34 9 35 31 8 32 31 9 30
29 9 27 27 9 25 27 10 24 27 11 23 27 13 23
27 13 23 27 13 23 27 13 23 28 14 24 29 14 25
30 15 26 31 16 27 32 17 28 32 17 28 32 17 29
32 17 29 33 18 30 34 18 31 35 19 32 36 20 34
37 20 35 37 21 37 38 21 39 40 22 40 41 22 42
44 22 42 46 21 42 49 21 42 52 21 41 55 23 41
57 24 38 58 23 34 56 20 26 54 17 19 53 16 13
54 17 9 55 19 9 55 21 11 50 20 11 44 16 7
36 10 2 32 8 1 31 7 4 34 11 12 43 18 26
57 30 46 68 38 62 74 41 73 75 39 78 75 37 81
76 37 85 79 39 89 81 41 93 80 41 93 79 39 92
76 37 90 76 37 90 76 38 89 76 38 88 75 38 87
74 39 85 70 37 80 65 34 75 60 30 68 55 27 63
50 23 57 44 18 49 38 12 43 33 8 37 31 7 31
30 8 27 30 9 24 30 9 23 29 9 23 28 9 22
26 8 21 25 7 20 26 8 19 26 8 20 27 10 21
28 11 22 28 12 22 28 12 22 27 11 21 25 10 19
23 10 17 21 10 15 21 10 14 20 10 14 20 10 13
19 9 13 19 9 12 19 8 12 20 9 13 21 10 14
22 10 14 22 10 14 22 10 14 22 10 14 22 10 14
22 10 14 23 10 13 24 10 12 24 10 11 24 9 10
23 8 9 22 8 9 22 7 8 21 6 7 21 6 7
21 7 8 22 7 8 22 7 8 23 8 9 24 9 10
24 10 11 25 10 11 25 10 11 24 9 10 23 8 9
23 6 8 24 6 7 25 6 7 25 7 6 24 6 5
22 6 3 20 5 2 19 5 1 18 5 0 18 5 0
20 6 0 23 8 1 27 9 2 34 9 7 43 10 17
61 21 36 90 46 69 124 77 110 150 100 143 163 109 161
168 110 171 173 113 180 172 111 183 167 104 180 158 95 173
156 92 171 162 98 178 172 108 188 179 116 196 183 120 200
183 121 200 184 122 201 181 120 198 177 115 194 172 110 189
169 107 186 169 106 186 167 104 184 162 99 179 152 89 169
141 78 157 131 67 147 127 63 144 132 68 149 142 78 159
156 92 173 167 104 183 176 114 192 182 121 197 188 128 202
193 134 206 193 135 204 184 128 194 174 119 181 166 113 170
162 110 164 158 108 159 155 106 154 152 104 150 148 102 146
144 98 139 143 97 133 144 96 127 144 97 123 143 96 119
142 95 118 142 95 117 143 97 118 145 100 119 146 102 120
146 103 119 146 103 118 144 103 115 142 101 112 137 97 107
131 92 101 126 87 96 120 81 91 116 77 87 113 74 86
115 75 88 118 78 92 123 82 97 129 87 103 133 91 108
136 93 111 137 94 112 138 95 114 139 96 116 140 96 116
72 35 93 70 34 90 66 31 85 61 27 77 54 22 68
47 16 58 41 12 50 37 9 44 35 8 40 34 9 37
33 9 36 33 9 36 33 11 37 34 12 39 35 15 41
35 16 43 36 17 46 39 20 49 41 21 51 40 19 48
37 16 43 35 13 39 33 11 35 32 10 32 29 9 29
29 9 28 27 9 25 26 8 23 25 9 21 25 10 21
25 11 21 25 12 21 25 12 21 25 13 21 26 13 22
27 14 23 29 15 24 30 16 25 31 17 26 31 17 27
32 18 28 32 18 29 34 18 30 35 19 31 36 20 31
37 21 33 38 21 34 38 21 35 39 21 35 41 21 36
42 21 37 45 21 38 48 22 38 51 22 39 53 22 38
56 23 37 57 23 34 58 22 29 55 20 22 54 18 16
54 18 11 56 19 9 56 21 8 55 22 10 50 19 9
42 14 6 36 9 2 33 8 2 33 9 6 37 13 13
46 21 27 56 30 41 63 34 52 65 33 57 66 33 62
69 33 67 72 35 72 74 37 76 76 39 80 76 38 80
75 36 80 73 35 79 74 35 80 75 36 82 76 38 84
77 40 86 78 42 87 78 43 87 76 43 85 74 42 82
70 40 78 65 36 72 59 30 63 51 24 55 45 18 47
38 13 38 34 11 30 31 10 25 30 10 23 29 9 22
28 9 22 27 9 21 26 8 21 27 9 20 27 10 21
28 11 21 28 12 22 28 12 22 28 11 21 26 10 20
24 9 19 22 9 17 20 9 16 20 9 15 19 9 15
19 9 14 18 8 14 18 8 13 18 7 13 19 8 14
20 9 15 21 10 16 21 10 16 21 9 16 21 9 16
22 9 16 22 9 15 22 9 14 23 9 12 23 8 11
23 8 10 22 7 9 21 6 8 21 5 7 20 5 7
20 5 7 20 5 7 21 5 7 21 6 8 22 7 9
23 8 10 24 8 10 24 9 11 24 9 11 24 8 11
23 7 9 22 5 7 23 4 6 23 4 6 24 4 5
22 3 3 20 3 1 19 3 1 19 4 0 19 4 0
19 4 0 21 5 0 24 7 1 28 8 2 34 8 6
44 10 14 57 17 29 75 31 51 99 52 81 125 74 112
147 93 140 165 107 163 175 115 178 176 113 183 167 103 177
157 92 169 151 85 164 151 85 165 156 90 171 163 98 178
167 102 182 169 106 184 172 110 187 178 116 193 182 119 197
182 120 198 181 118 197 180 117 196 178 114 194 173 108 188
163 98 179 154 89 170 149 83 165 150 84 167 156 90 173
163 96 180 169 104 187 173 109 191 176 114 193 175 115 192
175 115 191 172 114 187 165 108 178 155 99 165 146 92 154
141 89 146 140 89 142 139 90 139 139 91 138 140 93 136
139 94 135 138 93 131 138 93 125 139 94 118 139 94 113
139 94 110 139 94 109 139 95 109 140 96 109 141 98 109
141 99 109 140 99 107 139 99 105 138 99 103 136 98 101
133 95 97 127 91 91 122 86 86 115 79 79 110 73 75
107 70 72 109 71 75 112 74 79 116 78 84 122 83 90
127 87 95 129 89 99 130 90 101 131 90 103 131 90 103
130 89 103 83 45 103 79 42 99 73 37 92 65 30 82
56 23 71 49 17 61 43 13 53 39 11 47 37 10 43
35 9 40 35 10 38 34 10 37 34 11 37 35 13 38
36 15 39 36 16 41 35 17 42 36 18 44 37 19 44
36 18 42 34 15 38 33 13 35 31 12 31 30 11 29
28 10 27 28 10 26 26 9 23 25 9 21 24 9 19
23 10 19 23 11 19 23 12 19 24 12 19 24 13 20
24 14 20 25 14 21 27 15 22 28 16 23 29 16 24
29 17 25 30 17 26 31 17 27 32 18 27 34 18 28
34 19 28 35 19 30 36 20 30 37 19 30 38 18 29
40 18 29 41 18 30 45 19 32 49 21 33 52 22 34
54 23 33 56 23 32 57 22 28 57 21 24 56 20 19
56 20 15 57 21 11 58 21 9 57 22 7 53 20 7
47 17 6 41 12 4 36 9 2 34 8 3 34 9 6
38 14 13 46 22 25 53 28 35 57 30 41 57 28 43
59 28 48 62 30 53 65 32 57 66 32 60 66 32 62
67 31 63 67 31 65 68 31 66 69 32 68 70 33 71
71 34 74 73 36 77 73 38 79 74 39 81 74 41 82
74 42 81 73 42 80 71 40 76 67 37 71 62 33 64
56 29 58 48 23 47 41 19 37 35 15 28 32 13 25
30 11 23 28 10 22 28 10 21 28 10 22 28 11 22
28 11 22 28 12 22 29 12 22 28 12 22 27 11 21
26 10 20 24 9 19 22 8 17 19 9 16 18 9 16
18 8 16 18 8 15 17 8 15 17 7 14 17 7 14
18 7 15 19 8 16 20 9 17 20 9 17 20 8 17
20 8 17 21 8 17 21 8 16 22 8 15 23 8 13
23 8 11 23 7 10 22 6 9 21 5 8 21 5 8
20 4 7 20 4 7 20 4 7 21 5 8 21 5 8
22 6 9 23 7 10 24 8 11 24 8 11 25 9 12
26 8 12 25 7 10 24 5 8 25 4 7 26 6 8
27 6 7 25 4 6 23 3 3 20 3 1 20 3 0
20 3 0 21 4 0 23 5 0 25 7 1 29 8 3
35 9 6 45 11 13 57 16 24 68 25 40 81 35 58
98 48 80 121 67 108 146 88 138 162 101 158 164 101 164
156 91 159 148 82 154 144 76 152 142 75 152 145 77 155
150 83 161 154 88 165 157 92 168 161 98 173 169 106 181
176 112 187 178 113 189 176 111 188 172 107 184 168 103 181
165 99 178 161 94 174 158 91 171 159 91 172 161 93 175
163 94 177 161 93 176 159 92 175 156 92 174 153 93 172
150 91 169 148 90 165 144 86 159 138 82 152 133 77 143
129 75 137 127 75 131 125 75 127 125 76 125 125 77 123
126 80 122 127 82 121 128 84 119 129 86 114 131 89 108
133 91 103 135 93 102 135 94 102 135 94 101 133 93 99
131 92 96 130 91 93 129 92 92 128 92 90 128 92 88
127 92 87 125 91 85 122 89 81 117 85 76 112 79 71
109 75 68 107 73 67 109 74 69 111 76 72 114 79 76
117 81 80 119 83 84 121 84 87 121 84 88 121 83 89
120 83 90 120 82 91 88 50 109 84 46 104 76 39 95
67 31 84 58 24 74 51 18 64 46 15 57 42 12 51
40 11 46 37 10 42 36 10 39 35 10 38 34 11 37
35 12 37 35 14 37 35 15 38 34 16 38 33 16 38
33 16 37 34 16 37 33 15 35 30 13 31 28 11 27
27 11 26 27 12 25 27 12 24 25 11 21 24 10 19
22 10 18 22 10 17 22 11 17 23 12 17 23 13 17
23 13 18 24 14 18 24 15 19 25 15 19 26 15 21
27 16 21 28 16 23 29 16 23 30 16 24 31 16 24
31 16 25 32 16 24 32 16 25 33 16 25 35 16 24
36 15 23 38 14 23 40 14 23 44 16 26 49 20 28
53 22 30 55 22 30 56 22 28 57 21 24 57 20 20
57 20 17 58 22 14 59 23 12 60 23 10 57 22 7
51 18 5 45 13 3 39 9 2 36 8 2 34 8 4
35 10 7 38 14 13 44 21 21 49 25 28 50 26 31
49 24 31 50 24 34 53 26 38 56 28 42 55 27 43
55 26 44 56 26 47 58 27 50 60 28 53 62 28 55
63 29 59 64 30 62 64 31 65 64 32 66 64 32 68
63 33 69 64 34 69 64 35 69 64 36 68 63 36 66
61 35 63 59 34 59 54 30 51 48 27 43 41 22 34
36 18 29 32 14 25 30 12 23 29 12 22 30 13 23
29 13 23 29 12 23 28 12 22 29 12 22 28 12 22
27 11 21 26 10 20 23 9 18 21 8 17 18 8 16
17 8 16 17 8 16 17 7 16 17 7 15 16 6 15
16 6 15 17 6 15 18 7 16 19 8 17 19 8 17
19 8 17 20 7 17 20 7 17 20 7 17 21 8 15
22 8 13 23 8 11 23 7 10 22 6 9 22 6 9
21 5 8 20 4 7 20 4 7 20 4 7 21 5 8
21 5 8 22 6 9 23 7 10 24 8 11 24 8 11
25 8 12 26 7 11 25 5 10 26 4 9 28 7 10
33 10 14 35 12 15 35 12 15 30 8 9 24 5 5
21 2 0 21 2 0 22 3 0 24 5 0 27 7 2
31 8 3 38 10 7 46 12 12 56 17 21 65 23 32
73 27 44 80 31 56 93 40 74 113 56 98 130 70 119
136 73 128 134 69 129 133 67 131 136 68 135 137 69 137
138 69 139 140 72 142 143 76 145 145 80 149 149 85 154
157 93 162 165 100 169 169 104 174 169 104 174 165 100 171
164 98 170 163 95 169 161 93 168 159 90 166 157 88 165
156 86 164 154 84 163 151 81 160 146 78 158 140 76 154
135 74 151 132 73 148 130 72 144 127 70 140 123 67 134
120 65 128 117 63 123 115 64 119 115 64 116 115 66 113
114 67 110 114 67 108 114 68 107 115 70 105 117 74 101
121 81 96 125 86 94 128 90 94 130 92 95 128 91 93
124 87 88 118 82 81 114 80 76 113 80 73 113 80 72
113 82 71 115 84 72 116 86 72 115 86 71 113 83 68
111 81 65 110 79 64 110 78 65 110 77 66 110 77 67
110 78 69 111 78 71 112 79 74 113 78 76 112 78 77
113 77 79 113 78 80 113 78 82 92 54 113 86 47 106
76 39 95 67 31 85 60 24 76 54 20 68 50 18 63
48 17 58 44 15 53 41 13 47 37 11 42 35 10 38
34 10 36 34 11 35 35 12 35 34 14 35 33 14 34
32 14 34 31 14 33 32 14 33 31 14 31 28 12 27
26 10 24 25 11 22 25 12 22 25 12 21 24 12 20
23 12 19 22 12 17 22 12 16 21 12 14 21 12 15
21 13 14 21 13 15 21 13 14 22 13 15 23 13 15
24 14 17 25 14 17 26 14 19 27 15 19 29 14 20
30 15 20 30 15 21 31 15 21 31 14 21 31 13 20
33 12 19 35 11 18 39 12 18 42 14 21 47 17 24
52 21 27 56 22 28 57 22 28 57 21 25 57 19 21
57 18 17 57 19 15 59 22 14 61 25 13 61 25 11
57 22 7 50 15 3 43 11 2 38 7 1 36 7 3
36 8 5 36 10 8 39 15 13 42 20 19 44 23 22
44 23 22 42 21 21 42 21 22 43 22 24 44 23 27
44 22 28 43 21 29 45 21 32 48 22 36 50 24 40
50 24 42 51 24 45 51 24 47 51 24 48 50 24 50
49 24 51 48 24 51 48 24 51 48 25 51 48 26 51
48 27 51 48 27 50 48 28 47 46 27 43 44 26 39
40 23 33 36 20 29 33 17 26 31 14 23 30 14 23
30 14 23 29 14 23 28 13 22 27 12 21 28 13 22
27 12 21 26 12 20 25 11 19 23 10 19 21 8 17
18 8 17 16 7 16 16 7 16 16 7 16 16 6 16
15 6 16 15 6 16 16 6 16 17 7 17 18 7 17
19 7 18 19 7 18 19 7 18 19 7 18 20 7 18
20 7 16 21 7 13 22 7 11 22 6 10 22 6 10
21 6 9 21 5 9 21 5 9 21 5 9 21 5 9
21 6 9 22 6 10 23 7 11 24 8 12 25 9 13
26 10 14 26 9 13 28 8 13 31 9 15 39 15 22
48 24 29 55 30 35 57 32 36 53 28 32 41 17 20
30 8 9 22 1 1 22 2 0 23 3 0 25 4 1
28 5 2 31 6 3 38 9 6 45 11 9 54 16 17
62 21 26 69 25 35 72 25 42 76 25 50 86 31 63
98 40 78 104 44 87 108 45 93 114 48 100 121 55 108
125 58 114 126 59 115 126 59 116 128 61 118 129 64 121
132 68 126 138 74 132 146 82 141 154 90 149 159 93 154
160 93 155 159 92 154 157 90 154 157 88 153 155 86 152
154 84 151 152 81 150 150 79 149 147 77 147 142 74 145
135 71 141 128 66 137 124 64 133 122 63 130 120 63 127
117 61 122 113 58 116 110 56 111 109 57 108 110 60 107
110 61 106 108 60 102 104 58 97 101 56 92 101 56 89
103 61 85 107 69 82 112 76 82 116 81 83 117 82 83
114 80 79 108 75 73 102 71 66 98 67 59 95 66 55
94 65 52 95 67 52 98 71 54 101 75 56 104 79 58
105 80 59 107 81 60 108 80 61 109 79 62 107 77 61
106 75 61 105 74 62 105 74 63 105 74 65 106 74 68
107 75 70 108 76 73 109 77 76 110 78 77 99 60 119
90 51 109 78 40 97 69 32 86 63 27 79 59 23 74
55 22 69 52 21 64 49 19 58 44 16 52 39 12 45
36 10 39 34 10 36 34 10 34 34 11 33 34 13 33
33 13 32 31 13 31 31 13 30 30 13 30 29 12 27
27 11 25 25 11 21 23 11 20 23 12 19 23 12 19
23 13 18 23 13 17 22 13 16 21 13 14 20 13 12
19 11 11 18 11 9 18 10 10 19 10 10 20 11 11
21 12 11 23 12 13 24 12 13 26 13 15 27 13 16
28 13 17 29 13 17 29 12 17 30 12 17 31 12 18
32 12 17 35 12 18 40 13 18 45 15 20 49 18 23
53 21 26 57 23 28 59 23 28 59 22 26 58 20 23
57 18 19 56 17 15 57 19 13 59 22 13 61 24 13
60 24 11 56 20 7 49 14 3 43 10 1 39 7 2
38 7 3 37 8 6 38 11 9 39 15 13 41 19 17
40 21 17 38 20 15 35 19 13 34 19 12 34 19 14
34 19 15 34 19 17 33 18 18 35 18 22 37 19 26
39 21 29 39 21 31 39 20 33 39 20 34 38 20 35
37 19 36 36 19 36 35 18 36 35 18 36 34 18 36
33 18 35 33 19 35 33 19 34 33 19 33 34 20 31
35 20 30 34 19 28 32 17 25 30 15 23 28 13 21
28 13 21 27 13 21 26 12 20 25 12 20 25 11 19
25 11 19 25 11 19 24 12 19 24 11 19 23 11 19
21 9 18 18 8 17 16 7 17 15 7 17 16 7 17
15 7 17 15 7 17 15 7 17 16 7 17 17 7 18
19 8 19 19 8 19 19 9 19 20 9 20 20 9 20
21 9 19 21 8 17 21 7 14 22 7 12 22 7 11
22 7 11 22 7 11 22 7 11 22 7 11 21 6 10
21 6 10 22 6 11 23 8 12 26 11 15 29 14 18
32 16 21 34 18 23 36 18 23 40 19 26 46 23 31
56 31 39 65 39 47 71 44 51 69 43 48 61 35 40
45 20 23 31 8 10 23 1 1 22 2 1 24 3 1
26 3 1 28 4 2 30 5 2 37 8 5 44 11 8
51 15 13 57 19 19 64 23 27 69 24 34 72 23 39
76 24 45 82 26 53 86 28 59 91 30 65 99 35 73
107 43 82 112 47 87 113 48 88 112 47 87 111 47 88
110 47 90 112 49 93 116 54 98 125 62 107 136 72 118
144 79 126 148 83 131 150 83 133 150 83 134 151 83 135
151 81 135 150 80 134 149 78 134 149 77 134 149 78 136
145 76 135 140 74 133 133 69 129 129 67 126 127 66 123
125 66 121 121 63 115 115 59 108 109 55 101 106 54 98
106 56 96 105 57 96 103 56 92 98 53 87 95 50 82
93 50 79 93 53 75 95 59 71 99 65 71 102 70 72
103 71 72 100 69 68 96 65 62 91 62 55 86 59 49
83 56 44 80 54 39 80 56 38 83 59 39 86 63 41
90 67 44 93 71 46 97 73 49 99 73 51 100 72 52
98 70 52 97 68 52 97 68 53 98 68 55 99 70 58
101 72 62 103 74 66 105 75 69 105 76 71 106 76 72
114 73 132 100 60 118 84 45 101 73 35 89 67 30 83
63 28 79 60 26 74 57 25 70 53 22 64 48 19 57
42 14 48 37 11 41 35 10 37 35 10 35 35 11 33
35 12 33 33 12 31 32 13 30 31 12 28 30 12 27
28 12 25 27 12 23 25 12 21 23 11 19 21 11 17
21 11 16 21 13 15 22 14 15 21 14 14 20 13 12
18 13 10 17 10 8 16 9 6 16 8 6 18 9 6
20 9 8 21 10 8 23 10 9 23 10 9 25 10 11
27 11 12 29 11 14 30 11 14 32 12 16 35 13 17
37 15 20 40 16 21 44 17 23 49 19 24 54 21 26
57 23 28 60 25 30 62 25 30 62 24 29 62 23 26
60 21 23 59 19 19 57 17 15 58 18 13 59 20 13
59 22 12 57 20 10 53 17 6 48 12 2 43 9 1
40 7 2 39 7 4 39 8 7 39 11 9 39 14 12
39 18 14 37 19 13 34 19 11 31 18 9 29 19 8
28 18 8 27 17 8 26 16 9 25 15 10 26 16 14
27 16 17 28 17 20 28 16 21 27 16 21 27 15 21
26 15 22 26 15 22 25 14 22 24 13 22 23 13 22
22 13 22 21 13 21 20 12 21 20 12 20 19 12 19
20 11 18 22 11 17 23 10 16 23 10 16 23 9 15
22 9 15 22 9 15 21 8 14 20 8 14 20 8 14
20 8 15 20 9 15 21 9 15 20 10 16 21 11 16
21 11 17 20 10 18 17 9 18 16 8 18 15 8 18
15 8 18 16 8 18 16 8 18 16 8 18 17 9 19
18 9 19 19 10 20 20 10 21 21 11 21 21 11 21
21 11 22 22 11 21 22 10 19 22 9 16 22 8 13
22 8 13 23 9 13 23 9 14 23 9 14 24 10 14
23 9 14 23 9 14 24 10 15 27 13 18 31 17 22
36 22 26 40 26 30 43 28 33 47 30 36 52 32 39
59 35 44 66 40 49 71 44 52 72 45 52 66 39 45
55 29 33 39 15 18 29 5 7 23 1 2 23 2 1
24 2 1 25 3 2 27 3 2 28 3 1 33 6 3
40 10 6 48 15 11 54 19 16 59 21 21 64 23 26
69 23 31 73 24 36 77 25 40 80 25 44 84 26 48
88 28 52 93 32 57 97 35 60 97 36 60 95 34 58
94 33 58 94 33 59 95 34 61 98 37 65 107 45 74
119 55 85 128 64 95 133 68 100 135 70 104 138 71 106
141 73 109 143 74 112 145 76 114 147 76 116 147 77 117
147 76 117 146 76 119 144 75 120 141 74 120 140 74 120
140 76 120 138 76 118 133 72 113 125 67 106 117 62 98
111 59 93 108 59 90 105 58 88 101 55 83 96 52 79
93 50 75 92 51 73 90 53 70 90 56 66 91 60 65
93 63 66 94 63 65 91 62 61 89 61 57 87 61 54
84 59 49 80 56 43 75 52 36 73 50 32 71 50 29
71 51 28 74 54 29 77 58 32 82 60 35 85 61 38
87 60 40 87 61 41 88 62 43 90 64 46 93 66 50
95 68 54 98 71 59 100 73 62 101 73 64 101 73 66
101 73 66 134 94 151 116 76 133 93 54 109 77 38 93
70 32 86 67 30 83 63 28 79 60 26 74 55 23 67
50 19 60 44 14 51 39 11 44 37 10 39 36 11 36
36 11 34 35 12 33 34 12 31 33 12 30 32 12 28
30 12 26 28 12 24 26 12 23 25 12 20 22 11 18
21 11 15 19 11 13 20 12 12 19 13 12 19 13 10
18 12 9 18 11 7 17 9 5 17 8 4 18 8 4
20 9 6 23 10 8 26 11 9 28 12 11 30 12 12
32 13 13 33 13 14 36 14 16 39 16 18 42 17 21
45 19 23 49 22 26 52 23 28 56 24 30 59 25 30
62 25 31 63 26 31 64 26 31 65 26 30 65 25 28
65 24 26 63 21 23 61 20 20 60 19 17 60 19 15
59 20 14 58 19 11 54 17 8 51 14 4 47 11 2
44 9 2 42 8 3 41 8 5 40 8 6 38 10 8
37 12 10 36 14 10 32 16 9 29 16 8 25 16 5
24 16 4 22 16 4 21 15 4 20 14 5 20 13 6
20 13 9 20 13 12 20 13 13 20 13 14 20 13 14
19 12 13 19 12 13 18 12 13 17 11 12 16 10 12
15 10 12 14 10 12 14 10 12 13 9 11 12 9 11
12 8 11 13 7 11 14 6 10 15 5 9 15 4 8
15 4 8 14 4 8 14 3 7 13 3 7 13 3 8
13 4 8 14 4 10 14 5 10 15 6 11 15 7 12
16 8 13 16 9 14 16 9 15 16 9 16 15 9 17
15 9 17 15 9 17 15 9 17 16 8 17 16 8 17
17 9 18 18 10 19 20 11 20 20 11 20 21 11 21
21 11 21 22 12 21 22 12 21 23 11 20 23 11 18
24 11 16 24 11 16 24 12 16 25 12 16 25 12 17
25 13 17 26 14 18 28 15 19 30 17 21 33 20 24
36 24 28 40 27 32 44 31 35 47 33 38 51 35 41
54 36 43 57 34 43 56 31 40 54 28 36 51 24 32
46 19 26 37 13 17 29 6 9 24 2 3 21 0 1
21 1 1 23 2 2 24 3 2 25 3 1 26 3 1
31 5 2 37 9 4 44 14 9 49 18 13 55 20 16
59 22 19 64 22 23 68 23 26 74 25 31 78 27 35
82 29 39 85 29 42 89 32 44 92 34 45 92 35 45
91 33 43 91 32 42 90 31 42 89 29 42 91 30 44
98 37 51 110 47 62 120 57 73 126 62 79 130 66 84
133 68 86 137 70 90 140 72 92 142 73 95 144 74 96
144 73 97 144 73 97 146 75 102 148 78 107 152 82 113
153 83 115 153 86 116 153 88 116 149 86 113 141 82 108
133 76 100 126 73 95 121 71 92 115 68 88 107 63 81
99 57 74 95 53 70 92 53 68 91 54 66 90 57 65
90 59 65 91 61 65 92 62 64 92 64 63 92 65 62
94 68 62 92 68 58 89 66 53 83 61 45 78 57 38
72 53 32 69 50 27 69 50 25 70 51 26 73 52 28
76 53 31 79 54 34 81 56 36 84 58 39 87 61 43
90 65 48 93 68 52 95 70 56 96 71 58 96 70 58
95 70 59 95 70 60 158 117 172 135 95 150 105 65 119
82 43 97 71 33 87 68 31 84 65 30 81 62 28 77
57 24 70 52 21 63 46 15 54 41 12 47 38 11 41
37 11 38 37 12 36 36 12 34 35 12 32 34 12 30
32 12 28 30 12 26 28 12 24 26 12 23 25 12 20
23 12 18 21 11 15 19 11 12 19 12 10 18 12 9
18 11 7 17 11 5 17 10 4 18 8 3 19 8 3
22 8 4 25 10 6 30 13 10 35 17 15 41 21 19
46 24 23 48 24 24 49 23 25 50 23 25 53 24 28
56 25 30 58 26 31 60 27 32 61 27 32 64 27 33
66 27 34 68 28 34 69 28 34 68 28 33 68 27 31
67 25 29 67 24 26 65 22 24 64 21 21 63 21 19
62 21 17 60 20 15 57 18 12 54 16 9 51 13 6
48 12 4 46 10 3 44 9 4 42 9 5 40 9 7
38 9 7 36 10 7 33 11 7 28 12 6 24 13 4
20 13 3 18 13 2 17 13 1 15 12 2 15 11 2
15 10 3 14 9 5 14 9 7 13 9 8 13 8 8
13 8 7 12 8 6 12 7 6 12 7 5 11 7 5
10 7 5 10 7 5 9 6 5 9 6 5 8 6 5
7 5 5 7 5 6 8 4 5 9 2 4 10 1 3
10 1 3 10 1 3 9 1 2 9 0 2 7 0 2
8 1 3 8 1 4 9 1 5 9 2 6 10 2 7
9 3 7 10 4 8 10 5 9 11 5 10 11 6 11
12 7 13 12 7 13 12 6 13 12 6 13 12 6 13
12 6 13 13 7 14 15 8 15 16 9 16 17 9 16
18 9 17 18 9 17 18 10 17 19 10 17 20 10 18
22 11 17 23 12 17 23 12 16 24 12 17 24 13 17
24 13 18 24 13 18 27 16 20 30 19 23 33 22 26
34 23 27 36 25 29 37 26 31 39 28 33 41 29 34
43 29 35 43 26 34 42 22 30 39 17 25 36 12 20
33 9 16 30 6 12 26 3 8 22 1 4 20 0 1
19 0 1 19 1 1 20 1 1 21 2 1 23 2 1
24 3 1 28 5 2 33 8 3 39 12 7 44 16 9
49 18 11 53 19 13 57 19 15 61 20 17 68 23 21
73 25 26 79 29 31 84 31 34 88 35 38 93 39 40
96 41 42 97 43 42 99 43 42 98 41 40 96 37 37
95 35 36 99 38 39 109 47 48 118 56 58 125 61 64
128 64 68 131 66 71 134 68 73 137 69 75 139 71 78
141 72 79 141 71 80 141 71 80 146 74 86 151 79 93
157 84 101 159 87 104 161 90 106 162 94 109 160 96 111
156 95 109 150 92 105 145 90 102 141 89 101 134 87 97
124 79 89 111 68 77 100 59 67 93 54 61 90 54 60
88 56 61 89 59 62 90 61 63 91 63 63 93 66 64
97 70 67 102 77 70 104 80 71 102 79 67 97 74 60
90 69 52 83 64 45 78 60 38 76 57 35 76 57 33
78 57 35 81 58 37 83 59 39 85 61 41 87 62 43
88 64 45 90 66 48 92 69 51 92 69 52 92 70 53
92 69 53 91 69 53 90 68 53 177 136 190 153 113 167
120 80 134 93 53 107 78 39 93 72 34 88 69 33 86
66 30 81 60 26 74 54 22 66 48 17 57 42 13 49
39 12 44 38 12 40 38 12 38 37 12 35 35 12 32
34 12 31 32 12 29 30 12 27 28 12 25 26 12 23
24 12 20 23 12 18 21 12 15 20 12 12 19 11 9
19 11 7 19 11 6 19 11 4 20 11 3 22 10 4
25 10 4 30 11 7 35 15 11 42 20 17 49 26 24
57 31 31 63 36 36 66 36 37 66 34 36 64 31 34
64 29 34 65 28 33 65 27 33 67 28 34 68 28 34
72 31 37 75 33 39 77 34 40 75 32 38 73 30 34
71 28 31 69 25 28 67 23 25 66 22 23 65 22 22
65 22 21 64 23 19 63 22 18 61 21 16 58 19 13
56 18 12 52 16 10 50 14 8 47 12 7 45 12 8
42 11 8 39 10 7 36 9 7 31 9 6 26 9 4
21 9 2 16 9 1 14 9 1 12 9 0 11 8 0
11 7 1 11 6 2 10 5 3 10 5 4 9 5 4
8 4 4 8 4 3 8 4 2 7 3 1 7 3 1
7 4 2 7 4 1 7 4 2 6 4 2 6 3 2
5 3 2 5 3 2 4 2 3 5 2 3 6 1 2
7 1 1 7 1 1 7 0 1 6 0 1 6 0 1
5 0 1 5 0 2 5 0 2 6 0 3 5 0 3
5 1 4 4 1 4 5 1 4 5 2 5 6 2 5
7 3 6 7 3 7 7 3 7 7 3 7 8 3 7
8 3 7 8 3 7 9 3 8 10 4 8 11 4 10
12 5 10 12 5 11 13 5 10 13 5 11 13 6 11
15 7 13 17 8 13 20 10 15 20 10 15 20 10 15
20 10 15 21 11 16 21 11 16 24 13 18 26 16 21
29 18 23 29 19 23 29 19 24 29 19 24 30 20 25
30 20 25 30 18 24 29 15 22 28 11 18 27 8 15
25 5 13 24 4 10 22 2 8 20 2 5 18 1 3
16 0 1 15 0 0 16 1 0 17 1 0 18 1 0
20 2 0 21 2 0 24 4 1 29 7 2 34 11 5
39 14 7 43 15 7 47 16 7 51 16 8 55 17 9
61 19 13 67 22 18 75 27 24 82 32 30 89 38 35
95 44 40 100 49 44 105 52 46 108 54 47 108 52 44
107 49 40 105 46 37 107 46 38 112 51 43 119 56 49
124 60 54 126 62 57 128 63 58 130 63 59 132 64 60
134 65 62 137 67 64 139 69 67 142 71 70 147 76 76
154 81 83 161 87 91 163 90 95 165 93 97 167 98 102
168 102 106 166 104 107 162 102 105 158 102 105 156 103 106
152 102 105 144 96 98 130 85 87 115 71 73 102 60 62
93 56 57 89 56 57 89 59 59 90 61 61 92 63 62
95 67 64 100 73 69 106 81 74 110 86 76 110 86 75
106 83 70 101 79 64 96 75 58 92 71 53 89 69 50
88 68 47 89 68 48 91 69 49 92 70 50 93 70 50
93 70 50 93 70 50 92 70 50 92 70 50 91 70 49
90 70 49 89 69 48 88 69 48 88 68 48 187 147 199
169 129 181 141 101 153 113 74 127 94 55 109 83 45 100
77 40 94 70 35 87 63 29 78 56 23 69 49 18 60
44 14 52 41 12 46 39 12 42 39 12 39 37 12 36
35 12 33 33 12 31 32 12 29 30 12 28 28 12 25
26 12 23 24 12 20 23 12 18 22 12 15 21 12 12
21 12 10 22 13 9 23 14 8 25 15 8 28 16 8
32 17 10 38 18 13 44 21 17 49 24 21 56 29 27
62 34 32 69 38 37 73 40 41 75 40 41 74 37 39
71 33 36 69 29 33 68 26 32 70 26 32 74 28 35
78 32 39 84 38 45 86 41 48 86 42 47 81 37 42
76 31 35 71 27 30 69 24 26 68 23 24 68 23 24
68 23 23 67 24 22 66 24 21 66 25 21 66 26 22
66 27 22 65 27 21 61 25 19 58 22 16 54 19 14
51 18 13 48 16 13 43 13 10 37 10 8 31 9 6
25 7 3 19 6 2 14 6 0 12 6 0 10 6 1
9 5 1 9 4 1 9 3 1 8 2 2 7 2 3
6 2 3 5 2 3 5 2 1 4 1 0 4 1 0
4 1 0 4 1 1 5 2 1 5 2 1 5 2 1
5 2 2 4 2 2 3 1 2 2 1 2 4 1 2
5 1 1 6 1 1 6 1 0 6 1 0 5 1 0
5 0 0 4 1 1 4 0 1 3 0 1 4 0 2
3 0 2 2 0 3 2 0 2 2 0 3 2 0 3
3 0 3 3 0 2 4 0 3 4 0 2 4 0 3
4 0 2 4 0 3 4 0 2 5 1 3 6 1 3
7 1 4 7 1 4 8 2 5 8 2 5 8 2 6
9 2 6 11 3 8 13 5 9 14 6 11 15 7 11
15 7 12 15 7 12 16 7 12 16 8 13 17 9 14
18 10 15 19 11 16 19 11 16 19 11 16 20 11 16
20 11 16 20 12 17 21 10 16 20 8 15 20 6 13
21 5 12 21 4 11 20 3 9 18 2 6 16 1 3
14 1 2 13 0 1 12 0 0 12 0 0 14 1 0
15 1 0 17 2 0 18 2 0 21 3 1 24 5 2
30 9 3 34 11 5 38 13 4 41 13 4 45 13 3
48 13 4 55 15 8 61 19 13 70 25 19 78 31 26
86 38 33 92 43 38 98 48 41 102 51 43 106 53 43
108 52 41 109 51 39 111 51 38 113 52 39 115 53 40
117 55 43 120 56 45 122 57 46 123 57 46 124 57 46
124 57 46 127 58 48 131 61 51 136 65 57 141 69 61
147 75 68 154 81 75 160 88 82 163 91 86 165 94 89
168 99 94 171 105 100 172 108 104 169 108 104 164 106 102
161 105 102 158 104 101 153 102 99 145 96 94 134 86 84
120 75 73 107 66 65 98 62 60 92 61 59 91 62 58
92 63 59 95 67 62 100 72 66 104 78 70 107 81 72
107 82 71 106 81 69 104 80 67 101 79 64 99 77 62
97 75 59 95 74 56 95 74 56 96 74 55 97 75 55
97 75 55 97 75 54 96 75 53 94 74 51 92 73 49
90 71 47 89 71 46 88 70 45 88 70 44 87 70 44
191 151 201 181 141 193 163 123 175 140 100 153 117 78 132
100 62 116 88 50 104 77 40 92 67 31 82 57 24 72
51 18 63 45 14 55 42 12 49 41 12 45 40 12 42
38 12 39 35 11 36 33 11 33 32 12 31 30 12 29
28 12 26 26 12 23 24 12 21 24 12 18 23 12 15
24 12 13 25 13 11 27 15 11 31 18 12 35 21 14
39 24 16 46 27 21 54 29 24 60 32 29 63 33 31
67 35 34 70 37 36 73 37 37 75 38 38 76 37 38
75 35 36 74 31 35 74 29 34 76 29 34 79 30 37
84 34 41 89 39 46 93 43 50 92 45 50 88 43 47
82 37 41 77 31 34 72 26 29 70 24 26 70 24 25
70 24 25 69 24 24 68 24 23 67 25 22 69 29 24
72 33 28 74 36 31 75 37 31 71 35 29 68 32 26
64 28 23 60 26 21 55 22 18 48 17 14 41 12 10
33 9 6 25 6 3 19 4 1 14 3 0 11 4 0
9 4 1 8 3 1 8 1 2 8 1 2 7 1 3
6 1 3 4 1 4 4 1 3 3 1 2 3 0 1
2 0 0 2 0 0 3 1 1 3 1 1 3 2 2
2 1 1 2 1 2 2 1 2 2 0 2 1 0 2
2 1 1 3 1 1 4 1 0 4 1 0 4 1 0
3 1 0 3 0 0 3 1 0 2 0 1 2 0 0
2 0 1 1 0 2 1 0 2 1 0 2 1 1 3
2 1 3 2 1 3 3 1 2 3 1 1 4 1 1
4 1 1 4 1 1 4 1 1 4 1 1 4 1 1
5 0 1 5 0 1 5 0 1 6 0 2 6 1 2
7 1 2 7 1 3 8 2 5 9 3 6 10 3 8
10 4 8 11 4 8 11 4 9 11 5 9 12 5 9
12 5 10 12 6 10 13 6 10 13 6 10 12 6 10
12 6 9 12 6 9 12 6 9 13 5 9 13 4 9
14 3 8 15 3 8 16 3 8 15 2 7 13 1 3
12 1 2 11 1 1 11 1 1 10 0 0 10 0 0
11 1 0 12 1 0 14 2 0 15 2 0 17 3 0
21 4 1 26 7 3 30 10 4 34 11 3 36 11 2
39 11 1 43 11 1 49 13 4 56 17 9 65 23 17
74 29 23 81 35 29 85 38 32 88 40 33 91 42 33
94 42 31 98 43 30 103 45 31 108 49 35 112 51 37
113 52 38 114 52 38 116 53 39 118 54 40 119 53 39
119 52 38 120 53 38 123 54 41 127 57 44 132 61 49
136 65 53 141 69 57 146 75 62 151 81 68 154 84 72
157 88 75 162 94 83 169 104 92 174 110 100 173 111 102
167 107 98 159 101 93 152 96 88 148 94 87 148 95 88
146 94 89 141 91 86 129 85 80 116 77 72 102 69 63
94 63 57 92 61 55 94 64 57 98 69 61 100 72 63
100 73 63 99 73 62 100 74 62 100 76 63 100 77 63
99 77 62 97 75 60 95 73 57 94 72 55 94 73 54
96 74 55 97 75 55 97 76 55 96 76 54 95 75 51
93 74 49 90 72 46 88 71 44 87 71 43 87 71 42
87 71 42 191 151 202 188 148 199 180 140 192 165 126 179
145 106 159 122 83 137 101 63 116 83 45 98 71 34 86
61 26 76 55 20 69 49 15 61 46 12 55 44 11 50
42 11 47 39 11 43 36 10 40 34 11 37 32 11 35
31 11 32 29 12 28 27 12 25 26 12 21 26 12 19
28 12 17 30 14 16 34 16 17 39 20 19 44 24 21
48 28 24 52 30 25 58 33 29 65 35 32 71 36 36
72 36 36 73 36 36 73 35 35 74 35 35 75 34 34
76 34 34 76 33 33 77 32 33 80 33 35 83 34 38
87 36 40 90 38 43 93 40 45 93 41 46 90 41 44
86 38 41 82 35 36 77 30 32 74 27 28 71 25 26
70 25 25 70 25 25 69 24 24 67 24 23 67 26 24
70 30 27 75 36 32 79 40 36 79 41 37 77 40 35
75 37 33 73 35 31 70 33 29 65 29 26 57 23 20
48 16 13 38 10 7 28 5 3 20 3 1 15 2 0
12 3 0 9 2 1 7 1 1 6 0 2 6 0 3
5 0 4 4 0 4 3 1 4 3 1 4 3 1 3
2 0 2 2 0 1 2 0 1 2 0 1 2 1 1
1 1 2 1 1 1 1 0 1 1 0 1 1 0 2
1 0 1 1 0 1 2 0 1 2 1 0 2 1 0
2 0 0 1 0 0 1 0 0 1 0 0 1 0 0
1 0 0 1 0 1 0 0 1 0 0 2 0 0 2
1 1 3 1 1 3 2 1 3 3 1 2 4 1 2
5 2 1 5 1 2 6 2 2 6 2 2 6 2 2
6 2 2 6 2 2 6 2 2 6 2 2 7 1 2
7 1 2 7 1 2 7 2 3 7 2 4 6 1 5
6 1 5 6 2 6 7 2 6 7 2 6 7 3 6
7 3 7 8 3 7 8 4 7 8 4 7 7 4 6
7 3 5 6 3 4 5 2 4 5 2 3 7 2 5
8 2 5 10 2 6 10 1 5 11 2 5 11 1 5
11 1 3 10 1 3 9 1 2 9 1 1 7 0 0
7 0 0 8 0 0 9 1 0 10 1 0 11 2 0
13 2 0 16 4 1 20 6 2 24 7 2 27 8 2
30 8 1 33 9 0 37 9 0 44 11 3 51 15 7
59 20 13 66 25 18 71 28 22 74 30 23 76 30 23
79 31 22 81 31 21 86 33 21 93 37 23 100 43 28
104 46 31 105 46 32 108 48 33 112 51 36 117 54 39
120 56 41 123 57 42 128 61 45 132 64 49 136 66 52
138 67 53 138 67 53 137 67 52 138 68 53 140 71 54
140 72 55 141 74 58 147 81 65 157 92 77 167 103 89
170 108 95 165 105 92 156 97 85 146 88 77 142 85 74
143 88 77 147 92 83 149 96 86 144 95 86 132 89 80
117 78 70 104 67 59 95 60 52 93 60 51 95 64 53
96 67 56 95 67 56 94 68 55 94 69 55 95 71 57
96 73 58 96 73 58 95 72 57 93 70 55 93 70 54
93 71 53 95 73 54 95 73 54 96 74 54 96 75 53
94 74 52 92 73 49 90 72 46 89 71 45 88 71 44
88 72 44 88 73 44 191 151 203 191 151 203 188 148 201
181 140 194 165 125 179 143 103 157 118 79 132 96 57 109
82 43 95 72 33 87 65 27 81 59 22 74 55 18 68
54 17 64 53 18 61 49 17 57 44 16 53 40 15 48
37 14 43 35 13 38 32 13 32 30 12 27 29 12 23
31 12 21 34 13 20 39 16 21 45 19 23 50 23 26
55 27 28 58 30 30 60 31 30 64 32 32 69 33 33
74 34 35 75 34 35 75 34 35 76 33 33 76 33 33
78 34 33 79 34 33 80 34 33 82 35 33 85 36 36
88 38 39 90 38 40 90 37 40 89 36 39 87 35 37
85 34 35 82 33 33 80 32 31 78 30 29 75 28 27
72 26 25 69 24 24 67 22 23 65 22 22 64 22 22
66 25 24 70 30 28 75 36 33 78 40 36 79 41 37
79 40 37 79 39 36 78 37 35 76 35 33 73 32 31
67 28 26 57 21 18 45 13 10 33 6 4 23 3 1
16 1 0 13 2 0 9 2 1 6 1 2 4 0 3
3 0 4 3 0 4 3 0 4 3 1 4 3 1 3
2 0 3 2 0 2 2 0 1 2 0 1 2 0 1
1 0 1 1 0 1 1 0 1 1 0 0 1 0 0
1 0 1 1 0 1 1 0 1 1 0 1 1 1 1
1 0 0 1 0 0 0 0 0 0 0 0 0 0 0
0 0 0 0 0 0 0 0 1 0 0 1 0 0 2
0 0 2 1 1 3 1 1 3 2 1 3 3 1 2
5 2 2 5 2 2 6 2 2 6 2 2 6 2 3
7 3 3 7 3 3 7 3 3 7 3 3 7 3 3
7 2 3 7 2 3 7 2 3 7 2 3 6 1 3
4 1 4 4 0 4 4 1 5 4 1 5 4 1 5
4 2 5 4 2 5 4 3 5 4 3 4 4 3 4
4 3 3 3 3 2 3 2 2 2 2 1 2 1 1
3 1 2 5 1 2 6 1 3 7 1 3 7 1 3
7 1 3 7 1 2 8 1 2 7 1 2 6 1 1
5 0 0 5 0 0 6 0 0 7 1 1 7 1 1
8 1 1 10 2 1 12 4 1 15 5 1 18 6 1
21 6 1 24 7 1 28 7 1 32 8 1 38 11 3
44 14 6 51 18 10 57 21 13 61 22 14 63 23 14
65 23 14 68 24 14 71 25 14 77 27 15 84 32 18
91 37 23 95 40 26 96 41 27 101 44 30 108 49 34
115 55 39 121 59 43 126 62 47 133 67 51 139 72 56
143 76 59 145 76 60 143 74 58 139 70 53 136 67 50
132 64 46 130 62 44 127 60 43 129 64 46 138 73 56
148 85 68 155 94 77 155 95 79 149 90 74 141 82 66
136 79 63 138 81 66 145 88 73 151 96 81 152 100 86
144 96 84 129 84 73 111 69 58 99 60 48 95 58 46
95 61 48 94 64 50 93 64 51 91 65 50 90 67 51
91 69 53 92 70 54 92 71 55 93 70 55 92 69 54
93 70 54 93 71 54 94 72 55 95 73 55 95 73 55
95 74 54 93 73 52 92 72 50 90 71 48 89 71 47
88 71 47 88 72 46 88 72 46 189 148 202 189 149 203
190 149 204 188 148 203 180 140 194 163 123 177 142 102 154
120 81 133 105 65 118 93 52 108 84 44 101 77 37 94
72 32 87 68 29 81 67 28 77 62 26 72 56 24 66
49 21 59 44 18 52 40 16 44 36 14 37 35 13 31
34 13 26 37 14 24 42 16 25 49 20 27 54 23 30
60 26 32 63 29 34 64 30 33 65 29 32 66 29 31
69 29 31 73 30 32 75 30 32 76 31 32 76 32 30
77 32 30 78 33 30 79 34 30 81 34 30 82 35 31
84 36 32 85 36 33 85 35 33 85 33 32 83 32 31
83 31 30 82 32 30 82 32 29 79 30 27 76 28 25
72 26 23 68 23 22 64 21 21 61 19 19 59 18 18
59 18 19 62 22 22 67 27 26 71 32 31 74 36 34
76 37 35 78 38 36 79 38 36 80 37 36 79 36 35
79 35 34 75 34 31 67 28 25 55 20 16 40 10 7
27 4 2 18 1 0 14 1 0 10 2 1 7 2 2
4 2 4 3 1 5 2 0 5 2 0 4 2 0 3
2 0 2 2 0 2 2 0 1 2 1 1 2 1 1
2 1 1 2 0 0 1 0 0 1 0 0 1 0 0
1 0 0 1 0 0 1 0 0 1 0 0 1 1 1
1 1 1 1 1 1 0 0 0 0 0 0 0 0 0
0 0 0 0 0 0 0 0 0 0 0 0 0 0 1
0 0 1 0 0 1 0 0 1 0 0 1 1 0 1
2 1 2 4 1 2 4 1 2 5 1 2 5 2 3
5 2 3 6 2 3 6 3 4 6 3 4 7 3 4
6 3 4 6 3 4 5 2 3 5 2 3 5 1 2
4 1 3 2 0 3 2 0 4 2 0 4 2 0 3
2 1 3 2 1 3 2 1 3 2 2 2 2 2 2
2 3 1 1 3 1 1 3 0 1 2 0 0 2 0
0 2 0 1 1 0 3 1 1 5 1 1 5 1 2
5 1 2 5 1 2 5 1 2 5 1 2 5 0 1
4 0 1 3 0 0 4 0 0 4 0 0 4 0 0
5 0 1 5 1 1 7 2 1 9 3 1 11 4 1
12 4 0 15 4 0 18 5 0 22 7 1 27 8 1
32 10 3 37 12 4 42 14 6 47 15 6 49 15 6
52 15 6 54 16 6 57 17 7 62 20 8 68 23 10
75 28 14 81 32 18 85 35 20 87 36 22 93 40 25
101 46 30 109 53 36 116 57 41 122 61 44 129 66 49
138 73 56 145 79 62 149 82 65 150 82 64 146 78 60
142 74 55 136 68 50 129 63 43 122 55 37 116 50 32
116 52 34 123 60 42 132 71 53 138 77 59 137 77 59
133 74 56 131 72 54 133 75 57 141 82 64 149 92 74
156 100 84 153 100 86 140 91 79 122 75 63 106 63 50
97 58 44 93 59 44 92 61 45 91 64 48 90 66 48
89 67 49 88 68 50 88 68 51 90 69 52 92 71 53
93 72 55 96 74 58 98 76 60 100 77 62 100 77 61
99 76 60 96 75 57 93 72 55 91 70 52 90 70 51
90 71 50 89 72 51 89 72 50 89 72 50 176 135 191
182 141 197 188 147 204 190 149 205 185 145 200 177 137 191
166 126 179 151 111 164 136 95 150 118 77 135 105 64 123
95 54 114 87 46 105 81 40 96 76 36 88 70 32 81
63 29 74 55 24 65 49 20 57 44 17 48 41 15 40
39 15 34 40 15 30 44 17 30 49 20 30 55 23 32
59 24 33 63 26 34 66 27 34 66 27 34 66 27 32
67 27 30 68 26 28 70 26 27 71 26 25 73 28 26
75 30 27 77 32 27 77 33 27 79 33 27 80 34 27
82 34 28 82 35 28 83 34 29 83 34 28 82 32 28
81 31 27 81 31 28 80 30 27 78 29 25 74 27 23
69 24 20 65 21 19 61 19 18 58 18 17 54 15 15
51 13 13 52 14 14 57 19 19 62 24 23 67 29 28
71 33 31 74 35 33 78 38 36 79 38 36 80 37 36
80 37 35 81 37 35 80 38 35 75 35 31 65 29 24
50 19 14 35 10 7 22 3 1 15 2 0 10 2 1
8 3 3 6 3 5 4 2 5 2 1 4 2 0 3
2 0 2 2 0 1 2 0 1 2 0 1 2 1 0
2 1 0 2 1 0 2 1 0 2 1 0 2 1 0
2 1 0 2 1 0 2 1 0 2 1 0 2 1 0
2 1 1 1 1 1 1 1 1 1 1 1 0 0 0
0 0 0 0 0 0 0 0 0 0 0 0 0 0 0
0 0 0 0 0 1 0 0 1 0 0 1 0 0 1
1 0 1 1 0 1 2 0 1 3 0 1 3 1 1
3 1 2 4 1 2 4 1 2 4 2 3 5 2 3
5 2 3 4 2 3 4 1 2 4 1 2 3 1 2
3 1 1 2 0 2 2 0 3 1 0 3 1 0 3
1 0 2 1 0 2 1 1 2 1 1 1 2 2 1
2 3 1 2 4 1 2 4 0 2 4 0 1 3 0
1 3 0 1 2 0 1 2 0 2 1 0 3 1 0
4 0 1 4 0 1 4 0 1 4 0 1 4 0 1
4 0 0 3 0 0 3 0 0 3 0 0 3 0 0
4 0 0 4 0 1 4 0 0 5 2 1 7 3 0
9 4 1 10 4 0 12 4 0 15 5 1 19 6 1
22 8 1 27 9 2 31 10 3 35 11 3 38 11 3
41 11 2 43 11 2 45 11 2 47 12 2 51 15 3
58 19 5 65 24 8 71 28 12 75 30 15 79 32 17
85 36 20 93 43 26 101 48 31 106 51 33 110 52 34
116 55 36 125 63 44 137 73 54 146 81 61 150 84 64
150 83 64 148 81 62 144 78 58 137 71 52 126 60 41
112 47 29 103 39 21 102 39 21 110 47 29 116 55 37
120 59 41 118 58 40 117 58 39 120 61 43 130 71 52
142 84 67 154 97 81 155 102 88 147 97 84 131 84 70
114 71 57 101 63 47 94 60 43 91 61 43 90 64 46
90 66 48 88 67 49 87 67 48 87 68 49 89 69 50
92 71 53 95 73 56 98 76 60 101 79 64 104 81 67
105 82 68 103 81 67 100 79 63 97 77 61 96 76 59
95 75 59 94 75 57 92 75 56 91 74 55 91 74 54
152 111 169 165 124 182 180 139 197 188 147 206 189 148 205
185 145 200 183 142 197 175 134 189 160 119 175 137 96 154
117 76 136 103 61 123 93 51 111 82 42 99 73 33 87
66 27 78 61 24 71 55 20 64 50 17 57 46 15 49
45 15 43 45 17 39 48 19 37 52 22 37 56 24 36
60 25 37 63 25 36 65 25 35 66 25 34 67 25 33
66 25 32 66 25 29 66 24 25 66 23 22 67 22 19
69 24 20 72 28 22 75 31 24 77 32 25 78 33 25
80 34 25 81 35 26 81 35 26 81 34 26 81 33 26
80 32 25 79 31 25 78 30 25 77 29 25 73 26 22
67 23 19 61 19 15 56 16 13 52 14 12 50 14 12
45 11 10 44 9 8 45 10 10 51 16 15 58 22 21
63 26 25 68 30 29 73 34 32 77 37 35 79 38 36
80 38 36 81 39 35 83 40 37 84 42 37 81 41 35
74 38 31 62 30 23 47 21 15 31 11 6 20 5 2
12 2 1 9 3 2 7 3 3 4 2 4 2 1 3
2 0 1 2 0 1 2 1 0 2 1 0 2 1 0
2 1 0 2 1 0 2 1 0 2 1 0 3 2 0
3 2 0 3 2 0 3 2 0 3 2 0 3 2 0
2 2 1 2 2 1 2 2 2 1 1 1 1 1 1
1 1 1 0 0 0 0 0 0 0 0 0 0 0 0
0 0 0 0 0 0 0 0 0 0 0 0 0 0 0
0 0 0 0 0 0 1 0 0 1 0 0 1 0 0
1 0 1 2 0 1 2 1 1 2 1 1 2 1 1
3 1 2 3 1 2 2 1 1 2 1 1 2 0 1
1 0 1 1 0 0 1 0 1 1 0 2 1 0 2
1 0 2 1 0 1 1 1 1 1 1 0 2 1 0
3 3 0 3 4 0 4 5 1 4 5 0 3 5 0
3 4 0 2 4 0 2 3 1 2 2 0 3 1 0
3 0 0 4 0 0 4 0 0 4 0 0 4 0 0
4 0 0 4 0 0 3 0 0 3 0 0 3 0 0
3 0 0 3 0 0 4 0 0 4 0 0 5 1 0
6 2 0 6 3 0 7 3 0 9 4 0 11 5 0
15 6 1 18 7 1 22 8 1 25 8 1 28 8 1
31 8 1 33 9 1 35 9 1 37 9 1 39 10 1
42 12 1 47 14 1 54 18 3 59 22 6 64 25 8
69 28 11 75 32 14 83 38 19 91 42 23 95 44 23
97 42 22 102 44 24 112 53 32 127 65 44 139 75 54
145 81 59 147 82 61 147 82 62 147 82 62 142 78 58
131 67 48 114 50 31 98 35 16 90 27 9 92 30 13
97 36 18 101 40 23 102 42 25 102 43 25 105 46 29
113 54 37 123 65 50 135 79 64 141 89 74 142 94 80
135 91 76 123 82 66 107 71 54 95 63 45 90 61 42
88 64 44 88 66 46 86 66 46 84 65 45 84 65 45
86 67 46 89 69 50 93 73 53 97 76 59 100 78 63
103 81 67 104 82 68 104 83 69 103 82 68 101 81 67
100 81 66 98 79 64 96 78 61 93 76 59 92 75 58
92 75 57 125 84 143 141 100 159 163 122 182 180 139 199
187 146 205 187 146 204 188 147 204 184 143 199 170 129 186
144 102 162 118 77 138 100 58 121 88 47 109 77 36 96
67 27 83 60 20 73 56 17 66 54 15 61 52 15 57
51 16 53 52 19 49 55 22 47 58 25 46 62 28 46
65 29 44 66 28 43 67 26 40 67 24 37 66 23 34
66 22 32 65 22 30 65 22 27 64 21 22 63 20 18
63 19 16 66 22 17 70 26 19 74 30 22 76 32 23
79 34 24 81 35 24 82 36 25 83 36 25 83 36 26
82 35 25 80 33 25 78 32 24 75 30 24 72 27 23
67 23 19 59 18 15 52 14 10 46 10 7 42 9 6
40 9 7 37 7 5 36 6 5 39 8 7 46 14 13
53 19 18 60 24 22 66 28 27 71 32 31 75 35 33
77 37 33 79 38 34 81 40 35 83 41 36 83 43 36
82 43 36 80 43 35 72 39 31 60 32 24 44 21 14
29 12 6 17 5 2 10 2 1 6 2 1 4 2 1
3 1 1 2 1 0 3 1 0 3 2 0 3 2 0
3 2 0 3 2 0 3 2 0 3 2 0 3 2 0
3 2 0 3 2 0 3 2 0 3 2 0 3 2 0
3 2 0 3 2 1 3 2 1 2 2 2 2 2 2
1 1 1 1 1 1 1 1 1 0 0 0 0 0 0
0 0 0 0 0 0 0 0 0 0 0 0 0 0 0
0 0 0 0 0 0 0 0 0 0 0 0 1 0 0
1 0 0 1 1 0 1 1 0 2 1 0 2 1 0
2 1 1 2 1 1 2 1 1 2 1 0 1 1 0
1 0 0 1 0 0 0 0 0 1 0 1 1 0 1
2 0 2 2 1 1 2 1 0 2 1 0 2 2 0
3 2 0 4 4 0 5 5 0 5 6 0 5 6 0
4 6 0 4 5 1 4 5 1 4 4 1 4 3 1
4 2 1 4 1 0 5 1 0 5 1 0 5 1 0
5 1 0 5 1 0 5 1 0 5 1 0 4 1 0
4 1 0 4 1 0 4 0 0 4 0 0 4 0 0
4 1 0 4 2 0 4 2 0 5 2 0 6 2 0
8 3 0 11 5 1 14 6 0 17 7 1 20 7 0
22 7 0 24 7 0 27 8 1 29 9 1 32 10 2
33 10 1 34 10 1 37 11 0 42 13 1 47 17 2
52 20 3 57 22 5 64 26 8 72 32 12 80 36 16
84 37 16 87 36 15 91 37 15 100 44 22 114 56 33
127 67 44 134 73 50 138 75 53 139 77 56 143 80 60
143 82 61 137 75 55 121 60 40 102 41 22 87 27 9
82 21 5 82 23 7 87 27 11 89 31 14 91 34 17
93 37 20 97 41 25 102 47 31 107 55 39 113 65 49
120 75 60 124 82 66 121 82 65 110 76 58 98 68 48
90 63 42 85 62 41 83 62 40 81 61 40 79 60 39
79 60 39 80 61 40 83 64 43 86 67 46 89 70 51
91 71 55 93 72 58 95 74 60 97 77 62 98 79 64
99 80 66 99 81 65 96 78 62 92 75 59 89 72 55
88 71 54 87 71 54 102 61 122 116 75 136 139 98 160
162 120 182 177 135 197 183 142 202 187 146 203 185 144 201
172 131 189 147 105 165 119 78 140 98 56 120 85 43 106
74 33 94 66 24 83 60 18 73 57 15 68 58 16 65
60 20 64 63 24 63 65 29 61 68 32 59 70 34 58
72 35 56 73 35 52 72 32 49 70 28 44 67 23 38
64 20 33 63 18 29 62 17 27 62 17 24 62 18 19
61 17 16 62 18 14 64 20 15 68 25 17 72 29 21
77 33 23 80 35 25 82 37 26 84 38 27 85 40 28
86 40 29 84 39 29 81 36 27 77 34 25 73 30 23
67 26 22 60 21 17 52 15 12 43 9 6 36 5 3
33 5 2 31 5 3 29 4 2 30 4 3 33 5 4
40 11 9 48 16 15 56 21 20 63 25 25 69 29 28
72 31 29 73 33 29 75 35 30 77 37 31 79 38 32
80 39 31 80 40 32 80 42 33 77 41 32 69 38 28
55 30 21 39 19 12 24 9 5 13 3 1 7 1 0
5 2 0 4 2 0 4 3 0 4 3 0 4 3 0
4 3 0 4 3 0 4 3 0 4 3 0 4 3 0
4 3 0 4 3 0 4 3 0 4 3 0 4 3 0
4 3 0 4 3 0 4 3 0 3 3 1 2 2 1
2 2 1 2 2 1 1 1 1 1 1 0 1 1 0
0 0 0 0 0 0 0 0 0 0 0 0 0 0 0
0 0 0 0 0 0 0 0 0 0 1 0 1 1 0
1 1 0 1 1 0 1 2 0 2 2 0 2 2 0
2 3 0 2 3 0 2 3 0 2 2 0 2 2 0
1 2 0 1 1 0 1 1 0 0 1 0 1 1 1
2 1 1 3 1 1 4 2 0 4 2 0 5 3 0
5 3 0 5 4 0 6 5 0 7 7 0 7 8 0
7 7 0 6 7 0 6 6 1 5 6 2 5 5 2
6 4 2 6 4 2 7 3 1 7 3 1 7 3 1
7 3 1 7 3 1 7 3 1 7 3 1 7 3 1
6 2 1 6 2 0 6 2 0 6 2 0 5 1 0
5 1 0 4 2 0 3 2 0 2 2 0 2 2 0
3 2 0 5 2 0 7 3 0 10 5 0 13 5 1
15 5 0 16 5 0 18 5 0 20 6 1 23 8 1
25 9 2 27 9 1 27 8 1 28 8 0 31 9 0
36 12 0 41 15 0 46 17 1 53 21 4 60 25 6
69 30 11 74 32 11 78 32 11 81 32 10 89 37 15
101 47 24 112 56 33 120 62 39 124 64 42 128 68 46
135 75 53 142 83 61 143 84 63 134 75 54 115 56 37
94 36 18 79 22 5 74 18 2 76 20 4 79 25 8
81 29 12 83 32 15 84 34 17 85 35 19 85 39 22
87 44 27 92 52 34 98 61 43 103 68 49 103 71 51
97 69 48 89 64 42 82 61 37 78 59 35 76 58 34
74 57 33 74 56 33 74 57 33 76 59 36 78 61 38
80 62 41 80 62 43 81 62 46 82 63 48 85 66 51
87 69 53 89 71 55 88 71 54 85 68 52 82 66 49
80 64 47 79 64 46 78 64 45 85 44 106 96 54 117
115 73 136 138 96 160 160 118 181 175 133 194 183 141 200
183 142 200 174 133 192 154 113 173 129 88 150 106 64 128
89 47 111 77 35 98 69 27 88 64 21 79 64 21 75
68 24 75 72 30 77 77 36 78 79 40 75 79 41 71
79 41 67 78 40 63 77 38 58 75 34 53 71 28 46
66 22 39 62 17 32 61 14 28 60 13 26 60 14 22
60 15 18 60 16 15 61 18 14 63 20 15 67 24 17
72 28 20 77 34 24 81 37 27 83 39 28 85 41 29
88 43 32 89 45 34 87 43 33 83 40 30 77 36 27
70 31 24 63 26 21 55 19 16 45 12 10 35 6 4
28 2 1 24 2 0 23 2 1 23 2 1 24 2 1
27 3 2 34 7 6 42 13 12 52 18 18 60 22 23
65 25 25 67 27 25 68 29 24 70 30 24 71 31 24
73 32 24 75 33 24 76 34 25 77 36 26 76 37 27
71 37 27 62 33 24 49 25 17 33 14 9 19 6 2
10 2 0 8 3 1 8 5 1 7 6 1 6 5 0
6 5 0 6 5 0 6 5 0 6 5 0 6 5 0
5 4 0 5 4 0 5 4 0 5 4 0 5 4 0
5 4 0 5 4 0 5 4 0 4 3 1 4 3 1
3 3 1 2 2 1 2 2 1 2 2 0 1 1 0
1 1 0 1 1 0 0 0 0 0 0 0 0 0 0
0 0 0 0 1 0 0 1 0 0 1 0 0 1 0
1 2 0 2 2 0 2 3 0 2 3 0 3 3 0
3 4 0 3 4 0 3 4 0 3 4 0 2 3 0
2 3 0 2 3 0 2 2 0 1 2 0 1 2 0
2 2 0 4 2 1 6 3 1 6 3 0 6 4 0
7 4 0 7 5 0 7 5 0 8 7 0 8 8 0
9 8 0 8 8 0 8 7 1 7 7 1 7 6 2
7 6 3 8 6 3 9 6 3 10 6 3 10 6 3
10 6 3 10 6 3 10 6 3 10 6 3 10 6 2
9 5 2 8 4 1 8 4 1 7 4 1 7 3 0
6 3 0 6 3 0 4 2 0 3 2 0 2 1 0
1 1 0 1 1 0 3 1 0 5 2 0 7 3 0
10 4 0 11 4 0 12 4 0 12 3 0 14 4 0
16 6 1 18 7 1 19 6 1 18 5 0 20 6 0
23 7 0 27 9 0 31 11 0 36 13 0 43 16 1
50 20 3 57 24 7 63 26 7 68 26 7 72 27 6
79 31 10 88 38 16 97 45 23 104 49 27 108 51 29
114 57 35 125 67 46 139 82 60 150 92 71 149 91 71
134 77 57 108 53 34 83 30 13 70 17 3 67 15 1
68 19 4 69 22 6 70 26 9 71 28 11 72 30 12
72 32 14 72 34 15 73 37 17 74 41 21 79 48 27
85 56 35 88 62 40 87 64 41 82 62 38 78 60 35
75 57 32 74 57 32 73 57 32 73 56 31 74 57 32
74 57 33 73 56 33 72 55 34 72 55 35 73 56 37
74 57 38 75 58 39 75 58 39 73 57 38 72 57 37
71 57 37 70 57 36 70 57 36 70 57 36 74 32 95
81 39 103 95 53 117 114 72 136 137 95 158 160 118 180
176 135 195 182 141 199 178 137 195 166 125 185 149 108 170
130 88 152 111 69 134 95 53 117 84 41 104 78 35 95
78 33 90 80 35 89 82 39 88 83 41 85 82 41 79
79 39 72 75 36 65 73 35 60 72 32 54 70 29 50
66 24 44 62 20 38 60 16 33 59 14 30 59 13 26
58 13 22 59 14 18 60 16 16 62 19 15 64 21 16
67 25 18 72 29 22 78 35 26 82 38 28 85 41 30
87 43 32 89 46 35 90 47 36 86 45 34 79 40 29
71 34 24 63 27 19 55 22 16 46 15 12 37 9 7
28 3 2 22 1 0 19 1 0 18 2 0 18 2 0
18 1 0 21 1 1 27 4 3 35 8 8 46 14 14
55 19 19 61 22 22 64 24 22 64 25 20 64 26 18
65 25 17 68 26 18 71 28 19 74 30 21 76 32 22
75 33 23 72 34 23 66 33 24 58 30 21 45 22 15
28 11 7 16 4 1 12 4 1 11 6 1 10 8 1
9 7 0 8 7 0 9 7 1 9 7 1 9 7 2
9 7 2 8 7 2 8 6 2 7 5 2 7 5 2
6 4 1 6 4 1 5 3 0 5 3 0 4 3 1
4 3 1 4 3 1 3 3 1 3 2 0 2 2 0
2 2 0 2 1 0 1 1 0 1 1 0 1 1 0
1 1 0 1 1 0 1 1 0 1 1 0 1 1 0
2 2 0 2 3 0 3 4 0 3 4 0 4 5 0
4 5 0 4 5 0 5 6 0 5 6 1 6 7 2
6 7 2 5 6 2 5 6 2 4 5 1 4 5 1
3 4 1 5 5 1 7 5 1 9 6 1 9 6 1
9 6 0 9 6 0 9 7 0 10 7 0 11 9 1
12 10 2 13 11 3 12 10 2 11 9 3 11 9 4
11 9 5 11 8 6 12 9 7 13 10 6 15 11 7
15 12 7 15 11 7 15 12 7 15 11 7 15 12 7
14 11 7 14 10 6 13 9 5 12 9 4 12 8 4
11 7 3 10 7 3 9 6 2 8 5 2 6 4 2
4 3 2 4 3 1 4 2 1 4 2 1 6 3 0
7 3 0 8 4 0 8 3 0 8 2 0 8 2 0
10 2 0 11 4 0 12 4 0 12 4 0 13 4 0
14 5 0 17 6 0 20 7 0 24 9 0 29 11 0
34 13 1 40 15 1 45 16 3 50 17 3 55 19 3
61 21 4 69 26 7 76 31 11 83 34 15 87 37 17
91 38 18 97 42 21 109 53 32 126 70 49 144 87 66
154 98 78 149 94 75 129 75 56 96 45 28 71 22 9
58 11 0 57 13 1 57 16 2 56 18 3 56 21 4
57 23 6 59 26 8 60 27 9 59 28 8 58 28 7
60 33 10 66 40 17 73 50 25 79 58 33 81 62 36
80 63 37 78 62 35 77 61 34 76 60 33 74 59 32
74 59 32 74 58 31 70 55 29 67 51 27 65 49 26
65 50 27 66 50 27 65 50 27 64 49 26 63 49 26
63 50 26 63 51 27 63 52 27 63 52 27 62 52 27
67 25 89 73 31 96 82 40 106 96 54 120 119 77 141
147 106 168 171 130 190 181 140 199 180 139 198 175 134 194
164 123 185 148 106 171 129 87 152 110 68 133 97 54 118
89 45 107 86 41 100 85 40 96 84 40 91 81 38 85
76 35 75 71 31 66 66 27 57 63 25 52 62 24 47
61 22 44 58 19 39 57 16 36 57 15 34 58 15 32
58 14 29 59 14 25 60 16 20 62 19 19 65 22 19
66 24 20 69 27 21 73 31 23 77 35 27 81 38 29
84 40 30 87 43 32 88 46 34 87 46 35 82 43 32
73 37 25 64 29 18 54 22 14 46 17 11 37 11 8
29 6 4 22 2 1 17 1 0 14 1 0 13 2 0
13 2 0 14 1 0 16 1 0 21 2 1 30 6 5
41 11 11 51 16 17 58 20 20 61 22 20 61 23 18
61 23 15 62 22 13 65 23 13 70 26 16 74 29 18
77 31 20 76 31 20 73 31 21 70 32 22 65 32 23
53 27 19 36 16 10 21 6 3 14 4 1 13 6 1
12 8 1 11 9 0 11 9 1 11 9 1 12 9 2
12 9 4 12 10 4 12 9 5 11 9 5 11 8 5
11 8 5 10 7 5 9 6 4 8 5 3 7 4 3
6 4 2 5 4 2 5 4 2 4 3 1 4 3 1
3 3 1 3 2 0 3 2 0 2 2 0 2 2 0
2 1 0 2 1 0 2 2 0 2 2 0 2 2 0
2 2 0 3 3 0 3 4 0 4 5 0 4 5 0
5 6 0 5 6 1 5 6 1 6 7 1 7 8 3
8 9 4 9 10 5 9 10 4 8 9 4 7 8 3
6 7 2 6 7 2 8 7 2 9 7 2 11 8 2
11 8 1 11 8 1 12 9 1 13 10 2 14 11 3
15 12 3 16 13 5 17 14 7 17 14 7 17 13 8
16 13 9 16 12 10 15 11 9 16 12 10 17 14 10
19 16 11 19 16 10 19 16 11 19 16 10 19 16 11
19 16 10 19 15 10 18 15 9 17 14 8 16 13 7
15 12 6 14 11 5 13 10 5 13 9 4 11 8 4
9 7 3 7 6 3 7 6 3 7 5 3 7 5 2
7 4 1 8 5 1 8 4 0 7 4 0 7 3 0
7 2 0 8 3 0 9 3 0 10 4 0 10 3 0
10 4 0 11 5 0 13 6 0 16 7 0 19 8 0
23 9 0 28 10 0 32 11 1 36 11 1 40 12 1
45 14 1 53 18 3 60 22 6 67 26 9 72 29 12
75 29 12 78 29 11 83 31 11 94 38 19 109 53 33
127 71 52 145 89 71 152 99 80 144 93 75 113 65 48
80 35 21 56 13 3 51 13 0 50 15 0 48 17 0
46 18 1 46 20 2 48 22 3 49 22 3 50 23 3
50 24 2 50 26 2 54 31 6 61 40 14 69 51 24
77 59 32 79 64 35 79 64 36 78 63 35 77 62 34
76 61 33 76 61 33 76 61 32 72 57 29 68 54 26
64 50 23 64 50 23 63 50 22 62 48 21 60 47 20
59 47 19 58 47 19 57 47 18 56 47 18 55 47 18
55 47 18 64 22 86 68 25 91 73 31 98 84 41 108
105 63 129 137 96 159 166 125 185 180 139 197 181 140 198
178 137 196 170 128 190 155 113 177 134 92 158 114 72 138
99 57 122 90 47 111 85 41 102 80 36 94 76 33 86
70 28 76 64 23 65 58 18 55 53 15 47 51 14 42
50 13 38 49 13 36 48 11 33 49 12 32 52 14 33
56 16 34 59 16 33 61 18 29 64 20 25 67 24 24
69 27 24 70 30 25 72 31 25 74 33 25 76 34 26
79 36 27 82 38 28 84 40 30 84 42 31 82 42 31
75 38 26 65 30 19 54 22 11 44 15 6 35 10 5
28 6 3 21 3 1 16 1 0 13 1 0 11 1 0
9 1 0 9 2 0 10 1 0 12 1 0 17 1 0
25 4 3 35 9 8 46 14 15 54 19 19 58 22 19
59 22 16 59 22 13 60 21 11 63 22 12 69 25 15
75 29 18 79 31 21 79 31 21 76 30 20 72 31 22
69 33 25 60 30 22 42 19 13 25 8 4 16 4 0
14 7 0 14 9 1 13 10 1 14 11 2 14 11 3
14 11 4 15 12 5 15 12 6 15 12 8 15 12 8
15 11 9 15 11 10 14 10 10 13 9 9 11 7 8
9 5 7 8 5 5 6 5 4 6 5 3 6 5 3
5 4 2 5 4 1 5 4 1 4 3 0 4 3 0
4 3 0 4 3 0 4 3 0 4 3 0 4 3 0
4 3 0 4 3 0 4 4 0 5 5 0 6 7 0
6 7 0 7 7 1 7 8 1 7 8 1 8 8 2
10 11 4 12 12 6 14 14 8 13 14 7 12 13 6
11 12 5 10 11 4 10 10 4 11 10 4 12 10 4
14 10 3 14 10 3 14 10 2 15 11 3 16 12 5
17 14 6 19 15 8 21 16 10 22 17 12 22 16 12
22 15 13 21 15 13 21 14 14 20 14 14 21 16 14
21 18 13 23 20 14 23 20 13 23 20 13 23 20 13
23 20 13 23 20 13 22 19 13 22 19 12 21 18 11
20 17 10 19 16 9 17 14 8 16 13 7 16 13 6
14 12 6 13 11 5 12 10 5 12 10 5 12 9 4
12 8 3 11 7 3 11 7 2 10 6 2 9 6 1
9 5 1 9 5 1 10 5 1 10 6 0 11 6 0
11 6 0 10 6 0 10 5 0 10 6 0 12 6 0
14 6 0 17 7 0 21 7 0 24 7 0 27 7 0
32 8 0 37 10 0 44 14 2 51 18 4 57 22 7
62 24 10 65 25 10 69 25 8 73 24 6 80 26 8
88 34 16 101 48 30 119 66 49 136 85 67 145 95 78
127 81 64 97 54 38 66 26 12 54 19 4 51 20 3
49 23 4 46 23 4 44 23 3 44 23 2 45 23 1
46 24 1 47 25 1 48 27 1 50 31 3 55 37 9
62 45 16 70 54 25 74 60 30 77 62 32 75 62 30
74 61 30 74 61 30 74 62 31 76 63 32 74 61 30
72 59 28 69 56 25 67 55 24 65 54 22 63 52 21
61 51 19 59 50 18 57 48 16 55 47 14 53 45 13
52 45 13 51 45 12 61 19 83 63 21 86 67 25 92
77 34 102 98 56 122 132 90 154 163 122 182 179 138 196
181 140 197 176 135 194 165 123 184 144 102 166 119 77 142
97 55 121 84 42 108 77 34 99 73 30 92 68 25 84
65 22 77 60 18 68 55 14 58 49 11 49 45 8 42
43 8 37 41 7 33 40 7 30 39 6 28 41 7 28
46 10 30 53 15 34 59 19 37 65 23 36 70 26 33
73 30 32 75 33 32 76 35 32 75 35 30 74 34 28
75 33 26 76 33 26 78 34 26 79 35 27 79 36 27
75 36 26 68 32 21 58 25 14 47 18 7 37 12 3
29 8 3 23 4 2 17 2 1 12 0 0 9 0 0
7 1 0 5 1 0 6 1 0 7 1 0 10 1 0
14 1 0 22 3 3 31 8 7 41 13 13 48 17 17
54 20 17 56 21 15 57 21 12 58 20 10 61 21 10
67 24 13 74 28 17 80 31 20 81 32 21 78 31 21
75 31 22 71 32 24 61 29 22 44 20 13 27 9 4
18 6 0 15 8 1 15 11 2 15 12 3 15 12 3
15 12 4 16 13 5 16 13 7 16 13 8 17 13 9
17 13 10 17 13 12 17 13 13 17 13 14 16 11 13
14 10 12 13 8 11 11 7 9 9 7 6 8 6 5
7 6 4 7 6 3 7 6 3 6 5 2 6 5 1
6 5 1 6 5 1 6 5 1 6 5 1 6 5 1
6 5 1 6 6 1 6 6 1 7 6 1 7 7 1
8 8 1 8 8 1 9 9 2 9 9 2 10 9 2
10 10 3 12 12 5 14 14 7 16 16 8 15 15 8
15 14 7 14 14 7 13 13 6 13 12 5 14 12 5
15 12 5 15 11 5 15 11 5 15 11 4 16 12 6
18 13 8 20 15 11 21 16 13 23 16 14 24 16 16
25 17 18 26 18 20 26 18 21 26 18 21 25 17 20
24 18 18 24 19 16 23 20 14 23 20 13 23 20 13
23 20 13 23 20 13 23 20 13 23 20 13 22 19 12
22 19 12 21 18 11 19 16 9 18 15 8 17 14 7
16 13 6 15 13 6 15 12 5 15 12 5 15 12 5
15 11 5 14 11 4 14 10 4 14 10 3 14 10 3
14 10 3 14 10 4 14 10 3 14 9 3 14 9 2
14 9 2 13 9 1 11 7 1 10 6 1 8 5 1
9 5 1 11 5 0 13 5 0 16 5 0 18 4 0
22 5 0 26 7 0 32 9 0 37 12 1 43 15 3
48 19 5 53 22 8 57 23 8 61 23 7 67 22 5
72 23 6 76 26 9 82 33 16 93 44 27 107 60 43
122 77 60 124 81 63 107 68 49 80 44 26 62 31 11
56 29 8 56 33 10 54 34 11 50 33 9 50 33 8
50 33 7 51 33 6 51 34 5 51 34 6 53 37 7
57 41 11 61 46 15 65 51 20 68 55 23 69 56 24
69 57 23 68 57 24 69 58 25 71 60 27 73 62 28
74 63 29 74 63 29 73 62 27 71 60 26 69 59 24
66 57 22 64 56 20 62 54 19 59 52 17 57 50 15
55 49 14 54 49 13 54 49 13 59 17 81 60 18 83
63 20 87 72 29 97 94 52 118 128 86 149 160 119 179
178 137 194 180 140 195 175 134 191 161 120 179 135 94 156
106 64 128 82 40 106 71 29 96 65 23 90 63 21 85
59 17 77 56 15 71 53 12 63 48 9 54 44 6 46
40 4 39 38 4 34 35 3 30 33 2 26 32 2 24
34 3 24 40 7 28 49 14 34 59 21 40 68 27 42
75 32 41 79 36 41 81 38 40 80 39 39 77 37 35
74 34 31 73 31 27 73 30 26 75 30 25 75 31 26
74 31 25 69 30 23 61 26 19 51 21 12 41 15 6
32 10 2 25 6 1 18 3 1 13 1 1 9 0 0
6 0 0 4 0 0 2 0 0 3 1 0 4 1 0
7 1 0 11 1 0 18 3 2 26 6 5 35 11 10
42 15 13 48 18 14 51 19 12 53 19 10 54 18 8
58 19 8 64 22 11 72 26 15 79 30 20 82 32 22
79 31 22 76 31 22 72 32 24 62 29 22 45 20 13
28 11 4 19 8 1 17 9 2 16 12 3 16 13 4
16 13 4 16 13 5 17 14 6 17 14 8 17 14 9
18 14 11 18 14 12 18 14 14 18 14 15 18 13 16
17 12 16 16 11 16 15 10 15 13 9 12 11 9 9
10 8 7 9 8 6 9 8 5 9 8 4 8 7 3
8 7 3 8 7 3 9 8 3 10 9 4 10 9 3
10 9 3 10 9 2 10 10 2 10 10 2 10 10 2
11 10 2 11 10 2 12 10 2 12 11 2 13 11 3
13 11 3 13 12 4 15 13 5 16 15 6 18 16 8
17 16 7 17 15 7 16 15 6 16 14 6 16 14 6
17 14 7 17 13 8 18 13 9 17 12 9 18 12 10
19 13 12 22 15 16 25 18 20 26 19 22 28 19 23
31 21 26 36 26 32 40 30 36 40 29 37 36 26 33
32 22 28 28 20 23 26 20 18 24 21 14 24 21 13
24 21 13 24 21 13 24 21 13 24 21 13 24 21 13
23 20 13 23 20 12 22 19 11 21 18 10 19 16 9
18 15 7 17 14 7 17 14 6 17 14 5 17 14 5
17 14 5 17 14 5 17 14 5 18 14 5 18 14 5
19 14 6 19 15 6 20 15 7 19 15 7 19 14 6
18 14 4 17 13 4 17 13 4 15 11 3 12 9 2
10 7 1 10 7 0 11 6 0 12 6 0 14 5 0
15 4 0 18 5 0 22 7 0 27 9 0 31 11 0
35 13 1 40 16 2 44 19 4 48 20 5 53 21 5
59 22 5 63 23 5 66 25 7 69 27 9 72 31 13
80 39 21 92 51 34 105 66 48 102 66 47 87 55 34
68 40 18 61 37 14 61 40 16 60 42 17 57 41 16
56 42 15 56 42 13 57 43 12 56 43 11 57 43 12
58 45 13 59 46 14 60 48 15 62 50 16 63 51 17
63 51 17 63 52 17 63 52 17 64 54 19 66 55 21
68 58 23 69 59 24 70 60 24 69 60 24 69 60 24
68 59 23 66 58 22 65 58 21 63 57 21 61 56 19
59 54 18 58 53 17 57 53 17 57 53 17 58 16 79
59 17 81 63 20 86 73 30 97 94 52 118 127 85 148
158 117 176 175 135 190 179 139 193 174 134 189 160 119 177
133 92 153 101 60 123 77 34 101 65 23 91 61 18 86
58 17 82 54 13 75 53 12 69 50 9 61 46 7 54
42 5 46 39 4 40 36 3 34 32 2 30 29 0 26
28 0 23 30 1 22 36 5 26 46 13 34 58 22 42
69 30 47 78 36 48 83 40 49 84 41 48 82 40 45
78 37 40 74 33 34 71 30 30 72 28 28 73 28 28
73 28 28 71 28 26 65 26 24 57 22 19 47 17 13
38 13 8 29 8 4 22 5 3 16 2 1 11 1 1
7 1 0 5 1 0 3 1 0 1 1 0 1 1 0
2 1 0 5 1 0 8 1 0 14 2 1 21 4 3
29 8 7 36 12 10 42 15 11 45 17 9 47 16 7
49 16 5 53 16 5 59 19 8 68 24 13 77 29 19
81 32 22 80 31 22 76 30 22 71 30 23 61 28 21
45 20 13 29 11 4 20 9 1 17 10 3 17 12 4
16 13 4 16 13 5 17 14 6 17 14 7 17 14 9
18 14 10 18 14 12 18 14 13 18 14 15 19 14 17
19 14 19 19 14 19 18 13 19 17 12 18 15 11 15
13 11 12 12 11 10 12 11 9 11 10 8 11 10 7
11 10 5 10 9 5 11 10 6 12 12 6 14 13 7
14 13 6 14 14 6 14 14 5 14 14 5 14 14 4
14 13 4 14 12 4 15 12 3 15 12 4 16 13 4
16 13 5 17 13 5 17 14 5 18 14 6 18 15 6
19 15 7 18 15 7 18 15 6 18 15 6 18 14 6
17 14 6 19 14 8 19 14 10 20 15 12 20 15 14
23 16 18 27 19 23 32 24 30 37 28 37 41 31 41
45 36 46 52 42 53 59 48 60 60 48 61 54 42 55
44 33 45 36 25 36 31 22 27 27 21 20 25 22 15
25 22 14 25 22 14 25 22 14 25 22 14 25 22 14
25 22 13 24 21 13 24 21 12 23 20 12 22 19 11
21 18 9 19 16 8 19 16 7 18 15 5 18 15 4
17 15 4 18 16 4 18 16 4 19 17 5 20 17 6
21 17 6 22 18 7 23 19 8 23 19 9 23 19 9
23 18 9 22 18 7 21 17 7 21 17 7 19 15 6
16 13 4 14 12 3 14 11 2 15 11 2 15 10 1
17 9 1 17 9 1 19 9 0 22 10 0 25 11 0
28 12 0 31 14 0 34 15 1 37 17 1 39 18 2
43 19 3 48 21 3 51 22 4 54 23 5 57 25 7
59 26 7 61 28 9 66 33 14 79 47 27 85 54 33
80 53 31 68 44 21 62 41 17 61 43 18 61 45 19
60 47 19 59 47 19 59 47 17 59 48 16 60 49 16
60 49 16 60 49 16 60 49 15 59 48 13 58 47 13
58 47 12 58 48 12 58 48 12 59 49 13 60 50 14
62 52 16 64 54 18 64 55 18 64 55 18 63 54 18
63 55 19 64 56 20 64 57 21 64 58 22 64 59 22
63 58 22 62 57 21 60 56 21 59 56 20 59 55 20
58 16 79 60 18 83 67 24 90 79 37 102 100 58 123
129 88 149 157 116 174 173 132 187 177 137 190 174 134 188
163 122 178 137 96 156 105 64 127 79 37 103 66 24 92
60 18 86 58 16 82 54 13 76 52 12 70 50 10 63
47 8 55 43 6 48 40 5 42 36 3 36 32 2 31
29 0 27 27 0 23 29 1 23 35 5 27 46 12 35
57 22 43 70 31 50 79 37 53 84 40 54 84 40 53
81 39 49 77 36 44 73 31 38 71 28 34 71 27 33
72 27 32 72 26 32 69 25 29 62 22 26 54 19 21
44 15 16 36 11 12 28 8 8 21 5 5 15 2 3
10 2 2 8 2 1 5 2 2 3 2 2 1 2 1
0 1 0 1 1 0 3 1 0 6 1 0 11 1 0
16 2 1 23 5 4 30 9 7 35 12 8 39 14 6
41 14 4 43 13 2 47 13 3 54 16 5 64 21 10
74 27 17 80 31 22 79 30 22 75 29 22 69 29 22
59 26 19 44 19 12 28 11 4 19 9 1 16 11 2
16 12 3 16 13 4 16 13 5 16 13 6 17 14 8
17 14 9 17 14 11 17 13 11 17 13 13 19 14 16
22 17 21 24 19 25 25 20 26 23 17 25 20 14 22
17 13 18 15 12 14 14 13 12 14 13 11 13 12 10
13 12 9 13 12 7 12 11 7 13 12 7 14 14 8
16 15 8 16 16 8 16 16 7 16 16 6 16 16 6
16 16 5 17 15 5 18 14 5 18 14 5 19 14 5
19 14 6 20 15 6 20 15 6 20 15 7 20 16 7
20 15 7 20 15 7 20 15 7 20 15 7 20 15 7
20 15 7 20 15 7 21 15 9 21 15 12 21 16 16
23 17 20 28 20 26 35 26 35 43 32 45 50 39 54
58 47 63 68 56 73 78 66 84 80 67 85 72 59 76
58 44 61 45 31 48 36 24 38 31 21 29 28 22 20
26 23 15 26 23 13 26 23 13 26 23 13 26 23 13
26 23 13 25 23 13 25 23 13 25 22 12 24 21 11
23 20 10 22 19 9 21 18 8 20 17 7 18 16 5
17 16 3 17 16 2 18 17 2 19 17 3 20 19 5
22 19 6 23 20 7 24 21 8 25 21 9 25 22 10
25 22 10 25 21 10 25 21 10 25 21 9 25 21 10
24 20 9 23 19 8 21 19 7 21 18 6 22 18 5
23 18 5 24 17 4 24 17 4 25 17 3 26 17 2
28 17 2 30 18 1 32 18 1 33 18 1 33 18 0
34 18 0 35 19 1 36 20 1 37 21 2 40 22 3
43 23 4 46 24 4 48 24 4 51 26 5 59 34 13
65 41 19 67 45 21 63 43 19 60 43 17 59 44 17
59 46 18 59 48 19 58 49 18 57 49 17 58 49 16
60 52 18 61 52 18 61 52 17 59 49 14 56 47 11
56 47 11 57 47 11 57 48 12 57 48 11 58 48 11
59 49 12 60 51 14 62 53 16 61 52 15 59 51 15
57 50 14 59 51 16 60 53 18 62 55 20 63 57 22
64 59 24 63 59 24 62 58 24 61 57 23 60 57 23
59 56 22 58 17 79 63 21 85 72 31 95 87 45 110
107 65 129 133 92 153 157 116 174 170 130 184 175 135 188
174 134 188 166 125 181 144 103 162 113 72 135 87 44 110
72 29 96 63 21 88 59 18 83 55 14 77 53 13 72
50 10 65 47 8 57 44 6 50 41 5 45 36 3 38
32 2 33 29 0 29 28 0 27 30 1 26 36 5 30
46 13 37 58 23 47 71 32 54 79 37 58 83 39 59
82 38 57 79 36 53 75 33 48 72 29 43 70 28 40
71 27 39 71 26 38 70 25 36 66 22 34 59 19 29
51 16 24 42 13 20 34 10 16 27 7 12 20 5 8
14 4 5 11 3 4 9 4 4 7 4 4 5 4 4
3 3 3 1 2 1 1 1 0 2 1 0 4 1 0
8 1 0 12 1 0 18 3 2 24 7 4 30 10 5
33 12 4 35 11 2 38 11 1 42 11 1 49 13 3
59 19 9 70 26 16 77 30 22 77 30 22 73 28 21
66 27 20 56 25 18 42 18 11 26 11 3 18 9 1
15 10 2 15 12 3 15 12 3 15 12 4 16 12 6
16 13 7 16 13 9 17 13 11 16 11 11 17 12 14
21 16 19 28 23 28 34 28 35 34 28 36 30 24 33
23 17 26 18 14 20 16 13 15 16 14 14 16 14 12
16 14 12 15 14 11 15 13 9 15 13 9 15 14 8
16 15 8 17 16 8 17 16 8 17 16 7 17 16 6
17 16 6 17 16 6 18 15 6 20 15 6 21 15 7
21 15 8 22 16 8 22 16 8 22 16 9 23 17 9
23 17 9 23 17 9 22 16 9 23 17 9 23 17 9
23 17 9 23 17 9 23 17 10 23 17 12 23 17 15
23 17 18 24 18 22 29 21 29 36 26 38 45 33 49
52 41 59 63 51 72 75 63 84 84 72 94 80 67 89
65 52 73 49 35 55 39 25 44 34 20 37 31 20 29
28 21 20 27 23 15 27 24 13 27 24 13 27 24 13
27 24 14 26 24 14 26 24 14 26 23 13 25 23 12
25 22 11 24 21 10 23 20 9 22 19 8 21 18 7
19 17 5 17 16 2 16 16 1 17 17 1 19 18 2
21 19 4 23 21 5 24 22 6 25 22 7 25 22 8
26 23 10 26 23 10 27 23 10 27 23 11 27 24 11
28 24 11 28 25 11 28 25 11 29 26 11 29 26 10
30 26 10 31 26 9 32 26 9 32 26 8 33 26 7
34 26 7 35 27 7 37 28 7 38 28 7 37 27 5
36 25 3 34 23 2 32 22 1 31 23 1 31 24 2
33 25 3 36 25 3 38 25 2 39 24 1 42 24 1
47 28 5 51 33 8 55 37 12 56 40 14 58 43 16
57 45 16 57 46 16 56 47 17 56 48 16 56 50 16
59 52 17 63 56 21 65 57 22 63 55 20 60 52 16
58 49 13 59 50 14 60 51 15 61 52 15 60 51 14
60 51 14 60 51 14 60 52 14 61 53 15 60 52 15
57 50 14 56 49 14 57 50 16 58 52 18 59 53 20
60 55 22 61 56 23 61 57 24 60 56 24 59 56 23
59 55 23 58 55 23 59 19 77 65 25 85 76 36 97
90 49 112 107 66 129 129 88 150 151 110 170 165 125 182
171 131 186 173 133 188 169 129 185 154 113 171 128 87 147
100 59 122 81 39 103 68 26 92 61 20 85 55 15 79
52 12 73 49 9 66 46 7 60 43 6 54 41 5 49
38 4 44 34 2 40 31 1 35 30 0 32 32 1 32
37 5 35 48 14 43 59 24 53 70 32 60 77 36 64
80 37 65 80 36 64 77 34 60 74 32 55 72 30 52
71 29 50 71 28 48 70 27 45 67 24 42 62 21 38
55 17 33 47 13 27 39 10 22 33 8 19 26 7 15
20 6 12 15 6 9 13 6 9 12 7 9 10 7 9
8 6 7 6 5 5 3 3 3 2 1 1 2 1 0
4 1 0 6 1 0 9 1 0 13 3 1 18 6 2
23 9 3 27 10 3 29 10 2 31 9 1 35 9 1
42 11 3 52 17 9 64 25 18 73 31 25 74 31 25
70 29 23 63 26 20 52 23 16 39 17 9 25 11 3
17 8 0 15 9 1 15 11 2 16 11 3 16 11 5
16 12 6 16 12 8 16 12 9 17 12 11 17 11 12
18 11 15 24 17 23 37 30 37 48 41 49 49 41 51
40 32 43 29 22 33 23 18 25 21 17 21 21 18 18
20 17 16 19 16 15 18 15 13 18 14 12 18 14 11
17 14 10 17 15 9 17 15 8 17 15 7 18 15 7
18 15 7 19 15 6 19 16 6 20 16 7 21 15 8
22 15 9 22 15 9 23 15 10 23 16 10 24 16 11
24 17 12 24 17 12 25 17 12 25 18 12 26 19 13
26 19 13 27 19 12 27 19 12 27 19 12 27 19 14
27 19 17 26 19 21 27 19 24 29 21 28 33 24 35
38 28 42 43 32 49 51 40 59 60 49 69 66 54 76
60 48 70 49 36 57 39 25 45 34 20 39 32 19 35
31 19 29 29 21 20 28 23 15 28 23 13 28 23 13
27 23 14 27 23 14 27 23 14 27 24 15 27 24 14
27 24 14 26 24 12 25 23 11 24 22 10 23 21 9
23 21 8 21 19 5 19 18 3 18 17 1 19 18 1
20 19 1 22 20 2 23 21 3 24 22 4 25 23 6
26 23 7 27 24 9 28 24 9 28 24 10 29 25 10
30 26 11 31 27 12 32 28 12 32 29 12 33 30 12
33 30 11 34 31 11 36 32 12 38 33 12 39 34 12
40 35 12 41 36 12 44 38 13 46 39 14 48 40 14
47 40 13 46 38 11 44 36 10 42 36 9 40 36 10
40 37 10 41 37 11 42 36 10 42 34 8 42 32 6
43 31 5 46 32 6 48 34 7 51 37 10 54 41 13
57 45 15 58 47 16 57 47 16 57 48 16 57 50 16
59 53 18 62 56 19 65 58 22 66 59 22 65 57 21
63 54 18 61 53 16 62 53 17 63 54 18 64 54 18
63 54 17 62 53 16 61 53 15 60 53 15 60 53 16
58 51 16 56 49 16 54 48 16 54 48 16 54 48 17
55 49 18 55 50 19 56 51 20 56 51 21 55 51 21
54 51 20 54 50 20 53 50 19 58 20 74 64 26 81
73 35 92 84 44 105 96 57 119 115 74 138 135 95 157
153 113 173 163 123 182 170 130 187 170 130 187 163 123 180
145 105 163 121 81 140 99 58 119 80 39 102 68 27 91
58 18 83 53 14 76 49 10 70 47 8 65 45 7 61
43 6 57 41 5 53 37 3 48 35 1 44 33 0 41
35 2 41 41 7 45 51 16 53 62 26 62 70 32 68
75 34 71 77 35 72 77 35 71 76 34 68 75 33 66
74 33 64 72 31 60 69 28 56 66 25 51 62 22 47
57 19 42 50 15 36 43 11 30 37 8 26 33 7 23
27 7 20 22 8 17 17 8 15 16 9 14 15 10 14
14 9 13 12 8 11 10 7 9 7 4 5 5 2 3
3 1 1 4 1 0 6 2 0 7 2 0 10 3 0
13 5 1 17 8 3 21 9 3 23 9 4 25 8 3
28 8 3 35 10 5 45 15 11 57 24 20 67 31 28
70 32 29 65 28 25 57 24 19 47 20 14 36 14 8
24 10 3 18 8 1 16 9 2 17 10 3 17 10 4
17 10 5 16 11 7 16 12 8 17 12 10 18 11 12
19 11 14 20 11 17 28 19 27 44 35 44 58 48 59
58 48 60 46 37 49 34 25 37 28 21 31 26 20 26
25 20 23 24 19 20 22 18 18 21 16 16 21 15 14
20 15 13 20 14 11 19 14 10 19 13 8 19 14 8
19 14 7 20 14 7 20 14 7 21 14 7 20 14 7
20 13 7 20 12 8 21 13 9 22 14 11 22 15 12
24 16 13 24 16 14 25 17 15 25 17 15 26 18 15
26 19 15 27 19 15 28 20 15 29 20 15 29 21 15
30 21 17 30 21 19 29 21 21 28 20 23 28 20 25
29 21 28 31 23 32 33 24 36 36 28 42 40 31 47
42 33 50 41 31 48 37 26 43 34 22 38 33 21 37
32 20 34 31 20 28 30 21 20 30 22 16 29 22 14
29 22 15 28 23 15 28 22 16 28 22 16 28 23 16
28 24 16 28 25 16 28 24 14 27 24 12 26 23 11
25 23 10 24 22 8 23 22 6 22 21 4 22 20 3
23 21 2 23 21 3 24 22 3 25 22 4 25 23 4
26 24 6 28 25 7 29 25 8 30 25 8 30 25 8
31 26 9 32 27 10 33 28 11 34 30 12 34 31 11
34 32 10 34 32 9 36 33 10 40 36 12 43 38 14
44 40 14 45 41 14 47 43 15 50 45 17 53 48 19
55 50 20 56 50 20 55 50 18 54 49 18 54 50 18
53 50 18 54 51 19 54 50 19 54 49 17 52 46 15
51 43 12 51 41 11 52 41 11 52 41 11 54 42 12
56 44 14 59 47 17 60 49 18 60 49 18 60 50 18
62 53 19 63 57 20 65 59 21 66 59 21 66 58 21
66 57 21 66 56 20 65 55 19 65 54 18 65 54 18
64 53 18 63 53 18 62 53 17 60 52 16 58 51 15
57 50 15 55 48 15 53 46 15 51 45 15 51 44 15
50 44 15 50 44 15 50 44 16 51 45 17 51 46 17
50 46 17 49 46 17 48 45 16 48 44 15 55 18 69
60 22 74 65 27 83 70 32 91 79 40 102 95 55 119
114 75 138 136 96 159 152 112 173 162 123 182 166 126 183
165 126 182 157 118 174 141 101 158 120 80 138 97 57 118
79 40 102 66 27 90 58 19 82 53 14 76 51 13 72
49 11 69 47 10 65 45 8 61 41 5 56 38 3 52
37 2 50 40 4 50 46 10 55 55 20 63 64 28 71
70 32 75 73 33 77 74 33 77 75 33 77 78 36 78
82 40 81 82 40 79 77 36 73 69 29 64 63 24 57
58 21 51 53 17 45 47 14 39 41 10 34 37 7 29
33 7 27 29 7 24 24 9 22 21 11 20 20 12 20
20 12 20 19 11 18 17 10 16 15 8 13 12 6 9
9 4 6 8 3 4 7 3 3 8 3 2 8 3 1
9 4 1 9 4 0 13 6 2 16 7 4 19 8 6
20 7 5 23 7 5 28 8 7 37 13 12 50 21 21
61 29 30 64 31 31 60 26 26 51 20 18 41 15 12
32 10 6 24 8 3 20 8 2 19 9 3 19 10 5
18 9 5 18 10 7 17 11 8 17 11 9 18 11 11
19 11 13 20 11 16 22 12 19 32 21 29 48 36 47
61 49 61 59 48 61 46 35 49 35 25 39 31 22 34
30 23 31 29 23 27 27 22 24 26 19 21 24 18 18
23 16 17 22 15 15 22 15 13 21 14 12 21 14 11
21 14 10 22 14 10 22 14 9 23 14 9 23 14 8
21 13 8 21 13 8 20 12 9 20 12 10 20 12 11
21 13 12 23 15 15 26 17 18 28 19 20 28 20 20
28 19 18 27 19 17 27 19 16 29 20 17 31 21 17
32 23 18 32 23 18 31 22 19 31 21 20 30 21 21
29 22 23 29 22 25 28 22 26 28 22 28 29 23 31
30 23 33 31 24 35 31 23 34 31 22 33 31 21 32
31 21 32 31 20 29 31 20 25 31 21 19 30 22 16
30 22 15 30 22 15 29 22 15 28 22 15 28 21 15
28 22 16 29 23 16 29 25 17 28 24 15 28 24 13
27 24 11 26 24 10 26 24 9 26 24 8 27 25 7
28 26 7 28 25 6 28 25 6 28 25 6 28 25 6
28 25 6 30 26 7 31 27 8 32 27 9 31 26 8
31 26 8 32 26 8 33 27 9 34 29 10 35 31 11
34 31 9 33 31 7 34 31 7 37 34 9 41 38 12
46 42 15 48 44 16 49 45 16 50 46 16 52 48 18
56 51 20 59 54 22 60 55 22 61 56 22 62 57 23
63 59 25 64 60 26 64 59 25 63 58 24 62 56 23
60 54 21 59 52 19 59 50 18 59 49 17 59 49 17
60 50 18 61 51 19 63 52 20 63 52 20 65 53 21
65 54 22 67 57 23 66 59 22 66 59 21 64 57 18
64 55 17 64 55 18 66 55 19 66 54 19 64 52 17
63 50 16 61 49 15 60 50 15 59 49 15 57 48 14
54 46 12 52 45 11 49 43 11 47 41 12 46 39 12
46 39 12 45 39 12 45 39 12 45 39 12 46 40 13
46 41 14 46 42 14 46 42 14 44 40 13 43 39 12
51 15 64 53 16 67 55 18 72 59 21 80 68 29 92
84 44 109 102 63 127 124 84 147 141 102 163 156 116 176
162 123 180 164 125 181 162 123 178 155 116 171 141 102 159
119 80 139 99 60 121 81 43 104 70 32 93 63 25 85
60 22 82 58 20 78 53 15 72 49 12 67 45 8 62
44 7 59 44 7 58 47 10 60 53 16 65 60 24 72
67 30 77 70 32 80 71 31 80 70 29 79 72 30 79
80 37 86 90 47 94 91 49 94 81 40 82 68 28 69
61 22 60 56 19 54 51 16 49 47 13 44 42 10 39
38 8 35 34 7 32 31 8 29 27 10 27 24 13 26
23 13 25 22 13 24 21 12 22 19 10 19 18 9 16
16 8 13 15 7 11 14 7 10 12 6 8 12 6 6
11 5 4 10 5 3 10 4 3 13 6 5 15 6 7
18 7 9 19 5 8 21 5 8 25 6 9 33 9 13
44 17 21 54 24 29 57 25 30 53 21 25 45 15 18
36 10 11 29 7 7 24 6 4 22 8 5 21 10 7
21 10 7 20 10 7 19 10 8 19 11 9 18 11 10
19 11 13 19 11 14 22 12 18 26 15 23 36 24 34
48 36 47 55 42 56 51 38 53 40 28 44 33 22 37
30 20 33 29 21 30 28 22 28 27 21 25 27 20 23
25 18 21 24 16 19 23 15 16 23 15 15 23 15 14
24 15 14 24 15 13 24 14 12 24 14 11 23 14 10
23 14 10 22 13 9 21 13 10 20 12 10 19 11 9
19 11 10 21 12 12 26 17 19 33 24 26 38 29 31
38 29 30 34 25 25 29 21 20 28 19 18 30 20 18
32 23 19 34 25 20 33 24 19 32 22 18 30 21 17
29 21 18 28 21 19 28 21 21 27 21 22 26 21 24
27 22 26 27 22 27 28 22 28 28 21 27 28 21 27
29 20 26 30 20 26 30 20 24 31 20 21 31 21 17
31 22 15 31 22 14 30 22 14 29 21 14 28 21 15
28 21 14 28 22 15 28 23 15 28 24 15 28 24 13
27 24 12 26 24 10 26 24 9 25 24 7 28 26 8
30 28 9 33 30 11 33 30 11 33 30 11 33 30 11
33 30 11 33 30 11 33 30 11 33 29 10 33 28 9
32 27 8 32 27 8 32 27 8 33 28 9 34 29 10
34 30 10 34 31 8 34 31 7 35 32 7 38 35 9
43 39 13 47 43 15 50 46 17 50 46 17 51 47 17
52 49 17 56 51 20 58 53 20 59 54 20 59 55 20
61 57 22 62 58 23 63 59 24 64 59 25 63 58 24
62 56 22 61 55 21 60 53 19 60 52 18 60 51 18
60 51 18 61 51 19 62 51 19 62 51 19 63 52 20
65 53 21 65 54 21 67 56 22 65 58 20 64 57 19
63 56 16 63 55 17 64 55 18 66 55 19 66 54 19
65 52 17 63 50 15 60 48 14 58 47 13 56 46 12
53 43 10 49 41 8 45 38 6 42 36 5 41 34 6
41 34 7 42 35 9 42 36 10 43 36 10 43 37 11
43 37 11 43 38 12 43 39 12 43 39 12 42 38 11
40 36 9 46 11 59 47 11 61 49 12 66 54 17 75
65 28 89 82 43 108 99 60 125 116 77 140 132 93 154
148 109 168 158 119 176 163 124 179 164 125 179 162 123 178
156 117 173 140 102 159 123 84 142 104 66 124 91 53 111
83 45 102 78 41 98 73 35 92 65 27 83 58 20 75
53 16 70 52 15 68 52 15 67 54 17 69 58 21 73
62 25 77 66 28 80 68 29 82 69 28 82 68 26 81
71 28 82 83 39 93 97 54 106 100 57 107 86 44 92
70 29 75 61 21 65 56 19 59 52 16 54 47 13 49
44 11 45 41 10 42 37 9 39 34 11 36 31 13 34
28 15 32 27 14 30 26 13 28 24 12 26 22 11 23
21 10 21 20 9 19 20 10 17 19 10 16 18 9 14
17 9 13 16 8 11 15 7 10 15 7 9 16 7 10
17 6 12 19 6 13 20 5 13 22 4 13 24 4 12
29 6 15 38 12 22 47 18 28 51 20 30 47 16 26
41 11 20 34 7 14 28 6 11 25 6 10 24 9 11
24 11 11 23 11 11 22 11 10 21 12 10 21 12 11
20 12 12 20 12 14 20 12 16 24 14 20 30 20 27
41 29 39 49 36 48 50 36 50 43 30 45 36 24 40
32 20 36 30 20 33 29 20 30 28 20 28 28 20 26
28 20 25 27 18 23 26 17 21 25 16 19 25 16 18
25 16 17 26 17 17 26 16 15 26 16 15 25 15 14
25 15 13 24 15 12 24 14 12 23 14 12 23 14 12
23 14 13 24 15 15 29 20 21 39 29 32 51 41 44
55 46 48 52 43 45 42 33 34 34 26 25 31 22 21
31 22 20 33 24 21 34 25 21 32 24 19 30 22 17
28 20 15 28 20 16 27 21 16 27 21 18 26 21 19
25 21 20 25 21 20 24 20 21 24 20 21 25 20 21
26 19 20 27 19 20 28 19 20 28 20 19 30 21 17
31 22 15 31 23 14 31 22 13 30 22 13 29 21 13
28 21 13 28 21 12 27 21 13 27 22 13 27 23 13
27 23 12 26 23 11 26 23 9 25 24 8 25 24 6
28 27 8 32 30 10 35 33 13 35 33 13 35 33 13
35 33 13 35 33 13 35 33 13 35 32 12 35 30 11
34 29 9 33 28 8 32 27 8 32 27 8 33 28 9
34 29 9 35 31 10 35 31 9 35 32 7 36 32 7
38 34 9 42 38 12 46 42 14 48 44 16 49 45 15
50 46 16 52 48 16 54 49 18 55 51 18 56 51 17
56 52 17 58 54 19 60 56 21 61 57 22 61 57 22
61 56 21 60 54 20 59 53 19 59 52 18 59 51 18
59 50 17 58 49 16 58 48 16 58 47 15 58 47 15
58 47 15 60 48 16 60 49 16 62 52 17 62 54 17
62 55 17 61 54 15 63 54 16 64 55 18 66 55 19
66 54 19 65 52 17 63 50 16 60 48 14 58 47 12
54 45 10 51 41 8 46 38 5 42 35 2 38 32 1
37 30 2 37 30 4 39 32 6 41 34 8 41 35 9
41 35 9 41 35 9 41 35 9 40 36 9 40 36 9
38 34 7 37 33 6 44 10 57 44 9 58 46 11 64
54 18 75 67 31 92 83 45 109 96 57 122 105 67 130
116 78 138 131 92 150 145 107 163 155 117 172 160 122 176
163 124 178 162 123 178 155 117 172 144 106 161 129 92 146
118 81 136 112 74 129 107 70 124 99 62 117 87 49 104
76 39 93 70 33 87 68 31 85 66 29 83 64 27 81
64 27 81 64 27 81 66 29 83 70 31 87 74 33 91
75 32 91 78 34 94 92 48 107 108 64 122 111 67 123
96 53 107 79 37 88 69 28 77 63 25 71 57 20 64
52 17 58 49 15 55 47 15 53 44 15 50 41 17 47
37 18 43 35 19 40 32 18 37 31 16 35 28 15 32
27 13 30 26 13 27 25 13 26 24 13 24 24 13 23
23 13 21 23 12 20 22 12 19 22 12 18 22 12 18
22 11 19 22 9 20 22 8 21 23 7 21 24 6 20
25 5 19 28 5 20 35 9 25 43 14 30 47 17 32
45 15 30 40 11 25 35 8 21 31 7 18 28 8 17
27 10 17 27 12 16 26 13 15 25 14 14 24 14 13
23 14 14 23 14 15 23 14 17 23 14 18 26 16 22
34 23 31 45 32 43 50 36 49 47 33 47 39 26 42
35 22 39 32 20 36 31 20 34 30 20 31 29 20 29
29 20 28 29 20 27 29 20 26 29 20 26 29 20 25
30 20 24 30 20 23 30 20 22 29 19 20 29 19 19
28 18 18 28 18 17 27 17 16 27 17 16 27 17 16
27 18 17 29 20 19 33 24 25 42 32 34 54 44 47
67 56 60 67 57 61 60 50 53 46 37 38 37 29 29
33 24 23 32 23 21 33 24 21 33 25 21 31 23 17
29 21 14 27 20 12 27 20 13 26 20 14 25 20 14
24 21 15 24 21 16 23 20 15 22 19 15 22 18 14
22 18 14 24 18 14 25 19 14 27 20 15 28 20 14
29 22 14 31 23 13 32 24 13 31 23 12 30 22 12
29 22 12 28 21 11 27 20 10 26 21 10 26 21 10
25 21 10 25 22 10 25 22 9 25 23 7 25 24 6
25 24 5 28 27 7 31 29 9 34 32 12 34 32 12
34 32 12 34 32 12 34 32 12 34 32 12 34 31 11
34 30 10 34 29 9 33 28 8 32 27 8 33 28 8
34 29 9 35 30 10 37 32 11 37 33 10 37 33 9
37 33 8 38 34 8 41 37 10 43 39 11 44 40 12
46 42 12 48 43 14 50 46 15 51 47 15 52 47 14
52 47 13 52 48 13 54 50 15 56 52 17 58 54 19
59 54 20 59 54 19 59 53 19 58 52 18 58 51 18
59 51 17 58 49 16 56 47 14 54 45 12 53 43 11
53 42 10 53 42 10 54 42 10 55 44 11 58 47 13
59 51 14 60 53 15 60 53 14 62 54 16 64 55 18
66 55 19 66 54 19 65 52 18 64 51 17 62 50 15
59 48 14 56 46 12 52 42 9 47 39 5 42 35 3
38 32 1 37 30 2 37 30 3 39 32 6 40 33 7
41 34 8 40 34 8 40 34 8 39 34 8 38 34 7
37 33 6 35 31 4 34 30 3 41 9 54 42 9 56
46 12 63 56 21 77 69 33 93 79 43 106 85 48 111
87 49 112 93 55 115 104 67 124 121 84 139 137 99 153
149 111 164 157 119 172 162 124 178 161 124 178 157 119 172
148 111 164 143 106 159 141 104 156 138 101 154 129 92 145
114 77 131 101 64 118 94 57 111 91 54 108 86 49 104
79 42 98 73 36 92 71 33 90 73 35 92 80 41 100
89 47 109 93 49 113 97 52 116 109 64 127 125 79 141
127 82 143 113 69 127 97 54 110 86 45 98 78 39 89
69 31 79 62 25 71 57 23 66 55 22 64 53 23 61
49 23 58 45 24 53 42 24 49 39 23 46 37 20 43
35 18 40 33 17 38 32 17 36 31 16 34 30 16 32
29 15 30 29 16 29 29 16 28 29 17 27 30 17 27
30 17 28 29 15 28 28 13 29 27 11 29 28 11 30
28 10 29 28 8 27 29 6 27 34 9 29 41 14 35
46 18 38 47 18 38 43 14 34 37 11 29 34 9 26
32 10 25 31 12 24 30 13 22 29 15 19 29 17 18
28 17 17 27 17 18 26 17 19 26 16 20 25 16 21
28 17 25 37 25 34 47 33 44 50 36 48 45 31 46
39 25 41 36 23 40 34 22 38 33 21 36 32 22 34
32 22 33 32 22 31 32 22 31 33 23 31 35 25 33
37 28 34 38 28 34 38 28 32 37 27 30 37 26 28
35 25 26 34 23 24 33 22 22 31 21 21 31 21 21
32 21 21 33 23 23 37 27 27 43 33 35 51 41 44
61 50 54 69 58 62 65 54 58 56 46 50 43 34 36
37 28 29 33 25 24 32 24 22 32 25 21 32 25 20
30 23 16 28 21 12 26 19 10 25 19 10 24 20 11
24 20 11 23 20 12 23 20 12 21 19 11 20 18 10
20 17 9 21 18 9 22 19 10 24 20 10 26 21 10
27 21 10 30 23 11 31 24 11 32 25 11 32 24 11
30 23 11 29 22 10 27 21 9 27 20 8 25 20 8
25 20 8 24 20 8 24 21 7 24 22 7 25 23 6
24 23 5 25 24 4 27 26 6 29 27 7 31 29 8
31 29 8 31 29 8 31 29 8 31 29 8 31 29 8
32 29 8 32 28 8 33 28 8 32 27 7 32 27 7
33 28 8 35 30 10 37 32 11 39 34 13 40 35 12
40 35 11 38 34 9 38 34 9 40 36 9 41 37 9
41 37 9 44 39 10 46 42 12 49 44 14 50 45 13
49 44 11 49 44 10 50 45 10 51 47 12 54 50 15
56 52 17 58 53 19 58 53 19 59 53 19 59 53 19
59 52 18 60 52 18 59 50 17 57 48 15 55 45 12
53 42 10 51 40 8 51 40 8 52 40 8 53 42 9
56 45 11 57 49 12 58 51 13 59 52 13 62 53 15
65 55 18 66 55 20 66 54 19 66 53 18 65 52 17
63 51 17 61 50 16 58 48 14 54 45 11 50 42 8
46 39 6 41 35 4 39 33 4 38 31 5 39 32 6
40 33 7 40 34 8 40 34 8 40 34 8 39 34 7
38 33 7 36 32 5 34 30 3 33 29 2 40 8 53
41 8 56 46 12 64 57 22 78 68 33 93 75 39 101
75 38 101 72 34 97 73 36 96 83 45 102 99 61 116
118 80 133 136 98 151 150 112 165 159 121 175 162 125 179
162 124 177 158 121 173 158 121 172 159 122 174 158 121 173
149 112 165 133 96 150 120 83 137 113 76 130 109 72 127
102 65 120 92 54 111 82 45 102 78 40 99 81 42 101
92 52 113 104 61 126 111 67 133 115 70 136 126 81 146
139 94 158 141 96 159 129 85 145 114 71 129 104 62 117
93 53 106 80 42 92 70 34 81 64 29 74 61 28 71
58 28 68 55 28 65 51 28 60 48 28 56 44 26 52
42 23 49 39 21 45 38 20 43 37 20 42 36 19 39
34 19 37 33 18 35 33 18 34 34 19 33 34 20 33
34 20 33 34 21 33 33 19 34 32 16 34 32 15 35
32 15 36 32 13 35 30 10 33 30 8 32 34 9 33
41 15 39 47 20 43 49 21 44 45 17 39 39 13 34
36 11 30 34 12 29 33 13 28 33 15 25 32 17 22
31 19 21 30 19 20 29 19 21 28 19 21 28 18 23
27 17 24 30 18 27 37 25 34 47 33 44 49 35 48
45 30 45 39 26 42 37 24 41 35 22 39 34 22 38
34 23 36 35 25 36 34 24 34 35 24 34 37 26 35
41 30 38 44 34 41 46 35 42 46 35 41 45 34 39
44 33 36 42 31 34 40 28 31 38 26 28 36 25 26
36 25 25 36 26 26 38 28 29 42 32 33 48 37 39
54 43 46 58 47 52 60 49 54 54 44 48 48 37 41
39 29 32 36 26 28 33 25 25 33 24 23 33 25 22
32 25 21 30 23 16 27 21 12 25 19 8 24 19 9
23 19 9 23 20 9 22 20 10 21 20 10 20 19 9
19 18 7 18 17 7 20 18 7 22 19 7 24 20 7
26 21 7 27 22 8 30 24 9 32 25 10 33 26 11
32 24 10 30 23 10 29 22 9 27 21 8 26 20 7
25 20 7 24 20 7 23 20 7 24 20 6 24 21 5
24 22 4 24 23 4 24 23 3 26 25 4 28 26 5
29 27 6 29 27 6 29 27 6 29 27 6 29 27 6
29 27 6 30 27 6 31 27 6 32 27 7 32 27 7
32 27 7 34 29 9 36 31 11 38 33 12 41 36 14
42 37 14 41 37 13 39 35 10 39 35 9 40 36 9
40 36 8 40 36 8 43 38 9 46 41 12 49 44 13
49 44 13 48 43 10 48 42 9 48 43 9 50 45 11
54 49 14 56 52 17 58 54 19 59 54 19 59 53 19
60 54 20 60 53 20 61 53 20 61 52 19 59 50 17
57 47 14 54 44 12 52 41 9 52 41 9 53 41 9
54 43 10 56 45 11 56 48 11 57 50 12 58 51 12
62 53 15 65 55 18 67 56 20 66 54 19 66 53 18
65 52 18 64 52 18 62 51 17 59 50 15 56 47 13
52 44 11 49 42 9 44 38 7 42 35 6 40 33 6
39 32 6 39 33 7 39 33 7 39 33 7 40 34 8
39 34 8 38 34 7 37 33 6 35 31 4 33 29 2
