P3
# Generado por NetPBM Image Processor - Diseno 1
236 295
255
8 0 0 9 0 0 10 0 0 10 1 0 11 2 0
12 3 0 14 3 0 14 3 0 14 3 0 15 3 0
17 4 0 19 5 0 20 6 0 22 7 0 23 8 1
23 10 2 23 13 3 23 14 4 22 14 3 23 13 3
24 12 3 25 12 2 25 11 1 27 12 1 30 12 2
31 13 4 33 12 6 34 12 8 36 11 12 38 11 16
39 11 20 41 10 25 44 11 32 50 14 39 54 17 41
54 15 38 52 13 32 51 12 29 54 14 30 60 19 35
65 23 41 69 28 50 78 37 63 88 47 78 95 54 91
97 56 98 91 52 97 79 41 92 68 32 91 64 29 92
61 28 90 53 22 79 45 17 65 42 16 52 40 16 39
39 18 27 38 18 18 36 16 12 36 16 10 37 15 10
38 15 10 40 16 11 42 17 11 45 18 11 48 18 10
51 18 9 58 19 11 69 26 17 82 36 25 93 45 32
99 50 35 102 52 35 104 52 34 106 52 34 107 51 34
105 47 31 98 41 26 92 37 22 92 40 25 95 46 33
95 47 38 94 47 47 111 64 77 146 99 126 175 128 168
183 136 185 183 136 189 182 137 191 181 137 191 181 138 191
181 140 193 183 142 195 186 144 197 188 145 198 189 147 200
188 146 203 185 145 207 182 143 209 173 136 204 154 117 187
130 94 164 113 79 149 103 71 143 98 67 140 97 67 142
95 67 143 92 66 144 91 66 146 92 69 150 94 73 155
95 74 156 96 74 157 98 74 158 100 75 159 100 75 159
100 75 159 99 75 159 99 75 159 99 74 158 99 74 159
99 75 160 100 76 163 101 78 167 103 79 170 103 79 172
103 79 174 103 79 174 103 78 175 105 77 178 106 78 179
106 78 179 106 78 178 107 79 179 107 79 179 107 79 179
108 80 180 110 82 180 110 83 180 110 83 180 110 83 180
110 83 179 110 83 178 110 83 178 110 83 180 110 84 182
111 84 184 111 85 184 112 85 185 113 85 187 115 86 188
117 86 190 118 86 191 119 86 192 120 86 191 122 87 190
124 89 188 123 89 183 128 94 183 143 109 193 168 131 212
191 150 231 203 158 239 206 161 242 207 162 242 207 160 240
205 157 237 204 156 234 202 153 230 200 149 225 198 147 222
198 146 220 197 145 219 197 145 218 198 146 218 200 147 219
202 149 220 203 151 221 204 153 222 204 153 222 206 155 223
207 156 224 209 158 225 210 159 226 211 160 227 212 161 228
214 163 230 216 165 232 216 165 232 215 164 231 214 163 230
213 162 229 215 163 230 218 164 231 219 165 232 220 165 231
219 164 229 216 163 227 213 161 226 211 159 225 208 156 224
207 154 224 208 154 223 209 155 218 202 149 203 178 127 169
143 93 124 118 68 89 109 59 72 107 57 64 107 57 61
106 58 60 95 51 52 74 35 35 52 19 17 39 10 6
32 9 3 28 7 2 25 6 0 23 6 0 21 5 0
20 5 0 20 5 0 21 6 1 30 16 12 55 40 39
80 64 66 94 74 77 100 73 77 102 70 75 102 63 68
91 45 51 78 26 32 77 21 26 84 25 30 91 30 34
96 36 38 9 0 0 9 0 0 10 1 0 11 1 0
12 3 0 13 3 0 14 3 0 14 3 0 15 3 0
16 4 0 18 5 0 19 6 0 21 6 0 22 7 0
23 8 1 23 10 2 23 13 3 23 14 3 22 14 3
23 13 3 24 12 3 25 12 3 26 12 2 28 11 2
30 12 3 31 12 5 32 12 7 35 11 10 37 11 14
38 11 18 39 10 22 41 10 27 46 12 35 56 19 46
61 22 50 58 19 44 54 15 37 53 13 33 57 16 35
64 22 42 72 29 51 80 38 63 91 49 79 102 60 95
109 67 107 110 69 113 105 64 112 92 53 106 78 41 101
69 34 98 65 30 94 59 26 85 53 23 73 48 21 58
43 19 42 41 19 29 39 18 18 37 16 12 37 15 11
38 15 10 39 15 10 41 16 11 43 17 11 46 18 11
48 19 10 52 18 10 58 20 12 69 26 17 82 36 25
93 45 32 99 50 35 102 52 35 105 52 34 107 52 34
108 51 34 105 48 31 99 41 26 93 37 23 93 40 26
96 46 33 96 48 39 96 48 49 112 64 78 148 100 127
176 128 168 184 137 185 184 137 190 183 138 192 182 139 192
182 140 193 183 142 194 185 144 196 188 145 198 190 147 200
191 148 202 189 148 205 187 147 209 185 145 212 180 141 210
165 128 197 145 109 178 129 94 164 118 85 156 109 78 151
103 73 148 99 71 147 95 69 147 93 69 148 94 71 152
96 73 156 97 75 158 98 75 159 101 76 160 103 76 161
103 76 161 102 76 160 101 76 160 101 76 160 100 76 160
100 75 160 100 75 161 101 76 164 103 79 168 105 80 172
106 81 174 105 80 175 105 79 175 105 78 176 106 78 178
106 78 179 107 79 179 107 79 179 108 80 180 108 80 180
108 80 180 109 81 180 110 83 181 111 84 181 111 84 181
111 84 181 111 84 180 111 84 180 111 84 180 111 84 181
112 84 183 112 85 185 113 85 185 114 85 186 115 86 188
117 86 190 118 86 190 120 87 192 121 87 192 122 87 192
124 89 191 127 91 189 127 92 185 132 97 186 147 112 196
170 132 214 192 150 230 202 157 238 205 160 240 206 160 240
204 158 237 202 155 234 201 153 231 200 151 227 199 148 224
198 147 222 198 146 220 197 145 219 197 145 218 199 146 219
200 148 220 202 150 221 204 152 222 204 153 223 205 154 224
207 156 225 209 157 226 210 159 227 211 160 228 212 161 229
214 163 230 216 165 232 217 166 234 217 166 233 215 164 232
214 163 230 213 162 230 214 163 230 216 163 231 218 164 232
218 164 231 217 163 229 215 162 227 212 160 225 210 157 224
208 155 223 207 153 222 206 152 218 200 146 206 184 131 182
158 107 146 130 80 108 114 65 84 112 62 73 110 60 66
107 57 60 100 53 55 87 44 45 68 29 29 49 15 13
37 8 4 31 8 2 28 7 1 25 6 0 23 6 0
21 5 0 20 5 0 21 6 0 22 7 1 31 16 12
56 40 40 82 65 67 96 75 78 101 75 79 104 71 76
105 65 71 96 50 56 83 32 38 80 24 30 85 27 31
92 32 36 97 36 39 10 0 0 10 1 0 11 1 0
12 2 0 13 4 0 14 4 0 15 4 0 15 4 0
16 4 0 18 5 0 19 6 0 20 7 0 22 7 0
23 8 1 24 9 2 23 11 2 23 13 2 23 14 2
23 13 3 24 13 3 25 13 3 26 12 3 27 12 3
28 11 3 30 11 4 31 11 6 33 11 9 35 10 13
37 10 17 38 10 21 39 9 25 42 9 30 49 13 41
63 24 56 69 29 61 65 24 54 58 17 45 57 14 41
61 18 45 72 28 55 84 40 69 98 54 85 111 67 103
122 79 119 127 84 129 128 85 133 123 81 132 111 70 126
94 55 117 80 42 108 72 36 101 69 35 94 65 33 83
56 28 65 47 22 45 42 19 29 40 18 19 39 16 13
39 16 11 39 15 11 41 15 11 43 16 11 45 17 11
47 19 11 49 19 11 53 19 10 59 20 12 70 27 18
83 37 26 94 46 33 100 51 36 103 53 36 105 52 35
108 52 35 109 51 35 106 48 32 100 42 27 94 39 24
94 42 27 97 47 35 97 49 41 97 49 50 114 65 79
149 101 128 178 129 169 185 137 186 185 138 191 184 139 193
184 140 194 184 141 194 185 143 196 187 145 198 190 147 200
192 149 202 192 150 204 191 150 207 189 149 210 189 149 214
188 148 215 180 141 209 166 129 197 153 117 187 141 107 178
127 95 167 114 84 158 106 77 153 101 74 152 99 73 153
99 74 156 101 76 159 102 78 162 104 79 163 106 79 164
107 78 164 107 78 163 106 77 163 105 77 162 104 77 162
103 76 161 103 76 162 104 77 163 105 78 166 106 80 170
108 82 174 109 83 176 109 82 177 109 81 178 108 81 178
108 80 180 108 80 180 109 81 181 109 81 181 110 81 181
110 82 181 110 82 181 111 83 181 112 85 182 113 85 183
113 85 183 113 85 182 113 85 182 113 85 182 113 85 182
113 85 183 114 86 185 115 86 187 116 86 188 117 86 189
118 87 190 120 87 192 121 87 192 123 88 193 124 88 193
124 88 191 126 90 189 129 93 188 132 95 187 139 103 190
154 117 200 174 135 216 192 150 229 200 156 235 203 157 237
203 157 236 201 154 233 198 151 229 197 149 226 197 148 224
198 147 223 198 147 221 198 146 220 197 145 219 198 146 220
199 147 220 201 148 221 203 150 222 205 153 224 206 154 225
207 155 227 209 157 228 211 159 230 212 161 230 213 161 231
214 163 231 216 165 233 218 167 235 219 168 237 218 167 236
216 165 234 214 163 232 213 162 231 214 162 231 215 162 232
216 162 232 215 162 231 214 161 229 212 159 227 211 157 225
210 155 224 209 154 222 207 153 219 199 145 207 181 128 183
157 104 149 134 83 116 118 68 91 113 63 78 113 63 71
109 60 64 101 52 56 90 44 46 76 34 34 60 22 21
45 11 9 35 7 3 30 6 1 27 6 1 25 6 0
23 6 0 22 6 0 22 5 0 23 6 0 24 8 1
33 17 13 58 41 41 85 66 69 100 78 81 105 78 82
107 74 79 109 70 75 104 58 64 91 40 45 83 27 33
85 27 31 91 31 35 95 35 37 11 1 0 12 2 0
12 2 0 13 3 0 14 5 1 15 5 1 16 5 1
17 5 1 18 5 0 19 6 0 20 7 0 21 8 0
23 8 1 24 9 2 25 10 3 24 12 3 23 13 2
23 13 2 23 13 3 25 13 4 26 13 4 27 13 4
28 12 4 30 12 5 31 11 6 32 11 8 34 10 12
36 10 16 37 9 21 39 9 25 40 8 29 43 9 35
53 15 49 68 27 65 74 32 70 69 26 63 64 20 56
63 18 55 70 24 60 84 37 74 102 55 93 117 71 111
129 83 127 137 92 139 140 95 146 139 95 148 135 91 147
127 84 144 112 71 135 94 54 121 83 45 111 81 45 105
76 42 93 62 31 69 48 20 44 43 17 28 42 17 19
42 17 14 41 16 12 41 15 12 43 15 12 45 16 12
46 18 12 48 19 11 51 19 11 54 19 11 60 21 13
71 28 19 84 38 27 95 47 34 101 52 37 104 53 37
106 53 35 108 53 35 109 52 35 107 49 33 101 43 29
96 40 26 96 43 29 99 49 37 99 50 43 99 50 52
116 66 81 151 101 130 180 130 171 187 139 188 187 139 193
186 140 194 186 141 195 186 143 196 187 144 197 189 146 199
191 148 201 193 150 203 194 151 205 194 151 208 192 150 212
192 151 216 194 152 218 191 150 217 184 144 213 175 137 206
163 127 198 146 112 184 128 96 170 116 85 162 110 81 159
108 79 159 108 80 161 108 81 164 110 83 167 112 84 169
112 82 168 112 81 167 112 80 167 112 80 166 111 80 166
110 80 166 110 80 165 111 81 167 113 83 170 113 83 172
112 83 173 112 83 175 112 83 176 112 83 178 113 84 180
113 83 181 112 83 182 112 82 182 112 83 182 112 83 183
113 83 183 113 84 183 113 84 183 114 85 183 115 87 184
116 87 185 116 87 185 116 87 185 116 87 185 116 87 185
116 87 185 117 87 185 118 87 187 119 87 189 120 87 191
121 88 192 122 88 193 123 89 194 125 89 194 126 89 194
126 89 193 126 89 190 129 90 188 133 94 188 139 100 191
149 110 197 164 126 209 181 140 222 192 150 229 198 153 232
201 154 233 201 153 232 198 151 229 196 149 225 195 147 223
196 147 222 197 147 222 198 146 221 198 146 220 198 146 220
198 146 220 200 148 221 202 149 222 204 151 224 206 153 226
207 155 228 209 157 229 211 159 231 213 161 233 214 162 234
214 162 234 215 163 234 217 166 236 219 168 238 220 169 239
219 168 238 217 166 235 214 163 233 213 162 232 213 162 232
214 161 232 214 161 232 213 160 231 212 159 229 210 157 227
209 155 225 209 154 223 209 154 221 206 151 214 189 135 192
161 107 156 134 82 120 120 69 96 115 65 83 112 63 73
108 58 64 101 52 55 90 42 45 77 33 34 65 24 25
54 17 16 43 10 8 35 7 3 30 7 1 28 7 1
26 7 1 24 7 0 23 6 0 23 6 0 24 7 1
26 8 2 35 17 14 60 42 42 88 68 71 103 81 84
108 81 85 111 78 82 115 75 80 111 65 71 97 46 51
83 29 33 81 24 28 86 28 31 90 30 33 13 3 1
13 3 1 13 4 1 14 5 1 16 5 1 17 6 1
17 6 1 18 7 1 19 7 1 20 7 1 21 8 1
22 9 1 24 9 2 25 10 3 26 12 3 26 13 3
24 13 2 23 13 2 24 13 3 26 13 4 27 13 5
29 13 6 30 13 6 32 13 7 33 12 9 34 11 12
35 10 15 37 10 20 39 9 26 41 9 31 42 8 35
47 10 43 60 19 59 73 30 74 77 32 77 75 29 74
75 28 74 78 31 77 86 38 84 101 53 100 119 70 119
133 84 134 140 92 144 144 96 151 144 97 155 143 97 156
141 95 156 136 92 155 126 83 149 110 68 135 98 57 124
95 55 117 84 47 99 64 29 68 48 16 41 43 14 26
43 16 19 44 17 15 44 16 13 44 15 12 45 15 13
46 17 13 48 18 12 50 19 12 52 20 12 55 20 12
61 21 14 72 28 20 85 38 28 96 48 34 102 53 38
105 54 37 107 54 36 109 53 36 110 53 36 108 50 34
102 45 30 97 42 27 98 45 31 101 51 38 101 52 45
101 51 54 118 67 83 153 103 132 182 132 173 189 140 190
189 140 195 188 141 197 188 142 197 188 144 198 190 146 199
191 147 201 193 149 203 195 151 205 196 152 207 197 153 210
196 152 213 196 152 216 197 154 219 197 154 221 194 152 220
189 148 218 179 140 211 162 124 197 141 106 181 127 92 169
119 86 164 115 83 163 114 83 165 114 83 166 116 86 170
119 87 173 119 86 171 119 85 171 121 87 173 124 89 175
126 92 177 128 94 180 129 96 182 130 98 183 130 98 185
127 94 183 122 89 180 117 84 176 114 82 175 114 82 177
116 84 180 117 85 182 116 85 183 115 84 183 115 85 184
116 85 184 116 85 184 117 86 185 117 86 185 118 87 185
119 88 187 120 89 187 120 89 187 120 89 187 120 89 187
120 89 187 120 89 187 121 89 188 122 89 189 123 89 190
124 89 192 125 90 193 126 90 194 127 91 195 128 91 195
129 91 194 129 91 192 130 90 189 132 92 188 138 98 190
147 107 196 160 120 207 176 135 219 188 146 228 194 150 228
197 151 228 199 151 228 199 151 228 197 150 225 196 148 223
197 147 222 198 147 222 198 147 222 198 146 221 198 146 221
198 146 221 199 147 221 201 148 222 203 150 224 205 151 225
206 154 227 208 156 229 210 158 232 213 161 234 214 162 236
215 163 236 214 162 236 215 163 235 217 165 237 219 168 239
220 168 240 219 168 239 217 165 236 214 163 234 213 162 233
213 161 233 213 161 233 213 160 232 211 159 231 210 157 229
209 155 228 208 154 226 208 153 223 209 154 220 203 148 208
181 126 178 149 95 137 125 72 104 116 65 87 115 64 77
109 59 65 97 48 52 87 39 41 76 30 32 66 22 23
58 18 18 51 15 14 43 11 8 36 8 4 31 7 2
28 7 2 26 7 1 24 7 0 24 7 0 24 7 1
26 8 2 27 9 4 37 19 15 63 44 44 91 71 72
107 84 86 112 84 87 115 81 85 119 79 84 115 70 75
100 49 54 83 29 34 80 23 27 84 25 29 87 27 30
14 4 2 14 5 1 15 5 1 15 6 1 17 6 2
18 7 2 19 8 2 19 8 2 20 8 2 21 8 1
22 9 1 23 10 2 25 11 3 26 12 4 27 13 4
27 13 4 25 13 2 24 13 2 25 12 3 27 13 4
28 13 6 30 13 7 32 13 8 34 13 10 35 13 12
37 12 15 38 12 19 40 11 25 42 10 31 43 10 36
45 9 41 52 13 51 67 24 70 79 33 84 84 36 89
90 41 95 100 50 105 106 55 111 110 59 116 120 69 126
133 81 139 141 90 149 145 94 154 145 94 157 145 95 159
144 95 160 143 95 161 142 95 161 136 91 159 125 80 149
115 71 139 108 66 128 90 50 103 64 27 67 47 14 39
44 14 26 46 16 20 46 16 15 46 16 13 46 15 13
47 15 13 48 17 13 50 18 13 52 19 12 54 20 13
56 20 12 62 22 14 73 29 20 86 39 28 97 48 35
103 53 38 106 55 38 108 54 37 110 54 37 112 53 37
110 51 35 104 46 31 99 43 28 100 46 32 103 52 40
103 53 47 103 53 56 119 69 85 155 104 134 183 133 174
191 141 192 190 141 197 190 143 199 191 145 200 192 147 201
193 148 202 195 150 204 197 151 207 199 153 209 200 154 210
201 155 213 200 155 216 200 155 218 202 156 220 202 157 222
200 156 223 196 153 222 188 146 217 171 131 203 149 110 185
132 94 171 123 87 165 120 84 165 119 84 166 119 85 168
123 89 173 128 93 178 131 94 179 133 96 181 138 101 186
145 108 192 152 115 199 159 122 206 163 128 211 164 129 213
159 123 209 150 114 202 140 104 193 129 93 184 121 86 178
119 84 177 119 84 179 120 85 181 120 86 183 119 86 184
119 86 185 119 87 185 120 87 186 120 88 186 120 88 186
121 89 187 122 90 189 123 90 190 123 90 190 123 90 190
123 90 190 123 90 190 123 90 190 124 90 190 125 90 190
126 90 191 127 91 192 128 91 194 129 92 195 130 92 195
132 93 195 132 92 193 132 92 190 134 93 188 139 97 190
148 105 195 159 116 205 172 130 216 185 142 227 193 149 231
196 150 228 198 151 226 200 151 226 199 151 225 198 149 224
197 148 222 198 148 223 199 148 223 198 147 222 198 146 221
198 146 221 198 146 221 200 147 222 202 149 223 204 150 225
205 152 227 206 153 228 207 155 230 210 158 233 213 161 236
215 163 237 215 163 237 214 162 236 214 162 236 216 164 237
218 166 239 219 167 240 218 166 239 216 164 236 214 162 234
213 161 233 213 161 233 213 162 233 213 161 232 211 159 231
209 156 230 208 155 228 209 154 226 209 154 222 209 153 217
200 144 200 175 120 166 146 91 127 125 71 98 114 63 81
109 58 68 100 50 55 87 39 41 75 28 30 64 20 22
57 16 16 53 15 14 49 14 12 42 11 8 35 8 4
31 7 2 28 7 2 26 7 1 25 7 0 25 7 0
26 8 1 27 9 3 29 10 5 39 20 17 65 45 45
93 72 74 109 85 88 115 86 89 118 84 88 121 81 86
116 70 75 100 49 54 84 30 35 81 25 29 84 26 30
85 27 30 15 6 1 15 6 1 15 6 1 16 7 2
18 7 3 19 8 3 19 8 3 20 9 2 21 9 2
22 9 1 23 9 2 25 10 3 26 12 4 28 13 4
29 14 5 28 13 5 26 12 3 25 12 2 26 12 3
28 13 4 30 13 6 31 14 8 33 14 9 35 14 11
38 14 14 40 14 18 41 13 23 43 12 28 45 11 35
46 11 40 47 10 45 55 14 57 71 25 77 84 35 93
96 46 105 116 65 126 137 84 147 141 87 151 135 81 146
135 80 147 139 84 152 144 89 157 145 91 160 145 91 161
146 93 163 147 95 165 146 96 165 146 96 166 143 94 165
137 89 160 129 83 152 119 75 138 95 52 106 64 25 66
49 13 40 48 15 29 49 17 21 48 16 16 48 16 14
48 15 14 49 15 14 50 17 14 52 18 13 54 20 12
55 20 13 57 20 13 63 22 15 74 29 21 87 40 29
98 48 35 104 53 39 107 55 38 108 54 37 111 54 37
112 54 38 111 51 36 105 46 32 101 43 30 102 47 33
105 53 41 105 54 48 104 53 58 121 70 87 156 105 135
185 134 176 193 142 193 192 142 198 193 144 201 195 147 204
197 150 205 197 152 206 199 153 208 202 155 211 204 156 214
205 158 215 206 158 217 206 158 219 206 159 221 207 161 223
208 161 225 205 159 224 201 155 223 192 148 218 175 132 204
152 111 185 136 95 171 128 88 167 128 88 169 130 91 173
132 94 177 139 101 185 147 108 193 154 114 197 159 118 201
165 125 208 173 134 216 182 143 224 191 151 232 197 158 239
198 159 240 191 152 234 180 141 225 165 126 212 149 110 198
136 97 187 129 90 181 126 87 180 124 86 181 123 87 183
122 88 184 122 88 185 122 88 186 122 89 186 123 89 187
123 89 187 124 90 188 125 91 190 126 91 191 126 91 191
126 91 191 126 91 192 126 91 193 126 91 192 127 91 191
128 91 191 129 92 191 130 92 192 131 93 194 132 93 195
133 94 195 135 94 194 136 95 192 138 96 190 143 101 192
151 108 197 162 119 206 174 131 217 185 142 227 193 149 234
198 152 234 200 153 229 202 153 226 202 153 225 201 152 224
199 150 222 198 149 221 199 149 222 200 149 223 199 147 221
198 146 221 198 146 221 199 146 221 200 147 223 203 149 225
205 151 227 205 152 228 205 152 228 207 154 230 210 158 234
213 161 237 215 162 238 214 162 237 213 161 236 213 161 235
214 162 236 216 164 237 217 165 239 217 165 238 215 163 236
214 162 234 213 161 233 214 162 234 214 163 233 213 162 232
211 159 231 209 156 229 209 154 228 210 154 226 211 154 222
209 152 212 195 138 190 169 113 155 144 89 120 126 72 94
112 60 74 100 49 58 91 41 46 81 33 36 69 24 25
59 17 17 53 13 13 50 13 12 46 12 10 39 10 6
32 6 2 29 6 1 27 7 1 26 7 1 26 7 1
26 7 1 27 8 2 29 10 4 31 11 6 41 21 18
68 46 46 95 72 74 111 84 88 117 86 91 120 86 90
122 82 87 114 69 74 97 47 52 84 31 36 82 27 31
84 27 31 85 28 31 15 6 1 15 6 1 16 7 2
17 7 3 18 8 3 19 8 3 20 9 3 21 9 3
22 9 1 22 9 1 24 9 2 25 11 3 27 12 3
28 13 4 30 13 5 29 13 5 27 12 4 26 12 3
27 12 3 29 12 5 31 13 6 33 14 8 35 14 10
37 14 12 40 15 16 43 15 20 45 14 26 47 14 33
49 15 40 52 15 47 54 15 53 61 18 65 77 28 85
93 42 105 113 61 126 143 90 157 169 114 184 169 113 184
153 96 169 143 86 160 143 86 161 145 88 163 145 89 164
146 90 165 148 93 167 149 96 168 149 96 168 148 96 169
147 95 168 145 95 168 144 94 165 129 82 147 96 51 106
64 23 65 53 15 43 53 18 32 52 18 23 51 17 17
50 16 15 50 16 14 50 16 14 52 17 14 53 18 12
55 20 12 57 21 14 59 22 15 65 24 17 75 30 22
88 40 30 99 49 36 106 54 40 108 55 39 110 55 38
111 54 37 113 53 37 111 51 36 107 47 33 103 45 31
104 47 35 106 52 42 105 53 49 106 54 59 124 71 89
161 108 139 190 137 181 197 145 198 196 146 202 197 147 206
200 151 209 202 154 210 203 155 211 204 157 213 206 158 216
208 159 218 209 161 219 210 161 220 210 162 221 211 163 223
212 164 226 212 164 227 209 161 226 205 158 224 198 151 220
182 136 208 160 116 189 146 103 178 142 99 177 144 102 181
149 107 188 155 114 196 164 123 206 175 133 216 184 140 222
189 145 225 193 150 230 199 156 235 205 162 241 210 168 246
215 173 250 217 175 252 214 172 249 205 163 243 190 148 231
173 131 216 156 114 201 143 101 190 135 93 183 130 90 182
127 89 183 125 90 185 125 90 187 126 91 188 127 92 189
127 92 189 127 92 189 127 92 190 128 92 192 128 93 193
128 93 193 128 92 194 128 92 194 128 92 195 128 92 195
129 92 194 130 93 193 132 94 193 133 94 194 133 95 194
134 95 194 136 96 195 139 98 195 144 103 196 151 110 199
161 118 205 172 129 213 184 141 224 195 152 233 202 158 240
205 161 242 207 161 239 209 161 234 210 161 231 209 159 228
206 156 225 203 152 222 200 150 221 200 150 221 200 149 222
200 148 222 199 147 221 199 147 222 200 148 223 202 148 224
203 149 226 204 150 227 205 151 229 205 152 230 206 154 232
210 157 235 213 160 238 215 162 239 214 162 238 213 161 236
212 160 235 212 160 235 214 162 236 215 163 237 216 164 237
215 163 235 214 162 234 214 162 234 214 163 234 215 164 234
213 163 232 212 160 231 211 158 230 210 155 228 211 154 224
212 154 219 205 147 204 185 127 175 158 102 138 136 81 107
120 67 84 106 54 66 94 43 50 87 37 41 79 31 34
66 22 24 56 16 16 51 14 13 47 12 11 43 11 8
36 8 4 30 5 1 27 5 1 26 7 1 26 7 1
26 7 1 27 7 2 28 8 2 30 9 4 32 10 6
42 20 18 69 47 46 98 73 75 113 85 89 118 87 92
122 87 92 122 82 88 111 67 73 93 44 50 82 30 35
81 26 32 83 27 32 84 28 32 15 6 1 16 6 2
17 7 2 18 7 3 19 8 3 20 9 3 21 9 3
22 9 3 22 8 1 22 8 0 23 9 1 25 10 2
27 11 3 28 12 4 29 13 4 30 13 5 29 13 4
29 12 4 29 12 4 30 12 5 32 13 7 35 14 9
37 15 11 40 15 14 43 16 17 45 16 22 48 16 29
51 17 37 56 20 46 62 23 57 68 27 68 77 32 82
93 43 103 113 59 127 136 81 151 166 110 182 189 132 206
184 126 202 163 104 182 150 90 170 149 88 169 148 88 169
147 88 168 148 90 169 149 92 169 150 94 169 150 95 169
150 95 170 149 95 169 155 101 176 161 108 181 139 88 155
93 46 103 64 20 64 57 17 45 56 19 34 55 20 25
54 19 20 53 18 17 52 17 15 52 16 15 54 17 14
55 18 12 56 20 13 59 23 16 63 25 18 70 28 20
79 32 24 90 41 31 101 50 38 108 56 41 111 56 41
111 55 38 112 54 37 112 53 37 112 50 36 109 48 34
107 48 34 106 49 37 106 51 42 105 52 48 108 55 61
129 75 94 168 114 146 198 144 189 205 152 206 204 152 210
204 153 213 206 155 215 207 157 216 208 158 216 209 159 218
210 161 219 211 162 220 212 162 221 213 163 222 214 164 224
214 165 226 215 165 227 214 164 228 212 162 227 209 160 226
205 156 224 194 146 216 176 130 201 166 121 194 165 120 195
168 123 200 173 129 208 181 137 217 189 145 226 198 153 233
205 159 237 209 163 239 211 165 241 213 168 243 215 170 246
217 173 248 219 175 250 221 177 251 222 178 252 218 174 251
209 165 245 196 152 234 179 135 219 162 118 203 147 103 190
137 95 184 131 92 185 129 93 187 129 93 189 131 95 191
132 96 192 132 96 193 131 95 192 131 94 193 131 94 194
132 95 196 132 95 196 132 95 197 132 95 197 132 94 198
132 94 198 132 94 198 134 95 197 135 97 198 137 97 198
136 97 196 137 97 195 142 102 198 151 110 203 163 121 210
176 135 220 188 146 227 199 156 235 210 167 243 218 175 248
221 178 251 222 177 251 223 177 248 226 177 245 226 176 242
223 173 239 218 167 234 212 161 229 207 156 225 204 153 223
203 151 223 202 150 223 202 149 224 202 149 225 204 150 227
204 150 227 203 149 227 204 150 228 205 151 230 205 151 231
207 154 233 210 157 236 213 160 239 215 162 240 215 162 239
213 161 237 212 160 235 212 160 235 213 161 235 214 162 236
214 162 235 214 162 234 214 162 234 214 162 234 215 163 235
215 164 234 214 162 233 213 161 232 213 159 231 212 156 228
212 154 223 210 151 213 196 137 190 168 110 152 142 86 117
123 69 90 109 56 69 99 47 56 91 40 46 85 35 39
75 28 30 62 20 20 53 15 14 49 13 12 45 12 9
40 10 6 35 8 3 30 6 1 27 6 1 26 7 1
26 7 1 27 8 2 27 8 2 29 8 3 31 9 4
32 9 6 42 19 17 71 46 46 101 75 77 116 86 91
120 88 93 124 88 94 124 84 90 112 67 74 93 44 51
81 30 37 80 27 34 83 28 35 85 30 36 16 6 1
16 6 2 17 6 2 18 7 2 19 8 2 21 9 3
22 9 3 22 9 2 22 7 1 22 7 0 23 9 0
25 10 1 27 10 2 28 11 3 29 12 4 30 13 5
30 13 5 30 12 5 30 12 5 31 12 5 34 12 7
36 13 9 39 15 11 41 15 14 44 16 18 47 16 23
50 17 31 55 19 40 62 23 52 72 31 67 83 40 83
97 49 102 115 63 127 137 81 152 160 103 177 188 130 205
205 146 224 196 135 216 171 109 192 156 93 178 153 90 175
151 89 174 150 89 173 150 90 172 150 92 171 151 93 170
152 95 171 151 95 170 153 97 172 168 112 188 178 123 196
146 93 162 92 43 101 63 17 62 58 16 45 57 18 34
56 20 26 56 20 21 55 19 18 54 18 16 54 17 15
55 17 14 56 18 13 58 21 13 61 24 17 65 27 20
72 29 22 81 33 26 92 42 32 103 51 39 110 57 43
112 57 42 113 56 40 113 54 38 113 52 37 112 50 36
111 50 36 110 50 37 109 51 39 108 52 43 107 52 49
110 56 63 132 78 98 172 117 151 203 147 194 210 156 211
208 155 215 208 156 217 209 157 218 209 159 219 210 160 219
211 161 220 212 162 221 213 163 222 214 163 223 215 164 224
216 165 226 217 165 227 216 166 228 216 165 228 214 163 229
212 161 228 210 159 227 204 154 223 194 145 216 189 141 213
189 141 215 190 143 218 194 147 224 200 153 231 206 159 238
211 163 241 214 166 241 216 168 241 217 169 242 218 171 243
219 172 244 220 174 246 221 175 247 223 176 249 224 177 251
223 177 252 221 175 251 215 169 247 202 156 236 183 136 218
162 116 200 146 102 189 136 96 187 132 95 188 133 95 190
134 97 192 136 99 194 136 98 195 135 97 194 133 95 194
134 96 196 135 96 198 135 96 199 135 97 200 135 97 200
136 97 201 136 96 202 135 96 201 136 96 200 137 97 201
139 98 200 139 98 198 142 102 198 153 112 206 170 129 218
188 146 230 204 162 241 214 172 247 221 179 250 229 186 253
234 190 255 236 192 255 236 192 255 238 192 254 241 192 253
241 191 252 238 187 250 233 182 247 227 176 241 219 168 234
211 160 228 207 155 225 205 153 225 204 152 226 205 151 227
206 152 229 206 152 230 205 150 229 204 150 230 205 150 231
205 151 232 206 153 233 210 157 237 213 160 239 214 161 240
214 161 238 213 161 236 212 160 235 212 160 235 212 160 235
213 161 234 213 161 234 213 161 233 214 162 234 214 162 234
215 163 234 215 163 235 215 162 235 214 160 233 213 158 230
214 157 226 213 154 219 204 144 202 181 122 169 151 93 129
129 73 98 114 60 76 102 50 58 94 43 48 88 38 40
80 31 33 69 23 25 57 16 16 50 13 12 46 12 10
42 11 8 38 9 5 34 8 3 30 7 1 27 7 1
26 7 1 27 8 2 28 8 2 29 9 3 30 9 4
32 9 5 33 9 6 43 18 17 72 46 47 104 76 80
119 88 93 122 89 94 126 89 96 127 86 94 117 72 81
101 53 62 92 42 50 92 39 48 95 41 49 97 42 50
16 6 1 17 6 1 17 6 1 18 7 1 20 8 2
21 9 2 22 9 2 22 9 2 22 8 1 22 8 0
23 9 1 25 10 1 27 11 3 29 12 3 30 13 4
30 13 4 31 13 5 31 12 6 31 11 6 32 11 6
35 12 7 37 13 9 40 15 12 43 15 14 44 15 18
48 16 24 52 18 34 58 21 45 67 27 59 81 39 78
97 51 99 113 63 120 130 76 144 150 93 167 173 114 191
199 139 218 218 156 238 211 148 232 187 123 210 168 104 191
159 94 182 155 90 177 154 91 176 154 92 175 153 93 173
153 94 172 153 95 171 153 95 171 162 104 181 183 126 203
188 132 206 148 95 163 92 42 101 63 16 61 58 15 44
57 17 33 56 19 25 56 20 21 56 19 18 56 18 17
56 18 16 56 18 15 57 19 13 59 21 14 62 24 17
66 27 20 73 29 23 82 34 26 93 43 33 104 53 40
112 58 44 114 59 43 115 57 41 115 55 39 114 53 37
114 51 37 113 52 38 113 53 40 112 54 42 111 55 46
110 54 52 113 58 66 135 79 101 175 119 154 205 148 196
212 156 213 210 156 217 209 156 219 210 158 220 211 159 220
211 161 220 212 162 222 214 163 223 215 164 225 216 165 226
217 165 227 218 166 228 218 166 229 218 167 230 218 166 231
217 165 231 215 163 230 212 161 229 210 159 228 207 157 226
206 156 226 206 156 228 206 157 230 208 159 234 211 163 237
214 166 241 216 167 242 217 167 240 218 168 239 220 169 240
221 171 241 222 173 242 223 175 244 224 176 246 225 177 248
226 178 249 227 179 252 228 181 254 227 180 253 220 172 248
202 155 233 179 132 213 157 112 196 141 100 189 136 96 189
136 97 190 137 98 192 139 99 195 139 99 196 137 98 195
136 96 196 137 97 198 138 97 199 138 97 201 138 98 202
139 98 203 139 98 204 139 98 204 138 98 204 138 96 202
139 97 202 140 98 201 143 101 200 151 109 204 168 126 217
191 148 233 210 168 246 223 180 252 228 186 254 232 189 255
236 192 255 239 195 255 241 197 255 242 198 255 244 198 255
246 197 254 247 196 254 246 195 254 245 193 253 240 188 251
230 179 244 219 167 234 211 158 228 208 155 227 207 153 227
206 152 228 207 153 230 207 153 231 205 151 231 205 150 232
205 151 232 204 151 232 206 153 233 209 156 236 211 158 238
213 160 238 213 160 237 212 160 236 212 160 235 213 161 235
213 161 235 214 162 235 215 163 235 216 164 235 217 166 236
218 166 237 218 166 237 218 165 239 220 166 240 219 164 237
218 161 232 218 159 225 210 151 210 191 131 181 163 104 144
136 78 107 119 63 83 109 55 66 100 48 53 92 42 43
83 34 34 72 26 25 62 18 17 53 13 12 47 11 10
43 11 8 40 10 6 36 8 4 32 7 2 29 7 1
27 7 1 27 8 2 28 8 3 29 9 3 30 9 4
32 9 5 34 10 6 35 10 6 45 18 17 74 46 48
107 77 82 122 90 96 125 90 97 128 90 99 131 89 99
126 82 92 118 71 81 116 65 76 117 65 75 119 66 76
121 67 77 16 5 1 17 6 1 17 6 1 19 7 1
21 8 2 22 9 2 22 9 2 23 9 1 23 8 1
23 8 0 24 9 1 26 10 2 28 11 3 29 12 3
30 13 3 31 13 4 31 13 5 32 12 6 32 11 6
33 11 6 35 12 7 38 13 10 42 15 12 43 15 15
45 14 19 49 16 27 56 20 39 66 26 54 77 36 72
93 48 93 109 62 114 122 71 132 134 79 149 149 91 167
166 105 185 187 125 208 210 146 231 217 153 240 207 142 230
192 125 215 175 109 198 162 96 185 157 92 179 157 93 178
157 95 177 156 95 175 154 95 172 159 100 177 177 119 196
196 138 215 187 131 206 143 89 158 92 41 100 65 18 63
59 15 45 58 17 33 56 19 25 56 20 21 57 20 19
57 20 18 57 19 17 57 19 15 58 20 13 59 22 14
63 25 18 67 27 21 73 29 23 83 34 27 95 44 35
107 55 43 114 60 46 116 60 45 117 59 43 117 57 41
116 54 39 116 53 38 116 54 41 117 56 43 116 58 46
115 58 50 113 57 55 116 59 69 138 81 103 177 120 156
206 149 197 213 156 214 211 156 218 211 157 220 212 159 221
213 161 222 213 162 222 214 163 224 216 164 226 218 166 228
219 167 229 220 167 229 220 168 230 220 168 231 221 169 233
221 169 233 220 168 233 218 166 232 216 165 231 215 163 231
214 163 231 214 163 232 215 164 233 215 165 235 216 166 237
217 167 239 218 168 240 219 168 239 220 168 239 221 169 239
222 170 239 223 172 240 225 174 242 226 176 243 227 177 245
228 178 247 230 180 249 231 181 252 232 183 254 233 184 255
229 181 253 216 167 243 193 145 224 168 121 204 148 105 193
140 99 191 139 99 192 140 100 193 141 101 196 142 101 197
141 99 197 140 98 197 140 99 200 141 99 202 141 99 203
141 98 204 141 98 205 141 98 205 141 98 205 141 98 205
140 97 204 141 97 203 144 100 202 151 107 205 164 121 213
185 142 228 207 164 244 224 180 253 232 188 255 235 191 255
237 193 254 239 194 254 241 196 254 242 197 254 243 198 254
245 198 253 247 197 253 248 197 253 249 197 254 250 198 255
247 195 254 239 186 249 227 174 240 217 164 232 212 158 230
208 154 229 206 152 228 206 152 230 206 152 232 205 150 232
205 150 232 205 150 233 205 151 232 206 153 232 208 155 234
210 157 236 212 159 237 212 160 236 212 160 235 213 161 235
214 162 236 216 164 236 217 165 237 219 168 238 222 171 240
224 173 242 226 174 243 226 174 245 227 173 246 229 173 247
231 173 245 230 171 238 223 163 224 201 141 193 172 112 154
145 85 118 125 67 89 114 58 71 107 54 60 99 48 50
89 41 39 77 31 28 65 21 17 55 13 10 48 11 8
44 10 7 41 9 6 37 9 5 34 8 3 31 7 1
28 7 0 27 7 1 28 9 3 29 9 4 30 9 4
32 10 5 34 10 6 36 10 7 37 10 8 47 18 18
75 46 49 109 78 84 125 93 101 128 93 102 131 93 102
135 93 104 135 91 103 134 87 99 136 86 98 138 86 98
139 86 99 139 86 99 16 5 0 17 6 0 17 6 0
19 7 1 21 8 2 22 9 2 22 9 2 23 9 1
23 9 1 24 9 0 25 9 1 27 10 2 28 11 2
29 12 3 30 13 3 31 13 4 32 13 5 33 12 6
34 12 6 35 12 6 37 12 8 40 13 10 43 15 14
45 15 17 48 15 23 54 19 33 64 26 49 77 36 67
91 47 88 105 58 108 116 67 125 125 72 139 134 77 151
144 83 163 151 88 171 162 98 184 183 118 205 202 136 224
212 145 234 211 143 234 197 129 219 177 110 199 164 98 186
160 95 181 160 96 180 158 96 177 158 97 176 171 111 189
194 134 212 200 141 218 177 120 195 134 79 149 92 40 99
68 21 66 61 17 47 59 18 34 57 19 25 56 20 21
57 21 20 58 21 19 59 21 18 59 21 16 59 21 14
60 23 15 64 25 19 68 27 21 74 29 23 83 35 28
97 45 36 110 56 45 116 61 48 118 62 47 120 61 46
120 58 43 118 55 40 118 54 40 120 56 43 121 60 47
121 62 51 119 61 54 116 59 58 118 61 71 140 82 105
179 121 157 208 149 198 214 156 214 212 155 218 212 156 220
214 160 222 215 162 224 215 163 225 217 165 226 218 166 228
220 168 230 222 169 231 223 170 232 223 170 233 223 171 234
224 172 235 224 172 236 223 171 236 222 170 236 220 168 234
218 166 233 218 165 233 218 166 234 219 167 236 220 169 237
221 170 239 221 170 239 221 171 240 222 171 240 223 171 239
224 171 240 225 173 240 226 174 241 227 176 242 228 177 243
228 178 244 229 179 246 231 181 248 232 181 250 232 181 252
233 183 254 232 182 254 222 172 247 201 151 229 174 127 209
153 109 197 144 102 194 143 101 193 143 101 194 144 102 196
144 102 198 144 101 198 143 100 199 144 101 202 145 101 204
144 100 205 144 100 205 143 99 206 143 98 206 143 98 206
143 98 206 144 99 205 145 99 204 150 104 205 162 117 212
181 137 226 203 158 240 220 175 251 230 185 254 234 189 254
237 191 253 240 194 253 243 196 254 245 197 254 245 198 253
245 197 252 247 198 252 250 199 253 251 199 254 251 199 254
252 199 255 251 197 255 245 191 252 235 181 246 225 171 239
216 163 233 210 156 230 206 152 229 206 152 230 206 151 232
205 150 233 204 149 232 205 150 232 205 152 232 206 153 233
208 155 234 210 157 235 212 159 236 213 160 236 213 161 236
214 162 236 215 163 236 217 165 237 220 168 239 224 172 242
227 176 244 231 180 247 234 182 250 236 183 252 238 182 253
240 182 253 241 182 251 239 179 241 221 160 214 185 125 169
152 92 125 132 72 97 120 62 78 112 57 65 106 54 56
97 47 47 86 38 35 72 27 22 59 17 12 50 11 6
44 9 5 41 9 6 38 9 5 36 9 4 33 8 3
30 8 2 28 8 1 28 8 2 29 10 4 30 11 5
31 11 5 33 11 6 35 11 7 37 11 8 39 11 9
48 19 19 76 45 50 110 78 86 129 95 105 132 96 107
134 95 107 138 96 109 142 97 111 143 96 110 145 95 109
145 94 108 145 93 107 145 92 107 16 5 0 17 6 0
17 6 0 19 7 1 21 8 2 22 9 2 22 9 2
23 9 1 23 9 1 24 9 0 26 10 1 27 10 2
29 12 2 30 13 3 31 14 4 32 14 5 33 13 6
34 13 6 35 12 6 36 12 7 38 13 8 41 13 11
44 14 15 47 16 21 54 20 30 64 27 45 76 37 63
91 49 84 104 59 105 114 66 121 119 69 132 125 71 142
134 76 153 141 79 161 144 80 165 148 83 170 160 94 182
176 109 198 196 127 218 212 142 234 213 144 235 199 130 221
181 113 202 168 102 189 163 99 182 161 98 179 164 101 181
184 122 201 204 143 221 196 136 214 166 108 183 127 72 142
91 39 99 70 23 68 63 19 49 60 19 35 57 20 26
56 20 21 57 22 20 58 23 20 60 23 19 60 23 17
60 23 15 61 23 16 65 26 19 69 27 22 74 29 23
84 35 28 99 46 38 112 58 46 118 62 49 120 63 48
122 63 48 122 60 45 119 56 41 120 55 42 122 59 46
125 63 51 125 65 55 123 64 57 118 61 60 120 62 72
141 83 107 180 120 158 208 149 199 214 155 214 212 154 217
212 156 220 215 160 223 217 163 225 217 165 227 219 166 228
221 168 230 223 170 232 225 171 234 226 172 235 225 172 236
225 173 238 226 174 238 226 174 239 226 174 239 225 173 239
223 171 237 222 170 236 222 170 237 223 170 238 224 172 239
225 173 240 226 175 242 227 176 243 228 177 244 228 176 244
227 175 243 227 174 242 228 175 242 228 176 242 229 177 243
229 177 243 228 177 243 229 178 244 231 180 246 231 180 248
231 179 250 232 180 252 232 181 254 224 173 248 204 153 231
177 129 211 156 112 199 148 105 196 146 103 195 145 102 195
146 103 197 147 103 199 147 103 200 146 102 202 147 103 204
148 103 206 147 103 207 147 102 208 147 102 209 147 101 210
147 101 210 148 102 210 151 104 209 154 107 208 162 114 212
178 132 223 200 154 238 219 173 250 230 183 254 234 187 254
235 189 252 238 191 252 242 194 253 246 197 254 248 199 255
248 199 254 248 198 253 249 199 252 252 200 254 253 201 254
253 200 255 253 199 255 251 198 255 247 193 254 241 186 251
232 177 245 222 168 239 213 159 233 208 154 230 207 153 231
207 153 234 206 151 234 205 150 234 206 151 234 207 153 234
208 155 234 209 156 234 210 158 235 212 160 236 213 161 236
214 162 237 215 163 237 217 166 238 220 168 239 223 172 241
227 176 244 231 180 247 235 184 251 239 187 253 242 189 255
245 189 255 246 187 253 243 184 247 233 172 228 204 144 189
165 105 139 136 77 102 124 66 82 118 61 70 112 57 61
104 52 52 93 44 41 79 32 29 66 22 17 55 14 8
47 10 5 43 9 5 40 9 5 37 9 5 35 9 4
33 9 3 31 9 3 29 9 2 29 10 3 30 11 5
31 12 6 33 12 7 35 12 7 37 12 8 39 12 9
41 12 10 49 19 20 76 44 51 111 77 88 131 96 108
136 99 112 138 98 112 140 98 113 144 99 114 146 99 115
148 98 114 148 97 113 147 95 111 146 94 110 17 5 0
17 6 0 18 6 0 19 7 1 21 8 2 22 9 2
23 9 2 23 9 1 23 9 1 24 10 1 26 10 2
28 11 3 29 12 3 30 13 4 32 14 4 33 14 5
34 14 6 35 13 6 35 12 6 36 12 7 38 13 9
42 14 13 44 14 17 50 18 26 62 27 41 76 38 60
90 50 81 104 61 101 114 67 118 119 70 129 121 70 136
124 70 143 132 73 152 140 77 161 144 80 166 148 83 170
153 86 176 162 94 185 177 108 200 198 127 220 214 144 236
216 147 237 203 134 223 183 116 203 171 106 190 167 103 185
173 110 191 195 132 213 205 144 223 187 128 206 159 101 178
126 70 141 91 39 99 70 23 68 64 19 49 61 20 36
57 20 26 56 20 21 58 22 21 60 23 22 61 24 21
61 24 19 60 23 16 62 24 16 66 26 20 70 28 22
75 29 23 85 36 29 100 48 39 114 59 48 120 64 50
122 64 49 124 64 49 123 61 46 121 57 42 121 56 43
125 60 48 128 65 53 129 68 58 126 66 60 120 61 61
121 62 73 142 82 107 180 120 159 208 148 199 214 154 213
211 153 216 211 155 219 215 160 224 218 164 227 219 166 228
221 167 231 223 169 233 225 171 236 227 173 237 228 173 238
227 174 239 227 175 241 227 175 241 228 176 242 228 175 242
227 175 241 226 174 240 225 173 239 226 174 240 227 174 241
227 175 241 228 176 241 230 178 243 231 179 245 232 181 246
233 181 247 231 179 246 230 178 245 230 178 245 230 177 244
229 177 243 229 177 243 228 176 242 228 177 243 230 178 245
231 179 247 230 178 249 230 178 250 231 179 253 225 173 248
207 155 233 181 132 213 160 114 201 150 107 197 148 104 196
147 103 196 148 104 198 149 105 200 148 104 202 148 104 203
148 104 205 149 104 207 150 105 209 151 106 211 152 106 213
153 107 215 154 107 216 157 110 216 163 114 216 169 120 217
179 130 222 196 148 234 216 168 247 230 182 254 235 188 254
236 188 253 237 189 252 240 191 252 244 194 253 247 197 254
249 199 255 250 199 255 251 199 254 251 199 253 252 200 253
253 200 253 253 200 254 253 200 255 251 198 255 249 195 254
245 191 253 239 184 250 228 173 243 217 163 236 211 157 233
210 155 234 210 155 237 209 154 237 208 153 236 208 153 236
209 155 236 209 156 235 210 157 235 211 158 236 213 161 236
215 162 237 216 164 238 218 166 239 222 170 242 226 174 243
228 177 245 232 181 248 235 184 250 239 188 253 242 191 255
245 192 255 248 191 253 246 187 248 235 176 233 212 152 199
177 116 154 146 85 112 129 69 87 122 64 74 116 60 65
109 56 56 99 48 46 85 37 33 70 25 21 58 15 11
51 10 6 46 9 6 42 9 6 39 9 6 37 10 6
35 10 5 34 10 4 32 10 4 31 11 4 30 11 4
31 12 6 32 12 7 34 12 7 36 12 8 39 13 9
41 13 10 42 12 11 50 19 21 75 43 50 111 76 87
133 97 110 140 101 115 141 100 115 142 99 115 143 98 115
145 98 116 149 99 117 149 98 116 148 96 114 147 94 112
18 5 0 18 6 0 19 6 0 20 7 1 21 8 2
22 8 2 23 9 2 24 8 2 24 8 1 25 9 2
27 10 3 28 11 4 29 12 4 30 13 5 32 14 6
33 15 6 35 15 6 36 14 6 36 13 6 36 12 8
39 12 12 44 15 20 49 18 29 59 25 42 74 37 62
89 49 82 102 60 100 112 67 116 118 70 126 120 70 133
121 70 138 124 70 143 130 72 151 138 76 160 144 81 167
149 85 172 153 87 178 158 91 183 166 98 190 179 110 202
198 128 219 214 144 235 216 147 237 203 135 223 188 122 208
183 118 202 190 126 209 204 141 222 199 139 219 179 120 200
158 101 178 127 73 144 91 40 99 69 22 67 64 19 48
61 20 35 58 19 25 58 20 21 59 22 22 61 23 23
62 24 22 62 24 21 62 24 18 63 24 18 67 26 21
71 27 22 76 29 23 87 37 29 104 49 40 118 61 49
123 65 51 126 65 50 128 66 50 126 62 48 123 57 44
123 57 44 127 61 50 132 67 58 135 71 64 132 69 65
125 62 64 124 61 73 143 81 107 179 117 157 206 144 198
211 152 213 208 152 216 210 155 220 215 160 225 218 164 228
220 166 230 222 168 233 224 169 236 226 171 239 228 173 241
229 174 242 228 174 243 228 175 244 229 175 244 229 176 244
229 176 244 229 175 243 228 175 242 228 175 241 228 175 241
228 176 241 229 176 241 229 177 241 231 178 243 233 180 244
234 182 246 235 182 247 233 181 246 232 179 245 231 179 244
230 178 243 229 177 242 228 176 242 228 176 242 229 177 243
230 178 245 230 179 247 229 177 247 229 177 249 230 178 252
226 174 249 211 159 235 188 138 218 167 120 204 155 110 199
151 107 197 150 105 197 150 106 199 151 107 202 151 107 204
151 107 205 152 107 208 152 107 210 153 108 212 155 110 215
157 111 217 160 113 220 164 117 223 172 124 226 182 133 228
190 140 229 199 149 234 212 163 243 226 177 251 235 186 254
238 189 254 238 189 253 239 189 252 241 191 252 243 193 253
246 195 254 248 197 255 249 198 255 251 199 255 251 199 254
251 198 252 252 199 252 253 200 254 253 200 255 252 199 255
250 198 255 248 196 255 243 191 253 233 180 247 222 168 241
215 161 236 212 158 236 212 158 238 212 157 239 211 155 238
210 155 238 211 157 238 211 158 237 211 158 237 213 159 237
215 161 237 218 164 239 220 166 240 224 170 242 229 177 246
233 181 249 236 184 250 239 187 251 241 189 252 243 190 253
245 192 253 247 193 253 248 191 249 240 181 236 218 158 207
184 123 164 151 90 122 134 73 95 127 67 80 121 62 69
112 57 58 102 50 48 89 40 36 74 28 24 61 18 14
52 12 8 47 9 6 44 9 7 41 10 7 38 10 7
37 10 7 36 11 6 34 11 5 33 11 5 32 11 5
32 11 5 33 12 7 34 12 8 36 13 8 38 13 9
40 13 9 41 13 10 43 13 11 51 19 20 76 42 48
111 75 84 135 97 109 142 102 116 143 102 117 143 100 117
143 99 117 145 98 117 147 99 118 147 98 117 147 97 115
146 95 114 19 5 0 19 6 0 20 6 0 21 7 0
22 7 1 23 8 2 24 9 3 24 8 3 24 8 2
26 9 3 29 11 6 30 12 6 30 13 6 31 13 7
32 14 7 34 15 7 36 16 6 37 15 7 36 13 8
37 12 12 41 14 20 51 20 35 62 29 52 76 40 71
91 51 90 101 59 106 109 65 117 115 68 126 118 69 131
119 69 134 121 70 137 124 71 143 130 74 151 135 77 159
140 81 165 145 84 172 150 87 177 155 90 182 160 93 185
165 98 189 176 107 198 195 126 216 214 145 235 220 151 240
213 145 233 209 142 228 213 148 232 210 148 231 191 132 216
172 116 199 156 101 181 128 75 146 92 41 101 69 22 66
64 19 47 62 20 34 60 20 25 60 20 22 61 21 22
62 22 23 63 23 24 63 24 23 64 24 22 65 25 21
68 26 22 72 26 21 77 28 22 90 38 30 109 52 42
123 63 51 129 66 52 131 67 51 133 67 52 131 64 50
126 59 46 125 57 47 130 61 54 138 69 64 144 75 72
142 74 73 133 65 69 129 62 75 143 77 105 174 109 152
199 137 193 205 146 210 204 148 215 207 153 221 212 159 225
215 162 229 217 164 232 219 166 235 221 167 237 223 169 240
226 171 242 228 172 244 228 172 246 228 172 247 229 173 247
229 174 247 230 174 246 230 175 246 230 176 244 230 176 243
229 175 242 230 175 241 230 176 241 231 177 242 233 178 243
234 180 245 235 181 246 235 181 246 234 180 243 232 178 241
231 178 240 230 177 239 228 176 239 228 176 240 229 177 242
230 178 244 231 178 246 230 177 245 229 176 246 230 178 249
232 180 252 228 176 249 217 165 239 199 148 226 180 131 213
168 121 206 162 116 204 160 114 204 161 115 207 161 116 210
160 115 211 158 114 212 158 114 213 158 114 214 159 114 215
160 114 216 162 115 219 168 120 224 180 131 233 195 145 240
209 158 243 216 165 243 220 169 245 226 176 249 233 182 253
237 186 254 239 189 254 240 189 254 240 190 253 241 191 253
243 192 253 244 194 254 246 196 255 248 198 255 250 199 255
251 199 254 251 199 253 251 199 253 251 199 254 251 199 255
250 199 255 249 199 255 248 198 255 245 195 254 237 186 251
227 175 246 219 166 240 215 161 237 214 160 238 214 159 238
213 157 238 212 156 238 213 158 240 213 159 240 212 158 238
214 158 237 218 161 238 223 166 241 228 171 244 232 176 247
237 183 250 240 187 251 243 190 252 246 192 253 246 192 253
245 191 251 246 191 250 248 193 249 245 189 240 226 168 214
191 132 173 156 95 129 135 73 100 128 66 85 124 64 76
116 59 65 105 51 52 91 42 39 76 30 25 62 20 15
53 14 9 48 12 7 45 10 7 42 10 7 39 11 8
38 11 8 37 11 8 36 11 8 35 11 7 34 11 6
33 11 6 33 11 6 34 12 7 36 13 9 39 14 10
40 14 10 41 13 9 42 13 9 44 13 11 52 20 19
76 41 45 111 74 81 135 96 106 143 103 115 143 102 117
145 103 120 146 103 122 146 102 121 145 100 120 145 99 118
145 98 117 145 97 116 20 6 0 20 6 0 21 7 0
22 7 0 23 8 1 24 8 2 25 9 3 25 9 4
26 8 4 28 10 6 31 13 8 32 14 9 31 13 8
31 13 8 32 14 8 34 15 8 36 16 8 37 14 9
37 13 12 41 15 21 50 22 36 64 32 56 79 44 76
91 53 95 102 60 110 108 64 121 112 66 128 116 67 132
118 68 134 120 69 136 122 71 139 126 73 145 130 76 152
134 78 158 138 81 164 143 83 171 148 86 177 153 89 181
157 92 183 160 93 185 166 98 189 178 109 200 200 131 222
222 153 243 231 162 249 234 167 249 231 166 247 213 151 233
186 128 213 169 114 198 154 101 182 126 74 147 92 42 101
69 22 66 64 20 47 63 21 35 61 20 26 61 21 23
61 21 23 62 21 25 63 22 25 64 24 25 65 24 24
66 25 23 69 25 22 73 26 22 79 28 23 93 38 31
112 54 45 127 65 53 132 67 54 135 68 53 136 68 53
134 65 52 129 60 49 127 57 49 132 62 56 142 70 68
151 78 78 151 78 80 142 70 76 134 64 79 141 72 102
165 99 144 189 126 185 198 138 205 198 142 212 201 147 218
206 154 223 210 158 227 213 160 230 215 161 234 216 162 236
218 164 238 222 166 241 224 167 243 224 167 244 224 168 246
226 169 246 227 170 246 228 172 246 228 172 245 229 173 243
228 173 241 228 173 240 229 174 239 230 175 240 231 176 241
232 177 242 233 178 243 234 179 244 234 179 243 232 178 241
231 177 238 230 176 238 229 176 238 228 176 239 229 177 240
230 178 242 231 179 245 231 178 246 230 177 245 230 177 246
232 180 250 234 182 253 231 179 251 223 172 244 212 161 235
199 149 227 190 140 222 185 137 221 183 136 222 183 137 225
181 136 227 178 133 226 172 128 222 166 122 218 163 119 216
162 117 215 162 116 214 167 119 218 179 130 229 197 148 243
216 165 251 228 177 253 233 181 252 234 182 252 235 184 253
237 185 254 239 187 254 240 188 254 240 189 254 241 190 254
241 191 253 242 192 253 244 194 254 246 195 255 247 197 255
249 199 255 249 199 255 249 199 254 249 199 253 249 199 254
248 199 255 248 199 255 247 199 255 247 198 255 244 196 255
239 190 253 231 182 248 223 173 242 218 167 238 217 164 238
217 163 238 215 160 236 214 158 236 214 159 239 214 160 239
214 159 237 216 160 237 221 164 239 228 170 243 234 176 247
239 182 250 243 188 252 245 191 252 245 191 251 248 193 252
249 195 253 248 193 251 248 192 248 249 192 245 237 181 226
204 147 186 164 105 139 137 76 105 125 64 87 122 60 77
119 59 70 110 54 59 97 45 45 82 34 31 67 24 18
55 16 9 49 12 6 45 11 7 42 11 7 40 10 7
38 11 9 37 11 10 36 12 10 35 11 9 35 11 7
34 11 7 34 11 6 34 11 6 35 11 7 37 13 9
40 14 11 41 14 10 42 13 9 42 13 9 45 13 11
53 20 19 77 41 43 111 73 78 136 96 105 143 103 115
144 103 118 146 104 122 148 105 125 148 104 125 146 102 123
145 101 121 145 100 120 146 100 119 21 7 0 22 8 0
22 8 0 23 9 1 25 9 1 26 9 2 26 10 3
27 10 4 27 10 5 30 12 7 32 14 9 33 14 9
32 14 8 31 13 7 32 13 7 33 14 9 36 14 12
38 14 16 42 16 23 52 24 38 67 36 58 82 49 80
94 58 98 102 63 112 108 65 121 112 67 128 115 67 133
117 68 136 119 68 138 122 70 141 125 72 144 129 75 149
132 78 154 135 79 159 138 81 165 143 84 171 149 87 177
153 89 181 157 91 183 161 94 186 165 96 189 170 101 194
183 114 207 206 137 228 228 160 245 242 175 253 234 170 246
207 146 226 182 124 208 168 113 198 153 100 182 125 73 147
91 41 101 69 22 66 64 19 48 63 21 36 62 21 26
61 21 23 62 21 24 62 21 25 63 22 26 64 24 25
65 25 24 67 25 24 70 26 24 74 26 24 80 29 25
94 39 34 114 55 47 129 65 56 134 68 57 136 68 56
137 68 56 135 66 54 131 61 52 130 59 52 135 62 59
145 71 71 154 79 81 156 81 86 150 76 84 138 66 84
137 66 100 157 89 138 181 116 179 192 131 202 192 135 209
195 140 214 200 146 219 204 151 223 207 153 227 209 154 230
210 155 232 213 157 234 216 159 236 217 160 238 217 160 239
218 161 241 221 164 243 223 166 243 224 167 243 224 168 242
224 168 240 224 169 238 224 169 237 225 170 237 226 171 238
227 172 239 228 173 240 229 174 240 230 175 241 230 176 241
231 176 240 231 176 239 230 175 238 229 175 239 229 176 240
229 177 242 231 179 244 232 179 246 232 179 246 232 179 247
234 181 249 235 182 251 235 184 253 234 183 252 231 179 249
225 174 246 219 168 243 214 164 241 212 163 242 211 163 243
211 163 245 207 161 245 201 157 242 193 148 237 182 137 227
174 129 220 168 123 214 167 120 213 176 128 221 194 145 236
213 164 249 228 178 255 236 184 255 239 186 254 239 186 254
239 187 255 240 187 255 240 187 255 240 188 255 240 189 254
241 189 253 241 190 253 242 191 253 244 192 254 246 194 255
247 196 255 247 197 255 248 198 254 247 198 253 247 198 253
247 199 254 247 199 254 247 199 254 246 199 255 246 199 255
244 198 255 241 195 254 235 189 251 230 183 246 226 178 243
225 175 242 223 172 241 220 168 238 218 165 237 217 164 239
217 164 239 218 164 238 221 166 238 226 170 241 232 176 245
238 182 249 243 187 252 246 192 254 248 194 253 248 194 251
249 195 252 251 197 254 251 196 252 250 194 249 244 188 237
220 164 204 178 122 155 143 85 114 127 66 91 120 59 79
116 55 70 114 54 64 105 50 54 90 38 38 74 28 24
61 19 13 51 13 6 45 10 4 43 10 5 40 10 6
38 10 7 37 11 9 37 12 10 36 12 10 35 12 9
34 12 8 34 12 7 33 11 7 33 11 7 35 12 7
37 13 9 40 15 11 41 14 11 42 14 10 43 14 10
46 14 12 54 20 20 77 40 43 111 72 78 136 96 106
144 103 116 144 103 120 147 105 124 148 105 126 148 105 126
148 104 126 147 104 125 148 103 123 148 103 122 24 9 1
24 9 1 25 10 2 25 10 2 27 10 3 28 10 3
28 11 4 28 11 4 29 11 5 31 12 7 33 14 9
34 14 9 33 13 8 32 12 8 32 13 9 34 13 13
38 14 19 44 18 29 55 27 43 69 39 63 85 53 84
98 63 103 106 68 116 110 69 125 113 70 130 116 70 135
118 70 138 120 70 140 121 70 142 124 72 145 129 75 150
132 78 154 134 79 158 137 80 161 140 82 167 145 84 172
150 87 178 154 90 182 158 92 185 162 94 188 166 97 192
168 99 194 173 104 198 187 118 209 210 143 228 233 166 245
229 165 241 202 141 219 180 122 206 169 113 199 154 100 182
125 73 147 90 40 102 69 21 67 64 19 49 64 21 37
62 21 28 62 21 24 63 21 25 63 22 26 64 23 27
65 24 26 65 25 25 67 25 25 71 26 26 75 27 27
81 29 28 96 40 37 116 56 51 131 66 60 137 69 61
138 70 59 139 69 59 138 67 58 134 63 55 132 60 55
138 64 62 148 73 74 157 81 84 160 84 91 155 80 91
140 67 88 135 63 100 152 83 136 177 111 178 189 127 202
190 131 209 190 134 211 194 139 216 198 144 220 200 146 224
202 147 226 204 148 228 207 150 230 209 152 232 211 154 233
211 154 235 213 156 237 216 159 239 218 161 240 220 163 240
221 164 239 220 165 237 220 165 235 221 166 234 222 167 234
222 167 235 223 168 236 224 169 237 225 170 237 226 171 238
227 172 238 229 174 239 230 175 240 229 174 239 229 175 240
229 176 242 230 178 244 232 180 246 233 180 247 234 181 249
236 183 251 238 185 252 238 186 253 237 186 254 236 185 254
236 185 253 235 184 253 233 183 252 232 181 252 231 181 253
231 182 253 231 182 254 228 181 254 222 177 253 215 170 249
205 160 242 194 148 232 183 137 222 180 133 219 191 143 229
209 160 244 224 175 253 232 182 255 236 184 254 238 185 254
239 185 254 239 186 254 240 187 254 240 187 255 241 188 255
241 189 254 241 189 254 242 190 253 242 190 253 244 192 254
245 193 254 246 195 255 246 196 255 247 198 254 246 198 253
246 199 253 246 199 253 246 199 253 246 199 254 247 200 255
246 200 255 246 200 255 245 199 255 242 196 254 238 193 252
236 190 250 236 188 249 234 185 247 231 181 245 228 177 243
226 174 243 226 173 243 226 174 242 228 175 242 232 180 244
238 185 247 243 189 251 246 193 253 248 194 253 250 196 254
251 198 254 252 199 254 253 199 254 252 198 252 247 192 244
229 174 219 193 137 173 154 97 125 130 70 95 121 61 82
118 57 73 114 54 66 110 52 59 98 44 46 81 30 29
66 21 16 55 15 9 47 10 4 42 9 4 40 9 5
39 9 6 38 10 7 37 11 10 37 12 11 36 12 10
36 12 10 34 12 8 33 12 7 33 12 7 33 12 7
35 12 8 38 14 10 40 15 11 42 15 11 42 15 11
44 15 11 47 16 13 55 21 21 76 40 43 110 71 78
136 96 107 144 103 118 145 104 122 147 105 126 149 105 128
148 105 128 149 105 128 149 105 127 149 104 126 149 104 124
27 11 4 27 11 4 28 11 4 28 11 4 29 11 4
29 11 4 30 11 4 30 11 4 30 11 5 31 12 7
33 13 9 34 13 10 33 13 10 34 13 12 36 15 16
39 16 21 45 19 32 56 28 48 72 42 69 88 56 89
101 66 107 108 70 119 111 71 127 114 71 133 117 72 138
120 73 141 123 73 144 124 73 146 125 73 147 128 75 150
132 78 154 135 80 158 138 81 161 140 82 165 144 83 169
148 86 175 152 89 180 156 91 184 159 93 187 163 95 191
168 98 196 171 101 199 172 102 199 176 107 201 193 126 213
219 154 234 229 165 241 210 149 226 186 128 211 171 115 201
155 101 184 126 73 148 91 39 103 69 20 69 65 18 51
65 20 39 63 21 30 63 21 26 63 21 27 64 22 28
65 23 29 66 24 28 66 24 26 69 25 26 73 26 28
77 27 29 83 30 30 98 41 39 119 57 54 134 68 63
140 71 65 141 71 63 142 70 62 141 68 61 138 65 59
136 62 59 140 65 65 151 74 77 160 83 88 164 86 95
157 80 95 142 67 92 136 64 104 152 82 139 177 110 181
189 125 205 188 129 210 187 130 212 190 134 215 193 138 218
196 140 222 198 141 225 200 142 226 202 144 228 205 147 229
207 149 231 208 151 233 210 153 235 212 155 236 215 158 238
217 160 238 219 162 238 219 163 237 219 164 235 219 164 234
220 164 233 220 165 233 221 166 234 222 167 234 222 167 235
223 168 235 224 169 237 227 172 240 228 173 241 228 173 241
229 174 241 229 176 243 231 178 246 233 180 247 234 182 249
237 184 251 240 187 254 242 189 255 241 189 255 239 187 254
237 186 254 239 188 254 240 189 255 240 189 255 239 189 255
239 188 254 239 189 255 239 189 255 238 189 255 236 188 255
232 186 254 226 180 252 216 170 245 205 158 235 201 153 231
208 159 238 220 172 249 229 180 254 232 182 254 235 183 254
238 183 253 239 184 253 240 185 253 241 186 254 241 188 255
241 189 255 242 190 255 242 190 254 242 191 254 243 191 254
244 193 254 245 194 254 245 195 254 246 197 254 246 198 254
246 199 253 245 200 252 245 200 252 246 200 253 247 201 254
248 201 255 248 201 255 248 201 255 247 201 254 246 200 254
245 198 253 244 197 253 245 197 253 244 195 252 241 192 251
239 189 250 237 187 249 236 186 249 236 186 248 237 187 246
240 190 247 244 193 249 248 196 252 250 198 254 250 197 253
251 198 253 253 201 254 254 202 254 254 201 253 251 197 248
236 181 229 203 148 188 163 106 137 134 76 99 122 62 82
118 57 74 116 56 69 113 54 63 104 48 52 87 35 35
70 22 19 59 16 11 51 12 7 45 9 4 40 8 4
38 8 5 38 9 6 37 10 8 37 12 10 37 13 11
37 13 11 36 13 10 35 13 9 34 13 8 33 12 7
34 12 7 36 12 8 38 14 10 40 16 12 42 16 12
43 16 12 45 16 12 48 17 14 55 22 22 76 39 44
109 70 79 136 95 109 145 103 120 146 104 124 148 105 128
149 105 130 149 105 130 149 105 129 149 105 128 149 104 127
148 104 126 30 12 7 30 12 7 30 12 6 31 12 6
31 12 5 31 12 5 31 12 5 31 12 5 32 12 6
33 13 8 34 13 10 35 13 12 36 13 16 39 17 21
44 21 27 50 24 37 59 30 52 72 41 72 88 56 92
101 67 109 108 71 120 111 71 127 113 71 133 116 72 138
120 74 143 124 76 147 127 77 150 129 77 151 130 76 152
132 77 154 135 80 157 138 82 161 142 83 165 145 84 169
148 86 173 152 88 178 155 91 183 159 93 187 162 95 190
165 97 194 170 100 200 173 102 203 174 103 203 174 105 202
184 118 207 210 145 227 232 169 245 224 163 239 196 137 219
175 119 204 158 103 186 128 73 150 92 39 105 70 20 71
65 18 53 65 20 42 64 20 33 64 20 29 65 21 29
65 22 30 66 22 31 67 23 30 68 24 28 70 25 28
75 27 30 79 27 31 85 30 32 101 41 42 121 58 57
136 69 66 142 72 67 144 72 66 144 71 65 143 70 64
141 67 63 140 64 63 143 67 69 153 76 80 164 85 92
167 88 100 161 83 101 148 72 101 144 70 115 158 87 148
179 111 186 189 124 208 188 127 213 187 128 214 189 131 217
192 135 220 195 137 223 197 138 225 198 140 226 200 142 228
203 144 229 205 147 231 208 150 234 210 152 235 211 154 236
213 156 237 216 159 238 219 162 239 221 165 239 221 165 238
220 164 236 220 164 235 220 164 234 220 165 234 221 165 234
221 166 235 221 166 235 223 168 237 226 170 240 227 172 242
228 172 242 229 174 243 229 176 245 231 178 247 234 181 249
235 182 251 238 185 253 241 188 254 244 191 255 243 190 255
240 188 254 238 187 254 239 188 254 241 190 255 242 191 254
241 190 254 240 190 253 240 189 254 241 190 255 241 192 255
241 193 255 240 192 255 237 190 255 232 184 252 225 178 248
221 173 244 223 173 245 228 178 249 232 182 252 235 184 254
238 185 254 239 185 254 240 186 253 241 187 253 241 187 254
241 188 254 241 189 254 242 191 254 243 192 254 244 193 254
244 194 254 245 195 254 245 196 253 245 197 254 246 198 254
247 199 253 247 200 253 246 201 252 246 201 252 247 202 253
248 203 254 249 203 255 250 203 255 250 203 255 249 202 254
248 201 253 248 201 253 248 201 253 249 200 253 249 200 253
248 199 253 247 198 253 246 198 254 245 198 253 245 198 252
245 198 250 247 199 250 249 200 251 251 202 253 253 202 254
252 201 254 252 199 253 253 201 254 254 201 253 253 199 249
243 188 235 214 158 201 173 116 152 139 81 106 123 62 81
117 56 71 114 54 66 113 54 62 108 50 56 93 39 41
74 24 23 62 16 12 55 13 8 50 12 7 44 10 5
40 9 5 38 9 6 37 9 8 37 10 9 37 12 11
37 13 11 37 13 11 36 13 10 35 13 9 34 13 8
34 13 8 34 13 8 36 13 8 38 14 10 41 16 12
42 17 13 44 17 13 46 17 13 49 18 15 56 22 23
76 38 44 109 69 80 136 95 110 146 103 122 147 104 126
149 105 130 149 105 131 149 105 131 148 104 130 148 104 129
148 104 128 148 104 127 32 12 10 32 13 9 32 13 8
33 13 7 33 13 6 33 13 5 33 13 5 33 13 6
35 14 9 36 14 11 36 13 14 37 13 17 40 15 23
47 21 32 54 28 43 64 36 57 76 45 75 88 54 93
98 63 107 105 68 118 108 69 124 110 68 130 114 70 136
119 73 143 123 75 148 127 78 151 131 79 154 133 80 155
134 80 156 136 80 156 137 81 159 141 83 163 145 85 169
149 87 173 152 88 177 155 90 182 159 92 186 162 95 190
165 96 194 168 98 198 172 100 204 173 101 207 174 102 207
175 105 206 183 116 209 208 143 227 234 171 247 230 169 245
202 143 225 180 122 208 162 105 189 131 74 152 94 39 107
71 19 73 66 17 56 66 18 45 65 19 36 65 19 32
66 20 32 67 21 33 67 22 33 68 23 32 69 24 30
72 25 29 76 26 31 80 28 32 87 31 33 102 42 43
123 58 58 138 70 68 144 73 69 146 73 68 146 72 66
146 71 66 144 68 66 143 65 66 146 68 72 156 77 84
167 86 97 172 92 107 169 90 112 160 83 116 157 82 131
167 95 161 183 114 194 191 125 213 190 127 219 189 128 220
190 131 221 192 133 223 194 136 226 196 137 228 198 139 229
200 140 230 203 143 231 206 147 233 210 151 236 211 153 237
211 154 237 213 156 237 216 159 238 220 163 240 224 167 243
224 168 242 222 166 238 220 164 236 221 165 236 221 165 236
221 165 236 221 165 236 221 166 236 223 167 238 225 169 242
227 171 244 227 171 244 228 173 245 230 176 247 232 179 249
234 181 251 236 183 252 237 184 253 240 187 254 243 190 255
243 191 255 241 189 255 239 188 254 239 188 255 241 190 255
243 191 255 244 192 254 243 191 254 242 191 254 242 191 255
243 192 255 244 193 255 243 194 255 242 193 255 240 191 255
237 188 253 235 186 252 233 183 250 232 182 248 234 183 250
237 186 252 238 187 252 239 187 252 240 187 252 240 188 252
241 189 252 241 189 252 241 190 251 242 192 252 244 195 253
244 196 253 245 197 253 245 198 253 245 199 252 245 200 253
246 200 253 247 201 253 247 201 252 248 202 252 248 203 252
249 204 253 249 205 254 250 206 255 250 206 255 251 206 255
250 206 254 250 205 254 250 205 253 251 203 253 251 203 253
251 203 253 252 203 253 252 204 254 251 204 255 250 205 254
249 205 253 250 204 252 251 205 251 252 205 252 254 206 253
254 206 254 254 204 254 254 202 254 254 201 252 254 199 250
249 193 240 226 169 212 186 128 167 149 89 121 127 67 88
119 58 72 116 55 66 113 53 62 107 49 55 96 41 44
81 29 30 66 18 17 58 14 11 54 13 9 49 12 8
45 11 8 41 10 7 39 9 8 38 10 9 37 11 11
37 13 12 38 14 12 37 13 11 37 13 11 35 13 9
34 13 8 34 13 8 35 13 8 36 13 9 38 14 10
41 16 12 43 17 13 45 17 13 47 18 14 50 19 16
57 22 23 76 37 44 109 68 80 137 94 110 146 103 123
148 104 127 149 105 130 150 106 132 149 105 132 149 105 132
149 105 131 149 105 130 149 105 129 34 13 12 34 13 11
34 12 9 34 12 7 33 12 6 33 13 5 34 13 5
35 13 7 38 15 11 39 14 15 39 14 18 42 15 25
48 21 36 57 29 49 67 38 62 77 46 77 89 55 94
97 61 107 102 64 115 104 66 120 106 65 124 109 66 130
115 70 138 121 73 145 125 75 149 129 78 153 133 80 156
135 82 158 137 81 158 138 81 158 140 82 160 143 84 164
148 87 171 152 88 177 155 90 181 158 91 185 162 94 189
166 96 194 168 98 198 171 99 203 172 99 207 173 99 209
174 101 211 176 106 210 185 117 213 208 143 229 233 171 247
233 173 247 208 149 229 184 125 211 164 105 190 132 74 154
94 38 109 72 18 76 67 16 60 67 17 49 66 18 41
66 19 37 67 19 36 67 20 36 69 22 36 70 23 35
71 24 33 73 25 32 78 26 32 82 27 32 89 30 34
104 42 43 125 59 59 140 70 69 146 73 70 148 73 69
149 73 69 149 72 70 148 70 70 147 68 71 149 69 76
159 77 87 169 87 101 177 96 114 179 99 124 174 96 132
171 95 148 178 105 174 189 118 202 193 126 218 192 128 224
191 129 226 190 131 225 192 132 226 194 135 228 196 136 230
198 137 231 200 139 231 203 142 232 206 147 234 210 151 238
212 154 239 212 154 238 213 156 238 216 159 239 221 164 241
226 169 245 228 172 246 225 169 243 223 167 239 221 165 237
221 165 236 221 165 236 221 165 236 222 166 237 223 167 240
225 169 243 226 170 245 227 171 245 228 172 246 229 175 248
232 179 250 234 181 252 235 182 253 236 183 253 238 185 254
241 188 255 242 190 255 241 190 255 240 189 255 240 189 255
242 190 255 245 192 255 247 193 255 246 193 255 245 193 255
245 192 255 245 193 255 245 194 255 245 194 255 245 194 255
243 193 255 242 192 254 240 190 253 237 187 250 235 184 248
235 184 248 236 186 249 237 187 249 237 187 248 238 188 249
239 189 249 240 190 249 241 191 249 241 192 249 242 195 250
244 198 252 245 200 252 245 201 252 245 201 251 245 202 251
245 203 251 246 203 252 247 204 252 249 204 253 249 205 253
249 205 253 249 206 254 249 207 255 250 208 255 251 210 255
251 210 255 250 210 254 250 209 253 251 209 254 251 208 253
252 207 253 252 206 252 253 207 253 252 207 253 251 208 254
249 208 253 250 208 252 251 208 251 253 208 251 254 209 252
254 208 253 254 207 253 254 205 253 254 204 253 254 201 251
252 196 244 237 180 223 202 142 182 161 99 135 135 72 100
124 62 80 121 59 70 118 57 65 112 53 59 99 42 48
84 30 33 71 21 22 63 17 16 56 14 12 52 13 10
49 13 10 45 12 9 42 11 9 40 10 10 39 11 11
38 12 13 38 13 12 38 14 12 38 14 12 38 14 12
37 14 10 36 14 9 35 13 8 35 13 8 37 14 9
40 15 11 42 17 13 45 17 14 46 18 14 48 19 15
52 20 17 58 22 23 76 37 44 109 67 80 137 95 111
148 104 124 149 105 128 150 106 131 150 106 133 150 106 133
150 106 133 150 106 132 149 105 131 149 105 130 37 13 15
36 13 13 35 12 10 34 11 7 34 11 6 34 12 6
35 13 7 37 13 9 39 13 13 40 14 18 43 16 26
50 22 38 60 31 54 72 41 70 80 48 83 88 54 94
95 58 105 99 62 113 102 63 118 104 64 122 106 64 125
110 66 131 116 70 138 121 73 145 125 74 150 129 77 154
134 80 158 136 81 159 137 80 158 139 81 158 142 84 161
146 86 167 152 88 174 156 90 182 159 91 186 161 93 188
165 94 192 169 98 197 171 100 202 172 100 206 172 99 209
172 98 211 174 101 214 178 107 215 186 117 217 206 140 229
231 168 246 238 178 250 218 158 236 189 130 214 164 105 189
132 74 155 95 38 112 73 18 81 69 16 66 69 17 56
68 18 47 68 19 43 68 19 41 69 20 41 70 22 40
72 24 40 74 26 39 77 27 36 80 27 34 84 27 33
90 30 34 106 42 45 128 60 61 144 72 71 150 75 73
152 75 73 154 76 74 155 76 76 154 75 77 153 72 78
154 73 82 162 79 91 172 89 105 181 98 119 185 103 130
182 102 141 179 102 158 184 110 183 191 119 206 192 124 220
192 128 227 191 129 229 190 129 227 191 131 227 194 133 229
196 134 231 198 135 231 201 137 232 203 141 233 206 146 235
208 150 237 211 153 238 213 155 239 215 157 239 216 159 239
220 163 241 226 169 246 231 175 250 231 175 249 227 171 243
223 167 238 221 165 236 220 164 236 220 164 237 222 166 238
224 168 241 224 168 243 225 168 244 226 169 245 227 172 247
229 175 249 231 178 251 233 180 252 235 182 253 236 183 254
237 184 255 239 186 255 240 187 255 240 188 255 239 188 255
240 189 255 241 189 255 245 191 255 247 192 255 247 192 255
247 192 255 247 192 255 247 193 255 247 194 255 247 194 255
247 194 255 246 193 255 244 192 254 241 190 252 238 187 249
235 185 247 236 186 247 237 187 248 238 189 248 239 190 247
240 191 247 240 193 248 241 194 248 242 195 249 242 196 248
243 199 249 246 202 252 247 204 252 246 205 252 247 206 251
247 206 251 247 207 251 247 207 251 248 208 252 250 208 253
251 208 254 250 208 254 249 209 254 248 210 255 249 212 255
250 214 255 250 214 254 248 213 253 248 212 252 249 213 254
250 213 254 251 212 253 251 211 252 251 210 252 250 210 252
248 210 251 248 210 251 250 210 251 252 210 251 254 211 252
255 210 252 254 208 252 253 207 252 253 206 253 253 204 251
252 199 247 243 187 232 216 156 197 175 112 149 143 77 110
129 64 89 124 60 76 122 60 69 118 58 65 107 49 55
89 34 39 73 21 25 64 16 18 59 15 15 53 13 12
50 12 11 47 12 11 44 11 10 41 10 9 40 11 10
40 12 13 41 14 14 40 14 13 40 14 13 41 15 14
40 16 13 39 15 12 38 14 10 37 13 9 37 14 9
40 15 11 42 16 13 44 17 14 46 18 15 48 19 15
50 19 16 53 20 18 58 22 23 75 36 42 108 66 78
138 95 111 149 106 125 149 106 128 149 105 130 150 106 132
150 105 132 149 105 132 149 105 131 149 105 130 149 105 128
39 13 16 38 13 15 36 12 12 36 11 9 36 11 8
37 12 9 39 13 11 39 13 14 40 13 18 44 16 26
51 22 39 62 31 55 73 41 73 83 48 87 88 53 96
92 56 104 97 58 112 100 61 117 102 63 120 105 64 124
108 65 127 112 67 132 117 70 139 122 72 145 126 74 150
130 76 155 134 79 159 137 80 160 138 80 159 140 81 159
144 84 162 149 87 169 154 88 177 158 89 184 160 90 187
162 92 190 167 95 194 171 99 199 173 100 204 173 100 207
173 99 210 172 99 213 175 102 216 179 107 217 186 117 218
203 137 229 229 165 244 241 180 252 225 165 241 195 135 218
167 106 191 134 74 157 98 39 116 76 19 87 73 17 74
71 17 63 70 17 54 70 18 49 70 19 48 70 20 47
72 22 46 74 25 46 77 27 44 80 29 41 83 29 38
86 28 36 93 32 37 110 44 49 133 63 66 149 76 77
156 79 80 158 79 80 160 81 82 162 81 84 161 80 85
159 77 86 160 77 89 165 81 96 174 89 107 180 96 119
182 99 128 179 98 139 178 100 157 183 108 182 189 116 205
190 121 219 191 126 227 191 127 230 190 128 229 192 130 229
194 132 231 196 133 232 198 135 232 201 138 233 205 142 235
206 146 236 208 148 236 210 152 237 213 155 239 215 158 240
216 159 239 220 163 241 226 169 245 232 176 250 236 180 252
231 175 247 224 168 240 221 165 236 220 164 236 221 165 237
222 166 239 223 167 240 223 167 243 224 167 244 225 168 245
227 171 247 228 174 249 230 176 251 232 178 252 233 180 253
235 182 254 236 183 255 237 184 255 238 185 255 238 186 255
238 187 255 239 188 255 240 188 255 242 189 255 244 190 255
245 190 255 246 191 255 246 191 255 247 192 255 247 193 255
247 193 255 247 193 254 246 193 254 244 192 253 240 189 250
237 187 247 236 186 246 236 187 247 239 190 248 241 193 249
242 196 248 243 197 249 244 199 250 245 200 251 246 202 251
246 203 251 247 205 251 248 207 252 248 209 253 248 209 252
248 210 252 248 211 251 248 212 251 248 212 251 249 211 251
250 211 252 251 211 253 250 211 253 248 212 253 248 214 254
249 216 255 249 216 254 247 216 253 248 217 253 248 217 253
247 216 254 248 216 254 250 216 254 250 215 253 250 214 252
248 212 251 247 211 249 249 211 249 252 213 250 254 212 251
254 211 250 254 209 251 254 208 252 254 207 253 254 205 253
253 202 250 245 192 238 223 165 209 188 126 166 154 88 124
136 67 98 130 61 85 126 60 75 122 59 69 115 55 63
99 42 49 80 26 32 66 17 22 60 14 18 55 12 15
51 12 13 49 12 13 47 12 13 44 11 12 41 10 10
40 10 11 41 12 14 42 14 15 42 15 14 42 15 14
43 16 15 43 16 15 42 16 13 40 15 12 39 14 10
40 14 10 42 16 12 44 17 14 46 18 15 48 18 16
50 19 16 52 20 17 54 20 18 58 21 23 75 35 41
107 65 76 138 95 110 151 108 125 151 108 128 150 106 129
149 105 129 148 104 129 149 105 129 149 105 129 149 105 128
149 105 126 38 12 15 38 12 15 37 12 13 37 12 12
38 12 12 39 13 14 42 14 17 42 13 20 43 14 26
51 20 38 63 31 56 75 42 74 84 48 88 89 52 98
92 54 104 94 55 110 98 58 116 101 60 120 103 62 123
106 63 126 109 65 129 114 67 134 119 70 141 123 72 146
126 73 151 131 76 157 135 79 161 138 80 163 139 79 162
141 81 161 145 84 164 150 86 171 155 87 179 158 88 186
161 89 189 164 92 192 171 97 198 177 102 205 179 104 209
178 103 211 175 101 211 174 100 213 175 102 215 179 108 217
187 119 219 204 138 230 228 164 244 241 179 252 229 168 243
201 140 221 171 110 194 138 76 160 102 41 121 81 21 95
76 18 82 74 18 71 72 17 62 72 17 56 72 18 54
72 19 53 74 21 52 76 24 51 79 27 49 82 29 47
86 30 44 89 30 41 96 33 43 114 47 55 138 67 74
156 81 86 163 85 89 166 86 90 169 87 92 169 87 93
168 85 93 166 82 93 166 81 95 169 83 100 174 88 108
177 92 116 175 92 122 171 91 132 172 93 151 178 102 177
185 111 202 188 118 218 190 123 227 190 126 230 191 128 231
193 131 231 196 132 232 197 133 232 198 134 232 201 137 233
204 141 234 206 145 235 207 147 234 209 150 236 212 154 238
214 157 238 215 158 238 218 161 239 223 166 242 230 174 248
236 180 252 234 178 250 227 171 243 222 166 237 221 165 237
222 166 238 222 166 238 222 166 239 223 166 242 224 167 245
225 168 245 226 170 247 227 173 248 229 175 250 230 176 251
231 178 252 233 179 253 234 181 254 235 182 254 236 183 254
236 184 254 236 185 254 237 185 255 238 186 255 240 187 255
241 187 255 243 188 255 244 189 255 245 190 255 246 191 255
247 191 254 247 192 254 246 192 252 245 191 252 243 191 251
240 189 249 237 187 246 236 186 246 237 188 246 240 192 248
244 198 250 246 201 251 247 203 251 249 205 252 250 207 253
251 209 254 251 211 254 251 212 254 251 213 254 250 213 253
250 214 253 250 215 253 251 215 253 251 216 252 251 217 252
250 215 251 250 214 250 251 215 252 251 216 252 250 216 252
250 217 253 251 219 254 249 219 253 248 219 253 249 221 254
249 220 254 248 218 253 248 217 253 250 218 254 251 218 254
250 216 253 249 213 251 249 212 248 251 213 248 253 213 249
255 212 249 254 211 249 254 209 251 254 209 252 254 207 253
253 204 252 250 198 246 233 177 224 198 138 182 162 98 137
140 72 108 134 62 93 132 61 85 128 61 77 122 59 70
110 50 60 91 35 44 72 21 28 62 14 21 57 13 19
53 11 17 50 11 16 49 12 17 48 13 17 46 12 15
43 11 13 42 11 13 43 13 15 44 15 16 44 15 15
44 16 15 45 16 16 45 17 16 44 17 14 43 16 13
42 15 11 42 15 11 44 16 13 46 18 15 48 18 16
50 19 17 52 20 17 54 20 18 56 21 19 59 22 23
75 35 40 108 65 74 139 96 108 153 110 125 154 111 129
153 109 130 150 107 129 149 105 128 150 106 129 151 107 129
150 107 127 150 107 126 37 10 14 37 11 14 38 11 14
39 12 16 40 13 17 42 14 20 44 14 24 45 13 29
47 15 36 58 25 52 72 38 71 84 48 88 91 53 100
93 54 106 94 54 111 96 56 115 100 58 120 102 60 123
104 61 125 107 63 128 111 65 133 115 68 138 120 70 143
124 72 148 127 73 153 132 76 159 136 78 164 139 79 165
140 79 165 142 80 165 146 83 168 151 86 175 158 88 185
164 92 193 168 95 198 173 99 201 179 104 207 187 111 215
191 115 220 189 113 220 182 107 216 177 103 214 177 105 215
181 111 216 190 122 220 206 141 230 228 165 244 242 181 252
235 174 246 210 148 226 180 118 200 145 82 167 108 46 129
87 26 104 82 22 91 79 20 80 75 17 69 73 17 63
73 18 60 74 19 58 76 21 57 78 24 56 80 27 54
84 29 52 88 31 50 92 31 48 100 35 50 119 50 64
146 72 84 165 88 98 172 92 101 175 93 101 178 95 103
178 94 103 175 91 101 172 87 100 171 84 101 172 85 104
175 87 109 174 88 113 171 87 118 167 86 128 168 88 147
175 97 174 182 107 199 185 114 216 188 120 225 190 124 229
193 129 233 196 133 234 198 133 234 198 134 233 198 134 231
200 135 230 202 139 230 204 142 231 205 145 232 208 149 234
211 153 237 213 156 237 213 156 236 216 159 236 220 163 239
226 170 244 234 178 250 235 179 251 230 174 245 224 169 239
222 166 236 222 167 237 223 167 238 222 166 239 223 166 242
223 167 244 224 167 245 225 169 246 226 171 247 227 173 248
228 174 249 229 175 250 231 177 252 232 178 252 232 179 252
233 180 253 233 181 253 234 182 254 234 183 254 235 183 254
236 184 254 238 184 254 239 185 254 241 187 254 243 188 254
244 189 254 246 190 253 246 190 252 245 190 251 244 190 250
242 191 249 240 189 248 238 188 246 238 188 246 239 190 247
242 195 249 247 201 252 250 205 253 251 207 253 252 209 254
254 212 255 254 214 255 254 216 255 254 217 255 253 217 255
253 217 254 253 218 254 253 219 254 253 219 254 253 219 254
253 220 253 251 219 252 251 218 250 253 219 251 254 220 252
253 220 252 253 220 252 252 218 251 250 217 249 249 217 248
249 217 249 249 215 248 248 212 247 249 212 247 252 214 250
253 215 252 252 214 251 251 213 249 252 213 247 253 212 245
253 211 245 254 211 247 254 211 250 255 211 253 255 210 254
255 208 254 253 202 251 242 188 237 216 157 205 178 115 160
147 81 121 133 63 100 131 60 92 132 61 87 129 62 80
120 57 71 104 45 57 84 29 40 66 16 27 58 12 22
55 12 22 51 11 20 48 10 18 48 11 18 48 13 19
47 13 18 45 12 16 45 13 16 46 15 17 47 16 18
46 16 17 47 16 16 47 17 17 48 18 17 47 18 16
46 17 14 44 15 13 44 15 13 46 17 14 48 18 16
50 19 17 52 19 18 54 20 18 56 21 19 58 21 20
61 23 24 77 36 40 109 66 73 140 97 107 154 110 123
155 112 128 154 111 130 153 110 130 152 109 129 152 109 129
152 109 128 151 109 127 151 109 126 38 10 14 39 11 15
41 12 18 43 14 21 45 15 25 46 16 30 48 16 35
49 16 40 53 18 48 64 28 64 78 41 83 88 51 98
93 54 106 94 54 111 95 55 114 98 57 118 101 59 122
103 60 125 105 61 127 108 63 132 112 65 137 117 68 142
121 70 147 125 71 151 128 73 156 133 76 162 138 78 166
140 79 169 141 78 169 143 79 169 147 82 173 153 86 180
163 92 192 173 99 203 180 105 210 184 108 214 189 113 218
196 120 225 203 127 232 202 126 232 193 118 224 185 112 218
183 111 216 185 115 217 193 126 221 208 143 229 226 164 241
241 180 250 241 180 249 222 160 235 193 130 211 157 93 178
119 55 141 96 33 115 90 28 103 85 25 91 79 20 78
76 18 71 76 18 68 77 20 65 78 22 63 81 25 61
83 28 59 87 30 58 91 32 58 96 32 56 104 37 59
125 54 74 154 78 96 174 95 111 182 101 114 185 102 114
187 102 114 185 100 112 180 94 108 176 89 105 174 86 104
174 86 106 174 86 109 173 86 111 170 86 116 167 85 127
167 87 145 174 96 172 180 105 198 184 111 214 186 117 223
189 122 228 194 129 233 198 134 235 200 135 235 200 135 234
200 134 232 199 135 229 200 136 227 202 140 227 204 144 229
208 149 233 211 154 236 213 156 236 213 156 234 214 157 234
217 161 236 223 167 240 230 174 246 235 179 250 234 179 249
229 174 243 224 169 237 222 167 236 223 167 238 223 167 240
223 167 242 223 166 243 224 167 244 224 168 245 224 170 246
225 171 247 225 171 247 226 172 248 228 174 249 229 175 250
229 175 250 230 176 251 230 178 252 231 179 252 231 179 253
232 180 252 232 180 252 233 181 252 235 182 252 238 184 252
240 186 252 243 188 252 245 189 251 245 190 250 245 190 249
244 190 248 242 191 248 241 190 247 239 190 246 239 191 247
241 193 249 245 198 251 249 203 253 251 206 253 253 208 254
254 210 255 255 213 255 255 215 255 255 217 255 255 218 255
255 219 255 254 219 255 254 219 255 254 220 255 255 221 254
254 221 254 254 222 254 253 221 253 253 220 251 254 220 251
254 220 251 253 218 250 250 213 246 242 202 236 233 190 224
227 183 217 227 181 216 227 180 215 227 178 214 230 180 217
237 187 224 243 194 230 245 198 234 249 203 237 253 207 240
254 209 241 253 210 243 254 211 247 255 212 251 255 212 254
255 210 255 255 207 255 249 197 247 229 172 222 198 136 185
169 103 149 147 79 121 135 65 103 131 61 94 132 62 90
127 60 81 114 52 68 96 38 53 77 23 38 62 14 28
56 12 25 53 12 25 49 10 22 45 8 19 45 9 19
47 12 19 47 12 18 47 12 17 46 13 16 47 15 17
48 16 17 49 17 18 49 17 18 50 18 19 50 19 19
49 19 17 48 18 16 47 17 14 47 16 14 48 18 16
51 19 17 53 19 18 55 20 19 57 21 19 58 21 20
60 22 21 63 23 24 77 36 38 108 66 70 139 97 103
153 110 120 155 111 125 155 111 128 155 112 129 154 111 129
152 109 127 151 109 126 151 109 124 151 109 123 43 13 18
45 15 20 47 17 25 50 20 31 53 21 37 54 22 42
56 22 48 57 22 53 60 23 61 69 31 74 81 43 91
90 51 103 94 54 109 95 54 113 96 55 116 99 57 119
102 60 124 104 61 127 105 61 130 109 62 134 114 66 140
119 68 146 123 70 151 125 71 155 129 72 159 134 75 164
138 78 169 140 78 171 141 78 172 143 79 174 147 81 178
154 85 185 165 92 196 176 101 208 185 108 217 190 113 221
195 117 224 202 125 230 210 133 238 213 136 240 207 132 235
199 126 229 193 122 223 193 124 221 199 133 223 210 147 229
224 163 237 239 179 247 245 184 251 233 171 243 206 144 224
169 105 191 129 64 153 104 40 126 96 33 113 91 30 102
84 24 88 80 21 80 80 21 76 81 23 73 83 25 71
85 28 68 87 31 65 91 33 64 95 34 65 99 34 65
108 39 68 131 57 84 161 84 108 183 103 124 191 108 127
194 109 125 194 108 123 190 102 118 182 95 111 177 89 106
175 86 106 175 85 107 174 85 109 173 85 110 170 85 116
167 85 127 167 87 145 173 95 171 180 104 196 183 110 212
184 115 221 186 120 225 190 125 229 195 130 232 199 134 234
202 137 235 203 137 234 202 137 231 202 138 227 202 140 227
204 145 229 208 150 233 212 154 236 213 156 236 213 156 234
214 157 233 216 160 233 221 165 237 227 172 243 235 179 249
239 184 252 236 181 248 229 174 242 224 169 237 223 167 237
223 167 240 223 167 242 223 166 243 224 167 244 224 167 244
223 168 244 223 169 245 223 169 245 224 170 246 225 171 247
226 172 248 227 173 248 227 174 249 228 175 250 228 176 250
229 177 251 229 177 250 229 177 249 230 178 249 232 179 249
235 182 249 238 184 250 241 186 250 244 188 249 245 189 249
244 190 248 244 191 247 243 192 248 242 192 247 241 192 247
242 194 249 244 197 251 247 201 253 250 204 254 252 206 253
253 207 254 254 209 255 255 211 255 255 214 255 255 215 255
255 217 255 255 218 255 255 218 255 254 219 255 254 220 255
255 221 254 254 221 254 254 222 254 254 222 254 254 222 254
253 219 251 247 210 244 236 196 231 222 178 214 204 154 191
186 131 169 178 119 157 179 117 154 182 118 155 184 119 155
189 123 159 200 133 168 210 144 178 218 154 187 229 169 201
242 187 217 250 199 230 252 207 240 254 213 248 255 214 252
255 213 254 255 209 255 253 204 253 241 187 238 213 153 205
183 119 169 166 98 146 154 85 128 141 71 111 134 64 99
130 62 92 121 56 79 105 43 62 87 29 48 72 19 37
60 13 30 55 11 28 51 11 27 47 9 24 45 8 22
46 10 22 49 13 22 49 14 21 49 14 19 48 14 17
48 15 17 49 16 17 51 18 19 52 19 20 53 20 21
53 20 20 52 20 19 51 19 17 49 18 16 49 18 16
51 19 17 53 19 18 55 19 19 57 20 20 59 21 20
61 22 21 62 22 22 64 24 24 76 34 35 103 61 63
131 89 93 144 101 109 148 104 116 151 107 122 152 110 125
151 108 125 149 106 122 148 106 120 147 106 119 147 107 118
51 20 27 53 22 30 56 25 36 60 28 44 63 30 51
65 31 57 66 31 64 66 29 69 66 28 73 72 33 83
83 43 96 92 51 107 96 55 113 97 56 116 97 56 117
100 58 120 104 60 126 105 61 129 106 60 131 109 62 136
115 65 143 120 69 150 124 70 155 126 71 158 130 72 161
135 75 167 139 77 171 142 78 174 142 77 176 144 78 179
148 80 184 155 84 189 163 89 197 174 97 207 184 106 216
191 113 222 198 121 227 208 131 234 217 141 241 222 147 246
222 147 246 215 143 240 207 137 233 205 137 229 210 145 230
218 156 233 229 169 239 242 183 248 249 190 253 241 180 249
218 155 234 180 116 202 137 72 161 110 45 134 102 38 121
97 34 111 89 28 98 86 25 90 85 25 86 86 27 83
88 29 80 90 33 77 93 36 73 97 38 73 102 38 75
106 38 76 115 44 80 139 64 96 171 92 121 194 112 138
203 118 141 204 117 137 201 112 131 192 103 121 182 93 111
176 87 106 174 85 105 175 84 107 174 84 108 172 83 109
170 84 115 167 84 125 166 86 144 172 94 170 179 104 195
182 110 211 184 115 220 185 118 223 187 121 225 193 128 229
200 136 235 207 142 240 211 145 241 212 147 239 212 148 236
211 149 235 210 151 235 213 155 238 217 160 241 219 161 240
218 161 238 218 161 236 219 163 236 223 168 239 230 174 244
238 182 250 244 189 254 244 189 253 236 181 247 227 172 240
222 167 236 222 167 238 223 167 240 223 167 242 223 166 243
223 167 243 222 167 243 222 168 244 222 168 244 222 169 245
223 170 246 224 171 247 225 171 247 225 172 247 225 173 248
226 174 249 227 175 249 227 175 249 227 175 247 228 175 246
230 177 247 233 180 247 237 183 248 240 185 248 242 187 248
244 189 247 244 191 247 245 192 247 244 193 247 244 194 247
244 195 248 245 197 250 247 200 253 250 203 255 252 205 254
253 206 254 254 207 254 255 208 255 255 210 255 255 212 255
255 213 255 255 215 255 254 216 255 254 217 255 254 218 254
254 219 254 254 220 253 254 220 253 254 220 254 254 221 255
254 221 254 246 211 247 223 181 221 190 143 185 165 111 153
149 89 131 139 72 114 137 65 105 143 67 105 151 73 109
156 75 109 161 79 112 169 87 118 177 95 124 184 103 132
197 122 149 213 147 174 227 168 196 239 186 217 249 202 236
254 211 247 255 212 252 254 207 252 248 197 246 229 172 225
199 136 190 176 108 161 166 96 146 160 89 135 147 78 119
136 68 105 128 62 94 113 49 75 93 32 55 77 20 42
67 15 36 59 12 32 52 10 29 48 9 27 47 9 27
50 13 29 54 17 31 56 19 30 56 19 28 54 18 25
53 18 22 52 18 20 52 18 20 53 19 20 54 20 21
55 21 21 55 21 21 54 21 20 53 20 18 52 18 17
52 18 17 53 19 18 54 20 19 56 20 20 59 21 21
61 21 21 62 22 22 64 23 23 65 23 23 71 30 29
90 48 48 108 66 68 117 74 80 122 79 88 129 86 98
132 90 103 132 90 103 131 88 102 130 88 100 129 89 99
129 89 98 61 27 42 62 29 45 66 32 51 70 35 58
73 37 66 75 38 73 77 39 80 75 36 82 72 31 83
76 35 90 87 45 103 95 53 113 99 56 119 99 57 120
100 57 121 102 59 124 106 61 130 107 61 133 108 61 135
111 63 139 117 66 146 122 69 152 125 71 157 128 72 160
131 72 164 135 74 169 140 76 174 143 77 178 145 76 181
148 77 184 152 80 190 158 83 194 166 87 199 175 95 205
183 105 213 194 117 221 208 133 231 222 148 240 231 158 247
236 164 250 237 166 252 233 163 248 225 157 242 222 156 239
226 162 240 233 171 243 240 181 247 247 190 252 251 195 254
247 189 253 231 170 243 196 133 215 153 88 175 122 56 144
111 45 130 105 39 120 96 32 108 93 29 102 93 29 100
94 31 97 95 32 93 96 34 88 99 38 85 106 43 87
114 47 91 120 49 93 131 57 98 155 78 116 188 106 140
210 124 155 216 127 156 213 122 148 205 113 137 195 102 125
184 92 114 176 84 106 173 81 104 174 82 105 174 82 106
172 82 107 169 83 112 167 82 123 167 85 143 173 95 170
179 105 194 182 111 211 183 115 219 183 118 222 185 121 223
193 129 228 204 140 238 213 149 246 219 154 249 222 157 250
223 159 248 223 161 246 222 163 245 225 166 247 228 170 249
230 171 249 229 171 247 228 171 245 230 173 245 233 177 246
238 182 249 243 188 253 248 193 254 249 194 255 243 188 252
233 178 245 226 171 239 224 169 238 224 168 239 224 168 240
224 168 242 223 169 243 223 169 243 222 169 244 221 169 244
221 169 245 222 169 245 222 170 246 223 170 247 223 171 247
224 172 247 224 172 248 225 173 248 225 173 246 225 172 244
226 173 243 228 175 243 232 178 244 236 181 246 240 185 248
242 187 248 243 189 247 244 190 247 244 192 247 245 194 247
245 195 248 246 197 249 247 199 251 249 202 253 252 205 254
253 206 254 254 206 254 254 207 254 254 208 254 254 209 255
254 210 254 254 211 254 253 212 254 252 214 254 252 215 254
252 216 254 252 217 253 252 218 253 252 219 253 252 219 254
253 220 255 251 217 252 230 191 233 184 138 186 137 85 134
115 55 104 111 44 90 112 40 81 116 39 77 126 46 79
139 56 85 148 61 88 154 64 89 160 68 91 164 71 93
169 74 96 175 86 107 183 102 124 194 120 144 209 141 168
228 165 195 244 188 222 252 201 240 251 200 244 238 183 233
215 154 207 191 123 179 176 104 158 170 96 147 164 91 138
153 82 126 139 71 111 123 59 94 102 40 71 82 23 50
69 14 40 62 12 37 56 11 34 50 9 31 48 9 30
53 15 34 60 23 41 65 28 43 66 28 41 64 27 37
61 25 32 58 23 28 56 21 25 55 20 22 55 19 21
55 20 21 56 21 22 57 22 22 56 22 21 54 20 19
53 19 18 54 19 17 55 19 18 56 20 19 58 21 20
60 22 21 62 22 21 63 23 21 64 23 21 64 23 21
66 25 23 74 32 31 80 39 39 82 40 43 86 43 49
93 50 59 97 55 65 97 55 65 97 54 64 96 54 64
96 54 63 95 55 62 72 34 62 72 35 63 75 37 68
78 39 74 81 42 81 83 43 88 85 44 93 83 41 95
79 36 94 82 39 100 91 48 111 99 55 120 102 57 125
103 58 127 104 59 128 106 61 131 109 62 136 110 62 140
112 62 141 115 64 144 119 67 149 123 71 154 127 73 159
130 73 163 132 73 166 136 73 171 141 74 176 145 75 181
148 75 185 153 77 190 159 80 196 165 84 200 173 90 205
182 100 209 191 113 215 207 131 225 225 151 237 238 167 244
242 173 245 243 174 244 244 177 245 245 179 248 244 178 250
242 178 249 244 182 250 248 188 252 248 192 252 246 192 251
245 192 250 245 191 251 240 182 249 219 157 233 181 117 199
147 79 164 127 58 143 117 48 132 107 39 121 102 33 116
102 34 116 105 37 116 108 39 113 109 42 107 114 47 105
123 54 108 132 61 113 141 67 117 154 77 124 178 97 140
205 119 158 219 129 166 219 126 160 212 117 149 205 109 138
197 101 129 187 92 118 176 82 107 170 77 102 171 77 102
173 80 103 172 81 105 169 81 109 167 81 120 168 86 142
174 96 171 180 107 196 182 113 213 183 116 220 183 118 222
185 122 223 193 130 229 204 141 238 213 149 245 218 152 248
220 155 249 222 158 249 224 162 248 228 167 249 231 171 250
234 173 251 235 175 251 235 175 250 234 176 249 236 178 249
239 182 250 242 185 251 245 189 252 247 192 253 248 193 254
246 191 254 241 186 251 237 182 248 233 178 244 230 175 241
228 173 240 227 172 241 225 172 242 224 171 243 223 171 244
222 171 245 221 170 246 220 170 245 220 170 246 221 170 247
221 171 247 222 171 247 222 171 246 223 170 245 223 170 243
224 170 241 225 170 239 227 172 240 231 176 243 236 181 246
240 186 249 243 188 250 243 189 249 243 190 248 243 192 248
244 194 248 246 196 248 247 198 250 249 200 251 250 202 253
252 204 254 254 206 254 254 207 254 254 207 254 253 207 254
253 208 254 252 208 253 251 209 253 250 210 252 249 210 252
248 211 252 249 213 253 249 214 253 250 216 253 250 217 253
251 217 254 252 219 255 246 211 248 211 169 215 151 103 157
107 51 108 94 31 86 95 27 75 97 25 65 101 27 58
110 34 58 124 45 64 136 53 69 146 58 72 154 61 74
162 63 77 168 66 80 173 71 86 176 80 96 180 88 106
186 99 119 201 119 143 225 149 179 244 178 214 246 184 227
229 166 215 205 138 192 188 116 172 181 105 160 176 97 151
169 91 141 158 84 131 141 71 115 116 51 91 90 30 65
72 17 49 64 12 43 58 11 40 52 8 36 49 8 34
53 14 38 62 24 46 71 32 52 73 35 52 71 33 47
68 31 42 64 28 36 60 25 31 57 23 26 56 21 23
55 20 21 56 20 21 58 22 23 60 24 24 58 23 22
56 21 19 55 19 17 56 20 17 57 20 18 59 21 19
60 22 19 62 23 20 63 24 21 63 24 20 63 23 19
63 23 19 63 23 20 65 24 22 64 23 23 62 20 22
63 21 24 68 26 30 71 29 34 71 28 35 70 27 34
69 27 34 69 27 34 69 27 34 83 42 81 82 41 81
83 42 83 84 43 88 87 45 94 89 46 99 89 46 103
87 43 104 84 39 104 88 43 110 97 51 120 103 56 128
106 58 131 107 59 133 108 61 135 111 62 139 112 63 143
113 63 145 115 64 147 118 66 149 122 69 153 126 72 157
130 74 162 133 74 166 135 73 169 139 73 173 144 75 179
148 75 184 152 75 188 157 77 193 163 81 199 171 87 204
182 97 211 195 113 219 210 133 228 226 152 237 235 162 238
233 162 230 228 158 219 224 154 213 227 160 217 239 172 231
248 183 245 252 190 252 254 194 254 253 196 254 246 192 250
237 185 242 232 181 238 234 181 241 238 181 247 233 172 246
212 148 226 180 112 194 151 80 165 135 63 149 126 53 141
121 48 137 122 49 139 128 55 144 134 61 143 135 63 138
138 66 133 144 71 133 151 76 135 159 82 137 169 89 142
186 102 150 205 115 159 213 119 160 210 114 152 205 108 143
204 105 138 199 101 132 189 92 121 176 81 108 169 74 101
168 74 100 171 77 101 171 79 103 169 79 106 166 80 118
168 86 141 175 97 172 181 108 198 183 114 215 183 117 222
183 119 224 186 124 225 193 130 229 200 137 235 205 140 238
206 141 238 206 141 237 207 143 236 211 148 237 218 156 241
223 161 243 224 163 244 226 164 244 226 165 243 226 166 243
227 168 244 229 171 244 232 174 244 233 177 244 235 179 246
237 182 248 240 185 251 243 188 253 244 189 254 244 189 251
241 185 248 237 181 245 233 178 244 228 175 242 224 172 241
222 171 241 221 171 243 220 171 243 220 171 244 220 171 244
220 171 245 220 171 245 221 171 244 221 170 244 221 170 243
222 169 241 224 169 239 225 169 238 228 172 239 233 177 243
238 183 248 242 188 251 244 190 252 244 191 250 244 192 249
244 193 249 245 195 250 247 197 250 249 199 251 250 201 252
251 203 253 252 204 254 253 205 254 254 206 254 253 206 254
252 206 254 251 206 253 250 207 253 249 207 252 248 207 252
247 207 252 246 208 252 246 209 252 247 210 252 248 212 253
249 214 254 251 215 255 252 215 255 239 200 242 193 148 200
133 81 142 96 38 100 87 22 81 86 18 68 87 17 55
88 18 45 94 23 41 105 32 43 118 40 49 130 46 53
143 51 58 156 57 64 167 62 71 175 68 77 182 75 86
186 80 93 186 82 98 190 91 111 206 114 139 226 142 175
233 156 196 223 149 197 206 131 185 194 116 173 188 107 165
181 99 154 170 89 143 157 80 131 137 65 113 108 43 87
82 23 63 68 14 52 61 11 47 56 9 43 51 7 38
50 9 38 57 18 44 66 28 51 71 32 53 71 32 50
69 30 45 66 28 39 63 26 34 60 24 30 57 23 26
56 21 23 55 20 20 57 20 21 60 23 23 62 25 25
60 24 23 57 21 19 56 19 17 57 20 17 59 21 18
60 22 19 62 23 19 63 24 20 64 24 20 63 24 19
63 23 18 63 23 18 63 22 20 63 22 20 61 19 19
58 16 17 58 16 17 61 19 20 63 21 23 63 21 24
61 19 23 61 19 23 61 19 23 61 19 23 91 48 95
90 47 95 89 45 96 89 45 99 90 46 103 91 45 106
90 44 108 89 42 110 90 43 113 96 48 121 103 55 130
108 59 136 110 60 138 110 60 139 112 61 142 114 63 146
116 64 149 117 64 151 118 65 153 121 67 155 125 70 158
129 73 163 134 75 167 138 76 171 141 76 174 147 79 181
153 81 187 156 80 190 158 80 192 162 81 197 169 87 203
179 95 209 193 110 219 212 132 232 231 155 243 237 163 241
223 150 219 205 131 192 195 120 176 193 119 172 200 127 179
216 145 198 233 164 219 247 181 237 253 193 249 252 196 251
241 189 244 229 178 234 224 173 230 225 172 233 230 173 240
236 175 248 233 168 245 211 143 224 179 108 192 156 83 170
147 74 162 146 72 163 151 76 169 157 82 173 157 82 169
152 78 157 150 75 147 151 76 142 153 77 140 156 77 138
161 80 136 175 89 141 193 102 149 203 108 151 203 107 146
203 105 141 204 105 138 200 102 133 189 93 121 176 81 108
168 73 100 167 73 98 169 75 99 169 77 101 167 77 104
164 78 116 167 84 140 174 96 171 181 107 199 184 114 217
184 118 224 184 120 226 185 122 226 189 126 228 194 130 230
196 131 231 195 129 229 194 129 227 195 131 226 199 136 228
206 144 232 211 149 235 213 151 236 214 152 237 215 153 236
215 154 236 216 157 237 218 160 238 220 162 238 221 163 238
222 165 238 225 169 241 230 175 245 236 181 249 241 186 252
245 190 253 247 191 253 245 189 252 240 186 249 234 181 246
229 177 243 225 175 241 223 173 239 222 174 240 222 175 241
222 176 242 222 175 242 221 174 242 222 172 241 222 171 241
222 170 240 222 170 239 223 169 238 226 171 238 230 175 241
236 181 246 241 187 251 244 191 253 245 193 253 245 193 252
245 194 252 246 195 252 247 196 252 249 198 252 250 200 253
251 202 254 252 203 254 252 204 254 253 204 255 252 204 255
251 204 255 250 204 254 249 204 254 248 204 253 247 204 253
246 204 252 246 205 252 245 205 252 244 205 251 245 205 251
246 207 252 249 210 254 252 212 255 251 210 254 230 186 235
177 128 186 121 66 131 90 30 97 81 15 78 79 11 65
79 10 51 78 10 38 80 12 30 88 18 29 99 25 32
111 31 36 126 37 42 143 47 51 159 56 61 172 64 71
184 72 81 192 78 89 193 79 93 191 80 98 194 89 112
204 106 136 213 123 161 217 133 178 214 133 184 205 123 179
194 111 168 182 98 156 167 85 142 150 71 125 128 54 106
102 35 84 79 20 65 67 13 55 61 10 50 55 7 44
51 7 41 53 11 42 60 19 47 65 26 50 65 26 47
64 25 43 64 24 39 62 24 35 61 23 31 59 23 28
57 22 26 57 22 23 56 21 21 58 21 21 61 23 24
63 25 26 62 24 24 58 21 19 57 19 18 58 20 18
60 21 18 61 22 19 62 23 19 64 24 19 64 24 20
64 24 19 64 23 19 63 22 18 63 22 19 63 22 20
61 20 18 58 17 16 58 17 16 61 20 19 63 21 22
62 20 22 60 18 20 59 17 20 59 17 20 59 17 20
97 52 108 97 51 108 96 50 110 96 49 111 95 48 113
95 47 115 94 45 117 96 46 121 100 49 127 105 54 134
110 59 140 113 61 144 113 61 145 113 60 146 115 62 148
117 64 152 119 65 155 121 66 157 122 67 159 125 69 162
129 71 165 134 74 169 139 77 174 144 78 178 150 81 184
160 88 193 166 91 199 167 89 200 167 88 200 171 89 204
179 96 211 190 108 219 207 127 230 228 152 243 242 169 248
230 157 228 196 121 185 172 95 150 171 92 142 179 98 146
187 107 154 197 119 166 211 135 185 228 157 208 244 180 232
250 193 245 242 189 242 230 179 233 225 174 230 225 170 232
226 167 236 231 169 243 237 171 249 230 161 242 205 133 217
177 104 190 163 89 178 159 85 177 160 84 178 160 85 178
155 79 168 146 70 152 141 65 139 141 65 134 142 64 132
143 64 128 149 66 126 164 77 132 186 94 144 200 105 149
204 107 146 204 106 142 205 106 139 201 103 133 189 93 121
176 80 107 167 72 98 165 71 95 166 73 96 167 75 98
165 75 102 163 76 115 166 83 140 173 95 171 180 107 200
183 114 218 183 118 226 183 119 228 183 120 227 185 122 227
188 124 228 190 124 227 190 124 226 190 125 225 192 127 225
196 132 227 202 138 230 206 143 233 208 145 234 209 147 235
210 148 235 211 149 236 212 152 238 214 155 239 216 157 239
216 158 238 217 159 238 219 162 239 223 167 241 228 172 245
233 177 248 238 182 250 243 187 252 246 189 253 246 190 253
244 191 252 241 189 250 237 187 247 233 185 244 231 184 243
232 185 244 232 186 245 230 184 244 228 181 243 227 179 241
225 176 240 223 173 238 223 172 237 224 172 237 228 175 239
233 180 244 239 186 249 244 191 253 246 194 255 246 195 255
247 196 254 247 197 254 248 198 254 249 199 254 251 200 254
252 201 255 252 203 255 253 204 255 252 204 255 251 203 255
250 202 255 249 202 255 248 202 255 246 201 254 245 201 253
244 201 253 244 201 252 244 201 252 243 201 251 242 200 250
243 200 250 245 201 251 249 205 254 252 208 255 250 205 253
223 175 230 166 113 177 114 57 127 88 26 98 79 13 80
75 8 64 73 6 49 71 6 35 71 7 25 76 9 21
84 13 21 94 17 22 108 24 27 127 35 37 146 47 50
163 57 62 178 65 72 190 72 82 196 75 88 195 76 92
193 78 98 193 86 111 199 100 132 211 118 159 221 134 181
218 133 186 201 115 173 182 96 157 162 78 139 139 58 118
117 42 99 97 29 83 78 17 67 67 11 58 60 8 52
55 6 46 53 7 44 56 13 46 62 20 49 64 23 49
62 22 44 61 21 39 62 21 36 61 21 32 60 22 29
59 22 27 58 22 25 58 22 23 58 21 22 60 22 22
63 24 25 65 26 26 63 24 24 59 21 20 57 19 18
59 20 19 60 21 19 62 22 19 63 23 20 64 24 20
65 24 20 65 24 20 64 23 19 63 22 19 64 23 19
63 22 19 61 20 18 58 17 15 58 17 15 61 20 18
63 22 21 62 21 21 60 18 18 58 16 18 58 16 18
58 16 18 101 53 118 102 54 120 103 54 123 103 54 125
103 53 126 103 52 129 104 52 132 107 54 137 111 58 142
115 61 148 118 63 152 118 63 153 117 62 152 117 61 152
118 62 155 121 65 158 124 67 161 125 68 163 127 69 165
130 70 168 134 73 172 139 75 177 145 78 181 150 80 186
159 86 194 171 96 205 178 101 211 177 98 210 175 95 208
179 97 211 187 105 219 200 120 228 219 142 239 240 168 250
244 174 245 215 142 208 172 95 154 155 74 124 167 81 125
182 95 136 192 105 146 199 113 155 203 120 164 211 134 180
230 160 209 247 187 236 247 194 243 237 186 237 230 177 233
227 170 233 224 164 233 221 157 233 224 157 237 231 161 244
224 152 236 201 127 214 182 108 197 169 94 187 159 83 178
152 75 169 144 67 157 136 58 142 132 54 132 134 56 130
138 58 130 140 59 128 147 63 127 164 76 134 186 94 146
201 106 151 206 108 148 206 107 143 206 107 138 201 102 131
189 93 119 175 80 105 166 72 95 164 71 92 165 73 94
165 74 96 164 75 101 162 76 114 165 82 139 172 94 170
179 106 200 182 113 219 182 117 227 182 119 230 182 119 228
183 120 228 186 121 228 187 121 227 188 122 227 189 124 227
192 127 227 195 130 228 199 135 230 202 138 232 205 141 234
206 142 236 206 144 236 207 146 238 209 148 240 211 151 241
213 153 241 214 155 240 216 157 241 218 160 242 221 164 243
224 168 244 227 171 246 230 174 246 233 176 247 238 181 249
243 188 253 248 194 255 250 198 255 250 200 253 247 199 252
246 199 251 246 200 252 245 200 252 243 198 250 241 194 248
237 189 245 232 184 241 227 178 238 225 176 236 227 177 238
231 180 242 237 185 246 242 191 251 246 195 254 247 197 255
248 198 255 248 199 255 249 200 255 250 200 255 251 200 255
252 201 255 252 201 255 253 202 255 253 203 255 252 202 255
250 201 255 249 200 255 247 199 255 246 199 254 244 198 253
242 198 253 241 198 251 241 198 251 242 198 251 241 197 250
241 196 249 242 195 249 244 197 250 248 200 252 252 202 254
249 199 253 222 170 231 167 112 181 118 59 134 93 30 106
82 17 88 76 10 70 71 7 52 69 6 37 69 7 27
71 8 20 75 9 16 83 11 14 95 15 17 112 24 25
131 36 38 150 47 50 168 56 61 183 64 71 194 70 80
200 76 88 200 79 95 196 81 101 194 87 114 203 104 138
222 129 171 229 139 190 211 122 181 183 94 158 156 70 136
130 48 113 109 34 96 94 25 84 78 16 71 68 10 62
62 7 56 58 7 52 58 10 50 60 15 50 63 19 50
64 22 48 63 22 44 63 21 39 63 22 35 62 22 31
61 22 28 60 22 25 59 22 24 59 22 23 60 22 23
62 23 24 65 25 26 66 27 27 64 25 25 60 20 20
58 19 18 60 20 19 61 21 19 63 22 20 64 23 21
65 24 21 65 25 21 65 24 20 64 23 19 64 23 19
64 23 18 64 23 18 62 21 16 59 18 14 59 18 14
62 21 18 64 23 21 63 21 20 59 18 17 58 16 17
58 16 17 58 16 17 103 53 126 104 53 127 106 54 130
108 56 134 111 57 139 113 59 143 115 60 146 117 63 151
122 66 157 125 69 161 126 69 163 125 67 162 122 64 159
121 63 159 124 65 160 127 67 163 128 69 165 130 70 168
131 71 170 134 72 173 139 74 178 144 77 183 150 79 188
155 81 192 164 88 201 179 101 215 187 107 221 183 103 217
179 99 214 182 101 217 190 110 224 205 128 234 227 153 245
246 177 253 241 174 240 202 130 191 159 81 134 150 65 111
168 77 117 188 93 129 205 109 145 216 122 159 214 124 163
208 125 167 219 143 188 240 176 222 250 196 243 245 193 244
236 181 238 228 170 233 221 160 230 209 145 222 204 135 218
218 147 231 232 159 242 228 154 238 215 141 228 201 125 217
185 109 204 171 93 189 156 77 170 142 62 150 135 55 137
136 56 134 141 59 135 143 61 133 150 64 132 167 78 139
191 98 151 206 110 156 209 111 151 208 109 143 205 106 136
200 102 128 188 92 116 174 80 102 165 71 92 163 70 90
164 73 92 165 75 95 163 75 101 162 76 114 165 82 138
172 93 170 178 105 199 180 111 218 180 115 227 180 117 230
180 118 229 181 118 228 184 119 228 186 120 229 188 122 229
189 124 229 191 126 228 193 129 228 195 132 230 199 135 232
201 138 235 202 139 236 203 140 237 204 142 239 207 145 241
209 148 242 211 150 242 213 152 242 215 155 243 218 159 244
221 163 245 223 165 245 224 167 245 225 167 244 226 168 243
229 172 245 236 180 250 242 188 252 247 195 253 249 199 253
250 201 253 250 204 253 252 208 254 253 210 255 253 209 254
251 206 253 247 200 251 239 193 245 232 186 239 229 182 237
231 183 240 235 186 245 240 191 249 244 195 252 246 197 254
247 199 255 249 200 255 250 201 255 250 202 255 251 202 255
251 201 255 252 201 255 252 201 255 252 201 255 252 201 255
251 200 255 249 199 255 247 197 255 246 197 255 244 196 254
242 195 253 240 195 251 239 195 250 239 194 249 239 195 249
240 195 249 240 194 248 241 193 248 243 193 249 246 195 251
249 197 252 248 195 253 227 172 238 180 122 196 131 70 150
103 40 120 90 25 99 80 16 79 72 9 57 68 8 41
68 10 31 69 10 23 72 10 16 77 10 13 87 11 13
101 17 18 119 28 28 138 39 40 157 48 51 173 56 60
187 64 70 198 73 81 204 80 91 202 84 98 196 85 105
197 93 121 213 117 154 231 138 186 222 131 189 189 99 166
154 67 137 125 43 114 106 29 98 93 22 88 80 15 77
70 10 68 66 9 64 65 11 61 65 15 60 65 18 56
64 19 52 64 20 48 65 22 44 65 22 40 65 22 35
64 23 31 63 23 28 62 23 26 62 23 24 62 23 24
63 23 24 64 23 25 67 25 27 68 27 28 66 24 26
62 20 21 60 18 19 61 19 19 62 21 20 64 22 20
65 23 22 66 24 22 67 25 22 66 24 21 65 24 20
65 23 19 64 23 18 64 23 17 62 21 15 59 19 13
59 18 14 62 21 17 64 23 20 63 22 19 60 19 16
58 17 16 58 17 16 58 17 17 104 52 131 104 51 131
106 53 134 113 59 142 122 67 153 129 74 162 132 75 166
132 75 168 134 75 170 136 76 173 135 75 173 132 72 170
128 67 166 127 66 164 129 68 166 132 70 168 133 71 170
133 71 172 135 71 174 138 73 178 143 75 184 148 78 189
153 80 194 158 81 197 168 89 205 184 104 221 192 111 228
187 106 222 182 102 218 183 104 220 192 114 228 208 133 238
230 160 247 248 182 253 239 172 235 194 121 179 153 72 122
149 60 102 169 72 109 192 90 123 214 111 143 230 129 162
228 132 167 213 123 162 211 131 173 229 161 205 247 190 235
250 198 247 242 187 243 230 171 235 221 159 229 205 140 217
189 120 203 198 127 211 226 154 235 242 170 248 237 163 246
222 146 237 207 131 226 197 119 215 186 106 201 170 89 180
156 74 159 149 67 149 150 67 146 152 68 144 159 73 142
177 87 148 199 106 159 213 116 162 214 116 155 210 112 144
205 107 134 198 101 125 187 91 113 174 79 99 165 72 90
163 71 88 164 73 91 165 76 94 164 76 101 162 77 114
165 82 138 172 93 170 178 104 199 179 110 217 178 113 226
178 115 229 179 116 229 180 117 229 183 118 229 187 121 230
189 123 231 190 125 231 190 126 230 191 128 230 193 130 232
196 134 235 199 136 237 200 138 238 201 139 239 203 141 240
206 144 242 209 147 243 211 149 244 212 152 244 214 154 244
217 157 244 218 159 244 219 161 244 220 161 243 220 162 242
221 163 242 224 166 243 228 171 245 232 177 247 235 182 247
237 186 246 238 189 245 241 192 246 246 199 250 250 204 253
252 208 254 254 209 255 252 206 253 245 200 248 238 193 242
234 189 239 235 190 242 239 192 247 242 195 250 244 197 252
246 198 253 247 199 254 249 201 255 251 203 255 251 202 255
251 202 255 251 202 255 251 201 255 251 200 255 251 200 255
251 200 255 250 199 255 248 197 255 246 196 255 245 195 254
243 194 253 241 193 252 239 193 250 238 192 248 237 192 247
238 193 248 239 193 248 240 192 248 241 192 248 243 191 248
245 191 249 246 192 250 246 191 252 234 177 245 195 136 214
146 85 169 113 50 134 97 34 111 84 22 88 72 13 62
67 10 44 67 11 33 68 12 25 70 11 18 76 11 14
83 11 12 95 15 15 110 23 23 129 34 34 147 44 43
163 51 52 177 58 61 189 67 71 200 78 84 208 89 98
206 93 107 198 93 114 203 103 135 224 128 172 230 137 195
203 111 180 158 71 145 123 41 117 104 28 103 93 22 95
83 17 86 75 12 77 72 12 73 74 18 73 74 22 71
71 22 63 67 20 55 65 20 48 65 21 44 66 22 39
66 22 34 66 23 31 65 24 28 65 24 26 65 25 26
65 24 26 65 23 26 66 24 27 69 26 28 70 27 29
67 24 26 63 20 22 61 18 19 62 19 19 64 20 20
65 22 21 66 23 22 67 24 22 68 25 22 67 24 21
67 23 20 66 23 19 65 24 18 65 24 17 63 22 15
60 19 12 60 19 13 63 22 17 64 23 19 63 22 19
60 19 16 59 18 15 59 18 16 59 18 17 105 51 133
105 52 134 110 56 140 124 68 155 142 86 174 157 99 190
163 104 198 162 102 198 158 98 195 156 95 193 150 88 187
140 78 178 134 71 172 133 70 170 135 71 171 137 73 173
138 73 175 138 73 177 139 73 179 141 73 183 145 76 189
151 79 195 157 82 199 162 85 202 174 95 212 192 111 228
198 118 233 191 111 226 185 106 220 187 109 222 196 121 231
213 141 241 234 166 249 250 185 253 236 169 231 187 114 170
147 64 112 146 54 95 168 68 103 194 87 118 218 108 138
236 127 158 235 132 165 217 122 159 206 121 162 218 145 188
239 179 224 251 198 247 247 191 248 235 175 239 224 161 232
206 140 218 183 114 196 182 111 195 213 141 222 241 169 246
235 162 244 210 135 225 192 116 210 193 115 211 201 120 216
199 116 209 188 104 192 178 94 179 176 92 173 177 92 168
181 93 163 192 101 163 208 113 167 217 120 166 219 120 158
214 115 147 206 107 133 197 100 122 186 91 111 174 80 98
165 73 89 163 71 87 164 74 90 165 76 94 164 77 101
162 78 114 164 83 139 171 94 170 177 104 198 178 109 216
176 111 224 176 113 227 178 115 228 180 117 229 183 119 230
186 121 231 189 123 232 190 125 232 190 126 231 190 127 231
193 130 234 196 133 238 198 135 240 200 137 240 201 138 241
202 140 241 205 143 242 208 146 243 210 149 244 212 151 244
213 153 243 214 154 242 215 155 242 216 156 242 216 157 241
217 158 241 218 159 242 220 161 242 222 164 242 224 167 242
225 170 241 226 173 240 226 174 238 229 178 239 234 184 243
239 191 247 244 197 249 248 202 252 250 205 252 248 204 251
244 201 246 241 198 244 241 198 246 243 199 249 244 200 251
245 200 251 245 200 252 246 200 253 248 202 254 250 203 255
250 202 255 250 201 255 249 200 255 249 199 254 249 198 254
248 197 254 248 197 254 247 196 254 247 195 255 246 194 255
244 193 254 243 193 253 241 192 252 239 191 250 238 190 248
237 190 247 238 190 247 238 190 248 239 190 248 241 190 248
242 190 248 243 189 247 243 188 248 244 188 251 238 180 249
207 147 227 157 96 182 119 57 142 100 39 118 86 27 93
73 15 66 66 11 46 66 12 35 67 12 26 70 12 19
75 12 15 81 12 12 91 14 14 105 22 21 123 32 31
140 42 40 154 48 46 167 54 53 180 62 63 195 76 78
212 94 98 218 105 113 209 102 118 201 98 126 212 114 156
229 133 190 214 121 190 166 78 155 123 41 121 102 26 107
93 22 102 86 18 95 80 14 87 80 18 85 86 28 88
86 31 84 77 25 71 70 21 58 68 21 50 67 21 44
67 22 39 68 22 34 67 24 31 67 25 29 68 25 28
68 26 27 68 25 27 68 24 28 69 24 29 71 26 30
72 27 30 69 24 27 65 20 23 63 18 20 64 19 20
65 21 22 67 22 22 67 23 22 68 24 23 69 24 22
69 24 22 68 24 20 67 24 19 67 24 18 66 24 17
63 22 14 60 19 12 61 20 13 64 23 17 66 24 19
65 23 19 62 21 17 61 20 16 61 20 17 61 20 18
108 53 136 112 57 140 120 65 150 135 79 166 155 97 187
171 113 204 181 122 216 187 127 222 189 128 225 188 126 225
177 114 214 158 94 194 145 81 181 141 77 177 142 76 177
144 77 179 144 78 182 146 79 185 145 77 187 145 76 189
149 79 194 157 85 201 166 91 208 174 97 213 188 110 224
205 126 238 209 130 240 202 123 232 195 117 225 194 119 225
204 131 234 221 151 245 239 173 252 251 186 253 233 165 226
179 105 159 139 56 103 142 48 88 165 61 95 192 80 111
217 103 131 237 123 152 238 128 161 220 118 155 204 114 155
210 133 177 233 169 215 249 193 243 249 192 249 240 179 243
227 164 235 206 140 217 181 112 193 176 106 188 206 135 215
237 165 243 230 157 239 195 121 210 170 94 187 172 94 189
186 105 202 194 111 206 194 109 200 193 108 195 194 109 191
194 108 184 195 106 176 201 109 171 212 117 171 219 121 167
220 121 159 216 116 148 206 107 133 196 99 121 186 91 111
175 81 99 167 74 90 164 72 88 165 74 90 166 77 94
164 77 101 162 78 115 164 83 139 171 94 170 176 104 198
176 108 215 174 109 222 173 110 224 176 113 226 178 116 227
181 117 228 184 119 230 187 122 231 189 124 232 190 126 232
191 128 234 194 130 237 196 133 240 198 135 242 199 136 242
199 137 240 200 138 239 202 140 239 205 143 240 207 146 240
209 148 240 211 151 240 213 153 241 214 154 242 215 155 242
215 156 241 216 156 241 217 157 242 219 160 243 220 162 243
221 164 242 221 165 240 222 166 239 223 168 238 224 171 239
227 176 241 230 180 243 233 185 244 237 191 245 243 199 249
249 206 252 250 208 251 249 207 250 248 206 252 248 206 253
247 205 253 246 203 252 246 202 251 246 202 252 247 202 253
248 202 254 248 201 254 248 200 254 247 198 254 246 197 253
245 195 253 244 194 252 243 192 252 244 192 253 245 192 254
244 191 254 243 191 254 241 190 253 240 190 252 239 189 250
239 189 250 238 189 249 238 188 248 238 187 248 238 187 247
238 186 246 240 186 246 241 186 246 242 186 248 243 186 251
238 181 251 211 152 231 162 101 188 120 59 145 100 41 120
89 31 97 74 19 69 66 13 48 65 14 36 67 14 27
69 14 20 74 13 15 79 11 12 87 13 13 100 20 20
117 31 30 134 41 38 146 45 42 158 50 49 173 59 59
191 75 75 212 97 97 225 113 117 221 114 125 207 103 127
205 103 142 219 120 176 216 121 190 173 83 162 126 43 127
103 27 114 95 24 109 90 20 103 87 19 98 93 28 101
103 42 108 98 40 98 82 28 76 73 22 61 71 22 53
71 23 47 71 24 42 71 25 37 71 25 33 71 26 31
71 27 30 71 27 29 70 26 28 70 25 29 71 25 31
73 26 32 73 26 31 70 24 28 67 21 24 65 19 22
66 20 22 67 22 24 68 23 24 69 23 23 69 24 23
70 24 23 70 24 23 69 25 22 69 25 20 68 25 19
67 24 17 63 21 13 61 18 11 63 21 15 67 24 19
67 25 19 66 24 19 65 22 19 65 21 19 65 21 20
65 21 20 113 59 141 120 66 149 128 73 157 136 79 166
144 86 175 153 94 185 163 104 197 174 114 209 186 124 221
195 132 231 197 132 232 185 120 219 171 105 205 163 97 196
160 94 194 158 91 194 155 87 193 154 86 194 152 84 195
152 84 197 157 88 202 166 95 209 177 104 218 192 116 227
208 131 238 222 144 247 226 147 248 222 143 243 214 138 236
209 135 231 214 142 236 228 159 246 243 176 252 251 185 251
228 160 220 171 97 150 132 49 95 138 43 82 162 56 89
189 75 105 215 97 125 234 116 145 236 122 153 220 113 150
203 107 149 205 122 167 228 158 207 248 187 239 251 191 249
244 183 246 231 168 239 209 143 220 183 115 195 178 108 190
207 137 216 237 166 243 229 157 237 192 119 206 164 89 180
160 83 178 168 88 184 172 88 184 172 88 180 176 90 179
180 94 177 181 94 171 183 94 164 194 101 164 209 113 168
219 120 168 221 120 161 216 115 150 206 106 135 196 98 123
187 90 113 176 81 102 168 75 94 165 73 91 166 75 93
167 77 97 164 77 103 162 77 116 164 83 141 170 94 171
175 104 199 176 108 215 173 109 221 172 110 223 175 113 225
177 115 225 179 116 226 182 118 228 185 120 230 188 123 232
189 125 232 190 127 234 193 130 238 196 132 241 197 134 243
198 135 242 199 136 240 199 137 238 201 139 238 203 142 237
205 144 237 207 147 238 209 149 238 212 151 239 213 153 240
214 154 241 214 154 240 215 155 240 217 157 242 219 159 244
220 162 244 221 163 243 221 164 242 222 165 241 224 167 242
225 170 242 225 172 243 227 176 243 228 179 243 232 184 242
238 193 245 246 204 250 251 210 252 252 212 253 252 212 254
250 211 255 249 209 254 248 207 252 247 205 252 246 204 252
247 204 253 247 203 254 247 201 254 246 200 254 246 198 253
245 196 253 243 194 252 242 192 252 241 190 252 241 189 252
242 188 253 242 188 254 241 187 253 240 187 252 238 186 251
238 186 251 240 187 251 241 188 252 239 186 250 238 185 249
237 183 247 236 182 245 236 182 244 238 182 245 240 183 247
242 184 251 237 179 251 211 152 232 164 104 189 122 62 147
103 44 123 91 34 100 76 22 71 67 15 49 65 15 36
66 15 27 69 14 20 72 13 15 77 12 12 84 13 12
94 18 17 110 28 26 127 38 35 141 43 41 153 48 47
167 56 55 184 71 70 205 92 91 222 111 113 225 117 125
213 107 127 203 98 134 211 108 160 213 114 182 181 88 168
136 52 139 110 34 124 101 28 119 97 26 115 99 28 113
107 40 119 113 50 121 102 42 104 84 28 79 76 23 64
75 24 56 75 25 50 75 25 44 74 26 39 74 27 35
73 27 33 73 27 31 73 27 31 72 26 30 72 26 31
74 26 32 76 27 33 75 27 32 72 24 29 70 22 26
69 21 24 69 21 24 69 23 25 70 23 25 70 23 25
70 24 24 70 24 24 71 24 24 70 25 23 70 25 21
69 25 20 67 24 17 63 20 13 61 18 11 65 22 16
69 25 20 68 25 20 67 24 19 67 23 19 66 22 20
66 22 21 66 22 21 115 61 142 120 66 148 123 68 152
125 69 154 127 70 157 130 71 161 136 76 168 145 83 178
154 92 188 167 104 201 184 120 218 195 130 228 195 130 228
193 127 225 192 124 224 183 115 217 168 100 205 160 91 199
158 90 200 161 93 203 166 98 208 175 106 214 190 119 225
210 137 238 229 153 249 240 162 253 243 165 253 242 165 251
237 160 245 229 154 237 229 156 237 237 166 243 246 178 249
250 183 248 223 155 213 165 90 142 127 44 89 133 38 77
159 53 86 188 73 103 213 94 121 228 108 136 230 112 143
218 107 143 202 101 142 201 112 158 223 147 198 247 182 236
253 192 249 249 188 250 238 175 245 215 150 226 188 121 200
182 114 194 208 139 217 236 167 242 227 157 236 192 121 205
165 91 181 159 82 177 163 83 180 161 78 175 157 72 166
156 71 161 158 72 156 160 73 151 166 76 148 182 89 155
204 107 166 219 119 170 221 120 165 216 115 154 206 105 140
196 97 128 187 89 117 177 81 107 170 76 100 167 75 98
169 77 100 169 79 103 165 77 107 162 77 120 165 83 144
171 94 174 176 103 200 176 108 215 174 111 222 173 112 224
174 114 224 176 114 224 179 115 225 181 117 227 184 119 229
186 122 231 187 124 232 189 126 234 191 128 238 193 131 241
196 133 242 197 134 242 198 135 240 199 137 238 201 139 237
203 142 237 204 144 236 206 146 236 208 148 237 211 150 238
213 151 238 213 152 238 213 152 238 214 153 239 215 155 240
217 158 243 219 161 243 220 162 242 221 163 241 222 164 241
224 166 242 225 169 243 226 172 245 228 176 246 230 180 245
232 184 244 236 191 244 244 201 248 251 210 252 253 215 254
253 216 255 252 215 255 250 212 254 248 209 252 247 207 251
246 206 252 247 205 253 247 204 254 246 202 254 245 200 254
245 198 254 244 196 254 243 194 253 242 192 253 241 190 253
241 188 253 241 186 253 242 186 254 241 185 254 239 184 252
238 183 251 239 184 252 241 185 253 242 185 253 241 184 251
239 182 250 239 181 249 238 181 248 238 180 247 239 180 246
239 180 247 239 180 249 236 177 250 214 155 233 168 107 191
126 65 148 104 44 121 89 31 96 75 20 69 68 16 49
65 16 36 65 14 26 66 13 19 71 13 15 76 13 13
81 14 12 88 16 14 100 22 20 119 32 29 137 42 39
151 48 46 163 54 53 178 65 64 197 84 83 216 104 105
224 114 120 215 106 124 204 96 127 205 98 146 209 105 169
190 93 171 154 66 153 125 45 138 111 35 131 107 33 127
113 40 130 121 51 134 114 49 124 98 36 101 86 28 81
80 25 68 78 25 58 78 26 52 78 26 46 77 27 40
77 27 37 76 27 34 75 27 33 74 27 32 74 27 32
75 27 33 77 28 34 78 28 35 77 28 34 75 25 30
73 23 28 72 22 27 72 23 27 72 23 26 72 24 26
72 24 26 72 24 25 72 24 25 72 24 24 71 24 23
70 25 22 69 26 20 67 24 18 63 20 13 61 18 12
65 22 16 69 26 20 69 25 21 68 24 20 67 23 20
66 22 20 66 22 21 66 22 21 110 57 136 111 58 138
112 58 140 114 59 142 118 62 147 122 64 152 125 65 157
130 69 163 135 73 169 142 78 175 156 92 189 176 111 209
190 125 223 200 134 233 209 141 241 203 135 235 181 113 216
165 98 202 164 97 202 168 102 206 175 109 212 185 119 219
203 135 231 226 155 245 241 167 250 246 169 246 246 168 242
247 169 241 245 167 237 242 164 233 241 165 233 244 171 237
249 180 245 249 183 244 218 150 206 159 84 134 123 40 83
129 36 73 155 51 83 186 72 101 210 91 117 223 102 128
224 105 134 216 101 136 201 95 136 197 102 149 219 138 189
245 178 232 254 192 249 253 192 253 245 183 250 223 159 233
195 130 208 185 119 198 205 138 215 230 163 238 228 160 237
199 128 210 171 98 186 163 87 180 164 85 181 161 78 176
154 70 166 152 67 159 153 67 152 154 67 146 161 70 145
179 84 154 203 105 168 219 118 174 221 119 170 216 114 159
206 105 146 197 96 135 188 89 124 178 82 115 172 78 109
171 77 107 172 80 109 172 81 111 169 80 115 166 80 127
167 86 149 173 95 178 176 104 202 176 109 216 174 112 222
173 113 224 173 114 223 175 114 222 177 115 224 180 116 226
182 118 228 184 120 230 185 122 232 187 124 234 189 126 237
191 129 239 194 132 240 195 133 240 197 135 239 198 136 238
201 139 237 203 142 237 205 144 237 206 146 236 208 148 236
211 150 238 213 152 238 214 152 238 214 152 238 215 153 238
216 156 240 219 159 242 221 162 242 222 163 241 223 164 240
224 165 240 226 168 242 228 171 244 230 175 246 232 180 248
234 184 248 235 187 246 236 192 245 243 200 247 250 211 252
254 218 255 254 219 255 252 218 254 250 215 253 248 212 252
246 209 251 245 207 250 246 206 251 246 204 252 245 202 253
245 200 254 245 198 254 244 196 254 243 194 254 242 192 254
241 190 254 241 188 254 242 187 254 242 185 255 241 184 254
240 182 253 241 182 253 243 183 253 244 183 253 243 181 251
241 180 250 240 178 249 241 178 249 241 179 249 241 179 249
241 179 249 241 179 248 239 178 248 237 177 249 221 160 236
176 114 194 127 65 145 98 38 112 83 25 87 74 19 65
70 18 49 66 16 36 63 13 25 64 11 17 69 12 15
74 14 13 77 13 11 81 13 10 90 16 13 109 26 23
131 39 36 148 48 47 161 54 53 175 63 63 192 79 78
211 97 98 223 110 115 218 106 120 206 94 121 201 89 131
204 95 154 199 97 171 174 80 167 144 58 153 126 46 145
122 45 144 132 57 151 133 61 148 113 46 124 95 32 99
89 30 85 85 28 73 81 26 61 80 27 54 81 28 48
80 28 42 79 28 39 78 28 37 77 28 35 76 28 34
77 27 34 78 28 35 80 29 36 80 29 36 79 28 35
77 26 32 75 24 30 75 24 29 75 25 29 75 25 28
74 25 28 74 24 27 73 24 27 73 25 25 73 25 25
72 25 24 71 25 22 70 26 21 68 25 18 64 21 14
62 19 12 66 22 17 69 26 21 69 25 22 68 24 21
67 23 20 66 22 20 66 22 21 66 22 22 106 53 132
108 55 134 108 55 135 110 56 138 114 58 143 117 60 148
121 62 153 126 66 159 132 70 166 135 72 169 140 76 175
152 87 187 166 100 200 181 114 215 202 135 234 212 145 242
197 130 228 179 114 211 174 110 207 178 115 210 186 123 216
199 135 224 219 154 237 238 169 246 239 166 237 229 151 217
223 143 204 225 144 201 229 147 203 233 150 206 239 159 214
246 169 226 251 180 238 247 181 238 211 143 196 151 77 124
119 38 79 126 35 70 151 50 80 182 71 97 207 90 113
219 100 123 221 101 128 214 98 130 200 91 130 195 97 142
217 132 182 245 174 227 254 192 247 254 194 253 249 188 252
230 167 238 204 140 216 192 127 204 203 138 213 226 160 233
235 169 242 217 148 227 190 118 204 174 99 191 167 89 184
161 79 176 155 71 167 153 68 161 154 68 156 156 67 150
161 69 148 179 83 157 203 103 171 218 116 179 221 118 175
217 113 166 208 105 155 199 97 144 190 90 134 182 84 126
177 81 121 177 82 120 178 84 121 178 86 124 174 86 127
172 86 138 173 90 158 176 98 184 177 105 205 176 108 217
174 111 222 173 113 223 173 114 222 174 113 221 176 114 223
179 115 226 181 117 229 182 119 231 183 120 232 185 122 233
186 124 235 189 127 238 192 130 239 194 132 239 195 134 239
198 136 238 201 139 238 204 142 239 205 144 238 208 147 238
211 149 239 214 152 240 216 154 241 217 155 241 218 156 241
219 157 241 221 160 243 224 164 244 227 166 244 228 168 242
229 169 241 230 171 241 232 174 243 234 177 245 235 180 247
236 184 248 237 187 248 237 190 247 237 193 245 242 200 246
249 210 251 254 219 254 254 221 255 252 220 254 249 217 252
247 213 250 245 209 249 244 207 249 244 205 250 245 203 251
245 202 252 245 200 254 245 198 255 244 196 254 243 194 254
242 192 254 241 190 255 241 188 255 242 187 255 242 185 255
242 184 254 241 181 253 242 180 251 241 177 248 236 170 242
229 162 234 224 157 229 223 155 228 225 156 229 225 157 229
224 156 228 227 160 232 232 167 237 234 171 240 236 174 244
229 167 239 189 127 203 130 67 144 92 30 101 79 19 79
74 18 62 70 17 48 66 15 34 62 11 23 62 9 15
66 11 13 70 13 12 72 12 10 74 10 8 81 11 8
98 19 15 122 34 31 144 47 46 159 56 55 174 65 64
191 78 78 208 94 95 221 107 112 221 106 118 210 94 116
200 84 120 201 88 140 205 96 166 191 89 174 165 71 167
147 61 162 146 64 166 151 73 171 139 66 156 113 44 124
96 32 101 92 32 88 88 30 76 84 29 64 83 29 56
83 29 50 83 29 44 82 29 41 80 29 39 79 29 37
78 28 36 78 28 36 80 28 36 82 29 37 82 29 37
80 28 35 78 26 33 77 25 32 78 26 32 78 27 31
77 27 30 76 26 29 75 26 29 75 25 28 74 25 26
73 25 25 73 25 25 71 25 23 71 26 21 69 25 19
64 21 15 62 19 13 66 22 18 70 26 22 70 26 22
68 24 22 67 23 21 66 22 21 66 22 22 66 22 23
107 54 132 108 56 134 109 56 136 109 56 138 112 57 143
114 58 146 118 59 151 123 63 157 128 67 164 134 71 170
139 74 175 144 79 181 152 86 188 163 96 199 188 120 221
213 147 241 216 151 241 205 142 230 197 136 224 198 139 224
205 146 228 218 157 235 235 172 243 241 173 238 221 148 207
195 116 170 186 103 152 193 108 154 201 115 159 210 123 168
224 138 185 238 156 206 247 173 225 242 174 227 201 132 181
142 68 113 115 35 73 123 34 67 147 48 76 177 69 92
203 89 109 218 99 119 219 99 123 212 94 124 199 88 124
195 93 136 218 129 177 245 172 224 255 192 246 254 195 253
249 189 252 233 171 241 212 149 224 202 139 214 208 145 218
226 163 233 242 178 247 237 170 245 215 145 228 192 118 208
173 95 191 161 80 178 156 73 170 155 70 164 156 69 159
158 68 154 164 70 153 180 83 161 203 102 175 218 114 183
221 116 181 218 113 174 213 108 166 204 101 156 195 94 146
187 88 139 184 87 135 185 88 135 186 91 136 185 93 138
182 93 141 180 94 151 179 97 169 180 102 190 178 106 208
175 107 218 173 110 222 172 112 223 172 113 221 173 113 221
175 113 223 178 114 226 180 116 229 181 117 231 182 119 232
182 120 232 184 122 233 187 125 235 190 128 237 192 130 238
194 133 239 197 135 239 201 139 240 204 142 241 207 146 241
210 149 242 214 152 243 218 155 244 221 159 245 223 161 246
224 162 247 225 163 246 227 166 246 230 169 246 232 172 246
234 174 244 235 176 242 236 178 241 238 181 242 240 183 244
240 185 246 239 187 246 240 190 247 240 193 247 239 195 245
241 199 245 246 208 249 252 217 253 254 222 254 253 222 254
249 219 252 247 215 250 245 211 248 243 207 248 243 205 249
244 204 251 244 202 253 245 200 254 245 198 255 244 196 255
243 193 255 242 191 255 241 189 255 241 188 254 241 186 254
242 185 254 239 180 250 234 172 243 227 162 233 217 150 222
203 134 206 189 118 191 181 108 181 179 106 179 182 108 181
180 107 180 177 105 178 183 112 184 195 125 197 205 138 207
217 153 220 227 163 233 201 137 211 140 76 150 91 28 97
75 15 72 73 16 58 69 15 44 65 12 31 61 9 20
59 8 13 62 9 11 66 11 10 68 10 8 69 9 7
74 10 6 88 15 10 110 29 24 135 44 41 156 56 55
174 67 66 192 80 80 208 95 95 221 106 109 224 107 116
215 96 114 204 84 114 201 83 129 206 91 157 201 93 175
183 82 179 170 78 181 168 83 187 159 81 180 134 60 152
110 40 122 99 34 104 94 32 90 90 32 78 88 31 67
86 31 58 86 31 52 85 31 46 84 30 43 82 30 41
81 29 40 80 29 38 80 28 38 81 28 38 83 28 37
82 28 37 80 27 35 79 25 33 78 25 33 80 27 33
80 28 33 79 27 32 77 27 30 77 27 30 76 26 29
75 26 27 74 25 26 73 25 25 72 25 24 71 26 23
69 25 21 65 21 16 63 19 14 66 22 19 70 26 23
70 26 23 69 25 23 67 23 22 66 22 22 66 22 23
66 22 23 104 53 130 106 54 133 107 54 134 108 54 137
110 56 142 113 57 146 117 59 150 122 62 157 127 66 164
134 71 171 139 75 177 144 78 182 150 83 188 157 90 195
176 109 212 206 140 235 227 163 248 228 166 247 223 163 243
224 167 243 230 173 246 239 181 249 247 186 248 234 168 223
193 121 169 161 82 125 161 77 116 178 89 126 190 99 135
197 105 142 207 116 155 222 135 178 237 158 205 235 162 210
189 118 163 131 57 98 110 31 66 120 33 62 143 46 70
172 66 86 200 87 104 217 99 117 218 98 119 209 91 118
197 84 119 196 91 132 219 126 173 246 169 220 255 191 244
254 194 251 249 188 252 238 175 245 225 162 235 219 156 228
220 158 228 229 168 236 244 181 249 248 184 253 235 167 245
210 138 225 185 109 202 169 90 186 164 82 178 161 77 171
161 75 165 163 74 161 170 78 162 186 89 170 205 104 182
217 113 187 219 113 184 218 112 180 216 112 176 210 107 169
201 99 160 194 94 153 192 94 150 193 96 151 194 98 152
194 100 153 191 101 155 187 101 163 185 103 178 183 105 197
179 107 211 174 107 219 171 108 221 171 111 222 171 112 221
172 113 221 174 113 223 177 114 226 179 115 229 180 116 231
180 117 232 181 118 232 183 121 232 185 123 233 189 127 236
191 129 238 193 132 239 197 135 240 201 138 242 205 142 244
209 147 246 213 151 247 218 155 248 223 160 249 226 164 250
229 167 252 230 169 252 231 170 251 232 171 249 234 174 248
237 177 247 239 180 245 240 182 243 241 184 241 244 188 242
245 190 244 244 191 246 243 192 246 243 194 247 243 197 248
242 199 247 242 201 245 245 207 247 250 216 251 254 224 254
254 225 254 251 221 253 248 217 251 246 213 249 244 209 249
244 207 250 244 205 251 244 202 253 245 200 254 245 198 255
244 196 255 243 193 255 242 191 255 241 189 255 241 188 254
242 187 254 239 182 250 227 167 237 207 144 215 187 121 193
171 101 174 156 83 156 144 69 141 139 62 134 139 61 133
142 64 134 139 63 133 133 58 128 134 60 129 140 68 136
148 78 144 167 100 164 189 123 189 182 117 186 140 75 144
94 31 95 74 14 67 70 12 52 66 11 38 62 9 27
59 7 18 57 6 12 59 8 10 61 9 8 63 9 6
66 10 6 71 10 6 80 13 7 99 24 17 124 40 35
148 54 51 170 67 66 191 83 82 209 97 97 221 106 108
226 108 115 220 99 113 209 87 112 202 81 121 204 86 146
206 93 172 196 91 185 189 93 196 186 99 204 162 82 183
127 52 145 108 36 119 102 34 106 97 34 93 93 33 81
91 33 69 89 32 60 88 32 54 87 32 49 86 31 45
84 30 43 82 29 42 81 29 40 81 28 40 82 28 39
83 28 38 83 27 37 81 26 35 79 24 33 79 24 32
81 27 33 81 28 34 80 28 33 79 27 32 78 27 31
77 27 29 76 26 28 75 25 26 74 25 25 73 25 25
72 26 24 69 25 22 65 21 17 63 19 15 67 23 19
70 26 24 70 26 24 69 25 24 67 23 23 66 22 23
66 22 23 66 22 23 100 49 128 103 51 130 105 52 132
106 53 135 108 54 139 112 56 144 117 59 150 122 63 157
127 65 164 132 69 171 138 73 177 144 77 184 150 83 190
157 89 197 170 102 209 197 129 229 221 154 243 227 163 245
227 166 243 232 175 246 241 186 250 250 196 253 248 192 245
217 154 202 166 95 137 142 61 98 154 65 98 177 83 113
193 96 125 199 101 131 202 105 137 210 117 152 225 139 177
223 143 183 177 101 138 123 47 80 107 28 55 118 32 54
139 43 62 167 62 78 194 83 97 213 97 111 215 96 115
207 88 114 197 82 115 199 89 130 219 119 166 240 155 205
245 171 225 244 175 233 244 176 239 244 176 243 241 175 244
237 172 241 233 171 238 235 176 240 245 185 249 251 191 254
246 184 251 230 163 239 210 138 221 195 120 207 185 108 195
178 98 184 174 91 176 175 89 172 180 91 172 192 100 179
206 111 188 213 116 191 214 115 188 215 116 187 217 118 187
213 115 182 205 108 174 198 103 167 197 102 165 198 103 166
200 106 167 200 108 167 196 108 168 192 108 173 188 108 186
184 109 200 179 109 212 175 108 218 172 109 220 172 111 221
172 112 221 173 113 222 175 113 224 177 113 227 178 114 229
179 115 231 180 116 232 180 118 232 182 120 231 184 123 232
187 126 235 190 128 237 192 131 238 196 134 240 200 138 242
204 142 245 209 147 247 214 152 249 219 157 249 225 162 251
229 167 252 233 171 254 236 174 254 238 177 254 239 179 252
241 182 251 244 185 250 245 188 249 246 190 247 247 193 246
249 196 247 250 199 248 249 200 249 248 201 248 248 203 249
248 205 250 247 206 249 245 208 247 246 211 247 250 218 249
254 226 253 254 228 255 252 224 254 250 220 252 247 216 250
246 212 250 246 209 251 245 206 252 245 204 253 245 201 254
245 198 255 244 196 255 243 194 255 243 192 254 243 191 254
244 191 254 245 190 254 235 178 245 207 146 218 171 106 181
144 75 151 130 57 133 121 46 119 117 40 109 117 39 104
120 40 103 122 43 104 121 44 104 114 39 99 110 35 95
106 33 92 104 34 90 112 45 99 126 61 116 129 65 122
112 49 106 86 25 78 70 12 57 64 8 43 60 6 30
58 6 22 56 5 16 56 5 12 57 6 10 59 8 7
60 9 6 64 10 6 70 12 7 79 15 7 94 23 15
114 35 29 136 48 43 159 61 59 183 79 78 205 95 95
219 105 106 225 107 112 220 99 110 211 88 108 202 80 114
201 82 134 206 93 164 206 101 189 205 109 207 197 109 211
163 82 182 126 49 142 110 36 120 106 36 109 103 36 98
98 35 85 94 33 72 92 32 63 91 33 57 90 32 52
89 31 48 87 31 45 85 30 44 84 30 43 83 29 42
83 28 41 84 27 40 83 27 39 82 25 36 80 23 33
80 24 32 81 26 33 82 28 34 81 28 34 80 27 33
79 27 32 78 27 30 76 26 28 75 25 27 74 24 25
73 25 25 71 26 24 69 25 23 65 21 19 63 19 17
66 22 20 70 26 24 70 26 24 68 24 23 67 23 23
66 23 22 66 23 22 66 23 22 99 48 128 101 50 130
104 52 132 106 53 134 108 54 137 112 56 142 117 59 149
123 63 157 127 65 164 133 68 171 139 73 179 145 77 187
151 82 193 157 88 200 169 99 211 190 118 225 207 135 233
212 142 231 213 148 229 221 161 233 235 181 242 250 199 252
241 189 237 196 136 181 147 76 117 135 52 88 151 58 88
175 74 100 196 92 115 207 101 124 209 105 129 209 108 135
211 117 146 204 117 145 161 80 105 117 37 59 107 26 44
116 30 44 134 39 52 161 57 68 188 78 88 206 91 103
210 92 109 205 86 110 199 80 113 200 85 125 213 104 151
221 124 175 219 133 186 219 139 195 227 148 208 240 163 226
248 175 240 249 181 245 245 183 245 244 187 247 246 191 249
244 189 247 243 186 245 243 182 245 238 172 242 229 160 234
217 147 222 206 134 209 198 122 197 192 112 187 190 109 183
196 114 187 204 121 193 209 124 195 211 125 196 215 128 198
218 131 200 216 129 197 210 123 190 206 118 184 204 116 182
206 116 183 207 118 184 207 119 184 203 119 184 197 117 186
190 115 193 185 114 203 181 114 211 179 114 217 177 114 220
176 115 221 175 116 222 176 116 223 177 116 226 178 115 228
179 115 230 180 115 232 180 117 233 180 119 233 182 122 233
184 124 233 185 125 234 187 128 236 190 131 238 194 134 240
198 137 242 202 141 244 207 145 246 212 150 247 217 156 248
223 162 250 229 168 252 234 173 254 239 178 255 243 183 255
246 187 254 248 189 254 249 192 254 251 195 253 252 197 253
252 201 252 253 204 253 253 206 253 253 208 253 253 210 253
253 212 253 253 214 253 251 215 252 250 216 250 250 218 249
252 223 250 253 227 253 254 229 255 253 227 254 251 222 252
250 219 251 249 216 251 248 212 252 247 209 253 247 206 254
247 204 255 246 200 255 244 196 254 244 194 253 244 193 253
246 193 253 248 194 254 247 192 253 229 171 239 189 127 203
146 79 160 121 50 134 113 38 120 107 32 106 105 28 93
106 29 85 108 31 81 110 34 80 110 35 80 107 33 78
103 30 75 98 27 72 92 24 66 86 22 62 85 23 62
83 23 63 78 19 59 70 13 50 63 8 40 59 6 32
55 4 24 53 3 18 53 3 14 54 4 12 57 6 11
59 8 9 61 9 7 64 10 7 71 13 8 82 20 11
95 26 17 107 33 24 122 40 33 141 50 45 166 66 64
192 85 85 210 97 99 217 99 104 214 93 102 207 84 99
200 78 105 196 79 122 204 94 154 216 114 190 217 123 212
196 109 205 158 76 173 128 49 141 116 40 124 112 38 112
107 37 100 102 33 87 97 31 75 96 32 68 95 33 61
93 32 56 91 32 51 89 31 47 88 31 45 87 30 45
87 29 45 87 28 45 87 28 45 86 27 43 83 25 39
80 23 35 80 24 33 82 26 33 83 28 34 82 28 34
81 27 33 80 27 32 78 26 30 77 25 29 75 24 27
74 24 25 72 24 24 71 25 24 69 24 23 66 22 20
64 20 19 66 22 20 69 25 23 69 25 24 67 24 22
66 23 21 66 24 21 66 24 21 66 24 21 100 49 130
102 51 131 104 53 133 106 54 135 109 55 138 113 57 143
119 61 150 124 63 157 129 66 165 135 70 174 141 73 181
146 77 188 152 82 195 158 87 202 170 97 213 187 112 224
200 123 228 203 128 224 205 136 221 214 152 226 231 175 238
248 196 250 235 182 231 183 123 168 139 68 108 134 49 84
148 52 81 170 65 89 194 85 105 209 98 117 214 104 124
209 103 125 199 99 121 180 88 109 141 56 74 109 28 42
105 23 34 114 27 36 132 37 45 158 55 63 185 75 82
202 88 98 207 88 104 203 83 106 197 76 107 194 76 114
198 84 129 197 92 141 194 99 151 201 111 166 214 125 184
228 141 202 241 160 222 250 177 238 252 189 248 250 194 251
241 188 245 227 173 231 224 168 226 234 175 234 243 180 243
245 179 245 241 177 243 235 170 236 226 158 224 216 145 212
209 137 204 208 137 204 212 140 206 215 143 209 219 146 212
223 150 215 225 151 216 225 151 215 224 149 212 224 146 210
223 144 208 223 143 207 223 142 207 223 142 208 220 141 208
213 138 209 203 133 210 197 131 215 194 130 221 191 128 224
186 125 224 182 122 223 181 122 224 181 122 226 182 120 228
182 119 229 183 118 230 183 119 232 183 120 233 183 122 234
184 124 234 184 125 233 185 126 234 187 127 236 190 130 239
194 133 241 197 136 243 200 139 243 203 141 243 208 146 244
213 152 246 220 159 248 227 166 251 233 172 253 239 178 255
244 184 255 247 188 255 248 190 255 249 192 255 250 195 255
251 198 255 252 200 255 252 203 255 252 205 255 252 208 255
253 210 255 253 213 255 253 215 255 253 217 253 253 219 252
253 222 251 253 224 251 253 226 252 254 228 253 254 228 254
253 225 252 252 222 251 251 219 252 249 215 251 248 211 251
248 209 253 248 206 254 246 202 253 245 198 251 244 196 250
245 195 249 247 196 250 249 196 252 247 191 251 223 164 233
177 114 194 136 67 155 117 44 135 110 34 122 103 27 105
99 22 87 98 21 73 98 23 65 99 25 62 100 26 61
99 27 61 97 26 60 95 25 59 90 23 56 83 20 50
76 16 45 71 12 41 66 9 37 62 7 33 58 5 29
56 4 25 53 4 21 52 3 17 52 4 15 55 5 13
57 7 12 59 9 10 62 11 9 64 12 8 71 15 9
83 21 13 95 27 17 104 30 22 114 34 27 128 41 35
150 53 49 174 68 68 193 81 83 203 86 91 204 83 91
201 78 91 196 74 97 192 76 112 200 92 144 220 120 189
222 130 213 190 104 196 151 68 162 129 48 139 121 43 126
116 40 115 110 36 101 103 31 86 99 30 76 99 31 70
98 32 64 96 32 59 94 32 54 92 31 50 90 30 47
89 29 45 90 29 47 91 29 50 91 30 50 89 28 47
85 26 41 82 24 37 82 25 34 83 27 34 85 29 35
84 29 35 83 28 34 81 27 33 80 26 32 78 25 30
77 25 28 75 24 26 73 24 25 71 25 24 70 24 24
68 23 22 67 22 21 68 24 23 71 27 26 72 28 26
70 26 24 68 25 22 67 25 22 67 25 22 67 25 21
101 51 132 103 52 134 105 54 135 108 55 137 110 57 140
115 59 145 120 62 152 126 65 160 131 68 167 137 71 175
142 74 182 147 77 189 154 82 196 162 89 204 173 99 215
188 111 224 199 120 227 204 126 225 209 137 225 219 155 231
234 177 241 248 194 249 230 174 226 177 114 161 136 63 104
133 48 82 146 48 76 165 58 81 188 77 95 205 93 110
212 100 118 206 97 116 187 86 105 158 64 82 122 35 50
103 20 31 104 21 29 114 26 32 133 38 43 159 56 61
184 75 80 200 86 94 203 85 99 199 79 100 192 72 100
186 67 103 181 67 108 177 70 116 182 82 132 201 105 158
215 120 176 219 126 185 228 141 202 243 167 227 252 188 247
251 193 252 235 180 239 211 157 216 204 147 208 216 155 218
227 163 228 233 168 235 241 179 244 247 187 249 245 184 246
240 177 240 235 172 234 232 171 232 233 172 232 234 174 233
236 175 234 238 176 234 239 177 234 241 179 234 243 179 235
245 179 234 245 177 233 245 174 231 243 171 229 241 169 229
240 168 232 235 164 234 227 161 235 222 159 237 218 158 240
213 153 239 203 144 235 194 137 230 190 134 229 190 132 230
190 130 231 191 128 232 192 127 234 193 128 235 192 129 235
190 128 235 188 127 235 187 126 235 188 126 236 189 128 238
191 130 240 194 133 242 197 135 244 199 137 243 200 138 242
204 141 243 210 148 245 216 155 247 222 161 250 228 168 252
234 174 254 239 179 255 242 183 255 244 185 255 244 187 254
245 189 254 246 191 254 247 194 254 247 196 254 247 197 254
246 199 253 246 202 253 248 205 253 249 207 252 249 210 251
250 212 250 251 216 249 251 219 249 251 222 250 252 225 251
254 227 253 254 226 252 254 225 252 253 223 252 251 218 250
249 214 249 249 211 250 248 208 251 246 205 249 244 201 248
244 198 246 245 198 246 247 198 247 249 198 250 247 191 250
221 161 231 174 110 192 135 66 158 120 47 142 112 36 128
102 25 107 94 18 85 91 15 68 90 15 57 91 17 52
91 19 49 91 20 49 91 21 49 90 21 49 87 21 48
83 20 45 78 18 43 74 15 39 68 10 34 62 6 29
57 4 24 55 3 21 54 4 19 54 5 17 54 6 15
56 7 13 58 9 11 59 11 10 61 12 9 64 13 9
70 15 8 81 19 10 92 24 15 101 27 20 110 30 24
121 34 28 137 41 37 155 50 49 173 61 63 188 71 75
195 75 82 196 73 85 191 70 91 187 70 105 195 86 136
219 120 186 226 135 215 193 106 197 154 71 164 136 55 145
130 51 134 124 46 121 115 40 105 108 35 90 104 33 80
103 33 73 102 35 68 102 36 64 101 36 61 100 36 58
98 35 55 97 33 53 97 34 55 98 35 58 98 35 58
96 34 54 92 31 49 90 30 44 89 30 41 89 32 40
90 34 41 90 34 40 89 33 40 88 33 39 86 32 37
85 31 35 83 30 33 82 30 31 80 30 30 78 30 30
77 30 30 76 29 28 74 28 27 76 30 30 80 34 33
81 35 33 78 33 31 75 31 28 74 30 27 74 30 27
74 30 27 102 53 134 104 55 136 107 56 138 110 57 140
112 59 143 117 61 148 122 64 156 128 67 163 133 68 170
138 71 177 144 74 184 150 79 192 159 85 200 168 94 210
179 104 220 191 113 227 202 121 230 209 130 231 217 144 234
229 162 241 242 183 248 249 194 250 226 168 221 171 106 155
133 58 101 131 45 80 142 44 72 159 52 73 181 69 87
200 85 102 207 93 110 200 90 107 178 75 92 145 50 65
112 24 36 99 15 24 104 20 26 115 27 30 135 38 41
161 57 60 185 76 79 200 85 91 201 83 93 196 76 94
189 69 94 180 62 94 170 55 93 164 55 97 178 76 121
208 108 157 223 123 176 219 121 178 219 128 186 234 153 213
249 180 240 250 189 250 232 174 236 205 148 212 196 137 203
205 143 212 211 146 217 214 149 220 228 165 234 243 183 249
249 189 252 250 190 251 250 190 249 249 191 247 247 191 245
245 188 242 242 185 237 240 182 234 240 183 232 241 184 232
243 184 232 245 183 231 246 181 229 245 178 226 244 174 224
243 171 226 243 170 232 241 170 237 238 171 241 237 175 246
237 177 249 233 174 251 225 167 249 216 159 244 210 153 241
208 150 240 208 148 241 209 146 242 210 144 243 208 143 243
205 142 242 199 137 239 193 131 237 191 127 237 191 127 239
191 128 240 192 130 241 195 132 244 197 134 245 198 135 245
198 135 243 201 138 243 206 144 245 211 149 247 216 155 248
220 160 250 225 166 252 230 170 253 235 174 254 237 176 253
237 178 253 238 180 252 239 182 252 240 184 252 240 186 253
240 187 252 238 188 250 239 190 250 241 193 250 242 196 248
243 198 247 244 201 246 246 205 245 246 209 245 246 214 246
249 220 249 252 225 251 254 226 252 254 227 253 254 226 253
253 223 252 251 218 250 250 215 249 248 211 249 246 207 247
244 203 246 244 201 245 246 200 245 248 200 247 251 201 251
248 194 251 225 166 235 180 117 199 143 74 167 128 55 152
117 42 137 102 25 111 91 14 86 87 12 68 86 13 57
87 14 49 86 15 45 86 17 43 86 18 43 87 20 43
86 21 44 84 21 44 82 21 44 78 18 41 71 13 35
64 7 28 59 4 23 56 4 20 56 5 19 56 6 16
56 7 14 56 7 11 57 8 9 58 10 8 60 12 7
63 13 7 69 14 7 79 16 8 89 20 12 98 24 18
106 27 21 115 28 24 126 31 28 139 35 34 155 44 45
175 58 62 188 68 74 191 69 80 187 66 86 180 64 97
188 78 127 216 117 182 231 140 219 204 118 207 168 85 177
151 70 158 144 65 147 137 58 132 128 51 116 121 46 102
117 44 92 115 43 84 114 43 79 114 45 76 114 46 74
114 46 72 112 45 70 111 45 69 110 45 70 111 46 72
111 46 72 109 45 68 107 44 64 105 43 59 103 43 55
102 43 52 101 43 51 101 43 50 100 43 50 99 43 49
98 42 48 96 41 46 95 40 43 93 40 41 91 40 39
89 40 38 88 39 38 87 38 37 85 37 36 87 39 38
90 43 41 91 44 41 88 41 38 84 38 35 82 36 33
82 37 33 82 37 33 105 56 137 107 57 138 110 58 141
112 60 143 115 61 147 119 64 153 125 66 160 130 68 166
134 69 172 139 72 179 147 76 188 156 83 198 167 91 208
178 102 220 188 111 228 197 118 232 205 124 234 214 134 237
225 151 243 238 170 250 248 188 253 250 194 251 222 162 217
165 98 149 129 53 97 129 41 77 139 40 68 155 47 68
176 63 80 193 77 93 199 83 99 192 81 95 173 69 82
142 46 57 110 21 29 98 13 18 105 20 22 115 26 26
134 37 37 160 56 55 186 76 76 199 85 88 198 80 88
193 73 88 187 68 89 178 61 88 164 50 83 157 48 85
177 71 112 212 108 153 229 125 174 222 120 173 215 118 174
224 137 196 242 167 227 247 182 244 230 168 234 205 144 214
197 135 207 204 140 215 208 141 217 209 143 219 223 158 232
240 176 247 248 184 250 248 183 245 245 180 240 239 176 232
231 169 222 222 161 211 214 152 200 210 147 192 210 146 190
212 147 189 215 148 189 218 149 189 221 149 190 224 149 191
226 149 193 228 150 199 232 151 209 233 155 217 233 160 225
236 168 234 238 175 243 239 177 249 236 176 251 232 173 251
228 169 250 226 166 249 225 164 249 225 162 249 224 159 249
220 155 248 214 150 245 206 143 241 198 134 239 194 129 239
194 129 240 193 129 241 194 130 243 195 131 245 197 133 246
197 134 247 198 134 246 200 137 246 204 141 247 206 144 247
209 148 246 211 151 247 215 155 248 219 159 249 225 163 250
227 165 250 228 167 249 229 169 249 230 172 249 232 174 250
233 176 250 233 177 249 232 178 248 233 180 247 235 183 247
236 186 245 237 188 244 238 191 242 240 194 241 240 199 241
241 206 243 244 214 247 248 220 251 252 224 253 254 227 254
255 229 254 254 227 254 252 223 252 250 218 250 248 214 249
246 210 248 245 206 247 245 203 247 247 202 248 249 202 250
252 202 252 251 197 253 234 175 242 195 132 213 156 89 180
134 63 160 120 46 142 102 26 114 88 13 87 85 11 70
85 12 59 84 12 49 82 13 43 82 14 40 82 16 39
83 18 39 85 21 41 86 24 44 85 24 44 81 21 41
75 16 35 68 10 27 62 7 22 60 6 20 59 7 18
58 7 15 57 6 11 56 6 8 56 7 6 57 8 5
59 10 5 62 12 5 68 13 5 77 14 6 86 17 10
95 22 16 104 25 20 111 26 21 119 26 23 128 26 25
143 34 34 164 50 53 180 62 67 184 64 73 180 61 79
174 58 89 180 71 118 211 112 176 233 143 221 214 128 216
181 97 188 165 83 170 158 77 159 150 70 144 141 62 127
134 58 114 131 57 105 129 55 98 128 55 93 127 56 91
127 56 88 127 55 86 125 54 84 124 53 83 123 54 84
123 56 85 123 57 85 122 57 82 121 56 78 119 55 73
116 54 68 113 51 63 110 50 60 110 50 59 110 50 58
108 50 57 107 50 55 105 49 53 104 48 51 103 48 48
100 47 45 97 46 43 95 45 42 93 43 40 91 41 39
92 43 40 95 45 43 95 46 42 91 43 40 88 40 36
87 39 35 87 39 35 87 39 35 107 58 139 109 59 141
112 61 144 114 62 147 117 63 150 122 65 156 127 68 164
132 70 171 136 71 176 143 74 184 152 80 194 163 89 206
176 99 218 189 111 230 197 119 236 201 121 237 206 125 236
215 136 239 229 155 247 243 174 253 252 189 255 250 191 249
217 154 211 158 89 142 125 47 93 126 38 75 137 38 66
153 45 66 173 59 75 186 70 84 188 73 86 182 71 83
168 63 73 142 45 51 109 20 23 97 11 12 104 18 16
114 24 21 131 33 30 155 50 47 180 69 67 193 78 79
192 75 79 188 69 79 185 67 83 178 61 83 163 50 76
155 45 76 175 67 103 211 103 143 231 123 167 225 119 167
211 110 163 213 121 178 233 152 212 244 173 237 230 164 233
208 144 218 203 138 215 209 141 220 212 143 223 217 148 227
230 162 238 242 174 246 245 175 242 237 164 227 222 148 208
206 133 189 191 120 172 180 109 157 172 101 145 171 98 139
176 101 139 181 104 141 186 107 143 193 110 146 200 114 150
205 117 154 210 120 159 216 124 168 223 131 182 228 140 195
231 149 207 235 160 220 239 168 232 239 172 240 236 172 244
232 170 246 230 169 246 227 166 244 226 163 243 225 161 243
224 159 243 220 155 243 214 149 241 206 141 239 200 134 239
197 131 240 197 130 242 196 129 242 196 129 244 196 130 245
196 131 247 197 132 248 198 133 248 200 135 248 201 138 248
202 139 247 202 141 244 203 142 243 205 145 243 209 147 244
214 151 244 217 153 244 218 156 244 220 159 245 222 162 245
224 164 246 226 166 247 226 168 247 227 169 246 228 172 245
230 175 246 231 178 244 232 180 242 234 183 240 236 187 240
237 192 241 238 200 244 241 209 248 246 215 252 249 220 254
252 225 255 254 229 255 255 229 255 253 226 254 250 221 251
248 217 250 246 212 249 244 208 248 244 205 248 246 204 249
249 204 251 252 203 253 252 199 254 242 184 249 212 149 227
170 104 192 138 68 163 118 45 140 101 27 114 88 14 89
83 10 71 82 10 59 79 9 48 77 9 41 77 10 37
78 13 36 80 17 36 83 21 39 87 25 42 87 25 42
82 22 38 77 18 33 71 13 27 67 10 23 64 9 20
63 9 17 60 8 13 58 7 10 57 6 6 57 6 3
58 7 2 59 9 3 63 12 3 68 13 4 76 14 6
85 16 10 93 21 15 101 23 19 108 24 20 115 24 20
123 24 22 135 29 29 155 43 44 169 53 57 173 55 63
171 53 70 166 52 82 173 66 111 207 109 171 233 144 221
218 133 219 187 103 193 171 88 175 164 82 163 157 76 150
148 69 134 142 64 122 140 63 114 138 62 107 136 61 103
136 61 100 136 61 98 137 62 98 139 64 100 141 67 102
141 68 102 137 67 100 133 66 96 130 64 91 127 62 86
124 60 80 120 57 73 116 53 66 112 51 62 111 50 60
111 51 58 109 50 57 108 50 55 106 49 53 105 48 50
104 48 47 101 46 44 97 44 41 94 43 39 92 41 37
90 39 35 91 40 36 94 42 39 93 43 39 91 41 37
89 40 36 89 40 36 89 40 36 89 40 36 108 59 141
110 61 143 114 62 146 116 64 150 119 65 154 124 66 160
129 69 167 135 71 175 140 73 182 147 78 191 158 86 202
171 96 214 184 107 226 197 118 238 203 124 242 203 123 239
205 125 236 215 137 240 230 156 248 245 175 254 253 188 255
249 187 248 212 148 206 152 82 136 121 43 89 123 35 72
135 36 64 153 46 66 172 58 73 180 64 77 179 63 75
174 62 72 164 59 65 139 42 44 108 17 17 96 9 7
103 17 12 115 24 18 130 32 26 149 44 39 170 59 55
183 68 66 184 67 69 182 64 71 181 64 75 175 59 76
159 47 68 151 41 66 170 62 91 206 97 131 228 117 157
223 114 158 206 102 151 204 108 163 225 140 200 243 167 233
236 166 237 219 151 227 212 143 222 215 144 225 222 149 230
230 157 237 237 165 242 235 162 234 224 146 213 206 124 186
185 103 162 168 87 142 157 76 126 149 69 114 146 65 106
149 67 104 157 73 107 166 79 111 176 85 116 185 91 122
194 96 128 199 98 131 202 98 133 206 101 140 213 110 153
219 121 167 226 135 184 235 152 204 242 164 222 241 170 234
236 169 238 230 166 239 225 163 238 221 159 234 218 155 231
216 152 230 216 151 232 215 150 235 211 146 236 206 140 238
202 135 239 200 132 241 199 131 242 198 130 242 197 129 244
196 129 245 197 130 246 197 131 248 197 132 249 198 133 249
199 135 248 199 135 246 197 135 243 197 136 241 199 137 240
202 139 240 205 141 239 208 143 239 210 146 239 213 150 241
216 153 242 218 157 243 221 160 244 222 162 245 223 164 246
226 167 246 228 171 247 231 175 247 232 178 245 235 181 244
237 185 244 239 191 246 240 198 249 242 206 252 246 211 253
248 216 254 251 221 255 253 226 255 254 228 255 252 227 254
249 223 252 247 219 250 245 214 250 244 210 249 244 208 248
245 207 249 248 207 251 252 205 253 254 201 255 249 191 253
226 164 237 184 118 202 141 71 161 116 43 133 103 29 113
93 19 93 85 13 74 82 10 61 79 9 50 77 9 42
78 11 39 81 15 39 84 19 39 87 24 41 88 26 41
86 25 38 82 21 33 77 17 29 74 15 25 71 12 22
68 11 18 66 10 15 64 9 12 61 8 8 60 7 5
59 6 2 60 7 1 62 10 2 65 12 3 70 14 5
77 15 8 85 17 11 91 19 14 97 22 17 104 23 18
111 23 19 119 24 21 129 27 25 144 36 35 155 43 44
158 44 50 160 45 60 159 48 76 169 64 107 203 108 168
234 147 222 223 139 224 192 107 196 173 89 175 165 82 163
158 76 150 150 70 137 145 66 126 143 65 118 142 64 113
142 64 109 143 66 109 146 69 110 151 74 114 157 79 119
162 84 124 161 85 124 152 80 116 143 74 107 136 68 97
129 62 88 124 59 80 119 55 73 115 52 66 111 49 61
108 46 57 106 46 54 105 45 52 104 45 50 102 44 48
100 43 45 99 43 42 97 42 40 95 41 36 93 40 35
91 39 33 90 37 32 91 39 34 94 42 37 94 42 37
92 41 36 91 40 36 91 41 37 91 41 37 91 41 37
112 62 144 114 63 146 116 64 149 118 64 152 121 65 156
126 67 163 133 71 172 138 73 179 143 75 187 151 80 196
162 89 207 174 99 218 187 109 229 199 119 239 205 125 243
204 124 239 205 127 236 214 137 239 230 156 247 246 175 253
254 188 255 246 183 245 204 138 197 144 73 127 116 38 84
120 32 70 134 36 64 154 48 67 171 59 73 176 62 73
174 59 69 171 58 66 162 56 60 138 40 40 107 17 13
97 10 5 105 18 11 116 25 17 130 32 24 146 41 34
162 52 46 174 61 57 178 62 61 178 61 65 177 61 69
170 56 68 152 42 56 143 34 53 164 56 79 201 91 119
223 111 145 219 108 148 202 95 141 199 100 153 221 132 192
245 166 232 246 174 245 233 161 237 223 151 230 225 150 231
233 157 236 238 162 239 230 155 229 208 132 201 184 102 166
165 80 139 152 67 121 142 59 109 136 53 98 131 48 88
128 45 79 130 45 76 136 49 76 145 54 80 156 62 87
169 71 96 181 78 105 190 84 112 196 87 116 200 89 120
203 94 126 206 101 136 213 114 153 223 132 176 234 151 202
241 166 224 241 171 236 235 169 239 229 165 237 222 159 232
215 152 226 212 149 225 213 148 228 214 148 233 213 147 237
210 143 240 205 138 241 202 135 241 200 132 241 199 130 241
197 129 242 197 129 244 197 130 246 198 130 247 197 131 248
197 132 247 197 133 247 197 133 245 196 133 243 196 133 242
196 134 240 198 134 238 200 135 235 203 137 235 205 140 236
209 144 239 212 149 241 216 152 243 218 155 244 219 158 244
222 162 246 226 167 249 229 171 250 232 175 250 234 178 249
238 183 250 241 188 251 243 192 252 243 197 253 244 202 254
246 206 254 247 211 254 249 216 254 252 222 254 253 225 255
252 226 254 251 224 253 249 221 252 247 218 251 246 214 250
246 212 249 247 211 250 250 210 251 253 207 252 254 201 254
253 192 254 238 172 243 200 130 209 152 79 162 122 48 130
114 38 116 108 33 102 100 25 85 94 20 70 89 17 59
87 15 51 88 17 47 91 22 47 95 27 48 97 30 47
94 29 43 89 25 36 84 21 30 80 17 26 77 15 23
74 13 19 71 10 15 69 10 12 68 11 10 67 11 9
65 10 6 64 9 3 64 9 2 66 12 3 69 14 4
72 14 5 78 15 8 84 17 12 89 20 14 95 21 16
101 22 17 109 23 18 116 25 20 125 27 23 134 32 29
142 36 35 146 37 41 150 40 53 153 46 71 164 62 103
200 107 165 235 150 224 229 145 230 197 112 201 174 90 176
163 80 162 157 74 150 151 70 140 148 68 132 147 68 125
149 70 123 156 77 126 162 84 130 163 85 130 163 84 129
163 84 129 164 85 129 161 84 126 153 81 119 144 75 109
136 67 98 127 61 88 121 56 79 116 53 71 112 50 65
109 47 60 105 44 55 103 42 52 102 42 50 100 41 47
98 40 44 96 40 41 95 39 39 94 40 37 93 40 34
93 40 33 92 39 32 92 39 32 93 40 34 96 43 37
96 44 38 95 42 38 93 41 37 92 41 37 92 41 37
92 41 37 117 65 148 118 66 150 119 66 153 120 64 154
123 65 159 130 70 168 137 74 177 141 75 184 145 76 190
152 81 198 163 90 208 174 98 218 187 108 228 198 118 237
204 124 241 205 126 238 206 129 235 213 138 236 228 155 243
245 176 252 253 188 254 238 174 236 187 120 179 131 60 113
111 34 79 118 31 67 134 38 64 158 53 71 175 64 76
178 64 73 175 60 69 172 59 66 162 56 58 139 40 38
110 19 13 100 13 5 108 20 10 117 26 16 129 31 22
144 39 31 158 49 41 169 56 51 173 59 56 175 60 61
175 61 65 166 54 61 145 37 46 136 30 43 160 53 70
198 88 111 219 106 135 214 102 138 199 91 134 197 95 146
219 127 186 245 164 229 252 178 248 245 171 245 239 163 240
238 161 238 238 159 234 227 148 220 202 124 192 171 92 156
148 68 125 137 56 107 129 49 96 122 43 86 115 37 75
109 31 64 105 27 54 105 26 49 109 27 48 114 30 48
122 34 52 134 41 60 148 51 72 165 64 86 180 76 98
192 85 106 199 90 111 202 95 117 203 101 128 207 112 145
216 129 171 232 153 203 242 170 229 242 175 241 236 171 241
228 164 237 219 156 230 214 151 228 213 149 230 214 148 235
215 148 239 214 146 242 210 142 243 206 138 241 203 135 240
200 132 239 199 131 240 198 130 242 198 130 244 198 130 245
198 131 246 197 131 246 196 131 244 196 132 244 197 133 244
197 134 243 196 133 240 197 132 237 198 132 234 201 134 233
205 138 236 208 143 239 212 147 241 215 150 242 216 152 243
217 154 243 220 159 245 224 164 249 227 169 250 228 171 248
231 174 248 236 181 250 241 186 252 242 190 253 242 192 254
243 196 254 244 200 253 244 202 251 244 206 249 247 212 250
251 219 253 253 224 254 253 225 254 253 225 254 253 223 254
252 219 253 252 217 253 253 216 252 253 212 250 251 202 247
246 187 242 243 175 239 233 160 230 205 129 203 165 86 162
138 58 132 132 52 122 131 50 113 124 44 99 115 37 84
108 30 71 102 25 61 102 25 55 104 29 54 107 33 53
108 35 51 105 34 46 100 30 40 95 26 34 90 22 29
85 19 24 80 14 18 76 11 13 75 12 11 75 13 10
75 15 10 74 14 8 71 13 5 72 14 5 74 17 7
74 17 6 74 14 5 79 15 7 85 18 11 89 21 14
94 22 15 100 23 16 108 25 19 115 27 20 122 28 22
130 32 27 137 35 32 141 35 38 144 38 49 147 44 67
158 60 100 196 106 163 234 151 224 229 146 230 197 112 201
174 89 177 164 80 164 158 75 154 154 72 145 152 71 139
152 71 134 160 80 138 175 95 149 180 100 152 170 91 141
159 80 129 152 73 121 149 69 117 146 69 114 141 69 109
135 67 102 129 63 94 124 58 86 119 55 78 115 52 71
111 50 65 108 47 60 104 45 56 103 43 53 101 43 51
99 42 48 98 41 45 96 40 42 95 39 40 94 40 37
93 40 35 93 40 34 93 40 33 94 41 34 95 42 36
96 43 38 97 44 40 96 43 40 94 43 40 93 42 40
93 41 39 92 41 39 119 65 151 121 67 154 123 68 156
124 67 159 127 68 164 134 72 173 141 76 182 144 76 187
146 77 192 153 81 199 165 91 209 178 103 221 192 115 232
202 123 239 206 127 239 205 127 234 204 129 229 212 139 231
229 157 240 246 176 250 250 183 249 224 158 219 166 98 155
119 47 99 109 32 75 119 33 67 137 43 67 164 61 76
181 72 81 183 69 77 179 64 72 174 62 67 162 56 57
139 40 37 112 20 13 102 15 5 109 22 10 118 27 16
128 31 21 142 38 29 155 47 38 163 52 45 168 55 51
171 57 57 172 60 62 163 54 57 141 36 41 134 30 38
159 54 65 195 87 104 213 102 126 209 96 129 197 87 128
196 91 141 215 120 177 242 158 220 253 176 243 252 177 247
250 174 246 243 164 235 225 144 212 196 115 180 166 86 146
141 63 117 127 50 97 118 43 85 110 37 75 101 30 63
93 23 52 87 18 42 82 14 33 81 13 27 83 13 25
87 14 25 91 15 26 98 18 29 110 26 39 128 41 54
148 57 71 171 73 87 193 88 100 204 96 109 204 99 117
201 102 126 203 111 143 215 131 172 231 154 206 241 169 230
242 174 241 236 170 242 228 164 239 221 158 236 217 152 234
214 149 235 214 147 237 214 147 240 212 145 241 209 142 240
206 138 239 204 136 239 203 135 240 201 134 241 200 132 242
198 131 243 198 131 243 197 130 242 196 130 241 196 131 241
198 133 242 199 135 242 198 134 239 198 133 236 200 133 234
203 135 234 206 139 236 209 143 239 212 147 241 214 149 241
214 150 241 215 152 241 217 155 243 220 160 245 221 162 245
221 163 242 223 166 241 229 173 245 235 179 248 237 183 250
239 185 251 241 189 252 242 192 251 240 193 248 240 196 246
245 203 248 250 212 252 254 217 254 255 219 255 254 218 254
254 216 254 254 214 253 254 213 253 252 208 249 247 198 241
236 178 227 221 150 209 210 131 196 201 119 187 185 100 169
162 76 144 147 60 125 145 58 119 146 59 114 142 56 104
135 49 92 126 41 79 119 34 68 117 32 61 118 34 58
119 36 56 120 38 54 118 40 50 115 38 46 112 35 42
108 32 38 102 27 31 94 21 23 89 17 17 86 16 14
85 17 12 84 17 11 81 16 8 80 16 7 82 20 10
85 24 13 82 21 10 79 16 6 83 17 9 88 19 12
90 21 13 93 21 14 101 24 17 110 28 20 117 30 22
122 31 23 128 34 27 135 37 33 139 37 39 141 39 49
142 42 65 155 59 98 195 108 163 232 149 221 223 140 224
193 109 199 174 90 179 166 82 168 159 76 158 155 73 150
153 72 144 156 75 143 169 89 152 179 99 158 172 92 149
157 78 133 147 67 120 140 61 113 137 58 109 135 59 106
131 61 101 127 61 95 124 59 90 121 57 84 118 54 78
114 52 71 111 51 66 107 49 62 104 46 58 103 45 55
101 44 53 99 44 50 98 43 48 96 42 45 95 41 43
95 41 40 95 42 38 95 42 37 95 43 37 96 43 39
97 44 41 97 44 42 98 45 44 97 45 44 95 44 44
94 42 44 93 42 44 92 41 43 120 63 152 123 66 156
126 69 159 128 69 163 131 70 168 136 73 176 141 75 183
145 77 188 148 78 193 155 84 200 169 95 212 186 111 226
201 125 236 208 131 240 209 132 237 206 131 230 206 133 225
216 146 229 234 165 240 248 180 249 245 178 240 206 138 195
146 77 130 112 40 87 110 33 72 120 35 65 139 46 66
166 65 77 184 76 83 185 72 78 180 66 71 174 62 66
162 56 56 138 40 35 112 20 12 103 16 6 109 24 11
118 28 16 128 32 21 141 38 29 151 44 36 157 47 41
161 49 45 166 53 52 168 58 58 159 52 53 138 35 37
133 31 35 158 54 62 192 85 98 208 96 117 204 90 120
196 84 123 194 88 136 211 113 168 238 151 210 253 173 237
253 178 243 246 169 234 226 145 208 194 112 170 164 82 136
142 61 109 124 47 90 111 39 75 100 32 64 89 24 52
80 17 41 73 13 32 68 9 25 63 6 17 60 4 12
61 5 10 64 6 9 68 7 10 71 7 11 77 10 15
91 20 27 111 35 42 140 55 61 174 76 83 197 91 98
204 98 108 202 100 115 197 101 123 199 108 140 212 127 170
230 151 204 244 168 231 245 173 244 239 171 246 231 165 244
223 159 240 218 154 237 215 150 236 214 148 236 212 146 236
211 144 237 209 142 237 208 142 239 208 141 241 206 140 242
204 137 242 201 134 241 199 131 240 198 130 239 198 131 239
198 132 239 200 135 240 202 137 240 202 137 239 203 137 237
204 137 236 206 138 236 208 141 237 210 144 239 212 146 240
214 148 240 214 149 240 214 150 240 215 152 240 217 154 241
217 156 241 217 157 239 220 161 239 226 168 243 232 174 246
235 178 247 237 180 249 240 184 251 241 186 250 241 188 248
244 192 249 248 199 251 251 202 252 250 201 251 246 196 247
243 191 242 240 186 239 240 184 237 240 181 234 235 173 226
224 159 212 209 135 192 191 107 169 177 87 153 169 77 142
160 67 130 151 57 116 148 53 109 150 55 106 152 57 103
151 56 97 147 53 89 141 47 80 136 43 72 134 41 66
134 41 63 135 43 61 135 44 58 133 45 55 130 45 52
130 44 50 128 43 47 122 39 41 114 32 33 108 27 26
104 25 22 100 24 18 96 22 15 92 19 11 90 20 10
94 26 16 96 30 20 92 26 15 87 20 10 92 21 13
95 23 16 94 21 14 95 20 13 102 24 16 112 30 21
118 33 24 122 33 25 128 35 29 135 39 34 139 40 40
139 39 48 139 40 63 155 61 99 198 110 166 228 145 217
214 131 216 187 104 195 172 88 179 162 79 168 155 73 158
151 69 151 151 69 146 157 77 150 168 88 157 165 85 150
149 70 131 137 59 117 133 55 111 130 52 107 128 50 103
125 52 99 122 55 94 119 56 88 117 55 84 115 53 79
112 51 74 109 50 68 107 49 64 104 48 61 101 46 57
100 44 54 98 44 52 97 43 50 95 43 48 94 42 46
93 42 44 93 41 42 93 41 41 93 41 41 93 42 41
94 42 43 95 43 45 96 44 46 96 44 48 95 43 49
93 41 47 91 40 47 90 39 47 90 39 46 123 64 156
125 67 159 128 69 162 131 70 165 134 71 170 138 73 177
143 76 184 147 79 190 153 84 197 162 91 205 176 104 216
193 120 228 205 131 235 210 136 236 213 139 235 215 143 233
219 150 231 231 163 236 244 178 245 252 189 250 240 176 231
189 121 172 131 60 108 108 35 77 111 33 68 121 36 62
140 46 64 167 65 75 185 77 82 186 73 76 180 66 69
175 63 64 163 57 55 138 40 34 111 21 12 104 18 7
111 26 14 119 30 19 129 33 23 140 38 29 148 41 34
152 42 37 155 44 40 160 49 47 163 55 53 153 49 47
134 33 32 131 32 32 157 55 59 190 83 94 204 92 111
201 87 114 195 82 120 194 86 133 209 110 162 236 148 204
251 173 231 246 170 228 224 145 201 189 108 160 160 78 124
145 63 104 133 53 88 116 40 71 99 30 56 85 22 43
73 14 32 64 8 23 59 7 18 55 6 13 50 4 8
47 2 4 46 1 2 48 2 2 50 2 2 51 2 2
54 2 3 64 8 9 79 17 20 107 33 36 144 55 58
174 74 78 191 88 93 201 98 106 200 99 113 194 97 119
197 104 137 214 126 170 236 152 207 247 168 232 247 174 245
240 172 248 232 168 245 226 165 243 222 160 239 217 154 235
213 149 232 211 146 232 210 145 233 212 146 237 213 148 241
213 147 244 210 144 244 207 140 242 203 136 239 202 135 238
202 135 238 203 136 239 205 139 239 206 141 240 208 142 240
208 142 239 208 140 237 208 140 236 209 142 236 211 143 237
213 145 238 214 147 239 215 149 239 215 149 239 215 150 239
215 151 239 216 152 239 218 155 239 222 160 241 228 167 244
233 173 247 237 176 249 239 178 250 240 179 249 239 178 247
238 178 245 240 179 245 242 181 244 239 177 240 232 168 233
224 156 223 217 146 214 212 139 206 210 134 201 209 131 196
204 123 187 195 111 173 184 95 157 175 79 141 166 66 128
159 59 118 153 52 107 148 47 97 149 48 93 153 52 92
155 53 89 154 53 85 153 52 81 151 50 76 149 48 71
148 47 67 148 47 65 148 48 63 147 48 61 144 48 57
142 48 54 142 48 53 142 48 52 139 46 49 132 41 42
128 38 36 125 36 33 121 35 29 115 31 24 108 27 18
104 24 15 105 28 19 107 32 23 102 28 19 98 23 15
104 27 20 108 29 23 104 25 19 101 21 15 104 23 15
113 28 20 119 32 23 123 32 24 129 35 29 136 39 35
139 40 41 139 38 48 139 40 63 158 63 103 202 113 170
225 140 214 205 121 206 176 93 185 160 77 170 150 68 159
146 64 152 145 63 148 148 67 149 155 75 153 154 75 150
139 61 131 124 48 113 119 43 105 117 41 99 115 40 96
113 39 92 109 39 86 106 41 79 104 43 74 102 43 70
100 42 66 99 41 62 97 40 57 95 40 54 93 39 52
91 38 48 89 37 47 88 36 45 87 36 43 85 35 41
85 35 39 84 35 38 84 34 37 84 33 38 85 33 39
85 34 40 86 35 42 87 36 44 88 36 46 88 37 48
87 36 48 85 34 48 83 32 47 83 32 48 82 32 47
127 65 160 128 67 161 130 68 164 133 70 167 136 71 172
140 74 179 146 78 186 153 84 194 161 92 202 171 101 210
183 113 219 196 125 227 206 134 230 214 143 233 224 154 238
233 165 243 240 174 245 247 182 245 252 189 246 254 193 245
233 169 217 175 106 151 121 49 90 106 32 69 114 34 65
125 39 62 146 51 66 174 71 78 192 83 86 191 78 78
184 69 69 178 65 65 165 59 56 138 41 35 112 22 13
106 21 10 114 29 18 122 33 22 131 36 26 140 39 31
146 41 35 148 40 36 151 41 38 156 47 45 157 52 49
146 44 41 128 30 27 129 31 30 155 55 57 188 82 90
201 90 107 200 84 112 196 81 118 195 85 131 210 108 159
236 146 199 245 166 219 225 147 198 188 108 155 154 73 115
139 57 92 136 55 83 127 48 71 107 34 52 87 22 37
73 14 27 62 8 18 54 4 11 51 4 9 48 5 7
45 4 4 41 3 1 38 1 0 38 1 0 40 1 0
41 0 0 43 0 0 49 2 2 57 6 6 76 14 15
108 31 31 138 49 50 167 70 72 192 91 96 205 101 110
201 98 113 196 95 118 201 104 137 219 126 171 237 151 207
248 171 235 248 179 247 241 179 250 236 178 249 231 173 244
224 165 238 218 156 233 214 151 230 213 149 231 214 150 235
218 154 241 220 155 246 218 153 247 215 149 245 211 144 241
209 142 240 209 142 240 209 142 240 210 144 240 212 146 241
215 149 242 215 148 241 212 143 237 210 141 234 210 141 234
211 142 234 212 144 234 213 145 236 214 146 237 215 148 239
216 150 240 217 150 240 217 150 239 220 153 240 224 158 243
229 164 245 234 169 248 238 172 249 238 170 246 233 164 239
225 155 230 218 146 222 214 141 216 212 137 213 209 131 208
204 123 200 198 114 192 193 105 183 189 98 175 187 94 169
186 90 163 183 85 154 178 78 144 174 71 133 170 64 123
166 58 113 161 54 104 156 49 95 152 46 86 153 48 82
156 50 80 157 51 77 157 51 74 157 51 71 157 50 68
156 49 65 154 48 63 154 47 61 154 47 60 152 48 59
150 48 56 147 47 53 147 47 51 149 49 52 148 49 50
146 47 47 145 47 45 145 48 44 143 47 41 138 43 37
129 37 30 121 31 24 119 30 23 119 32 25 115 29 22
113 28 22 122 35 30 127 40 36 122 37 32 115 29 24
114 27 20 119 30 22 123 32 24 126 32 25 131 35 29
137 38 35 140 39 41 140 38 49 142 41 65 163 66 108
204 114 173 221 135 210 194 109 197 161 78 172 144 62 157
137 55 149 136 55 147 142 62 151 151 71 157 149 70 153
132 54 134 113 36 111 104 29 98 103 29 93 100 27 87
97 25 81 96 25 78 92 25 71 87 26 62 84 27 57
83 27 53 82 26 49 81 26 45 79 26 41 78 26 39
76 25 37 75 25 35 74 24 35 73 24 33 71 23 32
70 23 30 70 23 28 69 23 27 70 22 29 72 22 33
73 22 36 74 22 38 74 23 40 75 24 42 76 25 43
76 25 45 76 25 46 75 24 47 74 23 47 73 23 48
73 22 47 131 67 163 132 68 164 135 71 168 139 74 174
144 77 180 149 81 186 155 86 194 163 94 202 171 102 210
180 111 216 190 120 221 201 131 226 212 143 231 225 157 238
239 173 246 247 184 250 246 184 244 243 179 233 243 178 227
242 177 221 218 150 191 162 91 129 114 41 77 104 29 61
116 36 62 132 45 64 155 60 71 185 82 86 204 94 94
201 86 84 190 74 72 182 69 67 167 62 58 139 42 36
113 24 15 109 25 14 117 33 22 124 36 26 133 39 30
141 41 34 146 41 37 148 40 38 150 41 39 153 46 44
152 48 45 138 38 34 122 25 21 127 31 28 155 55 55
184 79 85 198 86 102 197 81 108 194 78 115 194 83 128
208 106 155 229 137 187 224 142 190 190 111 154 154 74 113
136 56 88 132 51 75 127 46 63 113 35 47 94 22 31
77 14 20 64 9 14 55 5 8 49 3 5 46 3 3
44 4 3 41 5 2 38 4 1 36 3 1 35 2 0
35 1 0 37 1 0 40 1 0 43 1 1 46 1 1
55 4 4 75 12 11 103 27 26 137 51 51 174 79 80
201 99 102 209 104 111 206 100 114 201 97 120 204 105 138
221 129 173 239 158 213 249 179 239 249 188 251 245 189 253
240 186 249 235 179 244 229 170 240 223 162 236 218 157 233
218 155 235 221 158 241 225 161 246 225 160 249 222 157 247
218 152 244 216 149 243 216 149 242 216 148 241 216 149 240
217 151 241 221 154 243 221 153 243 217 148 239 213 145 235
213 144 235 212 143 233 212 143 233 212 143 233 213 144 235
215 146 237 217 148 239 216 146 238 216 146 237 219 150 239
224 155 242 229 160 244 234 165 246 236 164 244 228 152 231
212 133 212 196 114 194 185 101 182 182 97 178 182 94 177
182 91 174 182 87 171 182 84 167 181 80 161 180 76 155
180 74 148 178 70 140 174 64 130 170 59 120 168 56 113
166 54 105 163 51 98 160 49 91 157 47 83 155 46 76
157 48 73 158 49 69 157 49 65 157 49 62 158 50 61
159 50 60 158 49 58 156 47 56 156 45 56 156 45 56
155 47 56 153 48 55 150 47 52 150 46 50 152 48 50
154 50 51 156 50 50 159 53 51 161 56 52 160 56 51
158 54 49 151 48 43 142 40 35 136 36 31 135 36 31
131 33 29 131 34 31 140 45 41 147 53 49 143 52 48
136 45 40 134 42 35 137 43 36 139 44 37 139 41 35
139 40 35 141 39 37 143 39 42 143 39 51 146 43 69
166 68 111 202 110 170 213 126 202 184 99 187 153 69 164
138 56 152 132 51 146 137 57 151 152 72 165 159 80 170
141 63 151 114 37 121 98 23 102 93 20 92 91 19 85
88 17 78 84 14 71 82 14 66 80 16 60 75 17 52
72 17 45 71 17 42 70 17 38 69 17 34 67 17 31
66 17 29 65 17 27 64 16 27 63 16 26 63 16 26
62 16 25 61 16 23 60 16 21 60 15 21 61 15 25
63 15 32 65 15 36 66 14 38 66 15 40 67 16 42
67 17 44 68 17 46 68 18 47 68 17 49 67 17 50
66 17 51 66 17 51 140 75 172 143 77 175 149 83 182
156 90 191 163 95 199 168 100 205 175 106 213 182 113 220
189 120 225 196 127 229 206 136 232 217 148 236 229 163 241
241 177 247 250 188 251 247 186 243 228 165 217 211 143 190
209 139 181 212 140 178 194 120 154 150 74 107 113 37 67
106 28 55 119 37 58 137 49 64 161 64 73 191 87 89
209 99 97 206 91 87 194 77 74 185 72 69 169 64 60
140 43 37 114 26 17 112 28 17 120 36 25 127 39 29
135 41 33 142 43 37 147 43 39 149 43 40 150 43 42
152 46 45 148 45 43 131 32 29 116 21 16 125 30 26
154 54 54 181 75 81 192 80 96 192 76 102 190 74 110
192 80 123 204 101 147 211 118 163 187 103 145 151 71 108
131 53 83 128 50 73 126 47 62 113 35 44 97 21 25
82 14 14 70 10 10 61 8 7 54 6 4 48 4 2
44 3 1 41 4 1 38 4 0 36 5 1 36 6 2
35 4 1 34 2 0 36 1 0 39 1 1 41 1 2
42 1 1 45 1 1 55 4 3 77 16 14 112 37 36
150 63 63 184 88 88 209 106 108 219 113 119 214 107 121
203 100 123 205 109 143 222 137 181 241 170 221 251 192 247
251 198 254 247 195 252 245 192 251 243 188 250 236 178 246
227 167 239 223 161 236 224 162 240 227 164 245 228 164 248
226 161 248 223 157 246 221 155 244 221 154 243 220 152 241
219 152 239 220 154 240 224 157 243 226 159 245 224 157 245
222 154 243 220 152 241 217 149 238 215 147 235 214 145 234
215 145 235 216 145 236 214 142 235 208 135 228 202 129 220
202 128 219 206 132 221 213 138 225 221 146 231 224 145 228
211 125 208 189 99 181 170 78 160 163 69 151 165 69 152
169 71 153 172 70 152 174 70 152 176 69 149 176 67 142
176 65 135 176 63 128 173 59 119 168 53 107 164 49 98
163 48 92 160 47 86 160 47 83 158 46 78 155 44 70
155 44 65 157 46 63 158 48 60 157 48 56 156 48 54
158 49 53 159 49 53 159 48 52 158 46 52 158 45 52
159 46 55 159 49 56 157 49 55 154 48 52 154 48 50
156 50 51 160 52 52 163 53 52 167 57 54 171 59 56
171 59 56 172 59 56 169 57 53 162 50 47 156 46 43
154 45 43 150 41 40 147 41 39 153 50 47 161 60 57
162 64 60 160 62 57 162 64 58 168 69 63 169 68 62
164 61 56 157 53 50 153 46 46 151 43 47 149 41 55
150 44 72 166 64 109 193 97 160 202 111 190 178 92 182
154 71 167 143 60 158 140 58 156 152 71 168 168 87 184
162 83 177 134 56 147 108 32 119 99 25 106 94 23 97
89 20 87 85 17 78 81 14 71 78 12 64 75 13 57
72 15 49 69 16 44 68 16 40 66 16 36 65 15 33
64 15 29 62 14 27 61 15 26 61 15 26 60 15 26
60 15 25 60 15 25 59 16 24 58 15 23 58 15 23
59 14 28 61 14 36 63 14 42 64 13 44 64 14 46
65 15 48 66 15 51 66 16 53 67 16 54 67 16 56
66 16 57 66 16 58 66 16 59 152 86 184 154 88 187
161 95 195 170 103 205 177 109 214 183 113 220 190 119 226
198 126 234 205 133 239 212 141 242 222 152 245 234 168 249
246 185 252 252 196 254 251 193 248 232 168 220 197 126 173
175 99 141 180 99 137 190 107 140 183 98 127 156 70 96
126 40 63 114 27 47 122 33 49 139 46 56 161 62 67
188 83 84 205 96 93 202 89 85 192 78 73 184 73 69
168 65 60 138 44 37 114 27 18 113 31 19 123 40 28
132 45 34 139 46 38 144 46 39 146 45 40 147 44 40
147 44 41 147 46 43 140 42 39 121 27 23 109 18 13
123 30 27 152 53 53 175 69 76 183 73 88 182 69 92
181 68 98 183 74 109 190 89 126 183 90 126 150 66 98
125 45 73 120 43 65 120 44 59 112 37 46 98 24 27
86 15 14 76 11 7 66 10 5 59 9 5 54 8 3
49 6 1 44 5 0 40 4 0 37 4 0 36 5 1
36 6 2 36 5 1 35 3 1 36 2 0 38 1 1
40 1 2 42 2 3 43 1 2 47 3 2 64 11 9
91 26 24 125 46 46 163 73 73 200 100 101 224 120 123
227 121 129 209 107 121 195 99 123 203 116 150 228 154 195
249 188 234 254 203 251 251 203 253 249 201 253 248 198 252
244 190 250 237 178 245 229 169 240 228 166 240 229 167 244
229 167 247 227 164 247 224 161 246 223 159 245 222 157 243
220 155 240 219 154 238 220 155 238 223 158 240 227 162 244
229 164 248 229 164 249 228 162 247 227 160 245 224 156 242
221 152 239 219 149 238 220 147 238 217 142 234 206 130 222
189 112 203 178 99 189 174 95 185 179 99 187 190 109 195
197 111 197 189 96 181 172 74 158 160 60 142 157 56 135
160 57 135 163 59 133 165 59 131 168 60 130 170 61 127
170 59 121 170 57 114 169 56 108 167 53 99 163 48 89
160 45 81 158 44 76 157 45 73 157 47 72 157 47 69
154 45 62 153 44 57 155 45 56 157 48 55 158 50 53
157 49 50 158 49 49 159 49 49 159 48 48 159 46 48
159 46 49 161 48 53 162 50 55 160 50 53 157 49 51
158 50 51 161 52 52 164 54 53 168 56 54 173 60 57
177 61 59 178 61 58 179 61 59 178 59 58 175 56 55
172 54 54 170 53 53 166 50 50 162 48 48 163 53 51
169 61 58 173 67 63 177 72 68 185 80 75 194 88 84
198 91 85 192 84 79 182 72 69 173 62 62 166 54 59
159 47 63 157 47 77 166 60 107 187 86 151 199 104 184
186 97 188 167 81 180 157 72 172 159 74 175 174 89 190
178 95 194 158 77 174 130 51 145 114 37 126 108 35 116
104 33 108 97 29 98 90 24 87 85 19 78 80 16 70
76 14 61 72 16 53 70 18 47 69 19 44 67 18 41
65 16 38 64 16 35 63 15 32 62 16 31 62 16 30
62 16 30 62 16 30 61 17 29 61 17 28 60 16 27
60 16 28 62 16 33 65 16 43 66 16 49 67 15 52
68 16 55 71 19 60 74 20 65 73 20 67 73 19 68
73 20 69 73 20 70 72 19 71 72 19 71 155 90 189
155 90 190 159 93 195 166 98 202 172 103 208 178 107 214
186 113 222 196 121 229 204 128 235 212 137 239 222 151 245
236 172 251 250 194 254 254 203 254 242 188 237 207 142 189
170 90 134 162 72 111 177 82 117 195 96 125 199 98 122
183 81 101 152 52 67 128 29 41 126 27 36 139 39 44
160 58 60 183 78 77 196 88 86 196 85 82 189 78 74
180 74 68 162 63 57 132 41 32 111 27 15 114 32 19
127 44 31 139 52 40 146 54 43 146 50 41 143 45 37
140 42 35 139 42 36 139 44 38 130 37 32 110 21 15
104 18 12 123 33 30 150 51 54 168 62 71 174 66 79
170 62 79 166 59 80 166 62 86 165 67 91 152 60 83
128 44 64 117 38 54 114 40 52 108 36 43 97 26 29
85 16 15 79 11 8 73 11 6 64 11 5 57 10 4
54 9 3 50 7 1 45 5 0 41 4 0 38 3 0
37 4 0 37 5 1 37 5 1 37 3 1 37 2 1
39 2 2 41 2 3 43 4 4 44 3 3 46 3 2
57 5 5 74 13 13 103 29 30 143 58 59 183 89 91
216 116 118 228 127 131 215 115 124 195 100 116 195 106 130
216 136 168 241 174 212 253 199 241 253 207 251 249 203 251
245 197 248 244 192 248 242 186 247 235 177 242 231 171 240
231 170 243 230 169 245 226 166 245 225 164 245 224 162 245
223 159 243 221 157 240 219 156 238 219 156 237 220 159 237
223 161 239 227 164 243 229 166 246 233 169 249 236 171 252
234 166 250 228 158 245 225 153 241 226 151 241 225 148 239
215 136 227 194 112 202 171 87 177 159 74 163 158 72 160
168 80 167 176 84 170 170 72 159 160 58 143 155 51 131
152 48 123 153 49 116 154 49 111 155 50 107 157 51 104
160 53 101 161 52 98 161 52 94 161 51 90 161 50 84
159 48 79 158 46 74 156 46 70 156 47 67 157 49 65
157 50 63 155 48 59 153 46 55 154 47 54 157 50 55
159 52 54 159 51 51 159 50 49 159 49 47 159 47 45
159 46 44 160 46 45 162 48 47 163 49 49 161 49 48
161 50 48 162 52 50 165 55 52 168 57 54 172 59 56
177 62 59 181 64 62 183 63 62 183 61 61 182 59 60
181 57 59 180 57 59 180 58 60 179 58 59 176 58 58
175 58 57 176 60 59 179 64 62 184 71 68 194 81 78
205 91 87 212 97 93 212 96 91 206 89 86 197 81 80
185 69 75 173 58 75 167 54 86 171 61 110 192 85 151
210 110 191 203 109 203 186 96 197 178 88 192 182 92 196
192 103 207 183 95 197 154 70 168 133 52 145 123 46 134
119 46 127 115 45 119 108 41 110 99 33 97 91 26 86
85 20 77 80 19 68 75 20 60 73 22 54 72 22 52
71 21 50 68 19 46 67 18 44 67 18 42 67 18 41
66 18 39 66 18 38 66 18 38 66 18 36 65 18 35
65 18 34 65 18 35 66 17 40 68 17 48 70 17 55
70 16 58 73 18 64 81 25 76 87 30 84 87 29 87
86 28 87 86 28 88 86 28 89 86 26 88 85 25 87
151 88 188 151 87 187 153 87 190 158 91 194 163 94 199
170 98 206 179 105 214 188 111 221 195 116 225 201 124 228
210 139 233 226 162 243 245 189 252 250 198 250 227 172 220
184 116 161 155 70 112 162 63 101 186 80 113 208 98 125
217 105 126 205 93 108 173 64 74 142 35 41 131 26 30
141 37 39 161 56 57 181 75 75 192 85 83 192 83 80
185 78 74 175 72 66 155 58 51 125 36 26 108 25 13
113 33 19 128 46 32 141 54 41 147 56 44 145 51 40
139 43 34 134 39 30 132 39 31 131 40 33 121 33 26
104 19 12 103 21 15 127 41 38 155 58 61 170 66 75
173 68 79 167 62 75 158 55 69 152 52 67 144 49 64
132 42 55 120 36 48 115 36 45 109 36 41 99 30 32
88 20 20 79 13 10 76 11 7 71 12 6 64 12 6
58 11 5 55 10 4 51 9 2 47 7 1 44 5 0
41 4 0 39 4 0 39 5 0 38 4 0 38 3 1
38 3 1 40 2 2 41 3 4 43 4 5 44 4 4
46 2 2 52 2 2 63 5 5 86 18 19 125 45 46
165 77 78 200 105 107 221 123 127 219 122 128 204 109 120
198 106 125 207 120 147 227 150 183 246 185 223 253 204 246
250 203 249 244 196 246 241 191 246 240 187 245 235 178 240
230 171 237 230 170 240 228 168 241 225 166 241 225 166 243
226 166 244 226 164 244 224 162 242 222 160 239 220 159 237
219 160 236 220 161 236 223 163 237 226 165 240 232 169 246
238 172 251 239 171 253 235 165 249 230 157 244 228 151 241
225 144 236 213 130 222 192 105 197 170 81 172 158 68 157
158 67 155 165 71 159 167 70 158 159 58 145 153 48 132
150 44 122 147 42 112 146 42 102 146 42 94 145 42 87
147 43 83 149 45 81 152 47 80 154 49 80 156 50 79
157 50 76 157 49 74 156 48 70 155 48 66 156 49 63
157 51 62 157 51 60 157 51 59 157 50 57 158 51 57
162 54 58 164 56 59 165 55 57 163 53 52 160 49 48
159 46 44 159 46 43 160 46 43 162 48 44 163 48 44
163 48 45 164 51 48 167 54 51 170 57 54 172 59 56
176 61 58 180 64 61 184 66 64 187 66 65 187 63 64
186 61 63 187 61 63 188 62 65 189 64 66 188 64 66
186 64 64 184 63 62 185 64 63 187 66 65 189 69 68
195 75 73 204 83 81 212 91 89 217 96 92 217 95 92
210 89 89 196 76 83 182 65 82 176 60 93 179 65 114
198 87 152 218 112 193 214 116 209 202 109 210 198 106 210
201 109 214 205 113 218 187 98 200 156 71 169 138 58 150
133 57 143 129 57 137 124 55 129 117 50 119 108 42 106
98 32 94 91 25 84 85 23 75 80 23 67 78 25 62
78 26 61 76 25 58 74 22 55 72 21 52 72 20 51
72 21 51 72 20 49 72 20 48 72 20 47 72 20 46
72 20 45 72 20 45 72 20 45 72 19 48 73 18 53
75 18 59 76 18 65 81 23 75 92 33 90 101 40 102
106 44 110 107 45 113 106 43 112 104 41 110 103 39 108
102 37 107 147 85 184 148 84 185 151 85 187 155 87 191
160 91 196 167 96 203 176 102 212 185 108 218 190 111 220
194 117 221 201 129 224 218 153 236 241 183 249 245 190 245
210 153 201 163 93 137 145 59 99 161 61 97 189 81 112
214 102 128 225 110 130 214 100 113 185 73 81 153 44 49
136 30 33 142 37 38 161 56 56 181 74 74 191 84 82
190 82 79 184 77 73 173 71 65 151 56 48 122 33 23
107 24 12 114 33 20 129 47 33 141 55 42 146 55 44
143 49 39 136 42 33 131 38 29 128 38 29 126 38 30
115 29 22 100 17 11 104 23 18 134 48 46 167 72 75
183 81 88 183 79 88 173 70 81 160 59 71 146 48 60
133 40 51 123 36 45 117 35 42 111 33 39 102 29 33
92 23 24 84 17 15 78 13 9 76 12 7 72 13 7
66 14 7 60 14 7 57 12 6 54 11 4 50 9 3
47 7 1 44 6 1 42 6 1 40 5 1 39 4 1
38 4 1 38 3 1 39 3 2 40 4 3 41 5 4
43 4 4 44 3 2 48 2 1 55 3 2 73 11 11
106 33 33 145 62 63 183 91 93 211 116 118 222 125 130
216 119 129 206 110 127 201 110 134 210 127 158 232 163 200
249 192 234 252 201 246 248 198 248 243 192 247 238 185 243
233 177 238 229 171 236 228 169 237 226 167 237 226 166 238
228 169 242 231 171 245 233 172 246 231 170 245 227 166 242
223 163 239 221 162 237 222 163 237 225 164 238 227 165 239
230 166 242 234 168 247 238 168 250 237 165 249 233 156 245
227 147 239 218 135 229 201 114 209 180 89 185 164 71 165
160 66 158 166 70 161 170 72 162 163 63 152 154 50 137
149 43 126 147 41 116 145 40 106 143 40 96 141 39 85
138 38 76 138 37 70 141 39 69 144 43 69 148 46 70
151 48 71 153 49 71 153 48 68 152 47 65 152 46 61
152 46 59 154 48 58 155 50 58 156 51 58 158 52 58
162 54 60 166 57 62 170 60 64 170 59 62 167 55 56
163 50 49 160 47 45 161 46 44 163 48 45 165 50 46
166 51 47 167 52 48 169 53 51 172 56 53 173 58 55
176 59 57 179 62 60 184 65 63 188 68 67 192 69 69
193 69 69 195 68 69 197 70 71 199 72 73 199 72 73
197 70 71 194 67 68 192 67 67 195 71 69 196 72 71
193 70 69 194 70 70 201 77 77 208 84 84 214 89 88
215 91 89 210 86 87 197 76 83 187 68 85 182 65 97
184 67 115 197 83 146 212 104 181 214 114 205 214 120 219
215 122 224 213 121 224 211 120 223 191 104 205 161 77 175
145 66 158 142 67 153 138 67 147 133 63 138 125 57 126
116 48 114 107 39 102 99 30 91 92 26 81 87 27 73
86 30 70 86 30 68 84 28 66 81 25 62 79 23 60
78 22 59 79 23 59 79 23 59 79 22 58 80 22 57
80 22 57 80 22 57 80 22 57 80 22 57 79 21 58
79 20 61 81 21 66 83 23 74 90 28 85 101 39 101
116 53 120 133 68 139 139 72 145 132 66 140 127 60 135
126 58 133 125 57 132 147 83 183 148 83 184 150 84 186
153 86 190 159 90 195 166 95 202 175 102 211 184 107 217
190 111 220 192 115 219 198 127 222 218 153 234 243 185 249
241 187 240 196 137 186 147 75 120 138 49 89 159 57 93
188 80 111 215 103 128 226 112 130 216 102 114 189 78 86
159 51 54 140 34 36 143 38 39 161 56 56 180 74 73
190 83 81 189 81 79 183 77 73 172 70 64 149 54 46
119 31 22 106 22 11 115 33 21 132 48 36 144 57 45
148 57 46 143 49 40 135 41 33 129 37 30 126 37 29
122 35 28 109 24 19 96 13 9 102 21 17 133 48 46
169 76 77 185 86 91 182 82 89 172 72 81 158 59 69
140 45 54 125 34 43 118 32 39 114 33 39 106 30 34
94 23 25 85 17 16 80 14 10 78 13 8 77 13 7
74 14 8 68 15 8 63 15 8 60 14 7 56 12 5
52 10 3 49 8 2 46 7 1 43 7 1 41 6 1
40 5 1 38 4 1 37 3 1 38 3 1 39 4 2
40 5 4 41 5 4 43 5 2 44 3 1 48 1 0
61 5 5 87 20 20 125 47 47 165 78 79 199 107 108
222 125 129 224 125 134 214 114 130 201 105 128 200 112 141
217 139 175 238 171 212 250 191 237 251 199 249 247 195 250
241 188 246 235 181 241 231 175 239 229 172 238 229 171 238
230 171 240 233 174 244 238 178 248 241 180 250 239 179 249
234 174 245 229 169 241 225 165 237 225 165 237 227 165 238
229 164 239 228 161 238 223 153 234 217 145 229 215 139 227
219 139 231 224 140 236 221 134 231 206 116 214 186 92 191
173 77 175 173 75 171 179 79 173 176 74 168 162 58 150
150 44 131 145 39 119 143 38 110 141 38 100 139 37 89
135 36 78 130 33 66 128 31 59 129 32 56 132 35 56
137 38 58 141 42 60 145 45 62 147 46 62 148 47 61
148 46 58 147 43 55 149 44 54 151 46 55 154 48 56
157 50 57 162 53 59 167 57 63 171 60 65 172 60 64
171 58 59 167 53 53 164 50 49 163 48 47 165 50 48
167 53 50 171 55 52 174 56 54 176 57 55 177 57 56
177 57 56 179 59 57 183 62 61 189 67 66 194 72 70
199 75 74 201 75 75 204 77 77 208 80 80 212 82 83
212 82 82 208 78 79 203 74 74 201 74 73 204 78 76
203 78 76 197 73 71 196 71 71 202 76 77 209 82 84
211 84 85 210 84 85 206 81 84 200 76 84 195 73 91
191 70 101 189 69 114 193 76 135 202 91 165 212 109 197
224 126 223 226 132 232 218 126 227 211 123 222 193 109 207
166 86 181 152 76 166 149 76 161 146 75 155 140 70 146
131 61 133 121 51 120 113 42 108 105 34 98 99 30 89
96 32 82 95 35 78 94 34 77 92 32 74 89 29 71
86 26 68 85 25 67 86 25 67 86 25 67 86 25 67
87 25 67 87 25 67 87 25 67 87 25 67 87 24 67
87 24 67 87 24 70 89 25 75 92 27 83 98 32 94
112 45 113 140 71 145 169 99 176 177 107 185 169 98 178
164 93 173 164 93 173 165 92 173 148 84 185 150 85 187
152 85 188 154 87 191 159 90 196 168 97 204 177 103 212
185 109 218 190 112 221 193 117 220 201 129 223 222 157 237
246 188 250 238 182 235 185 124 173 136 62 107 133 43 82
156 53 88 184 76 106 209 98 122 219 106 123 209 96 107
187 77 83 161 53 56 143 38 39 146 41 41 163 58 58
181 74 74 190 82 81 188 81 78 182 76 72 170 69 63
145 51 43 116 28 19 104 20 10 114 31 20 130 45 34
142 53 43 145 53 44 140 47 38 131 39 31 125 35 28
122 35 28 116 32 25 103 21 15 91 10 7 98 18 15
127 43 41 157 67 67 170 75 78 167 71 76 159 63 69
147 52 58 132 39 46 120 32 37 114 31 35 110 31 34
101 26 27 89 18 17 81 13 10 78 12 8 78 14 8
78 15 8 75 15 8 69 15 9 65 15 8 61 14 7
58 12 5 54 11 3 50 9 2 47 8 1 45 7 1
42 6 1 40 5 0 38 5 0 37 4 1 37 3 1
38 4 2 39 5 3 40 6 3 42 7 3 42 5 1
43 2 0 51 2 1 71 11 11 107 36 36 150 68 68
189 99 100 219 122 126 228 127 135 219 116 130 205 105 125
199 105 132 205 119 153 223 147 186 242 177 221 252 196 246
252 199 253 247 194 250 242 188 248 238 184 246 235 180 244
234 178 244 236 179 245 239 182 248 243 186 251 246 188 253
246 187 252 242 182 249 236 176 244 231 170 240 228 164 236
224 157 231 219 150 226 210 139 218 193 120 203 175 98 185
169 89 180 182 98 193 204 117 215 219 128 228 219 125 226
210 112 214 201 101 202 198 97 196 196 93 191 182 77 174
160 54 147 145 38 124 139 33 111 136 33 101 134 33 91
131 32 80 126 30 67 121 26 55 118 24 47 118 25 43
121 27 43 125 31 45 130 35 48 135 40 51 139 44 54
142 47 56 144 47 56 144 44 54 146 44 55 149 46 57
151 48 57 154 49 57 159 52 59 164 56 62 169 59 65
173 62 66 175 63 65 174 61 62 170 58 57 167 54 53
166 53 51 168 55 53 173 58 56 179 60 59 182 61 60
184 61 61 184 61 61 185 62 62 189 65 64 194 69 68
198 73 72 203 77 76 206 79 78 210 82 81 217 88 87
222 93 92 224 93 92 220 89 88 214 84 82 210 81 79
210 82 80 207 80 79 202 76 75 203 76 76 209 81 83
214 85 88 213 84 88 210 82 86 206 80 85 204 78 88
202 78 95 199 76 105 194 73 114 193 73 128 197 82 151
208 100 183 225 123 215 232 135 230 226 134 230 218 132 227
201 120 214 177 100 192 163 90 179 160 88 173 155 84 165
148 76 154 138 66 141 127 55 127 118 45 116 112 38 107
107 36 99 105 38 93 104 40 89 103 39 87 100 36 84
96 33 80 93 30 77 92 28 76 93 28 76 93 28 76
93 28 76 94 28 76 94 28 76 94 28 76 94 28 75
94 28 75 95 28 77 97 30 81 99 30 86 102 32 94
109 39 107 130 59 132 170 97 176 204 129 212 211 136 221
207 132 217 203 128 213 200 124 210 197 122 207 150 85 187
152 87 189 154 88 191 156 88 192 161 92 197 169 99 206
179 106 214 186 110 219 191 113 221 196 121 224 208 137 230
228 162 242 247 187 251 233 173 230 176 111 162 129 53 98
130 39 77 152 49 83 178 69 98 200 89 112 207 95 111
198 87 96 181 71 76 161 54 56 148 43 43 152 47 47
167 62 62 183 76 76 190 82 81 187 79 77 179 74 70
165 65 60 139 46 39 112 25 16 104 19 10 114 30 20
129 43 33 138 49 40 139 47 39 133 40 33 125 34 27
119 30 23 114 30 23 109 27 21 97 17 12 89 9 6
97 18 15 122 40 38 147 59 59 156 64 65 152 59 62
143 51 54 133 42 45 123 34 37 117 32 34 113 32 32
106 29 28 96 22 20 86 16 13 80 13 8 79 13 7
80 15 8 79 16 8 76 16 8 71 16 9 67 16 9
64 15 7 60 13 5 57 11 4 53 10 3 50 9 2
47 8 1 44 7 1 41 6 0 39 5 0 37 4 0
37 4 1 37 4 1 37 5 2 39 7 2 40 9 2
40 7 1 40 3 0 45 1 0 60 7 7 94 29 29
138 61 62 180 93 94 213 118 120 227 126 132 222 117 129
210 106 124 201 102 127 199 107 138 209 126 163 230 159 201
248 189 236 254 201 252 252 200 254 248 196 253 244 192 252
240 188 251 239 186 250 240 187 249 242 188 250 245 190 251
248 192 252 249 193 253 248 191 252 244 185 248 240 177 244
234 168 239 225 154 230 210 136 215 190 114 196 166 87 174
146 64 154 139 54 148 152 64 161 177 85 186 199 105 207
209 111 215 210 110 213 211 109 211 215 110 211 213 106 207
192 85 184 162 55 149 142 37 121 136 32 107 133 31 97
130 31 86 126 30 73 121 27 60 115 24 48 113 22 41
114 23 38 116 26 38 119 29 39 122 32 41 125 36 43
129 40 45 131 43 47 134 44 50 138 45 54 141 46 56
143 47 57 144 47 56 146 47 55 149 49 56 153 51 58
158 55 60 164 60 63 171 65 67 174 68 69 174 67 67
170 63 62 167 61 59 169 61 59 174 63 61 181 65 64
188 67 66 192 69 69 195 70 71 196 70 71 198 70 71
200 71 72 202 73 73 205 75 75 207 78 77 212 84 82
220 92 89 228 99 97 231 101 99 229 98 95 223 92 89
217 87 85 213 85 82 209 81 80 207 79 78 210 82 83
216 87 90 219 89 94 218 88 93 214 85 90 210 81 88
206 80 89 204 79 95 200 76 102 196 73 110 195 73 121
196 77 140 203 90 167 218 111 197 232 132 221 239 146 236
237 152 241 221 142 231 198 124 212 187 115 201 181 110 194
170 99 181 159 86 166 149 75 153 138 63 140 128 52 129
121 46 121 118 44 114 115 45 106 114 46 101 112 45 99
109 42 95 105 37 91 101 34 87 100 32 86 101 32 86
101 33 86 102 33 86 102 33 86 102 33 86 102 33 86
102 33 85 103 33 85 104 34 88 106 35 93 109 36 99
113 40 107 125 51 124 155 79 158 195 118 203 217 139 227
214 135 225 206 128 217 200 121 211 192 113 203 186 107 196
151 86 188 154 88 191 156 89 192 157 89 193 162 93 198
170 100 207 180 107 215 186 111 219 192 116 223 205 130 232
220 148 241 236 169 249 249 185 252 231 167 225 171 102 155
126 48 92 129 36 74 149 46 78 172 63 90 191 79 101
196 84 99 188 77 86 176 66 70 162 55 56 155 49 49
159 54 54 172 67 67 185 79 78 190 82 82 184 77 75
175 70 67 160 62 56 134 43 36 108 21 14 104 19 11
122 36 27 142 55 46 151 62 54 148 56 49 137 44 38
124 33 27 113 26 20 107 24 17 100 21 14 90 12 8
86 8 5 97 19 16 120 40 38 141 55 54 146 58 58
141 51 52 131 42 42 121 33 33 116 30 29 114 32 31
110 32 29 101 26 22 92 20 15 85 17 10 81 15 8
80 16 8 81 17 8 80 17 8 77 16 8 74 17 10
71 17 10 68 16 8 65 15 7 61 13 5 57 11 4
54 10 3 50 9 2 45 8 1 42 6 0 39 5 0
37 4 0 36 4 0 36 4 0 36 5 1 37 7 1
38 8 2 37 6 1 37 3 0 40 1 0 51 5 5
84 25 25 130 58 58 171 88 88 205 111 112 225 123 127
225 119 128 216 109 124 206 103 125 201 103 131 202 113 147
217 139 179 241 176 220 253 199 247 254 203 254 252 201 255
247 198 254 243 194 254 242 192 252 242 190 250 242 191 249
244 192 248 246 193 250 250 196 252 252 197 254 251 193 253
248 185 250 245 176 248 238 162 241 219 139 223 191 108 196
164 79 170 147 59 153 143 53 149 152 60 158 169 73 174
181 83 185 183 82 185 183 80 183 189 84 187 204 98 199
218 110 212 208 100 200 175 68 163 148 43 128 137 35 109
133 34 98 130 32 86 126 31 72 120 29 59 115 26 48
112 23 40 111 23 35 112 24 34 113 27 36 115 30 37
115 33 37 115 35 37 115 36 37 116 36 39 118 37 44
120 38 47 121 37 46 120 35 44 120 34 42 121 34 41
124 35 41 128 38 43 134 43 46 144 52 53 155 62 62
162 68 67 164 70 68 165 70 67 167 70 67 173 71 68
182 72 71 191 74 74 198 77 78 202 79 80 205 78 80
206 76 79 206 75 78 207 75 77 208 76 77 208 78 78
212 84 81 220 92 89 228 101 98 231 103 100 229 100 96
223 95 91 218 90 87 213 86 83 210 82 80 209 81 81
213 85 86 219 90 93 222 91 97 221 91 97 217 87 94
211 82 90 206 79 89 202 76 91 197 72 95 195 71 103
196 72 115 197 75 131 200 82 151 208 96 174 223 119 199
239 143 225 246 160 242 240 161 243 226 153 234 219 148 229
209 138 219 191 118 200 173 99 181 163 87 169 154 76 159
142 64 148 134 56 139 129 54 130 125 52 120 123 52 114
121 50 112 118 47 108 113 42 102 109 38 98 108 37 96
109 37 96 111 39 98 112 40 99 113 40 98 113 40 98
113 40 97 113 41 97 113 40 97 114 40 100 116 42 106
120 44 113 126 50 123 144 66 145 180 101 185 208 128 218
205 125 217 186 105 198 172 91 184 165 84 176 159 77 169
154 72 164 152 87 189 155 89 191 157 90 193 159 91 194
163 94 199 171 102 208 180 108 216 187 113 221 198 123 229
217 142 242 232 161 250 242 175 253 250 185 252 229 163 222
170 99 150 127 47 90 130 36 72 148 44 74 168 59 84
185 73 93 188 75 89 181 69 77 171 62 64 163 56 56
160 54 53 164 59 58 176 70 69 186 79 79 188 81 81
181 75 74 171 67 64 155 58 52 129 38 32 105 19 12
106 20 14 131 45 38 160 71 65 174 84 77 171 79 73
153 61 56 132 43 38 116 30 25 104 23 17 93 16 11
83 8 4 82 7 4 95 18 17 117 38 36 134 51 50
137 52 50 131 45 43 121 35 33 113 28 26 112 28 26
112 32 28 106 29 25 96 22 17 88 18 11 84 17 9
82 17 8 82 18 9 83 19 10 83 19 10 81 18 10
79 19 11 77 20 12 74 19 11 71 18 10 68 17 9
64 15 8 59 13 6 54 11 3 48 8 1 44 7 0
41 6 0 38 5 0 35 4 0 34 5 0 34 5 0
35 6 0 35 7 1 34 5 0 34 3 0 36 1 0
46 4 4 76 22 21 122 54 53 163 83 82 197 104 104
221 119 121 229 121 127 221 113 124 211 105 123 205 104 127
201 106 135 208 124 159 231 161 202 250 193 239 255 204 252
253 204 255 249 202 255 244 198 253 241 194 251 241 192 249
242 192 247 243 193 247 245 194 248 248 197 251 251 198 253
253 196 254 250 188 252 246 175 248 240 158 242 225 137 228
201 111 205 178 86 181 163 70 166 158 64 161 161 65 163
168 70 169 171 71 172 163 62 163 157 53 155 163 58 159
181 75 176 205 98 199 214 106 207 193 87 182 161 57 142
143 42 116 135 37 101 129 34 87 125 33 74 121 31 60
116 27 49 112 24 40 108 21 33 106 21 30 105 23 30
104 25 30 101 26 28 98 25 25 93 24 23 89 22 22
86 20 24 85 19 26 84 18 25 83 16 22 81 14 19
81 14 18 82 14 18 86 17 19 93 22 22 103 31 29
117 43 40 132 56 53 143 66 62 150 71 67 155 74 69
164 75 72 177 78 75 189 82 81 198 85 85 204 86 87
207 83 86 209 81 85 211 80 84 212 79 83 212 80 83
212 82 82 214 86 84 219 93 90 225 100 96 227 102 98
223 98 94 218 93 88 216 91 86 213 87 84 211 84 81
211 84 83 215 87 88 220 91 95 223 94 100 224 95 103
220 92 100 213 85 94 206 79 89 200 74 87 194 70 89
193 69 96 195 71 107 197 74 121 198 77 137 200 84 151
208 98 169 220 119 192 231 140 214 239 156 231 243 167 242
243 173 246 233 162 239 209 135 216 187 111 195 176 99 184
169 91 179 159 80 170 149 70 160 141 63 148 134 59 135
131 57 128 130 55 125 126 51 120 120 45 114 117 42 110
117 42 110 120 45 111 123 47 114 125 49 115 125 49 115
125 49 114 125 49 114 125 49 113 125 48 113 126 49 116
128 51 121 133 56 130 146 67 146 172 93 176 207 127 214
215 134 226 189 108 202 161 80 174 148 66 160 144 61 154
141 59 151 139 57 148 153 88 190 156 90 192 159 91 194
161 93 196 165 97 202 173 104 210 182 111 218 192 119 227
208 133 239 226 153 250 238 167 254 244 176 254 250 183 251
227 159 217 169 95 147 131 47 91 134 38 73 150 45 74
168 58 82 181 70 88 183 70 82 175 64 70 168 58 60
163 55 54 160 55 52 165 60 58 177 70 70 186 79 79
185 79 79 177 72 71 166 64 61 150 53 48 125 35 30
105 19 14 109 24 19 135 48 43 163 74 69 181 90 85
180 88 85 163 72 68 142 54 49 124 40 35 107 29 23
91 17 12 79 7 3 79 6 4 93 18 16 112 34 33
125 45 43 126 45 42 119 37 34 113 30 26 111 28 25
112 31 27 110 32 27 101 26 20 91 18 12 85 15 7
83 15 7 83 17 8 85 20 11 88 22 13 88 23 14
87 22 14 85 22 15 84 23 16 82 23 15 79 23 15
77 22 15 72 21 14 65 16 9 57 11 4 52 9 2
48 9 1 44 7 0 39 6 0 36 5 0 34 5 0
33 5 0 33 5 0 33 6 0 33 4 0 32 2 0
34 1 0 42 2 2 66 16 15 110 46 44 154 77 75
189 99 97 217 116 115 230 123 126 226 116 124 215 107 121
208 103 122 202 103 127 204 114 146 221 144 184 243 180 225
253 200 246 254 204 252 251 203 253 245 199 251 240 195 248
241 194 247 242 194 247 243 194 246 243 194 248 244 192 248
242 188 246 238 180 243 231 167 235 221 147 225 214 128 217
210 115 212 202 105 204 189 92 190 176 78 176 166 68 165
160 61 158 162 62 159 164 64 160 155 53 150 146 42 140
151 47 145 164 59 158 182 76 176 203 97 197 203 99 194
177 76 162 152 53 129 136 40 106 128 34 88 125 33 76
121 31 62 116 27 50 111 24 40 107 21 34 102 19 29
98 19 26 93 19 23 87 18 20 80 16 16 71 12 11
63 9 8 56 6 8 53 5 9 51 5 8 49 4 6
48 3 4 47 2 4 47 2 3 51 5 5 59 11 8
68 17 13 79 25 20 94 37 32 111 52 46 123 63 57
134 70 64 146 74 68 160 76 72 176 82 80 190 89 88
198 90 91 203 88 90 208 86 89 211 84 88 212 83 88
214 84 88 215 86 89 216 89 89 218 93 91 221 97 94
222 99 95 218 96 92 214 92 87 213 90 86 213 89 85
212 87 83 212 87 85 215 89 90 220 94 97 225 98 104
228 101 109 225 99 107 217 91 100 207 82 91 198 74 85
193 70 86 192 69 91 194 70 99 195 71 110 196 74 123
196 77 134 198 83 144 201 93 156 207 107 173 221 130 198
241 158 228 251 178 247 245 173 246 225 150 229 204 129 211
193 116 203 187 108 199 177 97 192 165 84 180 152 71 164
142 63 148 138 60 141 137 59 138 133 54 133 126 47 126
125 46 124 130 51 128 134 55 132 137 57 133 138 58 135
139 59 135 139 59 134 139 59 133 139 58 133 138 57 132
137 58 133 141 62 138 152 73 152 176 97 180 210 130 215
230 149 237 216 135 228 181 100 195 154 73 167 142 61 154
137 56 147 135 54 143 133 53 141 156 91 193 158 91 194
160 92 195 163 95 199 169 101 206 179 110 216 190 119 226
202 130 237 216 143 248 227 155 252 233 163 251 239 172 250
247 181 247 223 153 211 167 90 141 134 47 90 138 40 74
153 47 74 169 59 82 180 69 86 180 69 79 174 63 68
168 60 60 163 56 54 160 55 52 167 62 59 182 75 74
189 82 82 185 78 78 173 69 68 161 59 56 145 49 45
123 34 30 107 22 19 113 28 24 136 48 45 160 70 67
174 84 81 173 82 80 158 67 65 140 53 49 126 43 39
110 33 28 92 19 15 77 8 4 76 6 4 90 16 16
107 32 31 117 40 37 115 36 33 108 29 25 106 26 22
110 30 25 114 35 29 109 32 26 99 24 17 89 17 9
84 14 6 84 16 7 86 19 10 90 23 14 93 26 18
94 27 19 93 26 19 91 26 19 90 26 19 89 26 18
86 26 18 84 26 18 79 24 17 70 18 10 61 11 4
56 10 2 52 9 2 46 8 1 41 7 0 37 6 0
35 6 0 33 6 0 33 6 0 33 6 1 33 4 1
32 2 0 32 1 0 38 1 1 57 11 9 96 37 34
142 68 64 181 92 89 212 112 109 229 122 122 229 120 123
219 110 119 209 101 116 203 99 119 203 106 135 212 127 166
232 159 203 248 185 231 253 197 244 252 202 250 248 201 250
243 199 248 242 198 248 244 198 248 244 197 248 243 194 248
239 186 246 230 172 238 214 151 222 196 127 204 186 107 193
185 93 189 189 89 191 191 89 191 187 86 186 179 78 176
168 67 164 159 58 153 158 57 151 161 60 152 153 52 145
142 40 134 143 40 135 151 48 144 163 60 157 187 84 182
205 102 197 190 92 179 161 66 143 140 46 114 130 37 94
126 36 80 122 33 66 116 27 52 109 22 41 104 19 33
98 17 28 92 16 25 85 16 21 77 15 18 68 12 12
57 8 6 46 4 3 38 2 3 33 1 4 31 1 3
29 1 2 28 1 1 27 1 0 26 0 0 29 2 1
36 7 3 45 14 7 54 19 11 65 26 19 80 38 31
98 53 45 114 66 58 127 71 64 137 69 64 151 73 69
167 81 79 181 88 87 194 91 93 204 93 96 208 90 95
209 87 92 211 87 92 213 88 92 214 89 91 214 91 91
214 92 91 214 93 91 213 93 90 212 91 88 212 90 87
212 90 86 212 89 84 212 88 85 216 91 91 221 95 98
226 100 106 230 104 111 229 104 112 222 98 106 211 87 95
201 78 87 195 73 85 194 71 88 194 71 94 196 72 102
197 74 113 197 75 121 195 76 126 193 79 132 195 86 143
208 106 167 229 136 200 244 162 228 247 169 239 240 163 237
229 155 233 220 145 228 209 131 222 195 114 210 177 95 195
161 77 176 150 67 161 146 64 155 145 63 152 140 57 147
134 51 140 135 52 141 142 59 147 147 64 151 149 66 152
150 66 152 150 66 152 150 66 151 150 66 151 150 66 150
150 66 150 149 66 149 155 75 157 179 100 183 210 131 217
229 149 238 227 146 237 203 122 216 173 92 187 151 70 164
139 59 150 133 54 142 130 52 136 128 51 133 161 94 197
160 93 196 161 94 197 168 100 204 179 110 216 192 122 229
203 132 239 211 139 246 217 144 249 219 148 246 223 153 242
235 167 245 243 176 242 216 143 202 162 82 134 135 45 88
140 40 74 154 48 74 169 60 81 179 68 83 179 68 77
174 65 68 170 62 61 165 58 56 163 58 55 175 69 67
192 85 84 198 91 91 189 83 83 175 71 69 161 60 57
144 48 45 122 33 30 108 22 20 115 29 27 137 49 47
157 68 66 168 78 76 164 74 73 148 58 57 130 44 41
119 38 34 108 32 28 91 20 15 76 8 5 76 7 6
91 19 20 109 36 36 117 42 40 111 34 30 102 24 20
102 24 19 109 31 26 112 35 29 106 30 23 96 22 13
89 16 7 86 16 7 87 19 10 91 23 14 95 27 19
99 30 23 101 32 26 100 31 25 99 30 23 98 29 23
96 29 22 93 29 21 91 28 21 86 26 19 76 19 13
66 13 6 60 10 3 55 10 2 49 9 1 44 8 1
40 7 0 37 8 0 35 8 0 35 7 0 35 6 2
34 5 2 33 3 1 32 1 0 36 1 0 50 7 5
83 27 23 127 56 52 169 83 78 203 104 101 226 119 117
232 121 122 223 112 117 210 100 110 204 96 110 202 99 124
204 109 146 214 129 174 232 157 203 247 183 228 253 199 244
252 206 251 250 208 252 248 208 252 249 206 252 248 201 252
243 191 249 233 175 241 219 154 228 198 127 207 179 102 188
171 85 179 172 75 176 173 70 174 174 70 172 175 70 171
174 70 167 169 66 160 161 59 151 157 56 146 159 59 148
155 55 144 144 44 134 138 37 128 140 39 132 150 49 144
174 73 168 200 101 194 197 100 189 168 74 155 144 51 122
131 40 100 126 37 84 122 33 69 114 26 54 106 20 40
100 16 33 95 15 29 89 16 26 81 16 23 71 14 18
59 11 12 47 7 5 36 4 2 26 2 2 21 1 3
19 1 3 17 1 2 16 1 1 15 1 0 14 1 0
15 1 0 19 4 1 28 10 4 39 17 9 48 21 13
58 28 20 76 42 34 98 61 53 112 69 61 117 64 58
122 60 55 133 64 60 152 74 72 176 89 88 196 99 101
204 100 104 207 96 101 208 92 97 208 90 94 210 90 92
210 89 91 208 88 88 208 88 88 209 89 88 210 90 89
211 90 89 212 90 87 211 89 85 212 89 86 215 91 91
220 95 97 225 100 104 229 104 111 231 107 114 227 103 110
217 94 101 207 85 92 199 77 87 196 74 87 197 73 90
198 74 97 197 74 105 197 75 111 197 75 115 196 75 120
197 79 128 203 90 143 213 108 165 224 128 188 233 145 209
242 161 228 247 172 243 244 170 247 230 152 238 210 129 223
190 106 205 173 87 189 161 75 176 156 71 171 154 69 168
149 64 162 144 59 157 146 61 158 153 68 164 158 73 168
160 74 168 160 74 167 159 74 166 161 75 167 162 76 167
163 76 167 164 78 168 167 83 170 180 99 185 208 129 214
226 146 235 217 137 228 195 115 209 174 94 189 157 77 171
143 64 155 134 56 143 129 52 134 126 50 128 124 49 125
167 100 203 163 96 199 166 98 201 177 108 212 192 123 228
203 134 240 209 138 245 209 137 243 208 135 239 208 137 235
215 145 234 231 162 241 235 165 233 200 125 184 152 70 121
134 43 86 142 41 74 157 50 75 172 62 81 179 69 82
179 68 75 175 66 67 170 63 61 165 59 56 167 62 58
181 75 73 199 92 91 204 97 97 194 88 88 180 76 75
166 65 62 145 50 47 119 30 28 106 20 19 116 29 28
137 49 48 155 66 65 163 74 73 158 69 68 142 54 52
125 39 37 115 34 32 105 30 26 88 18 15 75 9 6
79 13 11 100 30 31 121 49 49 127 53 52 115 39 37
102 26 22 103 25 21 109 32 26 109 32 26 100 25 17
91 17 9 88 16 7 89 18 9 92 22 14 96 27 19
101 31 24 105 34 29 108 36 32 109 36 32 108 35 30
108 35 29 106 35 29 104 35 28 101 35 28 96 32 25
85 24 18 73 17 10 65 13 6 59 12 4 54 11 3
48 10 1 43 9 0 39 9 0 37 9 0 36 8 1
36 7 2 35 5 3 33 4 2 33 3 1 35 1 0
46 5 3 74 20 16 115 46 40 157 72 67 191 94 89
218 112 108 229 119 118 223 112 113 210 99 103 204 92 102
202 92 113 199 93 128 198 100 144 211 123 168 233 159 203
250 190 234 255 208 251 254 214 255 253 213 255 252 208 255
247 198 252 232 176 240 212 148 221 195 123 205 183 104 194
175 89 185 170 77 177 167 66 169 163 58 161 159 53 155
158 53 152 159 55 150 158 55 147 155 53 142 153 52 139
155 55 141 156 56 142 151 52 138 141 42 130 135 36 126
140 41 132 161 63 155 193 95 188 198 102 192 171 77 162
145 53 127 131 41 104 124 35 85 119 31 70 112 26 55
105 20 43 100 19 37 96 19 34 89 19 32 79 18 27
67 15 20 53 10 12 40 6 5 27 3 2 18 1 1
13 1 2 11 1 2 9 1 1 8 1 0 7 1 0
6 1 0 7 1 0 11 2 0 17 6 2 28 12 5
36 15 8 42 18 10 57 29 21 79 48 40 96 60 54
102 60 54 102 53 48 106 50 46 121 58 56 149 78 76
177 97 98 198 109 111 206 110 113 205 102 105 203 94 97
204 91 94 206 90 93 205 88 90 206 88 89 207 88 89
208 89 90 210 90 90 211 90 89 211 90 87 213 90 87
216 92 91 220 96 97 224 100 103 228 104 109 231 107 113
228 106 112 221 99 104 211 90 95 203 81 88 199 75 85
198 74 87 198 73 91 195 72 96 196 73 101 199 74 106
201 75 112 201 77 118 201 81 126 202 87 136 203 96 148
209 111 167 225 136 196 244 164 228 250 175 245 240 162 241
222 141 228 204 120 215 187 102 202 174 89 191 167 83 185
164 79 182 159 75 177 156 71 173 159 74 175 166 81 180
171 86 184 173 87 184 172 86 182 172 86 181 175 90 184
179 93 186 182 96 189 187 101 193 195 111 202 210 129 217
223 144 232 215 136 227 188 108 202 163 84 178 152 73 166
143 65 156 134 57 144 128 52 134 124 50 126 121 48 119
119 47 114 168 101 204 167 99 203 173 104 207 186 117 221
198 129 234 202 133 239 200 131 237 197 126 232 197 125 229
202 130 228 212 142 232 227 158 237 219 148 217 177 100 160
139 55 107 134 41 84 146 45 77 163 56 79 179 68 87
185 74 87 183 73 79 178 69 71 171 64 62 163 57 54
163 58 55 177 71 69 193 86 85 198 90 90 191 85 84
179 75 74 165 66 62 143 49 45 117 27 26 106 18 19
117 29 30 137 49 49 153 65 64 159 70 69 153 65 64
140 52 51 127 42 41 118 37 35 105 30 27 87 17 14
76 10 8 85 20 18 110 42 42 132 62 63 136 63 62
120 46 44 106 31 28 106 30 26 111 34 29 106 30 24
96 20 14 89 15 8 89 16 9 92 21 13 96 26 18
101 31 24 107 35 30 111 38 34 114 40 38 116 41 38
117 41 36 119 43 37 119 44 39 119 46 40 116 45 39
109 42 35 97 33 26 83 23 16 72 18 10 65 16 7
58 14 5 51 13 3 45 11 1 41 10 0 38 10 0
37 9 1 35 6 3 34 5 4 34 5 3 34 4 2
35 3 1 44 5 2 68 16 11 106 39 32 145 62 56
178 81 76 205 100 95 220 111 108 218 107 105 209 96 96
205 89 95 204 87 104 199 84 116 193 84 125 196 97 141
216 130 173 240 171 214 253 199 243 254 207 252 249 202 251
242 192 247 231 175 240 212 148 223 188 116 199 172 91 182
169 80 178 169 75 178 165 67 170 159 56 158 154 49 150
150 45 143 145 41 137 142 38 131 140 38 127 139 38 124
141 41 125 145 46 130 152 54 137 158 60 144 152 54 140
137 39 128 134 36 126 150 53 144 181 84 177 195 98 191
173 77 165 146 53 131 132 42 108 124 35 89 117 31 73
112 27 59 107 25 49 104 25 44 100 26 42 92 25 38
79 21 31 63 16 22 47 10 13 34 5 6 22 2 2
13 1 1 8 0 1 7 0 1 6 0 1 5 0 0
4 0 0 4 0 0 6 1 0 9 2 0 15 4 0
22 8 2 28 9 3 33 10 4 43 17 11 60 31 24
75 43 37 85 49 44 90 49 45 94 49 46 103 53 50
120 64 61 146 82 81 175 103 103 196 115 116 202 113 114
201 104 107 200 96 100 201 92 96 204 91 95 206 91 94
207 90 93 208 90 92 210 91 91 211 91 90 212 90 88
214 91 88 216 93 91 220 96 96 223 99 102 226 102 106
227 105 110 226 104 109 220 100 104 213 92 96 206 83 88
201 77 83 199 74 83 198 72 86 195 71 89 195 71 93
198 72 98 201 73 103 204 76 109 204 79 116 202 81 121
197 83 127 196 90 136 206 108 160 225 135 193 237 153 217
235 153 225 228 146 225 219 137 223 204 123 216 188 107 204
178 97 197 173 92 192 169 88 188 167 86 185 171 90 187
178 96 192 184 101 196 189 105 200 192 109 203 196 114 205
201 119 209 207 125 214 213 130 219 218 135 223 223 141 230
226 146 235 218 139 228 192 113 205 164 85 179 148 70 164
142 65 157 135 58 147 127 51 135 122 48 125 119 47 116
116 45 108 114 44 104 164 97 200 167 99 202 177 108 211
190 120 224 196 126 232 193 124 231 189 120 226 188 118 224
193 122 225 203 132 230 215 146 235 224 155 234 203 131 199
156 78 137 129 43 95 135 40 83 153 50 82 173 65 88
190 79 97 195 84 96 191 81 87 184 75 76 172 65 62
158 53 49 154 49 46 165 59 57 179 72 71 184 77 77
180 74 74 171 68 67 159 60 56 138 44 41 115 25 25
107 20 21 119 31 32 137 49 50 150 62 62 153 66 65
148 60 59 139 52 51 132 47 46 122 41 40 105 29 28
85 15 13 75 10 8 86 23 21 111 45 46 132 63 63
132 61 61 117 44 42 107 33 30 111 36 32 115 38 33
106 29 24 94 19 13 90 15 9 91 18 11 95 23 16
101 29 22 106 34 28 111 38 34 115 40 38 118 42 41
121 44 42 125 46 43 130 51 46 133 55 51 135 59 54
132 59 53 124 54 48 110 44 37 94 32 25 80 23 16
71 20 11 63 17 9 55 15 5 48 12 3 42 11 1
38 10 0 36 8 1 35 6 3 33 4 4 33 4 3
34 5 2 35 4 1 43 4 2 64 14 9 99 33 27
136 53 47 164 69 63 189 85 80 207 98 93 210 98 95
208 92 91 207 87 91 206 84 98 202 81 108 196 80 117
192 85 125 201 105 147 223 142 187 243 176 224 246 187 240
235 177 236 222 161 229 209 142 219 195 122 207 181 99 192
169 80 179 164 70 173 162 65 171 158 57 162 151 48 149
147 43 140 144 41 135 140 37 129 135 33 122 131 31 117
130 30 114 131 33 114 135 38 119 146 48 130 162 64 147
164 66 151 146 49 136 134 37 126 142 46 136 169 73 165
190 92 186 174 78 168 146 53 134 134 44 112 127 40 94
119 35 77 113 32 64 110 31 56 107 31 51 102 30 47
92 27 42 76 22 32 58 14 21 42 8 12 29 4 6
19 1 3 11 0 2 7 0 2 6 0 2 6 0 1
6 0 0 5 0 0 6 0 0 7 1 0 11 2 0
16 4 0 21 5 0 25 5 1 30 7 3 40 14 9
51 23 17 59 28 23 66 33 30 77 41 39 88 50 48
94 53 51 99 54 51 111 61 58 135 77 75 164 98 97
190 115 115 202 117 118 199 105 108 199 98 102 205 99 102
209 99 103 210 97 101 210 94 97 210 92 94 211 91 92
213 91 90 214 92 89 217 93 92 220 96 96 222 99 101
223 101 104 223 101 105 221 100 104 218 97 100 213 92 94
208 85 89 204 79 84 201 75 82 199 72 83 198 71 86
198 72 90 198 71 92 200 72 96 203 75 102 206 79 108
205 81 113 201 81 116 197 82 121 197 89 134 203 102 154
208 114 173 213 126 191 225 143 215 233 155 232 224 148 231
206 130 218 193 117 208 187 111 203 184 108 199 183 108 197
188 113 202 195 119 207 202 124 213 212 134 222 222 144 230
229 152 235 233 156 238 238 160 242 242 164 245 241 164 245
235 157 242 223 145 233 202 123 213 175 96 188 154 75 169
144 67 160 136 60 151 127 52 139 121 46 127 117 45 117
114 44 108 111 42 99 110 41 94 162 95 198 167 99 202
178 108 212 189 118 223 191 121 227 186 117 224 184 114 221
186 116 222 194 123 227 206 136 233 221 151 240 226 156 235
196 123 191 146 67 126 126 38 90 136 40 83 157 53 85
181 73 96 200 89 106 205 93 104 198 88 93 188 79 79
171 64 61 153 47 43 147 42 38 157 52 49 172 65 64
177 70 70 174 69 68 167 64 63 155 56 54 135 40 39
115 25 26 109 21 23 121 32 34 137 49 50 148 60 60
150 62 62 144 57 57 138 51 51 133 48 49 123 42 42
103 28 28 83 14 13 76 11 10 86 23 23 107 42 43
122 53 54 119 48 49 108 35 34 106 32 29 116 40 37
118 41 37 106 29 24 93 18 12 90 16 10 93 20 13
98 25 18 104 32 25 110 37 31 114 39 36 117 41 39
120 43 41 124 45 43 131 50 47 138 57 53 145 65 60
149 71 65 147 72 66 138 66 60 122 53 48 104 39 33
87 28 21 76 23 15 67 20 12 58 17 7 50 13 4
43 11 1 38 9 0 36 8 1 34 6 4 32 4 4
31 3 3 32 4 2 34 4 1 40 4 1 60 11 6
94 29 23 128 47 41 153 59 53 174 72 66 193 84 78
202 89 84 206 89 86 209 87 88 208 84 93 203 80 102
199 79 110 193 80 117 191 87 128 202 109 155 221 139 191
226 152 212 216 144 212 204 130 208 195 116 203 189 104 198
185 95 195 177 83 187 164 68 175 155 57 164 149 50 154
143 43 140 139 38 131 136 35 125 132 32 120 130 31 116
130 31 114 130 32 113 131 34 113 132 36 115 142 45 126
162 65 148 173 76 161 158 62 149 140 45 133 139 43 133
161 64 156 186 88 183 174 77 168 145 51 133 135 45 114
130 44 100 121 39 83 114 35 69 109 33 60 105 32 53
99 31 48 88 26 41 71 19 30 52 11 18 37 4 9
26 1 4 18 1 2 12 0 2 9 0 2 8 0 2
8 0 1 8 0 0 8 0 0 9 1 0 10 1 0
13 2 0 17 3 0 20 3 0 23 3 1 30 8 4
40 15 9 49 21 16 56 26 22 61 28 27 67 33 33
75 41 40 82 47 45 85 48 45 88 47 45 97 49 47
121 66 64 162 98 97 190 116 117 192 108 111 196 104 107
207 108 111 214 109 113 216 106 111 214 100 105 211 93 97
211 91 93 213 91 91 214 92 90 217 94 92 220 96 96
222 98 100 222 99 102 219 97 101 217 96 99 215 94 97
213 92 93 211 88 90 208 82 86 205 77 83 202 73 82
201 72 85 200 72 88 199 72 89 199 72 90 202 75 95
206 79 101 206 80 106 204 80 108 201 79 112 197 80 119
194 83 128 189 87 139 194 101 159 217 134 197 241 166 232
242 172 243 228 159 234 216 147 225 210 142 220 208 140 218
211 143 220 217 150 226 224 157 232 230 161 236 236 165 243
241 169 247 242 170 246 241 169 245 239 167 243 237 164 241
233 160 239 226 151 234 214 137 224 197 118 210 177 98 191
160 81 175 147 69 161 133 57 146 123 48 131 118 44 121
114 43 111 111 42 101 108 40 91 107 39 86 166 99 203
171 102 206 179 109 214 187 116 223 187 117 225 184 115 223
184 114 222 188 117 224 196 125 229 210 139 237 226 156 245
229 158 237 192 118 187 142 62 122 126 38 89 137 40 82
158 54 85 185 76 97 204 93 108 207 96 105 198 88 92
186 78 77 167 61 57 147 42 38 143 38 34 156 52 48
173 68 66 179 74 73 176 72 72 170 67 68 159 59 60
139 43 45 117 25 27 111 22 23 123 34 35 139 51 51
148 60 60 149 61 62 145 56 59 138 51 55 132 47 51
122 40 43 103 28 30 84 15 16 77 12 14 86 23 24
102 37 39 111 43 44 108 36 37 101 28 27 107 32 31
119 43 40 119 41 37 105 27 22 93 16 11 92 17 11
96 22 16 101 28 21 107 33 27 112 37 32 116 39 34
119 41 37 123 43 39 128 47 43 136 53 48 145 62 57
153 71 65 157 77 71 154 77 71 143 69 63 126 55 48
106 40 33 89 28 21 77 22 15 68 19 11 58 15 7
49 12 3 42 10 1 36 8 0 33 6 1 32 5 3
30 2 3 28 1 2 29 2 1 32 2 1 38 2 0
55 9 4 86 24 18 118 41 36 141 51 46 160 60 54
178 71 65 192 80 74 204 86 82 209 87 86 208 83 89
203 78 95 198 76 102 192 75 107 184 73 111 182 79 123
191 95 148 196 107 169 191 105 176 186 100 180 185 95 185
186 93 190 188 92 195 183 87 191 167 70 176 148 51 156
138 41 142 133 36 129 129 32 119 125 27 112 120 23 106
119 22 104 121 25 105 126 31 109 131 36 113 134 40 116
143 49 127 161 66 148 177 82 166 171 76 162 151 56 144
141 45 135 157 61 153 184 87 181 174 78 168 144 50 133
134 44 116 131 45 104 122 40 88 113 36 73 106 32 62
99 30 53 91 27 45 78 21 35 63 13 24 47 7 14
35 2 6 25 1 2 19 0 1 14 0 1 11 0 1
11 0 1 12 0 1 12 0 0 12 0 0 13 1 0
14 1 0 16 1 0 18 2 0 19 1 0 23 3 1
30 7 3 37 12 7 44 17 13 56 26 24 66 34 35
67 34 36 64 32 33 66 34 33 71 38 36 76 39 37
76 35 33 87 41 37 123 71 68 158 96 95 169 98 97
179 98 99 200 109 112 215 115 120 221 114 120 219 107 113
214 98 103 211 93 96 212 93 93 214 94 92 216 95 93
218 96 95 219 97 97 220 98 100 219 97 100 216 94 97
214 91 94 213 89 92 213 89 91 211 85 89 207 79 84
202 74 81 200 72 82 199 72 84 198 72 84 197 71 85
200 74 89 204 78 95 207 80 99 206 79 102 205 78 105
204 80 112 203 84 122 197 86 130 194 94 143 210 120 173
236 157 213 249 180 239 247 183 246 241 179 244 237 177 241
236 177 240 238 181 243 242 184 246 243 186 248 244 184 249
242 177 248 234 165 242 225 154 233 218 145 226 211 137 220
204 129 214 200 125 211 199 123 212 197 119 212 192 112 207
181 101 196 165 86 178 147 70 159 131 55 139 120 46 124
116 44 114 113 42 104 109 40 94 106 39 85 105 38 79
172 103 209 176 106 213 182 111 219 186 115 225 187 115 226
186 114 226 188 115 226 192 119 229 201 128 233 215 142 241
231 159 249 227 155 234 182 108 177 136 56 115 126 38 87
138 41 81 160 55 84 187 77 96 205 93 106 204 92 100
193 83 85 180 72 71 162 57 53 142 38 33 138 35 30
156 52 48 176 73 69 183 79 77 180 76 77 174 72 75
165 65 70 146 49 54 120 28 30 114 23 24 128 39 39
144 54 54 150 60 62 149 59 64 145 55 62 139 49 57
131 45 52 120 39 45 103 28 33 85 15 20 76 10 15
84 19 23 96 31 34 103 34 37 101 29 31 101 26 28
112 36 36 122 44 43 117 38 35 103 24 20 94 16 12
95 20 14 101 27 21 106 32 26 110 35 29 113 37 30
117 38 31 121 40 33 128 43 37 134 48 42 141 55 49
150 65 58 156 73 65 157 76 68 151 73 64 138 62 54
120 47 39 102 33 25 87 23 15 77 17 10 66 13 6
56 11 3 48 9 2 40 8 0 34 7 0 30 5 1
28 2 1 27 1 1 26 0 1 27 1 0 30 1 0
36 2 0 50 6 3 75 19 14 105 35 30 129 45 39
145 51 44 162 58 52 181 69 65 198 81 78 207 86 84
205 82 85 200 77 89 196 74 94 189 70 96 180 64 96
172 61 101 171 64 114 171 69 128 168 69 137 165 68 146
169 72 158 177 79 172 183 86 183 185 88 189 172 76 178
146 51 153 129 35 132 124 30 120 122 28 111 116 23 103
111 18 96 109 16 94 110 18 93 116 23 97 125 33 106
135 43 117 148 56 132 162 69 149 177 83 167 180 86 172
161 67 155 143 49 139 155 60 153 180 85 178 172 77 167
144 51 135 133 44 118 130 45 109 122 41 94 111 35 78
102 30 65 93 26 53 82 21 40 67 13 27 55 8 17
45 5 10 37 3 5 29 1 2 22 0 0 18 0 1
16 0 1 16 0 0 16 0 0 16 0 0 17 0 0
18 1 0 19 1 0 20 1 0 20 0 0 21 1 0
24 2 1 28 6 3 33 9 6 38 12 10 47 20 20
60 30 34 66 34 39 63 30 35 58 25 27 59 25 25
65 30 29 68 31 28 71 31 26 91 48 43 120 71 66
136 76 73 149 79 78 177 95 97 205 113 116 219 118 123
221 113 119 218 105 110 214 98 101 212 95 96 213 95 95
214 96 95 215 96 94 216 95 94 219 97 97 222 98 100
219 95 98 215 90 93 213 88 92 213 88 92 211 86 89
207 81 85 202 76 81 199 75 80 198 75 81 198 74 81
198 73 82 201 74 85 205 77 90 208 79 94 209 80 97
211 81 102 214 85 111 217 91 122 213 95 130 205 95 135
206 106 149 222 133 178 240 164 213 250 185 238 252 195 249
252 198 252 250 200 251 249 200 251 244 193 248 236 183 243
230 174 240 225 162 237 215 146 228 204 130 219 198 119 213
191 111 207 183 102 200 177 96 195 175 93 193 173 91 192
173 90 191 168 87 183 155 76 167 140 63 147 127 52 130
118 46 117 114 43 108 111 42 98 108 40 88 105 39 79
104 38 74 177 108 215 180 111 219 185 114 225 188 115 229
188 115 230 188 116 230 191 117 230 195 121 231 205 130 236
219 145 243 234 161 249 221 148 226 170 96 163 127 49 104
124 36 83 139 43 79 163 58 84 190 80 98 207 95 106
203 91 98 190 79 81 176 68 67 158 53 49 137 35 30
134 31 27 153 51 46 176 73 68 183 79 77 180 77 79
175 74 79 169 69 78 151 54 63 126 31 37 119 27 30
133 43 44 147 57 58 151 60 64 149 58 65 144 52 62
137 47 58 129 43 52 118 37 46 101 26 35 83 13 21
74 7 15 80 15 22 91 26 31 97 30 33 99 28 31
104 28 31 117 39 40 124 45 44 116 36 34 104 23 20
97 18 15 100 23 18 106 31 25 110 35 29 111 36 29
113 36 29 117 37 29 124 40 32 132 45 36 139 50 42
145 57 49 151 65 56 155 70 61 152 70 60 145 65 55
133 55 45 119 42 33 104 30 21 92 22 13 81 16 8
69 11 3 59 7 1 49 6 0 42 7 0 36 7 0
32 5 1 28 2 1 27 0 1 26 0 1 26 1 0
29 1 0 35 2 0 47 5 2 69 16 11 97 31 26
121 42 36 137 46 40 151 50 44 170 60 55 189 74 71
200 81 79 201 80 82 198 77 85 195 75 89 189 70 90
180 62 89 172 56 92 168 54 99 165 55 109 160 53 117
156 51 124 156 54 135 162 62 149 172 75 165 184 89 183
182 88 185 154 62 159 128 37 130 121 30 116 119 28 109
115 24 102 112 22 97 111 21 95 110 20 92 111 21 93
119 29 100 133 43 116 150 59 135 163 72 151 177 84 167
185 92 178 170 77 166 148 54 146 152 58 151 174 79 172
170 75 165 144 52 137 133 44 122 131 45 114 122 41 100
109 33 82 97 26 67 87 22 54 75 17 41 63 11 27
53 7 18 47 7 13 41 6 9 35 4 5 29 3 3
26 3 3 24 3 3 22 2 2 22 1 2 22 1 2
23 1 2 24 2 3 25 2 3 24 1 2 24 0 2
25 1 2 26 2 3 28 4 5 31 7 7 34 9 10
39 12 15 46 17 22 53 22 28 56 24 30 55 22 26
54 20 22 58 24 24 63 28 26 64 29 24 72 35 30
92 50 45 106 56 51 119 57 55 148 74 75 184 98 102
208 111 118 218 114 121 220 109 115 216 102 106 212 97 99
211 95 96 212 94 94 212 93 92 213 92 91 217 95 95
222 98 100 222 97 100 220 94 98 218 92 96 214 89 92
209 84 87 205 81 83 202 80 82 200 79 81 199 78 81
200 77 81 202 76 83 204 77 86 208 78 89 211 81 93
213 82 96 216 84 101 220 87 109 222 92 117 220 95 124
212 94 127 205 96 131 210 110 148 223 135 177 236 162 209
247 184 234 253 196 246 251 197 247 245 193 244 233 181 238
219 164 229 210 151 224 208 142 224 205 132 222 201 122 220
198 115 218 192 107 213 182 96 203 172 86 193 164 79 186
159 73 180 156 72 175 152 71 167 144 64 153 133 56 137
125 51 124 118 46 113 113 43 103 110 41 93 107 40 83
104 39 74 103 38 69 183 114 223 185 115 225 188 116 228
190 117 232 191 118 234 192 118 233 193 119 231 197 123 232
208 133 237 223 149 244 234 161 245 211 139 213 156 83 146
119 41 92 121 34 76 139 44 76 165 62 85 193 84 100
209 98 109 204 93 99 189 79 81 174 67 65 154 50 46
134 31 27 131 30 25 152 50 46 173 70 68 180 77 77
178 76 80 176 74 83 172 72 83 156 59 71 133 37 48
126 33 41 139 47 53 150 59 64 152 61 68 149 57 67
143 51 62 137 45 58 129 42 53 117 36 46 99 25 35
81 12 22 74 8 17 79 15 23 88 24 30 95 28 33
99 28 31 106 31 33 120 41 43 125 45 45 116 35 33
105 24 21 100 21 17 104 26 22 110 34 29 112 37 31
111 36 29 113 36 28 117 37 29 126 41 33 135 47 38
141 52 43 146 57 48 150 63 53 152 66 56 150 65 55
144 61 50 137 55 44 128 46 36 117 37 28 107 30 21
95 23 14 82 16 9 69 10 4 57 7 1 48 5 0
40 4 0 35 3 0 31 2 1 29 1 2 27 1 1
27 1 0 29 1 0 34 1 0 45 4 2 65 14 9
92 28 22 117 41 34 134 46 39 146 47 41 159 52 47
177 64 60 190 73 71 194 76 77 195 76 82 194 75 87
189 71 88 181 64 87 174 57 89 170 55 96 166 54 104
161 53 111 156 50 117 151 48 121 150 50 129 161 64 148
181 87 175 190 98 189 170 79 171 140 51 140 127 38 121
124 35 114 120 32 108 117 29 104 115 27 101 113 24 96
112 23 95 117 27 100 129 39 113 144 53 129 155 64 143
168 76 159 183 91 177 179 86 175 163 69 161 161 67 160
175 81 174 173 79 170 148 57 144 133 45 125 128 43 116
116 36 101 102 27 83 91 21 68 81 17 55 72 15 44
63 12 34 55 10 26 50 10 21 46 10 17 41 9 13
37 7 11 34 7 11 32 7 11 30 5 9 29 4 8
28 3 7 29 4 8 30 5 9 30 4 9 29 3 7
28 1 6 28 1 6 29 2 6 30 3 7 31 4 9
33 6 11 34 7 12 35 7 12 37 8 13 43 12 18
48 16 22 49 17 21 51 18 21 56 24 24 58 26 24
61 27 24 73 34 31 84 38 35 96 39 38 121 52 53
158 77 81 190 99 105 210 109 116 216 107 113 215 101 105
211 95 97 209 91 93 209 89 90 209 89 88 212 90 89
216 93 93 221 96 98 224 98 101 225 98 102 221 95 99
212 87 90 203 80 82 202 79 81 204 83 84 205 84 85
205 82 85 205 81 86 207 80 87 208 80 89 211 81 91
213 82 93 215 83 96 217 83 99 219 84 103 219 86 108
218 88 114 214 90 119 208 91 123 205 96 130 206 108 146
214 128 172 231 154 203 246 175 227 249 183 237 243 180 238
229 167 233 213 151 224 205 138 220 204 132 222 205 127 225
205 122 227 203 117 225 195 107 217 182 94 203 169 82 190
160 73 180 153 67 173 148 64 165 142 60 155 135 56 142
130 54 132 125 51 122 118 47 111 112 42 99 108 40 89
105 38 79 103 37 70 101 37 65 189 120 229 190 120 230
191 120 231 193 120 234 194 121 235 195 122 235 195 122 232
199 126 233 211 137 239 226 153 246 232 159 241 198 126 197
140 67 126 110 33 79 117 31 68 139 44 72 167 65 86
196 88 103 211 101 111 206 96 101 190 81 82 173 66 65
152 48 45 132 30 26 131 30 27 151 50 47 172 69 69
179 76 79 180 77 83 179 77 88 176 76 91 162 64 81
141 44 61 135 41 55 145 53 65 153 62 72 154 62 72
150 58 69 143 50 63 136 45 58 129 42 54 116 36 47
98 24 35 81 13 24 75 10 21 80 16 27 87 24 32
94 27 34 99 27 32 109 33 35 122 43 45 125 45 45
114 33 32 104 24 21 103 23 19 108 29 25 114 37 31
113 38 32 111 35 29 113 35 28 118 38 30 127 43 34
136 48 39 142 52 43 145 56 46 148 59 49 150 62 52
150 63 53 149 63 52 146 60 50 142 57 47 137 53 43
131 48 40 122 43 35 109 35 28 93 27 19 76 18 11
62 11 6 51 7 3 42 4 2 35 2 2 30 1 2
27 1 1 26 0 0 28 0 0 32 0 0 42 2 1
60 10 6 85 24 18 111 37 31 130 45 38 140 45 39
149 46 41 163 54 50 175 63 60 183 68 68 188 72 75
190 74 82 188 72 85 182 66 86 176 61 89 171 57 94
167 56 100 163 54 106 159 53 112 152 49 114 146 46 117
150 53 129 166 73 153 183 93 176 184 95 181 168 80 164
152 64 145 141 53 132 130 42 119 121 33 109 117 30 103
115 27 100 113 25 98 115 26 100 122 32 107 131 41 118
137 47 127 149 57 141 168 76 162 179 86 175 182 88 180
188 94 187 197 103 197 187 93 186 155 65 153 137 49 133
128 44 122 110 31 101 94 20 82 84 15 69 76 13 58
69 12 49 63 12 42 58 13 35 54 13 30 51 13 27
48 13 23 46 13 22 43 13 21 40 12 20 38 9 17
35 7 15 34 6 14 34 6 14 35 7 15 35 7 15
34 5 13 32 3 11 32 2 11 31 1 10 31 1 10
32 2 11 33 3 12 33 4 12 31 4 11 30 3 8
34 6 11 39 10 15 40 10 15 42 11 16 49 19 21
54 24 24 54 23 22 60 24 23 69 27 26 79 27 27
98 35 36 130 56 60 167 82 87 193 97 103 206 100 105
209 96 100 208 91 94 207 86 89 206 84 85 207 84 84
210 86 86 214 90 90 219 94 95 223 96 99 224 97 101
219 93 96 208 83 86 200 77 78 201 80 80 207 87 87
211 90 91 211 88 92 210 86 91 210 84 91 210 83 91
211 84 92 212 84 93 214 84 94 216 83 96 216 82 98
215 81 100 215 82 106 214 85 112 211 88 117 205 89 120
199 91 127 200 101 144 213 121 170 232 146 199 246 167 224
247 173 237 236 163 236 220 148 229 211 135 226 208 128 227
207 123 229 204 117 227 199 110 222 189 100 211 176 88 196
164 77 182 155 69 173 149 64 166 142 58 156 134 53 144
128 50 133 127 51 126 124 51 119 117 47 108 109 41 95
105 38 84 103 37 75 100 36 66 99 35 62 193 124 233
193 123 233 194 123 234 195 123 235 196 124 236 197 124 236
197 125 233 202 129 234 214 140 240 229 156 247 227 155 235
183 111 180 125 53 109 103 26 69 113 28 61 136 42 67
165 63 82 195 87 101 211 101 110 206 96 101 189 81 82
172 66 64 151 47 45 132 30 27 132 32 30 152 51 50
171 69 70 180 77 82 183 80 89 184 82 97 181 80 100
166 68 90 146 49 72 141 46 67 149 56 74 155 62 77
154 61 75 150 56 71 142 48 64 134 43 58 126 40 54
113 33 46 94 21 34 79 11 26 75 11 26 80 17 31
86 23 35 92 26 35 99 27 33 111 35 38 125 46 48
125 45 45 112 31 30 105 23 21 106 25 22 111 32 28
116 39 33 114 38 32 111 34 28 113 35 28 120 39 31
129 45 36 136 49 40 141 52 42 143 53 43 144 54 43
145 56 45 147 59 47 149 61 50 150 63 52 152 65 55
154 67 58 155 68 60 150 67 59 139 61 53 124 53 44
106 42 33 89 32 23 74 24 16 61 19 13 49 13 11
40 9 10 34 6 7 32 4 4 31 2 2 33 1 1
39 1 0 55 7 4 79 20 14 104 34 27 123 43 35
134 43 37 141 42 37 150 46 42 160 52 49 169 58 56
176 65 65 182 70 74 184 71 81 181 68 85 178 65 90
175 63 95 171 60 99 167 59 104 164 58 109 156 53 110
145 45 107 139 43 110 143 51 123 161 72 148 185 97 176
193 105 186 184 97 176 168 80 159 145 58 135 125 38 114
118 31 106 117 30 105 116 28 103 115 26 102 117 29 105
123 34 113 127 38 119 134 44 128 149 57 144 164 71 160
181 88 179 203 110 203 219 125 219 205 112 205 169 80 169
150 63 149 136 53 134 111 33 108 91 18 86 81 13 74
74 11 64 67 11 56 62 12 49 59 13 43 57 14 39
55 16 36 53 16 34 52 17 32 50 17 30 46 16 27
43 12 23 39 9 20 37 7 18 37 6 18 38 7 19
38 8 19 37 6 17 35 4 16 34 2 14 33 1 13
32 1 12 32 1 12 33 1 13 32 3 13 31 4 12
30 5 11 31 5 12 33 5 12 33 5 11 36 8 14
44 17 21 49 22 24 49 20 22 52 19 20 59 21 22
68 22 23 81 24 26 105 39 42 138 61 65 167 78 82
190 88 93 202 91 95 205 88 92 205 84 87 205 81 83
206 80 81 208 83 82 212 86 86 216 90 91 220 94 96
222 95 98 218 92 95 209 84 86 202 80 80 203 84 82
210 91 90 213 93 94 213 91 94 211 88 93 210 87 92
210 88 93 213 91 96 217 94 100 219 94 101 218 89 99
215 84 96 214 80 96 213 79 99 213 82 105 213 86 111
208 86 115 202 86 119 198 89 129 202 99 145 216 120 171
235 145 203 246 162 229 244 163 239 232 150 237 218 135 232
211 125 229 206 117 228 200 108 222 192 100 213 182 91 202
171 81 189 159 72 176 151 66 167 147 62 160 140 57 150
130 50 137 124 46 125 123 48 119 121 49 113 115 45 103
107 39 90 103 37 81 101 36 72 98 35 63 97 34 59
195 126 234 195 125 235 196 125 236 197 125 236 197 125 236
198 125 235 200 127 234 205 132 235 217 144 242 231 158 248
220 149 228 168 97 164 114 43 96 100 23 63 111 26 56
131 37 59 158 56 73 187 80 92 204 95 104 201 92 96
185 78 79 169 64 62 148 45 43 130 29 28 133 33 33
152 52 53 170 68 71 180 77 85 186 83 96 188 87 105
183 83 107 167 68 97 148 51 81 145 49 77 152 58 81
155 61 81 154 60 78 149 55 73 140 46 64 131 40 57
122 36 52 107 28 43 88 15 32 75 8 26 74 10 29
79 16 35 84 21 38 91 24 37 99 28 35 114 38 42
129 50 52 127 46 46 113 31 30 107 24 22 110 29 26
115 36 32 117 39 34 113 37 31 110 33 27 113 34 28
121 40 32 129 46 37 135 49 39 138 50 40 139 49 39
136 47 36 134 45 34 134 46 35 136 49 38 139 53 42
145 59 49 151 65 56 155 69 60 154 70 63 148 70 62
138 66 57 124 59 50 110 51 41 98 45 35 85 39 32
70 32 30 58 26 27 50 20 21 44 14 14 40 10 9
38 5 4 41 3 1 54 8 4 76 19 13 99 32 24
116 39 32 127 41 34 133 39 34 140 41 37 147 44 41
154 49 46 163 56 54 172 64 65 177 68 75 180 70 84
180 69 91 179 69 97 177 67 101 174 66 104 169 64 107
157 55 103 140 42 95 128 34 92 125 35 98 137 50 118
162 76 149 183 97 173 191 105 182 186 100 178 165 79 157
138 51 129 121 35 113 119 33 110 119 32 110 119 31 109
121 33 112 124 36 116 127 38 120 131 41 126 137 46 133
145 53 142 160 68 158 184 91 183 208 116 208 214 123 215
196 107 197 173 87 174 146 64 148 116 40 119 97 26 100
85 19 86 75 14 74 67 11 63 61 10 55 58 11 49
57 14 46 57 17 44 57 18 41 55 18 38 53 19 35
49 17 31 45 12 26 40 8 22 37 5 19 37 5 19
38 6 20 39 7 21 38 6 20 37 4 18 35 3 17
33 1 15 32 0 14 32 0 14 32 1 14 31 2 14
29 3 13 29 6 14 31 7 16 31 5 15 31 5 13
36 11 18 43 18 24 45 21 25 44 19 21 44 17 18
51 18 18 59 18 19 68 18 19 85 26 28 108 41 42
137 56 59 168 74 77 190 84 88 200 85 89 203 83 86
204 79 82 205 79 80 207 81 80 209 84 82 215 90 89
224 98 99 227 102 103 221 96 98 209 85 86 202 80 79
202 83 81 207 88 87 208 89 90 209 89 91 210 90 93
212 94 97 216 100 103 223 107 110 230 114 116 231 113 116
223 102 107 216 91 98 212 84 95 210 81 96 210 81 100
211 84 106 210 87 111 204 85 114 197 83 120 194 87 129
200 98 147 213 117 173 229 139 205 240 155 231 236 151 238
221 134 231 209 120 226 204 112 223 198 104 218 189 95 208
179 87 197 168 79 186 157 70 173 149 64 163 145 61 156
139 57 146 129 50 132 121 44 119 118 44 111 116 45 105
111 42 97 106 39 86 103 37 78 100 37 70 98 35 61
96 35 56 194 125 233 196 126 235 198 127 236 198 126 236
197 125 234 198 126 233 202 129 234 208 135 236 220 146 243
232 159 248 214 143 221 157 86 151 107 36 87 98 23 60
109 25 52 125 33 51 150 49 63 179 73 83 198 90 97
196 88 92 182 75 76 167 62 62 147 44 44 130 29 30
134 34 36 151 51 54 167 66 72 179 76 88 188 85 102
191 89 112 183 82 112 166 67 101 150 53 89 149 53 87
155 61 90 157 63 87 156 61 82 151 56 77 142 48 68
131 40 60 119 34 54 103 24 44 84 12 34 73 7 30
74 11 35 79 17 41 84 21 43 91 25 41 102 30 39
119 42 47 134 55 57 130 49 49 115 32 31 110 27 25
116 33 30 120 39 36 118 39 35 113 35 30 110 32 26
113 35 28 122 41 33 130 47 38 134 48 38 134 46 37
132 43 33 126 37 27 120 32 22 116 31 20 115 31 20
115 34 23 120 39 29 124 44 35 126 45 38 127 48 41
126 51 44 121 51 44 112 49 41 104 46 37 96 44 36
89 43 37 79 40 39 68 35 36 58 28 28 52 22 21
48 17 15 45 11 9 47 8 6 58 13 8 77 23 16
94 31 23 108 36 28 118 38 30 125 38 31 132 39 34
137 40 36 142 42 39 151 49 46 161 58 58 171 66 71
177 71 83 181 74 92 183 75 99 182 75 103 179 74 106
172 71 105 154 56 94 131 36 80 116 25 75 112 24 79
116 31 92 128 45 111 145 61 133 164 80 156 183 99 177
182 97 176 156 71 150 131 46 125 123 37 116 123 36 116
123 36 116 125 37 119 126 38 121 127 38 123 130 40 126
132 41 129 133 42 130 139 48 137 152 61 151 175 83 174
202 111 202 214 126 216 199 114 202 160 80 165 123 48 130
105 35 113 92 27 100 78 18 84 67 11 71 59 8 61
56 9 54 57 12 52 59 16 50 58 17 47 56 18 43
54 18 39 50 16 34 45 11 28 39 6 23 36 3 20
35 2 19 36 3 20 37 5 21 38 5 22 37 4 21
35 3 19 33 1 18 32 0 17 32 0 17 32 0 17
30 1 16 27 2 15 29 6 19 32 9 22 30 7 19
30 6 18 37 13 23 43 20 28 42 21 26 39 18 20
38 14 15 43 15 14 51 16 15 59 16 16 71 20 20
86 27 27 109 38 40 142 56 59 170 71 75 188 79 82
197 80 83 201 78 81 204 78 79 206 79 79 208 82 81
217 92 90 231 106 105 235 111 111 223 99 100 204 81 81
195 73 72 197 77 76 202 83 82 203 85 84 206 89 89
213 99 99 222 110 110 229 120 120 235 128 127 239 132 131
238 129 128 228 116 116 217 101 104 210 92 98 207 86 96
205 83 98 205 84 101 204 84 105 199 83 108 190 78 110
181 74 112 177 76 120 181 86 137 194 104 165 210 125 196
217 133 214 208 123 215 199 110 211 196 105 211 193 101 210
186 93 202 177 86 193 167 79 183 157 70 172 149 64 161
144 60 152 138 57 142 128 50 129 119 43 114 113 39 104
111 40 97 108 39 91 105 38 83 103 38 76 101 37 68
98 36 60 97 35 55 195 126 233 197 127 235 198 127 236
198 126 235 197 125 233 198 127 232 203 131 233 210 137 236
222 149 243 231 158 246 206 135 211 145 75 138 102 32 80
98 23 58 108 25 49 123 31 47 148 48 60 178 73 81
198 91 96 198 90 94 187 80 82 173 68 69 152 49 51
134 33 35 135 35 39 150 51 56 166 65 74 178 76 91
188 85 106 189 87 115 180 79 115 167 68 107 157 59 101
156 59 99 157 62 95 157 62 90 157 61 86 153 57 81
144 49 73 133 42 67 119 34 59 101 23 49 82 12 39
76 11 41 79 17 48 81 20 50 82 20 48 89 23 44
103 31 42 124 46 51 138 59 61 131 50 50 116 33 32
114 30 29 122 38 36 124 42 39 119 39 34 111 34 28
108 31 25 113 35 27 122 43 34 131 48 39 133 48 38
132 45 35 127 39 30 118 31 22 108 24 14 101 20 10
96 18 8 92 18 8 92 19 10 92 20 12 91 20 13
91 21 15 90 24 19 87 25 20 82 25 19 77 24 18
73 25 19 69 27 22 65 28 26 58 25 26 51 21 21
48 18 17 47 16 14 47 13 10 49 12 8 59 16 10
74 23 16 89 31 22 102 35 26 111 36 28 119 37 30
124 37 32 127 36 32 130 36 32 138 41 38 149 50 50
161 60 65 170 69 79 178 75 90 182 78 98 182 79 103
181 80 106 173 75 103 152 57 88 125 33 69 108 19 61
102 17 65 102 19 73 105 25 84 114 34 101 134 52 126
166 83 161 186 102 183 177 93 173 156 72 153 144 59 141
137 50 133 127 40 123 124 37 121 127 40 125 131 42 128
131 42 129 130 40 128 127 37 125 127 37 125 132 42 130
145 55 144 171 82 171 203 116 205 212 129 217 179 99 186
131 56 141 108 38 119 97 33 109 83 23 94 68 13 78
59 8 67 57 8 60 58 11 57 59 14 55 57 15 51
55 15 46 52 16 42 48 13 37 42 8 30 38 3 25
35 1 23 34 1 22 34 1 22 34 2 23 35 3 24
36 3 25 34 2 23 33 1 22 33 0 22 33 1 23
34 2 23 32 3 23 30 4 24 30 7 26 31 8 27
29 5 23 29 5 21 34 11 24 39 17 27 38 18 24
35 15 18 33 12 13 37 12 12 45 14 13 53 16 15
63 19 18 73 22 21 89 27 28 115 40 41 143 54 56
166 65 68 184 72 76 196 77 80 203 78 80 205 78 79
207 81 80 215 91 89 229 106 104 233 110 109 217 94 93
195 72 72 189 66 66 195 74 73 200 81 80 203 86 85
211 97 96 223 112 111 233 127 125 238 136 134 240 141 138
240 142 138 236 137 134 229 127 125 218 114 114 211 104 106
206 97 103 199 89 99 192 82 95 188 78 95 182 74 95
171 66 93 156 57 89 147 53 90 144 56 99 148 65 116
159 79 140 170 91 162 174 93 175 175 91 181 177 90 187
177 88 188 173 83 185 169 79 181 163 75 176 157 70 169
150 64 160 143 60 150 136 56 139 126 48 125 116 40 109
108 36 97 106 36 91 106 38 87 105 39 81 103 39 74
101 38 67 99 37 60 98 37 55 198 129 236 198 129 236
199 128 236 199 127 234 198 127 233 200 129 232 204 133 233
211 139 236 224 151 243 228 156 241 194 123 197 132 62 123
97 27 72 97 22 54 106 24 44 122 31 45 150 50 60
180 76 82 199 93 97 200 94 96 193 87 89 181 76 78
159 56 59 137 36 40 136 36 42 151 51 59 167 65 78
179 77 96 185 83 109 183 81 115 178 77 118 173 74 119
168 70 116 161 63 107 153 56 94 151 54 86 153 55 84
150 53 81 143 47 76 133 41 71 119 34 65 99 22 55
84 13 49 83 19 56 87 26 63 82 22 58 79 17 49
84 19 43 101 29 41 126 49 54 141 61 63 130 48 49
115 31 31 118 33 32 128 43 41 127 44 41 118 37 33
110 31 26 107 29 23 112 34 27 123 44 35 132 50 40
134 50 40 132 46 37 127 41 33 116 32 24 102 22 14
91 16 7 83 13 4 77 12 3 72 10 2 69 8 2
67 7 2 65 8 3 63 8 5 60 9 5 57 8 5
54 9 5 51 10 6 48 10 7 45 11 9 42 10 10
40 9 9 39 9 8 39 8 7 40 8 5 43 7 4
50 9 4 64 17 9 83 28 19 98 35 26 107 37 29
113 36 30 116 35 29 116 31 27 118 29 26 123 32 29
133 39 39 145 50 53 157 60 69 167 69 82 173 75 92
176 78 98 177 80 101 169 75 98 148 57 83 122 34 64
104 19 55 97 15 57 96 17 63 97 20 73 104 26 87
117 38 109 144 62 140 174 91 172 187 104 185 183 99 182
179 94 178 169 83 168 147 61 146 129 43 129 128 41 128
134 46 133 136 47 135 133 43 131 127 37 125 123 33 121
124 34 122 129 40 128 144 56 145 177 92 180 206 124 212
188 109 197 137 63 149 108 38 121 100 35 114 87 26 101
72 16 85 63 10 74 59 9 67 58 10 62 58 11 59
56 12 55 53 11 50 49 11 45 45 9 41 41 5 36
38 2 33 36 1 32 36 1 32 35 2 32 35 3 32
35 3 32 36 3 33 35 2 32 34 1 30 34 1 31
36 4 34 38 6 36 37 7 37 35 8 37 33 7 36
32 6 34 30 4 29 28 3 25 29 5 24 31 8 23
31 11 20 30 11 16 30 10 13 33 12 11 40 14 12
48 16 14 56 19 17 64 21 19 75 22 22 92 27 27
114 36 37 136 45 47 162 60 62 188 75 77 199 79 80
202 78 78 204 80 78 209 86 83 217 95 93 219 97 96
202 82 81 186 65 64 189 67 66 198 77 76 201 81 80
207 89 88 219 106 104 231 123 121 238 136 133 239 143 139
238 146 142 236 146 141 231 141 137 224 133 130 213 120 118
204 110 110 197 102 105 184 88 94 168 72 81 158 62 75
149 55 72 137 46 67 124 38 64 116 35 65 112 35 70
111 39 80 116 46 94 122 53 110 131 59 126 141 66 141
146 67 149 148 65 154 151 67 159 156 70 165 158 71 168
155 67 166 150 64 160 144 61 151 136 56 139 124 47 122
113 38 106 106 34 94 104 34 88 105 37 86 105 40 82
103 39 74 102 39 67 101 39 61 100 39 57 199 130 237
199 129 236 199 128 235 200 128 234 199 128 232 201 130 231
205 133 232 212 140 235 224 152 242 224 153 235 183 112 184
121 52 110 94 24 66 97 23 51 105 23 40 120 30 39
147 48 55 176 72 77 193 87 91 194 88 91 189 84 86
179 75 78 159 57 61 138 37 43 135 35 43 150 50 61
167 66 82 180 77 100 183 81 111 181 78 117 182 80 127
181 81 132 171 72 122 158 60 107 152 54 95 152 54 90
153 54 87 149 50 82 140 43 78 131 38 75 119 33 72
102 25 65 88 19 61 86 23 66 85 25 68 79 20 60
76 15 51 82 16 42 99 27 40 127 49 54 142 61 63
130 47 48 116 30 30 121 34 34 131 45 44 127 43 41
115 34 30 108 29 24 108 29 24 114 36 29 125 45 37
132 51 41 134 50 40 131 47 38 126 42 34 113 33 26
96 22 14 82 14 5 72 11 2 65 9 1 57 6 0
52 3 0 51 4 0 50 4 1 47 3 1 44 3 1
42 2 1 40 3 1 38 4 2 36 4 2 34 3 2
33 3 3 33 3 3 33 3 3 33 3 2 34 3 1
36 3 0 42 4 0 55 12 5 76 25 16 93 35 26
102 37 28 108 36 29 110 33 28 110 29 25 110 27 23
113 27 24 118 31 30 127 39 41 138 48 55 150 58 69
160 68 82 167 75 91 167 76 93 158 69 88 140 53 75
119 36 61 105 24 54 98 21 55 97 21 61 98 24 70
102 27 83 109 32 98 122 43 117 145 65 142 164 83 162
172 90 171 180 96 180 187 102 187 178 93 179 156 70 157
138 52 139 135 48 136 139 51 139 136 47 135 127 38 126
122 32 120 123 33 121 125 37 125 133 46 135 158 73 162
191 109 198 190 111 200 147 72 159 111 41 125 100 34 115
89 27 105 76 18 91 67 12 81 61 9 72 58 7 67
58 9 65 56 9 61 50 7 56 46 6 53 46 8 53
47 9 53 47 9 53 46 9 53 48 10 55 51 14 58
53 18 61 54 18 62 53 18 61 51 15 59 47 11 55
45 10 53 45 11 54 45 12 55 43 10 53 39 8 51
37 7 49 36 6 47 35 5 42 31 3 35 28 1 28
27 2 24 27 5 21 28 7 18 28 8 14 31 10 12
35 12 12 42 14 14 49 17 16 56 19 18 64 20 19
76 21 22 92 25 26 110 31 32 139 46 48 172 67 69
191 76 77 197 77 77 201 78 77 204 82 80 209 89 86
207 88 87 193 74 73 182 64 63 189 71 69 198 79 78
199 80 79 208 91 89 222 109 107 231 125 123 235 136 133
232 140 137 227 141 136 221 138 133 214 132 128 203 122 118
186 105 103 171 89 89 160 79 80 146 65 69 131 50 57
120 41 51 111 33 47 102 27 43 97 25 45 95 27 50
94 29 56 94 33 63 96 36 71 97 38 80 101 39 90
107 41 100 112 42 108 120 46 121 135 56 139 148 66 155
155 70 164 154 68 166 151 65 161 146 63 153 136 57 140
124 48 122 113 39 106 106 34 95 104 35 89 105 38 86
106 41 82 104 41 76 104 41 69 103 42 63 103 42 59
201 132 237 198 129 234 197 127 231 199 128 231 200 129 230
201 131 229 206 135 230 214 143 234 227 155 242 222 151 231
175 105 174 115 46 101 93 24 62 98 25 48 104 23 35
117 27 33 141 43 47 168 65 68 183 78 80 184 79 81
180 75 78 172 69 73 155 53 59 136 36 44 132 33 43
146 47 61 166 65 83 179 77 102 182 79 114 182 80 123
187 85 136 181 80 135 161 62 115 153 54 104 163 64 108
171 73 112 168 68 105 155 55 93 143 44 85 134 40 84
126 39 86 111 33 82 94 25 75 84 21 71 77 18 66
73 15 59 74 14 52 81 15 43 98 26 40 127 49 54
141 60 62 130 46 47 117 31 31 123 35 35 131 44 43
125 40 38 112 30 26 107 27 22 110 31 26 118 39 33
127 48 40 132 52 42 132 50 39 126 44 35 117 37 29
103 27 20 86 18 10 72 11 3 62 8 0 54 6 0
46 3 0 41 2 0 40 3 0 39 3 1 37 2 0
34 1 0 32 0 0 31 1 1 31 2 1 30 2 1
30 1 1 29 1 1 29 1 1 29 1 1 29 1 0
30 1 0 32 1 0 37 2 0 50 10 4 71 23 14
87 33 23 96 35 26 102 34 27 106 33 27 107 29 25
107 27 24 107 26 23 109 27 25 114 30 32 121 36 41
131 46 54 145 60 70 154 68 81 150 66 79 138 56 71
126 46 63 115 37 58 107 32 56 102 29 58 99 27 61
98 27 67 100 28 76 102 27 87 106 30 98 117 39 111
128 49 123 134 53 130 144 62 142 165 81 164 184 99 185
185 99 186 167 81 169 147 60 149 140 53 142 139 50 139
131 41 130 124 34 123 124 34 123 126 38 128 129 43 134
143 59 150 174 91 182 192 113 203 169 93 182 126 55 141
103 35 119 91 27 108 80 19 97 72 14 88 65 9 80
59 6 74 57 5 71 54 5 67 51 4 65 52 7 69
58 14 77 64 21 83 66 23 86 66 24 86 70 28 90
78 36 98 85 44 106 87 47 109 88 48 109 85 46 107
79 40 101 71 33 94 64 26 87 56 18 79 49 11 72
45 8 69 46 10 69 46 11 66 41 7 57 34 2 46
30 1 38 29 1 32 29 3 28 28 5 23 28 6 18
29 7 15 32 9 13 37 11 14 42 13 15 47 15 16
55 17 17 67 20 21 80 23 25 93 25 26 117 36 37
150 55 56 176 69 69 190 75 75 197 78 77 203 83 82
209 91 89 206 89 88 191 76 74 181 67 66 186 72 71
193 77 76 196 80 79 204 89 88 216 106 104 222 119 117
218 123 120 206 119 116 195 114 111 187 109 106 176 100 98
159 85 84 139 67 66 122 52 52 113 45 46 108 41 45
104 39 44 101 37 45 94 31 42 85 24 38 84 26 41
88 32 49 91 37 56 91 39 60 88 38 62 86 35 65
83 30 67 82 26 69 87 26 78 103 37 99 126 54 127
144 67 151 153 71 163 154 70 167 152 68 165 147 64 156
138 59 142 127 50 126 116 42 110 108 36 98 105 36 90
106 39 87 107 42 84 106 44 78 105 44 71 105 45 66
105 46 62 208 140 240 201 133 233 197 128 226 199 129 227
204 134 230 208 138 232 212 142 233 220 150 237 233 162 245
224 153 230 170 101 167 112 43 96 93 24 61 98 25 46
103 22 31 114 25 28 136 39 40 161 58 59 175 71 72
178 72 74 174 69 73 167 64 68 150 50 56 132 34 42
129 31 42 142 43 58 160 59 80 173 70 99 177 75 112
182 80 127 185 83 139 170 69 128 148 49 106 152 53 106
178 79 126 193 94 136 186 85 126 165 64 108 148 48 96
143 48 99 140 53 106 122 45 100 97 28 85 79 17 73
72 13 66 68 11 57 70 10 49 78 13 41 98 26 40
126 48 54 141 59 61 130 44 46 118 31 32 125 36 36
132 44 43 124 37 36 110 27 23 106 25 21 112 33 27
123 43 37 132 52 44 134 53 44 129 48 37 118 38 28
103 27 19 88 18 11 74 11 4 62 6 1 53 5 0
46 5 0 40 4 0 36 4 0 35 4 1 34 4 1
32 2 0 30 0 0 29 0 0 28 0 1 28 1 1
28 1 1 27 1 0 27 0 0 27 0 0 27 0 0
27 0 0 28 0 0 30 0 0 34 1 0 46 7 3
65 20 12 81 30 21 90 32 24 97 32 25 101 31 25
103 28 25 104 27 25 104 26 24 103 25 24 104 26 27
107 28 31 114 35 40 127 48 55 134 55 65 126 48 59
112 36 48 106 32 46 105 33 49 103 33 53 99 30 53
93 25 52 89 22 54 89 21 61 91 20 71 95 21 81
102 26 90 108 31 99 111 32 104 116 35 111 131 48 128
154 70 154 178 93 180 187 101 189 170 84 173 151 64 153
146 57 147 138 49 139 127 38 127 124 35 126 126 39 132
128 43 136 134 50 144 156 73 166 189 108 201 195 118 209
159 85 175 122 51 138 100 33 118 85 21 104 75 14 94
68 10 88 62 6 82 56 3 77 55 3 77 61 10 86
72 21 100 81 31 112 86 36 118 85 36 118 83 34 115
85 36 117 92 44 125 98 52 132 101 55 135 103 58 138
104 59 139 99 55 135 91 48 127 81 38 117 70 26 106
60 17 96 58 15 93 60 18 93 58 17 89 49 10 75
40 3 61 35 1 51 34 1 45 32 2 39 30 3 31
28 4 25 28 5 20 29 6 16 32 7 14 36 9 14
39 10 14 46 13 15 57 18 19 70 22 24 80 22 23
97 27 26 124 40 39 153 55 54 178 70 69 193 78 77
201 83 83 208 91 90 203 88 87 187 75 73 178 68 66
181 71 69 187 76 75 191 80 79 196 88 87 202 99 97
201 105 103 184 95 93 160 79 77 147 71 70 141 69 69
130 61 61 114 47 47 100 36 36 90 30 31 88 30 32
90 35 39 95 42 48 99 47 55 95 44 54 89 39 51
91 43 56 98 51 65 101 55 69 96 51 66 86 42 58
76 32 52 70 24 49 68 20 51 72 21 61 88 31 83
111 47 112 129 59 136 139 62 151 144 63 160 148 65 162
146 64 157 140 60 146 130 53 132 119 45 116 111 39 102
107 38 93 107 40 89 107 43 85 107 45 80 106 46 73
106 47 68 106 47 64 221 154 247 213 145 237 207 138 229
209 140 230 216 147 236 222 154 240 226 157 242 232 163 245
242 171 250 226 155 229 166 97 162 110 42 94 94 25 61
97 24 45 102 22 30 114 25 26 134 37 36 157 55 54
172 69 68 176 71 72 172 68 71 164 61 66 146 46 53
129 31 41 126 28 41 136 38 55 150 48 71 159 56 87
166 63 104 177 75 126 178 77 136 157 56 119 144 44 104
161 62 117 190 91 140 205 104 151 197 95 141 176 74 122
158 57 111 157 61 119 155 68 128 129 52 113 95 26 88
75 14 73 69 11 65 65 9 56 66 7 45 74 10 37
96 25 38 126 48 54 140 57 60 129 43 45 120 31 33
127 37 38 132 43 43 123 35 34 110 25 22 107 25 21
115 35 30 127 48 41 136 57 49 135 55 45 124 44 32
107 29 19 90 18 9 76 11 4 64 6 1 55 3 0
48 4 0 43 5 0 38 6 0 34 5 0 34 5 1
33 4 1 32 3 1 31 1 0 30 1 0 29 0 0
29 1 0 28 2 0 27 1 0 27 1 0 27 1 0
27 1 0 27 1 0 28 1 0 29 1 0 33 1 0
42 6 3 60 18 11 76 27 18 84 29 21 91 29 22
96 28 23 98 26 23 99 25 24 99 26 24 97 25 23
96 24 24 96 23 25 98 26 28 107 34 38 110 37 43
99 28 36 87 17 26 85 17 27 88 22 34 90 24 39
86 21 39 79 16 37 76 12 37 77 12 44 81 14 56
90 20 70 100 27 82 106 31 91 108 32 96 111 32 102
115 34 110 122 40 120 143 59 143 174 90 176 183 98 186
169 82 172 160 72 163 153 64 154 138 49 139 128 40 133
128 41 138 131 46 144 133 49 147 141 58 155 174 93 189
208 128 223 194 117 210 152 79 170 119 49 139 95 27 116
78 14 101 70 9 95 63 5 90 58 3 87 66 11 97
84 29 119 100 43 139 105 48 147 102 44 145 94 38 138
86 30 130 82 27 127 84 29 128 86 32 131 86 34 132
87 36 134 88 37 135 86 35 133 84 33 131 81 31 129
77 27 124 72 22 119 70 20 115 70 21 114 70 22 110
64 17 100 54 10 85 44 4 70 38 1 58 35 1 50
32 2 42 30 2 34 29 3 27 28 3 21 30 4 17
31 5 14 34 6 13 38 8 12 46 12 15 59 18 20
68 20 20 78 19 17 96 24 21 127 39 36 164 63 60
187 77 75 196 81 80 199 83 83 191 78 77 176 66 65
171 64 62 175 70 68 180 75 74 182 79 78 183 84 83
182 88 86 169 83 81 142 63 61 116 43 42 107 39 38
105 40 40 98 35 37 91 31 33 86 29 31 81 28 31
80 31 35 84 38 42 92 48 55 102 59 67 104 61 71
103 59 71 108 64 77 115 71 84 115 72 84 104 62 74
87 46 58 70 29 44 61 20 38 59 17 41 61 16 49
69 20 64 86 29 88 102 37 110 114 42 129 126 48 144
138 57 155 144 63 158 142 63 151 134 57 138 123 49 122
114 42 107 109 39 97 108 41 91 108 43 87 107 45 81
106 46 74 106 47 69 105 47 65 229 163 247 226 161 243
224 157 239 225 158 239 230 163 243 236 169 248 241 173 251
245 176 252 248 178 252 221 151 222 158 88 153 106 38 90
93 24 62 96 23 46 103 22 33 115 26 29 134 38 37
157 55 54 172 69 68 176 72 72 172 68 71 161 59 64
143 43 50 126 29 39 124 27 41 132 34 52 141 40 65
146 44 77 155 52 96 173 70 124 174 72 135 152 51 116
151 51 113 179 80 137 206 106 158 213 111 161 203 100 150
188 85 138 179 78 136 178 82 145 165 78 144 127 49 116
89 21 87 72 11 73 66 10 64 64 9 55 64 7 44
72 9 33 95 23 36 126 48 53 139 56 59 128 42 44
121 32 33 128 38 39 132 42 42 122 34 33 110 25 22
109 27 23 119 38 34 132 53 46 140 61 53 135 55 45
118 38 27 98 22 11 82 13 4 70 8 1 60 5 0
51 3 0 45 4 0 41 6 0 37 6 0 34 6 0
35 6 1 36 6 2 36 5 2 36 4 2 35 3 2
33 2 1 32 2 0 30 2 0 29 2 0 28 3 0
28 2 0 28 2 0 28 3 0 29 2 0 30 2 0
32 2 0 40 6 2 57 17 9 72 25 16 80 26 18
86 26 19 91 25 20 93 23 21 93 22 21 92 22 20
91 22 20 90 21 20 88 20 19 87 19 19 88 21 23
87 20 23 79 14 18 73 9 15 72 10 17 75 13 22
76 15 26 72 12 26 68 9 24 68 8 27 73 11 36
80 15 48 91 23 64 102 31 78 107 34 86 110 35 93
114 38 102 116 37 108 113 32 108 119 37 118 149 64 149
178 92 179 183 96 185 179 91 182 176 87 178 159 71 162
139 52 146 133 46 146 135 49 152 134 48 152 134 49 151
157 74 175 199 118 216 207 128 225 177 101 196 144 70 165
116 45 140 92 24 118 76 12 106 68 7 101 68 10 104
83 25 122 105 46 149 117 55 165 115 50 165 105 41 157
95 31 147 86 23 138 81 19 134 79 18 133 79 19 133
78 19 134 79 20 134 77 19 133 74 16 130 72 16 129
73 16 130 72 16 129 72 16 128 72 17 126 72 18 125
75 21 124 77 25 123 71 21 112 58 11 93 45 3 75
39 1 62 36 2 54 34 2 45 31 2 36 30 2 28
29 2 21 30 3 17 31 4 14 32 4 11 37 6 10
48 13 15 57 17 16 63 14 11 75 13 8 106 27 23
150 56 53 182 76 74 192 79 78 190 76 76 178 66 66
165 57 56 164 61 59 169 69 67 169 70 68 164 69 67
159 71 68 151 70 67 130 56 54 104 36 35 89 27 26
86 27 27 85 28 29 83 27 30 83 29 32 81 30 34
78 30 34 78 34 39 82 41 47 92 53 60 104 66 75
109 70 81 109 69 82 115 73 87 121 79 93 120 77 90
108 66 76 89 48 58 71 32 43 60 22 36 55 17 36
52 13 40 55 11 50 65 14 68 79 20 90 97 29 114
116 42 137 134 55 154 144 63 160 145 64 155 138 60 144
127 52 128 117 45 112 111 41 101 109 41 94 109 43 89
107 45 82 106 46 75 106 46 69 105 46 65 224 159 234
233 168 242 239 174 247 238 172 245 236 170 243 239 173 246
246 179 251 250 182 254 246 177 249 209 140 210 143 74 139
99 31 84 92 22 62 97 23 48 104 23 36 117 27 33
136 39 41 158 57 56 173 69 69 176 72 72 170 67 70
158 57 61 139 40 47 124 27 38 124 27 42 132 34 54
140 41 67 146 44 79 153 50 96 173 71 127 177 75 140
157 56 124 164 63 129 197 97 158 221 120 176 220 117 171
207 103 158 199 96 154 200 99 162 194 98 165 164 76 146
119 41 112 84 16 85 69 9 72 65 9 64 64 10 55
64 8 43 72 9 32 95 23 35 126 48 53 139 56 59
127 41 43 121 33 33 129 39 40 132 42 42 120 33 31
110 26 22 113 30 26 124 44 38 137 57 51 142 62 54
132 53 42 112 33 21 91 16 6 77 10 1 67 8 0
59 6 0 51 4 0 46 5 0 42 7 0 39 7 0
38 7 1 39 7 2 42 8 4 44 9 6 44 9 6
43 8 5 41 7 3 38 5 1 34 4 0 30 4 0
29 4 0 28 4 0 28 4 0 28 4 0 29 4 0
31 3 0 32 2 0 40 6 2 55 17 9 70 24 15
77 24 17 82 23 17 87 22 18 88 20 18 88 19 17
86 19 17 85 20 16 84 20 16 82 19 16 80 17 15
77 15 14 73 12 13 69 9 12 68 9 13 69 10 15
69 10 17 69 11 19 67 9 19 65 9 20 69 11 25
75 15 34 83 19 45 90 23 56 95 27 65 99 28 72
103 31 82 110 35 93 116 39 104 118 38 111 118 36 115
132 48 131 157 71 158 174 87 176 185 96 188 195 106 198
185 97 189 158 70 167 142 55 157 137 51 157 133 47 154
131 45 150 141 57 160 171 88 190 194 114 214 186 108 207
162 86 184 140 67 165 115 46 145 93 27 127 83 19 121
87 25 128 101 40 146 115 52 165 118 51 172 111 41 167
101 31 158 94 24 151 91 22 149 92 24 150 93 26 152
95 29 154 96 31 155 96 31 155 92 29 152 87 24 147
82 19 143 79 16 140 75 13 136 72 12 133 71 11 132
71 11 130 73 15 129 78 22 131 79 25 128 71 20 115
58 11 96 47 4 79 41 2 67 38 3 57 34 3 47
32 2 36 30 2 27 29 2 21 29 3 17 30 2 12
33 3 9 39 7 10 47 11 11 51 9 6 61 7 3
89 20 15 136 49 45 172 70 68 185 74 74 184 70 71
172 61 62 161 56 56 160 60 59 158 63 62 148 56 54
133 48 45 121 45 42 109 42 38 91 30 28 76 20 19
73 21 21 74 24 25 72 22 25 74 23 27 76 26 31
73 26 31 72 27 33 75 35 41 81 43 49 87 51 59
94 58 68 95 58 70 95 55 70 102 60 76 111 68 83
113 69 82 104 61 72 89 48 57 75 35 45 63 25 38
54 18 35 49 12 37 49 8 46 56 8 61 72 15 84
94 29 113 120 48 142 139 61 161 146 66 164 146 66 159
141 62 148 130 55 133 119 47 117 112 42 104 110 42 97
110 44 91 108 45 84 107 46 77 106 47 70 106 47 67
215 149 221 231 166 237 245 180 249 243 178 247 235 170 239
235 171 239 243 178 247 248 184 253 240 174 245 195 129 199
129 62 128 94 25 81 93 21 64 99 23 53 107 25 43
119 29 38 138 41 46 160 58 60 172 69 70 173 71 72
166 66 68 154 56 60 136 39 47 123 27 39 125 29 45
135 38 59 146 47 75 152 51 88 160 58 106 180 77 137
183 81 150 164 64 136 172 72 142 205 105 171 226 124 187
223 120 181 213 108 171 210 105 171 209 106 175 192 94 167
156 67 140 113 34 106 82 12 81 68 6 69 65 9 63
64 10 53 63 8 40 71 10 31 95 25 35 127 48 52
139 55 57 127 41 42 122 34 33 130 41 39 131 42 39
120 33 29 111 26 21 116 33 27 131 50 43 145 64 57
145 65 56 129 50 39 106 27 17 86 13 3 74 9 0
67 8 0 60 6 0 55 6 0 51 7 0 49 8 1
47 9 1 47 9 2 49 10 4 52 12 7 56 15 10
57 16 12 56 16 11 52 13 8 47 11 5 41 8 2
35 5 1 31 4 0 30 4 0 29 4 0 29 3 0
29 3 0 31 3 0 33 2 0 40 5 2 54 15 8
67 22 15 74 23 16 78 22 16 81 20 15 82 18 14
81 17 14 79 18 14 78 19 14 78 19 15 77 19 15
74 16 13 70 13 11 67 11 10 66 10 11 66 11 13
66 11 14 66 11 16 67 12 18 68 12 19 68 13 21
72 16 26 80 21 34 89 27 44 95 30 52 95 28 56
94 25 59 94 24 65 99 26 75 108 34 91 119 41 107
123 43 118 129 46 128 140 55 142 153 67 156 172 84 176
197 109 200 206 118 210 188 101 196 168 81 182 157 71 174
146 60 165 137 52 156 136 52 156 149 66 170 177 96 199
187 107 210 169 92 194 153 78 180 139 67 170 123 53 159
116 47 156 117 51 162 121 54 170 120 51 173 114 42 171
107 32 165 102 27 160 102 27 158 107 33 164 117 44 174
127 54 184 132 60 189 134 63 189 133 62 186 126 57 179
116 47 169 106 37 161 99 30 155 96 27 153 92 24 151
86 19 146 80 14 140 74 10 133 73 11 129 77 19 131
81 25 131 76 23 123 65 17 108 55 11 93 46 7 79
39 3 65 34 2 51 31 1 38 29 1 29 29 2 22
29 2 16 30 2 11 32 3 7 36 5 5 41 4 2
49 3 1 75 13 10 119 39 36 156 60 58 172 64 65
174 62 64 167 58 60 159 57 58 152 58 58 138 52 52
118 38 37 96 25 23 80 21 17 69 18 15 60 13 11
55 11 11 56 15 16 58 17 20 59 17 22 62 19 25
65 21 28 63 21 28 65 24 31 71 32 39 76 39 47
80 44 52 81 45 55 77 41 53 76 38 53 83 43 58
93 51 65 98 55 66 94 49 59 84 40 49 75 33 43
66 26 38 56 18 35 50 11 38 50 7 46 57 8 62
76 20 91 105 41 126 130 59 155 145 69 170 150 69 171
149 67 164 143 63 152 132 55 135 120 47 118 113 43 106
111 43 99 111 45 93 109 45 85 108 46 79 108 47 73
108 48 69 216 149 223 232 165 238 246 181 250 245 181 249
237 175 241 236 175 240 242 181 246 246 185 252 233 172 241
184 121 191 122 56 124 94 24 85 96 22 71 102 24 60
110 26 49 121 29 44 140 41 51 161 58 65 170 68 72
169 69 71 162 65 67 152 57 60 134 40 48 122 27 41
126 31 49 138 41 65 149 50 80 155 55 94 168 68 118
188 88 150 184 83 156 164 65 142 175 76 151 208 109 181
230 128 199 230 125 197 225 118 191 221 114 189 209 105 180
186 86 163 153 62 137 114 33 105 82 10 77 69 6 65
67 10 60 62 10 50 59 7 37 68 10 29 96 26 34
128 50 51 139 55 54 128 42 40 124 37 33 131 43 38
130 43 36 119 33 25 112 27 18 119 35 26 139 55 47
156 72 64 150 68 59 127 47 35 100 23 12 83 11 2
75 9 1 69 8 1 63 7 0 61 8 1 61 11 3
62 13 5 62 14 6 62 14 7 64 16 9 68 19 13
70 22 17 71 24 18 68 23 17 63 20 14 57 17 10
49 12 5 41 8 2 36 5 0 34 4 0 32 3 0
30 2 0 30 2 0 31 2 0 34 2 0 41 4 2
53 11 7 65 19 14 72 22 16 75 21 15 76 18 12
76 17 11 74 16 11 72 16 11 71 17 12 72 18 14
70 18 13 67 15 11 64 13 9 62 11 9 62 11 10
62 11 12 63 12 13 65 12 15 68 14 18 70 15 20
72 16 23 75 18 25 83 24 32 94 33 44 102 38 52
102 36 54 98 30 53 93 24 54 93 23 61 101 28 75
112 36 95 124 45 114 134 52 131 143 59 144 151 65 154
163 77 167 185 99 189 206 119 209 211 125 215 204 119 212
196 111 207 179 94 193 163 79 180 157 73 176 158 75 181
176 94 200 189 108 214 175 96 202 157 81 185 154 79 184
156 83 192 160 87 200 157 86 203 145 73 195 128 54 183
116 40 174 112 34 170 116 39 170 125 48 176 140 62 190
158 81 209 174 96 224 182 105 229 184 107 227 183 107 222
174 99 213 159 84 199 141 65 183 127 50 171 123 46 169
122 46 172 117 41 170 106 32 161 92 21 147 80 13 136
78 14 133 84 23 139 92 35 147 93 40 148 82 33 134
61 17 110 44 5 86 37 2 69 33 1 53 30 1 40
29 2 29 29 2 21 29 2 13 28 2 7 30 2 3
34 2 1 42 1 0 65 10 8 105 32 30 142 52 52
160 58 59 162 56 58 158 53 55 149 53 54 136 50 52
113 38 39 87 22 22 66 12 11 52 9 7 44 9 6
40 7 6 39 7 7 40 8 11 43 10 15 47 13 20
52 16 25 55 18 28 57 20 30 62 24 34 67 30 38
72 35 44 79 42 51 82 46 55 77 40 52 71 34 49
73 35 50 81 41 53 86 43 53 81 37 45 74 28 37
69 25 34 66 22 34 59 16 34 55 10 39 54 7 49
64 12 70 90 32 107 124 58 148 146 73 172 153 76 180
156 73 179 153 69 170 145 63 156 132 53 136 120 44 118
115 43 108 114 44 101 112 45 94 111 46 87 111 47 81
110 48 76 110 49 73 223 155 231 235 168 241 247 183 251
250 187 253 246 185 249 245 185 248 247 188 251 244 186 251
224 165 234 176 114 186 124 58 129 100 29 94 99 23 78
103 22 64 109 24 53 122 29 50 142 42 58 162 58 69
169 67 73 166 67 70 159 64 67 149 55 60 132 38 48
119 25 41 123 28 49 137 40 67 148 50 83 156 57 99
178 79 131 197 98 163 184 85 160 166 67 147 181 82 161
216 117 194 240 138 215 241 135 213 233 125 204 224 116 195
209 104 181 188 88 164 159 67 141 119 37 106 85 12 76
71 7 62 67 10 56 61 9 46 57 6 35 67 9 28
96 26 34 130 50 50 140 56 54 130 44 40 126 39 33
133 45 37 131 45 35 120 35 24 113 29 18 122 37 27
145 59 50 161 76 67 153 69 59 125 45 33 99 23 11
85 13 3 79 12 3 75 12 4 72 11 4 72 13 5
74 18 9 77 21 13 79 23 15 80 24 17 82 26 19
83 28 22 84 29 24 82 29 24 78 28 21 71 24 17
64 20 13 56 15 8 46 8 3 40 5 0 38 4 0
35 3 0 33 2 0 33 3 0 34 3 0 36 2 0
42 3 1 52 8 6 63 16 12 70 20 15 72 19 15
72 17 12 72 16 10 70 16 9 68 15 9 68 16 11
68 18 13 67 17 12 64 15 10 61 12 9 60 11 9
60 11 10 60 11 11 61 11 12 64 12 14 66 13 17
69 14 19 72 16 22 74 16 23 79 19 26 87 26 33
94 30 40 97 32 44 96 30 46 94 26 49 94 24 55
98 26 67 105 31 83 118 40 103 131 50 124 143 60 142
151 67 152 155 70 157 163 77 165 178 93 179 195 109 196
207 122 210 211 127 218 205 121 216 194 109 209 187 103 207
184 101 207 187 105 213 195 114 221 188 109 215 166 88 194
155 79 185 167 91 200 184 110 223 184 110 228 162 87 211
139 62 193 126 47 183 127 47 181 140 62 189 160 82 204
181 102 223 198 119 239 208 128 249 211 131 250 213 134 248
216 137 246 214 136 242 203 124 231 181 101 213 157 75 192
145 63 182 146 64 187 144 63 190 135 56 184 122 46 173
105 33 157 89 21 143 83 19 140 94 33 154 108 52 171
105 52 168 79 31 139 53 11 106 42 4 85 39 4 68
34 2 51 31 2 37 30 2 26 29 3 16 28 3 9
28 3 5 30 2 2 37 1 0 59 9 7 98 30 29
135 52 51 154 59 59 154 54 55 145 48 49 133 44 45
114 37 38 89 24 25 65 11 12 48 6 7 38 7 6
32 7 7 30 7 8 30 5 8 31 5 10 35 8 15
41 12 22 47 16 28 51 18 31 57 23 36 66 30 43
70 33 45 72 35 46 79 41 52 83 45 56 76 39 52
68 32 48 69 33 48 76 37 50 77 36 45 71 27 35
65 19 28 63 16 27 62 15 29 58 11 31 58 9 39
64 12 58 80 23 86 109 46 125 142 72 166 159 84 188
162 82 191 162 78 186 158 72 176 149 65 160 135 54 140
122 45 121 117 43 110 115 45 103 113 45 96 113 47 90
113 48 84 113 49 80 113 50 77 220 152 227 230 163 236
243 178 247 250 187 253 251 190 253 251 192 253 252 193 254
242 183 247 209 149 220 167 104 179 133 65 140 109 36 106
101 22 82 104 21 69 111 24 60 125 32 58 145 45 65
162 59 73 167 66 75 164 66 72 158 62 67 147 52 60
131 35 49 120 23 43 125 28 53 144 45 75 157 58 94
167 68 112 191 92 146 208 110 175 195 97 172 183 85 166
199 100 182 225 124 204 240 136 215 237 130 210 226 118 196
216 108 185 207 101 177 192 93 166 165 74 143 124 43 108
89 17 76 73 9 60 67 10 52 59 9 42 56 6 33
67 10 27 96 27 33 131 51 51 144 59 57 134 47 43
128 40 34 134 47 38 134 47 37 122 36 26 116 30 19
126 39 29 148 60 52 163 76 67 152 67 57 123 42 30
101 24 11 92 19 7 89 20 10 88 21 13 87 22 14
87 25 16 89 28 19 90 30 22 91 31 24 92 31 24
92 31 26 93 32 27 92 32 28 89 31 27 83 29 24
76 25 19 69 21 15 61 16 11 53 10 6 47 7 4
44 7 3 41 5 2 39 5 2 38 5 2 39 5 2
40 4 1 43 3 1 51 7 4 61 13 10 68 17 13
70 17 13 70 16 10 70 16 9 69 16 8 68 15 9
67 16 10 67 17 12 66 16 12 63 14 10 60 12 8
59 11 8 59 10 9 59 10 10 60 9 11 61 10 13
63 10 14 66 11 16 68 11 18 71 12 19 73 12 20
76 14 22 80 17 26 84 20 31 87 22 37 89 22 43
92 23 51 95 24 61 100 26 73 107 30 88 118 39 106
129 47 122 134 50 130 133 48 130 133 48 131 140 55 138
153 68 152 169 84 170 184 99 190 197 112 208 202 116 217
201 116 220 200 116 223 199 117 224 202 121 228 203 124 229
185 108 212 160 83 188 158 83 190 180 105 216 189 114 230
169 94 215 147 70 198 141 61 194 149 69 199 170 92 213
195 118 231 213 135 245 216 137 249 209 130 246 203 123 240
205 126 239 217 137 246 229 150 252 229 149 250 210 129 236
178 95 209 158 75 193 161 78 198 167 85 207 163 82 205
151 74 196 134 59 181 110 39 161 91 24 146 88 24 149
101 41 166 109 53 176 94 43 159 71 24 130 57 14 105
47 8 81 39 4 60 34 2 44 31 2 30 30 3 19
29 5 13 28 5 8 27 2 3 32 1 0 54 9 7
93 31 29 130 53 51 147 59 57 144 52 50 131 43 41
113 33 32 90 22 22 67 11 12 49 4 5 37 3 4
30 5 7 27 6 9 26 5 9 26 4 10 28 4 12
33 7 17 39 12 25 45 15 31 51 19 35 62 28 45
74 38 55 76 39 56 71 33 49 71 32 47 71 32 48
65 26 44 60 22 42 65 27 46 71 32 47 68 27 39
62 18 29 61 14 25 61 13 26 60 10 27 58 8 31
64 12 46 84 28 77 108 47 114 133 65 150 158 84 183
171 92 200 172 88 201 168 81 193 162 75 182 153 68 166
140 57 147 127 48 128 120 45 115 117 45 106 115 45 99
114 46 92 114 48 87 114 49 83 114 49 81 210 142 218
221 153 228 235 169 240 243 180 248 246 185 250 248 188 252
251 192 254 236 177 242 194 132 205 158 93 170 142 72 150
121 46 119 105 24 89 108 22 77 116 27 70 129 35 67
147 48 72 161 60 77 165 65 77 163 65 74 157 60 71
147 50 64 133 35 54 126 27 52 138 39 69 161 60 96
176 76 116 185 85 132 201 103 159 218 121 187 216 119 195
209 112 193 213 114 196 218 116 198 219 114 194 217 109 187
213 104 180 208 100 174 204 99 170 193 94 162 166 76 139
127 46 104 92 20 73 75 11 57 66 10 48 58 8 37
54 5 29 66 10 25 97 27 33 132 52 52 148 63 60
139 51 48 131 42 36 136 47 39 136 48 39 125 37 27
118 30 20 128 40 30 151 62 53 165 77 68 151 65 55
122 39 27 104 25 12 101 26 14 103 31 21 104 34 26
105 37 29 105 39 30 103 38 30 101 36 29 100 35 28
99 34 28 98 32 28 97 32 29 96 32 29 93 32 29
89 30 26 83 28 23 78 26 21 72 23 19 65 20 16
60 17 14 56 15 11 52 13 9 48 12 7 46 11 6
46 10 6 45 8 4 46 5 2 51 7 4 59 12 8
65 15 10 67 15 10 69 15 9 69 15 8 68 15 8
67 14 8 66 15 10 66 16 11 65 15 11 62 13 9
60 11 8 59 10 8 59 10 9 59 9 10 60 9 11
62 9 13 64 9 14 66 9 15 68 10 17 70 10 18
71 10 18 73 10 19 75 12 22 78 15 26 83 18 32
87 20 40 91 22 48 94 23 57 96 22 65 100 24 75
107 29 88 114 33 100 114 31 103 111 28 103 113 29 106
118 34 113 126 41 123 136 50 138 151 64 157 168 81 179
182 95 197 189 103 207 194 109 216 198 115 221 200 119 224
207 128 231 204 127 228 178 102 203 158 84 187 173 100 206
189 116 226 176 101 217 156 79 202 155 77 204 174 95 219
201 124 235 223 147 248 226 149 250 211 133 239 191 113 225
181 102 216 185 106 218 204 125 233 228 149 249 239 159 255
225 143 245 190 107 219 168 85 200 177 94 210 193 111 228
194 113 230 183 103 220 166 89 207 144 70 190 120 50 172
99 32 158 92 29 157 97 38 165 98 42 165 93 41 154
80 32 131 60 16 98 44 5 70 38 2 53 34 2 37
30 3 23 29 5 15 28 5 9 25 2 3 29 1 0
52 10 7 89 32 27 121 51 46 132 53 48 128 45 41
116 36 33 96 25 22 71 12 10 51 3 3 37 1 1
28 1 2 24 4 6 22 5 8 22 4 10 23 3 11
25 4 14 31 7 20 38 11 28 44 15 34 51 19 40
64 30 52 77 41 64 74 36 59 61 22 45 57 17 39
60 18 42 57 17 41 55 16 41 60 21 44 64 25 43
62 20 36 59 15 29 60 14 28 62 13 29 62 11 31
64 10 38 77 20 58 104 43 97 135 68 140 158 85 174
173 95 198 180 97 210 179 93 209 172 84 198 165 77 185
157 71 172 145 62 154 133 52 135 125 48 122 122 48 113
118 47 104 116 47 97 116 48 92 116 49 88 116 50 85
207 139 216 217 150 225 231 165 237 237 174 243 239 178 244
243 182 248 247 187 252 231 170 239 183 120 195 150 83 162
151 78 158 141 63 138 120 37 105 115 28 86 121 29 78
133 38 75 149 51 78 161 61 80 164 64 80 163 64 79
158 60 76 148 49 69 137 35 62 135 33 65 153 52 88
178 77 118 193 92 137 197 98 149 207 109 168 226 130 199
235 140 216 222 126 207 206 107 189 199 96 178 199 92 172
202 93 170 204 95 167 203 95 163 200 95 160 189 90 152
162 71 128 124 43 94 92 20 66 75 13 52 66 11 43
56 7 32 52 4 23 65 10 22 96 27 32 132 52 52
151 66 64 145 57 53 135 45 39 139 48 41 140 50 41
128 39 30 121 31 22 130 40 31 153 64 55 168 79 71
152 66 56 122 40 28 108 29 15 111 35 22 117 43 32
121 48 40 122 51 43 121 51 43 116 46 39 110 40 34
107 36 31 105 35 30 105 35 32 105 36 34 104 37 35
101 37 35 97 36 33 93 35 31 89 33 30 83 31 28
76 28 25 70 25 22 64 23 19 59 20 15 54 17 11
51 14 9 50 13 8 49 11 6 49 8 4 53 9 5
58 12 7 62 14 8 65 14 8 66 14 7 67 14 7
67 14 7 66 13 7 66 14 9 66 15 11 65 15 11
62 13 9 59 10 7 58 9 7 59 9 9 62 11 12
65 12 15 67 12 16 69 12 18 70 13 19 72 13 20
74 13 21 75 13 22 76 13 23 79 15 26 84 19 32
90 24 39 95 28 46 97 28 52 97 26 56 97 24 61
101 26 70 106 29 81 108 28 87 105 24 88 103 21 89
107 23 94 114 30 104 122 37 116 129 42 130 136 49 143
144 57 156 156 69 172 166 80 186 176 90 197 185 102 208
192 111 214 201 122 223 213 135 233 199 123 220 174 100 198
176 102 204 187 114 219 177 103 213 163 88 203 170 93 212
198 121 234 226 150 249 236 161 252 223 147 241 195 118 219
172 95 201 166 87 195 172 93 201 191 112 218 214 135 238
228 148 246 219 137 240 192 109 221 177 94 208 193 109 223
216 132 243 223 139 249 215 134 244 203 124 236 186 109 225
163 90 211 136 65 191 112 46 174 101 38 167 101 41 168
110 53 172 108 55 161 84 36 126 58 13 89 44 3 64
37 1 44 31 2 27 29 4 17 27 4 10 25 1 3
31 3 2 54 14 10 88 33 28 111 46 39 115 43 37
110 36 30 100 30 25 82 20 16 59 9 6 42 2 1
30 1 0 22 1 2 19 4 5 19 5 8 19 4 10
21 3 12 24 4 16 30 7 24 38 12 33 44 15 39
49 17 44 60 25 55 69 32 63 64 24 56 52 10 43
51 8 41 58 14 48 60 16 50 57 16 48 57 18 46
59 19 43 59 18 37 60 16 34 61 14 33 63 13 34
66 13 38 73 15 48 86 24 68 112 45 104 144 71 148
168 90 185 181 97 207 185 97 216 183 93 214 175 85 202
167 77 188 161 73 176 151 66 161 140 57 143 131 52 129
127 51 120 123 51 112 121 50 105 119 50 100 119 51 96
119 51 94 204 136 215 214 147 224 226 160 233 231 168 238
235 174 242 243 182 248 247 185 253 227 164 236 175 110 186
141 71 151 150 75 155 158 77 153 146 60 130 134 44 106
130 37 89 137 42 83 152 54 84 160 61 85 162 63 84
162 63 83 159 58 81 149 46 74 139 35 68 141 37 75
162 59 102 188 86 133 199 99 149 203 104 159 213 115 178
234 138 209 239 145 222 216 120 201 193 93 175 188 83 165
192 85 162 194 85 159 192 82 150 189 81 144 189 85 143
180 82 136 151 61 111 115 35 80 88 18 57 75 13 46
65 11 38 54 6 26 49 3 17 62 8 18 93 25 29
128 49 49 152 67 65 151 62 59 140 49 43 142 50 43
146 54 45 135 44 35 125 34 25 132 41 33 157 66 58
173 84 75 158 71 61 127 43 32 114 34 21 122 44 31
132 56 45 137 61 52 137 62 54 132 58 50 124 49 43
116 42 35 112 38 32 112 39 34 114 42 39 115 44 42
114 45 44 111 45 43 105 42 39 97 38 34 89 33 30
81 28 25 72 24 20 65 21 17 60 19 15 55 16 11
51 14 8 48 11 6 47 10 5 48 10 5 52 11 6
55 12 7 58 13 7 61 14 8 63 13 7 64 13 7
65 13 7 65 13 7 65 12 7 66 13 9 66 14 11
65 14 10 62 11 8 59 9 7 58 8 6 61 9 9
66 13 15 70 16 18 72 16 20 74 16 22 77 17 23
78 18 24 80 19 26 81 18 27 82 18 28 87 21 33
93 27 40 100 32 47 104 35 53 105 35 56 104 32 58
105 31 62 110 34 72 113 35 79 113 33 83 111 30 86
108 26 87 109 24 91 114 28 100 122 35 114 129 41 129
132 44 139 134 46 146 142 54 158 156 69 175 168 82 189
180 96 201 193 111 213 206 127 225 222 146 239 221 147 237
200 127 219 186 113 209 181 109 209 173 100 204 169 95 203
185 110 219 217 141 243 239 165 254 237 164 249 215 140 230
185 110 205 168 92 191 168 91 192 173 96 197 181 103 206
191 112 215 197 117 222 195 113 222 184 101 214 183 100 214
203 118 230 224 139 247 232 146 252 229 145 251 223 142 249
215 135 248 201 124 242 181 107 230 160 90 216 141 74 203
128 64 192 129 68 191 132 75 187 116 63 161 84 34 118
55 10 80 40 1 52 33 1 31 30 3 20 28 3 12
29 2 6 40 8 7 63 21 18 89 36 31 104 42 35
103 35 28 97 29 22 87 24 18 69 15 11 50 7 4
35 3 1 25 2 1 18 2 3 16 3 6 17 4 10
18 4 13 21 3 16 24 4 21 31 7 30 39 12 40
45 15 47 48 14 52 54 17 57 60 19 62 57 14 59
53 8 54 58 11 58 67 19 65 66 20 64 61 17 58
57 16 52 57 15 46 58 15 41 60 15 39 60 13 37
62 11 38 70 14 45 81 19 58 94 27 77 117 44 109
146 68 151 172 88 188 184 95 210 187 95 218 186 93 217
179 85 205 171 79 192 166 75 181 157 70 167 145 62 150
136 55 135 131 54 126 128 53 119 125 52 112 124 53 108
124 53 105 124 53 104 203 135 215 210 143 221 219 153 228
225 162 233 235 173 242 246 184 251 246 183 251 216 151 224
159 91 168 125 53 132 134 56 135 151 67 143 157 68 138
154 62 125 148 53 107 148 51 95 155 58 92 161 62 90
161 62 88 162 60 87 158 54 85 147 42 78 137 31 72
141 35 81 164 60 109 189 87 140 201 101 157 211 112 172
226 130 194 240 145 217 231 137 214 203 106 186 185 83 164
186 79 158 190 82 156 186 76 145 175 66 128 169 62 118
172 69 120 166 69 115 138 49 91 106 25 63 84 14 46
74 13 39 65 12 33 53 6 22 47 2 12 59 7 13
88 22 25 123 44 44 150 65 64 155 66 63 144 52 48
146 52 46 152 58 51 142 50 42 130 38 29 136 43 35
161 69 61 180 89 80 165 77 67 135 49 38 123 40 27
132 53 40 145 66 55 149 71 61 147 69 60 138 61 52
128 50 43 120 43 36 119 42 36 122 46 41 124 51 47
123 51 48 117 48 46 108 43 40 96 35 32 84 26 23
72 19 16 63 14 11 56 11 8 51 9 6 48 8 5
45 7 3 44 6 2 43 5 2 43 5 1 47 8 3
55 14 8 59 15 10 60 15 9 61 14 8 62 13 7
63 13 7 64 13 6 64 12 7 64 11 8 66 12 10
66 13 11 65 12 10 62 10 9 59 8 7 59 7 6
62 9 9 67 13 14 71 16 18 73 16 20 76 17 22
79 18 23 82 20 25 84 21 27 86 21 29 89 22 32
94 25 37 99 30 43 104 34 49 106 35 53 107 34 55
107 33 56 108 33 60 113 36 68 117 38 76 121 40 84
122 39 90 120 36 93 117 31 94 117 30 99 121 32 111
128 38 127 134 43 140 137 47 148 144 55 160 160 72 178
173 86 192 182 97 201 195 113 213 211 131 228 229 153 242
239 166 248 230 158 241 211 139 228 195 123 217 181 110 208
179 106 206 200 126 224 230 156 247 244 171 254 236 163 247
216 142 231 196 121 214 189 114 209 193 118 213 195 118 214
189 112 209 181 103 204 179 99 206 180 98 210 180 97 212
185 102 216 199 114 227 213 126 237 215 128 238 212 126 235
212 128 237 213 132 243 213 134 248 207 131 249 199 126 246
187 117 240 167 100 225 146 81 205 139 78 193 135 78 181
111 56 148 74 23 102 47 4 63 36 1 37 33 3 23
31 2 16 35 5 12 51 15 18 75 31 29 94 41 36
100 40 34 97 32 27 90 27 21 76 19 14 57 9 6
40 3 2 29 2 2 20 1 4 16 2 7 16 3 10
17 4 14 19 3 18 21 2 23 26 3 30 32 7 39
41 11 50 48 14 60 52 14 65 56 15 70 62 17 75
64 16 76 64 14 76 70 19 81 74 22 83 68 17 75
60 13 65 56 12 57 55 11 50 56 11 45 57 11 43
59 10 41 62 9 42 73 15 52 88 23 68 108 36 92
137 59 130 166 82 170 184 95 200 191 98 216 192 96 222
190 93 220 182 87 208 175 81 195 169 78 185 162 73 173
150 65 156 139 57 140 133 54 130 130 54 124 130 55 120
130 56 117 130 56 116 130 56 115 205 138 220 210 143 223
215 150 227 224 161 234 237 176 245 246 185 252 236 173 242
192 126 200 135 65 142 112 36 114 119 38 115 131 45 118
145 53 121 157 62 123 162 64 118 163 64 110 163 65 103
164 64 97 163 62 93 161 58 91 154 49 86 142 35 78
134 27 75 139 33 86 163 58 114 188 85 144 203 103 164
222 123 187 239 143 211 239 144 216 217 122 198 191 92 171
180 76 155 183 76 151 185 76 146 175 65 128 162 53 108
157 51 100 161 58 101 154 57 95 128 39 72 99 19 48
82 12 37 74 14 34 66 13 28 53 7 18 46 2 9
56 5 9 81 17 18 113 37 36 145 61 60 157 68 66
149 56 53 149 54 49 157 63 56 151 57 49 137 43 35
140 46 38 164 71 63 185 93 85 174 85 75 145 58 47
132 48 34 140 59 45 152 72 59 154 74 62 148 68 58
139 58 49 129 50 41 127 48 40 131 53 46 134 57 52
130 57 51 119 49 44 105 38 34 90 28 23 76 18 14
63 10 7 54 6 4 48 4 2 44 2 1 41 2 0
39 1 0 39 1 0 39 1 0 41 2 0 45 5 2
54 12 7 63 19 13 66 20 15 64 17 12 64 16 10
64 15 10 65 14 9 67 14 9 67 13 10 66 12 11
67 12 12 67 12 13 65 11 12 63 8 11 61 7 9
61 6 9 63 8 10 67 11 14 69 13 16 72 13 17
75 14 19 79 16 22 83 19 24 86 20 27 89 22 30
94 24 34 99 27 40 103 31 44 106 32 48 106 32 51
106 31 51 106 29 52 107 29 54 110 30 60 115 34 69
122 39 80 126 41 89 127 40 95 127 38 100 127 37 106
128 36 115 134 42 132 143 52 149 150 58 160 156 66 170
165 77 182 170 83 188 171 86 189 177 95 194 192 112 206
214 137 225 238 165 245 247 176 252 239 168 248 223 152 239
201 130 223 192 120 214 211 139 228 236 163 246 241 169 250
235 162 246 227 153 241 221 147 237 222 147 238 227 151 241
225 150 239 214 138 229 197 120 216 185 106 211 184 102 214
186 103 218 186 103 219 189 104 220 193 105 222 190 101 217
184 96 210 181 95 207 186 103 214 197 116 228 207 129 243
212 137 252 211 138 254 190 120 239 151 84 204 128 64 179
134 74 180 129 71 168 93 40 125 57 10 76 39 1 43
34 2 26 34 3 19 43 9 20 63 24 30 86 39 40
99 44 43 100 40 36 95 32 29 86 25 22 68 14 14
47 4 5 33 1 4 24 1 6 18 1 9 16 2 14
17 2 19 20 2 24 22 2 29 24 1 34 28 2 42
35 5 53 44 10 65 50 12 74 56 13 82 68 21 94
79 29 104 81 28 106 79 24 103 81 24 103 79 21 100
70 15 88 62 11 75 57 9 65 56 9 57 55 8 52
56 7 48 59 8 47 66 10 51 77 15 61 94 26 78
126 50 112 169 86 163 197 109 202 203 109 218 200 103 224
197 99 226 193 95 222 185 89 212 178 84 200 174 82 192
166 77 180 153 66 161 140 57 144 134 53 134 133 54 130
135 58 128 137 61 128 137 62 128 137 62 128 210 142 226
213 147 228 218 153 231 228 165 239 241 179 249 240 178 247
215 150 222 163 95 170 118 45 121 108 30 106 116 33 106
124 35 104 135 41 105 150 53 111 165 66 117 173 73 118
174 75 114 171 71 108 168 65 102 161 57 96 149 43 86
136 28 77 130 23 77 138 32 91 161 58 120 185 84 149
204 105 171 228 131 199 241 145 215 227 131 204 204 106 182
186 85 162 180 74 150 184 75 146 181 70 135 166 56 113
154 45 94 154 48 89 157 55 90 147 51 80 122 34 59
98 19 40 86 16 35 79 19 34 68 15 26 53 8 15
47 4 8 53 5 6 73 11 12 102 28 28 136 55 54
159 71 69 156 64 61 152 58 52 160 66 59 159 65 58
146 52 44 145 52 44 167 73 65 190 98 89 187 96 86
161 73 61 142 57 43 145 61 47 153 71 58 153 72 59
145 63 51 136 54 43 132 50 40 136 55 46 142 63 55
138 62 55 123 51 44 102 35 29 84 21 16 70 12 8
60 6 3 51 3 1 47 2 0 44 2 0 42 1 0
40 0 0 39 0 0 40 2 1 43 4 3 50 7 5
59 14 10 70 23 18 76 28 23 77 27 22 74 23 19
73 21 17 74 21 17 75 21 18 77 22 19 76 20 20
74 17 20 71 15 20 69 13 18 67 10 16 65 8 14
64 8 13 65 8 13 66 10 14 69 11 16 70 11 16
72 11 16 75 12 18 80 15 22 85 18 26 89 21 29
93 24 32 99 27 38 104 29 43 107 31 47 110 33 51
111 33 53 111 33 55 111 31 56 111 30 58 112 29 60
115 30 66 120 33 76 125 36 86 127 36 93 130 38 102
133 40 111 135 40 121 139 45 136 148 55 152 154 62 164
157 66 170 159 69 175 157 70 175 152 67 169 153 71 169
168 88 181 194 117 204 223 148 230 240 168 244 242 171 248
233 161 245 212 141 230 205 134 223 223 151 235 237 165 244
236 164 244 231 159 243 227 153 242 223 148 239 226 151 241
234 159 247 240 165 250 236 160 246 218 142 233 198 120 222
191 110 221 192 109 226 191 107 226 189 103 223 187 97 220
180 90 211 171 82 199 164 77 190 168 84 193 185 104 212
206 126 236 218 141 251 216 141 253 192 120 235 144 75 192
113 47 160 123 61 167 132 73 173 105 49 139 65 16 87
42 2 47 35 1 28 37 4 23 51 15 28 73 31 39
92 43 47 101 45 46 100 39 39 93 31 31 80 22 24
62 12 16 44 3 11 31 0 11 23 0 15 19 1 20
19 1 26 22 1 33 26 1 40 29 2 47 32 3 55
38 5 64 45 8 76 53 12 88 60 15 98 71 22 111
92 39 133 108 52 148 107 48 145 100 39 137 99 36 134
96 34 129 90 30 118 82 28 104 75 24 90 71 21 80
64 14 69 58 7 59 62 8 58 71 12 63 81 16 70
98 26 85 138 59 127 191 105 187 218 126 223 215 119 230
207 108 230 201 102 229 195 96 224 187 90 214 182 87 206
178 86 199 170 80 186 154 67 166 142 57 148 138 56 141
137 58 137 139 61 136 141 64 137 142 66 138 142 66 138
217 151 234 220 155 236 225 161 239 235 171 246 241 179 250
227 163 235 184 118 192 136 66 141 111 36 112 113 33 107
122 36 106 128 37 102 138 43 102 154 56 109 171 70 119
181 80 124 183 82 123 178 76 117 171 67 109 161 55 100
148 41 90 136 28 82 131 24 84 139 35 99 161 59 127
182 83 152 204 106 177 231 135 205 236 140 212 216 118 191
200 100 174 191 88 162 185 78 149 186 76 143 181 70 129
165 54 105 155 46 88 157 51 84 157 55 82 143 48 69
118 31 49 100 22 37 95 25 38 89 29 39 73 22 28
55 10 14 46 5 6 50 3 3 67 9 8 94 24 23
127 49 47 156 71 68 164 74 70 160 66 60 162 68 61
165 71 63 156 62 54 154 60 52 171 77 69 195 102 93
200 108 98 179 89 77 154 66 53 146 61 46 151 68 52
151 68 53 141 58 45 134 50 38 136 52 41 143 61 51
142 63 54 129 52 45 106 35 28 84 19 13 68 9 4
58 5 1 52 3 0 47 2 0 44 3 0 43 3 0
42 2 0 41 1 0 43 2 1 52 8 5 63 17 14
74 24 21 83 30 26 89 34 30 90 35 31 88 32 29
87 29 27 86 28 26 87 29 27 89 30 28 90 31 30
88 28 31 82 23 30 77 19 28 73 15 25 70 12 22
68 10 20 67 10 19 68 10 19 69 11 19 71 11 20
72 11 19 73 10 19 77 12 21 82 15 25 88 19 29
92 22 33 97 25 37 103 27 42 107 29 46 110 31 50
115 34 56 119 37 62 122 39 66 123 39 69 123 38 72
124 37 74 124 35 76 125 34 82 128 36 90 131 36 97
133 37 105 135 38 113 135 38 121 136 41 132 141 47 144
145 52 153 148 55 159 153 62 168 158 70 174 156 70 172
155 72 169 168 87 180 189 111 198 207 132 215 218 145 226
224 152 234 219 147 233 205 134 223 208 138 224 230 159 239
240 169 245 235 164 243 226 153 238 210 135 226 194 119 213
196 121 214 217 142 231 238 164 247 246 171 252 234 158 245
211 133 232 196 115 225 194 111 229 195 111 232 195 109 233
193 104 230 188 97 221 178 89 207 174 87 200 186 101 208
205 123 226 221 141 244 224 146 251 209 134 242 175 102 214
127 57 170 98 31 141 107 44 149 119 59 159 102 46 137
68 19 91 44 4 51 36 3 30 40 6 25 55 17 31
76 32 41 92 41 46 98 41 44 96 36 38 89 29 33
78 21 29 62 12 25 45 4 22 32 1 22 24 0 27
23 1 34 25 1 43 30 0 52 35 1 62 42 5 72
49 10 84 57 15 97 67 21 111 75 25 123 83 29 133
98 41 150 120 60 173 133 71 185 128 64 179 119 52 167
115 48 162 115 47 158 111 47 149 107 48 137 107 52 130
102 49 119 86 32 98 73 19 81 72 14 74 77 15 75
85 17 80 101 26 93 140 58 133 189 101 187 217 124 223
220 123 235 212 113 234 203 103 230 194 95 222 187 90 215
183 88 211 179 86 204 167 77 188 152 64 168 143 57 154
142 59 148 142 62 145 143 65 143 145 67 144 146 69 145
146 70 147 229 163 245 232 167 246 237 173 249 242 179 252
240 176 248 210 145 218 156 88 164 118 46 122 111 35 110
120 38 111 128 40 109 134 41 104 145 48 105 163 63 114
180 77 124 187 84 128 186 83 126 179 75 119 171 66 111
163 56 105 155 46 100 148 40 99 143 37 102 148 46 115
164 66 138 183 87 160 209 115 189 235 142 215 232 137 209
210 111 184 201 98 171 196 90 161 189 80 146 190 79 138
185 74 126 171 60 103 162 54 87 162 57 82 157 56 75
139 44 59 116 29 41 104 26 36 105 35 43 99 39 46
79 28 32 56 12 14 44 4 4 46 2 1 61 7 5
86 21 18 116 42 39 148 67 63 170 83 78 170 78 72
166 72 65 168 74 67 164 70 62 160 66 58 171 77 69
194 100 92 205 112 102 191 99 88 165 76 62 150 63 47
149 65 48 147 63 48 139 54 39 134 48 35 141 56 44
147 63 53 134 53 44 111 35 26 90 20 12 75 11 4
64 6 1 56 5 1 50 5 0 46 5 0 43 4 0
42 3 0 42 2 0 44 1 0 52 6 4 70 19 17
90 35 32 103 44 42 108 45 44 106 41 40 101 36 35
98 33 32 97 33 33 98 34 34 99 36 36 100 37 37
99 36 38 95 33 38 88 27 37 82 22 35 78 18 32
73 14 28 70 11 25 69 10 24 69 10 24 71 11 24
73 12 25 75 12 26 78 13 27 81 14 29 85 16 31
89 18 34 92 20 36 97 22 40 103 24 44 107 26 48
112 29 54 118 34 62 125 40 72 130 44 79 132 44 83
133 44 86 136 46 91 139 47 96 140 46 101 142 46 107
145 48 115 147 48 121 146 45 125 141 42 128 138 42 133
140 45 141 143 48 148 146 52 155 156 64 169 170 80 184
176 89 190 177 93 190 184 103 195 197 119 206 207 132 216
213 140 223 218 145 231 211 139 227 196 125 215 203 133 219
231 161 240 244 174 249 235 164 243 215 143 229 189 115 208
170 94 192 172 96 194 199 124 216 233 158 242 250 176 253
245 170 252 224 146 241 201 120 230 195 111 230 198 113 237
200 114 240 200 111 237 197 107 230 192 104 221 198 112 222
217 133 235 233 152 247 234 155 251 219 141 243 189 114 221
149 76 185 107 37 146 85 17 125 92 28 131 101 41 139
91 35 124 67 18 88 46 7 52 39 5 31 41 7 25
54 16 28 71 27 35 84 33 38 88 32 37 88 29 34
84 26 35 76 21 36 63 13 35 47 5 34 35 1 36
30 1 43 32 2 53 37 3 66 45 4 80 53 7 92
62 13 104 73 23 119 84 32 135 94 38 148 99 40 156
104 42 164 114 49 175 126 59 188 131 63 192 124 55 183
114 43 170 108 37 163 107 36 159 107 39 152 110 47 147
119 60 149 124 66 147 116 59 135 103 44 117 90 29 100
86 20 91 90 19 91 104 28 103 137 55 135 176 87 178
203 110 211 215 120 231 213 115 234 203 105 227 193 95 220
186 89 216 184 89 214 179 85 207 165 74 189 150 62 170
143 58 158 142 60 152 143 64 149 147 69 150 153 76 155
161 84 164 167 89 170 236 172 249 242 178 252 247 184 254
247 185 254 235 171 243 194 128 202 139 69 147 112 39 117
115 37 113 125 41 115 134 43 112 140 44 107 149 50 106
165 63 114 182 78 126 191 86 131 189 83 129 183 77 124
178 70 120 174 65 118 171 63 121 170 62 126 166 63 131
166 67 140 175 80 156 195 103 179 223 133 209 240 150 225
229 134 207 208 108 181 200 95 167 193 84 152 189 78 138
191 79 131 186 75 120 174 64 100 167 59 85 164 59 78
154 54 67 133 40 48 114 27 34 108 30 35 111 41 46
104 44 48 80 30 32 55 12 12 41 2 2 42 1 0
54 4 2 75 14 11 103 33 29 137 60 55 168 83 77
177 87 80 173 80 73 171 77 70 169 75 67 164 69 62
168 73 65 183 89 80 197 102 92 193 100 88 176 85 70
161 73 56 156 70 53 151 66 48 143 56 41 141 54 40
152 64 52 151 65 55 127 44 34 98 20 12 82 11 3
74 9 1 68 11 3 62 11 3 55 11 2 50 10 2
46 9 1 44 5 1 45 3 0 51 5 3 67 16 14
92 34 33 113 50 49 124 57 57 125 53 54 119 46 46
112 39 39 109 37 38 110 39 40 111 42 44 112 44 46
111 44 46 107 42 45 102 38 46 96 33 47 90 29 46
85 24 42 80 19 37 75 15 34 73 13 32 73 12 31
74 12 31 77 14 33 81 16 36 84 17 38 86 17 38
87 16 38 89 16 39 93 17 42 98 19 45 103 21 48
108 24 53 114 29 61 124 38 74 135 47 87 142 53 98
146 55 104 148 56 108 154 60 116 160 64 124 160 62 127
158 59 129 160 60 134 161 60 140 160 58 142 157 56 144
155 57 148 157 61 156 160 65 164 163 69 171 169 77 180
181 91 194 192 104 204 196 111 208 198 116 208 206 127 215
215 138 224 221 146 231 223 149 236 213 140 230 196 124 216
202 131 219 232 162 242 245 175 250 229 158 238 201 128 216
177 102 198 166 89 190 167 91 190 191 115 209 230 155 239
251 177 254 248 173 254 228 150 245 203 121 232 194 110 230
197 112 237 199 113 238 199 112 234 202 114 232 208 121 233
219 134 240 233 151 249 239 159 253 227 148 245 199 122 225
165 89 196 128 55 164 95 24 133 79 12 117 85 22 122
91 32 125 81 26 110 62 14 79 48 8 49 42 8 31
43 8 23 52 13 22 65 20 26 75 25 29 79 24 29
80 22 30 79 21 36 74 18 41 64 12 45 54 7 51
49 6 59 50 9 71 55 13 85 64 17 101 76 22 118
86 28 132 96 36 145 108 47 160 118 55 173 122 57 180
119 52 180 116 46 179 118 46 181 121 49 185 121 47 183
114 40 175 105 30 163 98 22 154 93 19 148 93 22 143
102 34 144 117 53 153 134 71 164 138 75 163 122 58 142
100 34 116 89 21 101 90 18 98 107 30 111 142 59 145
176 89 182 198 107 209 209 115 224 209 113 229 202 106 225
193 97 219 186 90 216 184 89 215 180 86 210 167 76 194
154 66 177 148 63 166 147 65 159 153 74 161 164 86 169
177 100 182 192 114 198 202 125 209 233 170 243 244 181 251
251 190 255 248 187 253 226 162 234 176 110 186 128 58 137
114 39 119 121 40 119 129 43 118 138 45 115 144 46 110
149 48 106 161 57 110 180 73 123 195 88 136 200 92 140
199 90 140 197 87 139 194 84 141 192 83 146 190 84 151
187 85 157 186 90 164 196 105 182 218 130 208 237 149 227
236 146 222 220 124 199 206 104 177 198 91 162 189 78 142
186 74 128 188 76 121 183 71 109 172 62 91 164 57 78
159 55 68 147 47 54 128 34 38 113 26 29 110 31 34
111 41 44 101 41 43 77 26 27 51 9 9 39 1 1
40 0 0 48 1 1 64 8 6 90 25 21 123 48 43
155 73 66 175 87 79 177 86 78 174 81 73 171 77 69
166 71 64 164 68 61 169 73 65 178 83 73 183 88 76
180 87 72 173 83 67 167 80 62 161 75 56 157 69 53
161 72 57 170 81 68 163 75 64 132 46 37 99 19 12
83 9 2 77 10 2 73 15 5 68 17 7 62 17 7
56 16 6 52 14 5 49 9 3 52 7 3 65 15 12
89 33 31 115 53 52 132 62 63 138 63 64 137 58 60
132 51 53 127 47 49 127 48 50 128 52 54 129 55 58
127 57 59 122 54 57 116 49 54 108 44 53 102 39 56
98 36 57 94 32 55 90 28 52 88 26 50 88 26 50
89 26 51 89 25 51 89 24 51 92 25 52 94 24 53
94 21 52 92 18 50 93 17 50 98 19 53 103 22 56
107 23 58 112 26 63 121 35 74 134 46 90 147 58 107
158 67 121 165 72 131 170 75 138 176 79 147 180 82 153
179 79 154 175 74 153 173 70 153 171 68 154 173 69 158
178 76 166 184 85 176 189 93 187 193 97 195 193 98 199
192 99 201 193 102 205 194 105 205 191 105 202 187 105 197
190 111 200 199 122 209 206 130 217 206 132 220 199 126 217
188 116 210 197 126 216 228 156 239 240 169 248 222 150 234
196 123 214 176 101 199 168 91 193 170 94 194 194 118 212
232 156 241 249 174 254 241 165 252 220 142 242 198 116 229
190 106 227 190 106 229 190 106 226 195 110 225 208 124 233
222 138 243 229 146 248 231 150 248 225 145 243 205 126 227
177 100 205 149 74 183 119 47 157 90 21 129 78 12 116
86 24 121 91 33 121 77 24 102 59 11 71 50 9 46
46 9 29 45 8 20 50 9 17 59 14 18 68 17 21
73 17 23 75 16 29 77 17 38 73 16 47 69 13 58
69 14 73 75 21 94 86 31 116 97 40 134 109 47 150
122 55 166 133 64 180 144 74 192 154 83 204 160 88 213
156 84 212 142 68 200 129 54 188 127 50 186 128 51 187
126 49 184 120 43 177 112 35 168 104 27 158 95 19 148
90 16 141 99 29 145 122 54 163 141 74 177 141 74 172
121 53 147 98 29 120 87 17 105 90 16 103 111 32 119
154 72 162 197 112 206 213 124 225 210 119 227 206 113 225
201 108 222 195 101 219 188 94 216 185 91 215 182 89 212
175 84 202 167 79 190 164 80 183 168 87 182 182 103 192
200 122 207 209 133 218 214 138 225 217 141 230 226 163 232
241 179 245 252 192 254 247 186 249 214 151 221 160 93 169
121 50 130 116 39 122 125 42 124 133 44 122 141 46 118
147 46 113 150 46 106 158 52 108 177 69 122 199 90 141
214 104 154 218 107 159 217 105 160 213 102 161 206 97 162
199 95 164 195 97 169 201 108 184 220 133 211 239 155 233
237 152 230 219 129 206 204 108 183 200 96 169 196 86 155
189 75 137 186 72 122 184 71 111 177 66 98 167 58 81
159 52 67 151 48 55 139 39 42 124 29 30 114 27 27
110 32 32 107 38 39 95 35 35 72 22 21 49 8 6
38 1 1 39 1 0 44 1 0 55 4 3 78 16 12
106 34 29 135 55 48 161 75 68 174 84 77 175 83 75
173 79 71 168 74 66 162 66 58 158 61 52 159 62 52
165 69 57 170 75 62 170 78 63 167 78 60 165 78 59
168 79 62 178 87 73 189 97 84 184 93 82 157 70 60
124 41 33 96 20 12 82 13 5 77 17 7 75 22 12
71 23 14 65 22 14 60 19 11 56 14 7 60 13 9
79 25 23 108 49 48 135 68 68 146 71 73 148 67 70
147 63 66 144 58 62 142 57 59 142 59 62 143 63 66
142 67 69 137 66 69 129 60 64 117 52 57 107 43 53
98 35 54 95 32 57 95 32 59 97 34 61 100 37 65
105 41 71 110 45 76 112 46 78 112 45 78 114 45 80
115 43 80 111 37 75 105 28 68 101 23 65 104 23 66
108 25 68 111 26 69 116 30 74 125 37 85 137 48 100
150 60 118 164 71 135 175 81 150 184 87 161 189 91 169
193 94 175 198 96 181 201 98 185 199 95 186 197 92 184
199 95 188 207 105 197 214 115 207 215 118 211 209 113 209
199 104 203 191 97 199 184 93 195 173 84 184 160 74 170
153 70 162 155 75 164 166 89 177 175 100 188 175 100 191
171 98 191 168 96 192 178 107 200 209 137 224 228 156 241
222 149 238 206 131 226 189 113 213 181 104 206 187 110 210
209 133 227 235 159 246 241 165 252 227 150 244 205 125 231
188 105 221 182 98 220 182 98 219 186 103 218 200 118 224
221 139 239 235 153 249 232 151 247 219 139 236 201 122 222
182 103 207 165 87 196 147 71 183 119 46 160 89 20 130
81 17 120 96 35 129 97 40 125 77 25 97 58 11 65
51 9 41 49 9 26 48 8 17 52 8 13 58 10 13
65 12 16 69 12 19 72 12 27 76 14 41 76 15 55
77 17 72 86 26 98 103 40 129 124 57 160 141 71 184
154 81 199 166 90 209 177 99 219 185 107 228 192 113 237
196 118 243 192 113 239 172 93 221 151 71 201 144 64 194
148 68 198 149 69 199 143 63 192 133 54 183 122 44 172
109 31 158 96 20 145 100 28 148 124 53 169 141 71 182
142 72 178 131 60 162 109 37 136 93 20 116 93 18 111
113 34 126 162 80 173 215 131 225 231 145 243 220 131 236
209 119 227 204 112 223 199 107 221 194 101 219 190 98 218
189 98 217 186 97 212 184 97 206 188 105 206 200 120 214
215 137 226 223 146 233 216 140 228 203 127 218 194 117 211
223 161 225 239 179 241 252 194 253 245 186 247 206 143 212
152 85 160 121 49 130 122 43 127 131 46 130 138 47 128
145 47 123 149 46 116 151 46 110 160 53 113 178 69 127
202 91 146 221 108 163 228 115 170 227 114 173 222 111 173
211 103 170 201 98 169 200 104 177 214 124 200 238 155 232
246 166 243 228 144 222 203 113 191 192 94 169 192 86 159
192 79 148 189 73 132 186 71 117 180 67 102 172 60 87
161 53 72 152 46 57 142 39 44 130 31 32 121 27 26
115 28 26 110 31 30 103 33 32 90 29 28 70 19 17
50 8 6 39 2 1 39 1 0 43 2 0 50 3 1
67 9 5 90 22 16 115 38 32 142 58 51 165 77 69
177 86 78 177 85 77 173 78 70 165 69 61 154 57 48
148 51 40 148 52 40 152 57 43 153 61 45 153 64 46
157 68 50 166 76 58 179 86 71 193 99 87 200 107 96
191 101 91 161 76 67 121 42 34 94 23 14 85 22 13
84 28 19 83 33 25 78 32 24 70 26 19 63 18 12
63 15 10 82 28 25 115 54 53 142 73 74 152 75 78
154 70 74 154 66 70 151 62 66 148 60 64 147 63 66
147 68 70 145 70 72 138 67 70 125 58 61 110 47 50
97 35 45 89 26 45 86 23 49 88 24 53 92 28 57
98 34 65 105 40 73 112 46 81 116 50 85 121 53 91
129 58 99 135 61 105 133 57 103 124 45 93 116 35 85
112 30 81 114 29 80 117 31 81 123 35 86 130 41 96
140 49 110 153 62 128 171 77 149 190 94 171 202 104 187
207 108 194 211 111 200 219 117 208 224 120 215 224 120 216
224 119 216 227 122 218 227 123 218 220 119 212 210 112 204
195 98 193 176 81 178 164 70 170 156 64 165 146 57 156
135 49 144 127 44 136 128 48 137 139 62 150 147 72 161
146 72 163 146 72 167 149 77 174 158 86 181 181 109 200
209 136 226 221 148 241 216 142 240 206 130 233 202 125 230
209 133 234 222 146 242 231 155 247 229 153 246 211 133 234
188 108 219 176 94 213 174 91 214 178 95 215 193 112 221
218 138 235 238 159 248 244 166 252 231 152 242 204 125 220
179 100 200 166 88 194 161 83 195 147 71 187 118 45 161
89 20 131 91 27 129 113 53 145 105 50 130 75 23 90
58 9 58 55 9 37 56 11 25 58 12 19 61 13 17
66 14 16 70 14 17 71 12 21 73 11 29 76 12 43
78 15 61 84 20 84 98 32 114 120 49 149 145 69 185
168 87 212 183 99 227 192 108 231 199 115 234 201 118 237
203 120 240 211 127 247 215 132 250 201 118 239 176 93 215
162 80 202 172 90 212 182 101 223 178 98 220 168 89 211
157 78 200 141 62 184 122 45 166 116 41 162 130 57 177
145 73 188 150 78 189 145 72 179 123 49 153 103 28 130
99 23 122 114 36 132 157 77 171 208 128 221 232 149 246
228 143 244 218 132 236 212 125 230 208 119 227 202 114 225
200 111 225 200 112 225 199 112 222 198 114 219 206 125 224
223 144 237 230 152 242 219 142 231 199 122 214 179 102 198
167 90 188 229 171 231 241 186 243 252 199 253 245 189 247
209 147 216 163 95 172 137 64 146 135 55 141 140 53 140
146 52 138 150 52 134 153 49 127 156 49 121 165 56 125
180 70 137 200 88 154 218 105 171 227 113 179 228 115 182
223 113 181 212 106 176 203 102 174 206 113 186 225 139 213
244 165 240 242 161 239 219 131 211 197 102 182 188 85 162
188 78 151 189 75 141 187 71 127 182 66 108 173 60 90
164 53 76 154 47 63 143 40 49 131 32 35 123 26 26
119 26 25 120 32 30 117 36 34 111 37 35 99 34 32
81 25 22 60 13 9 46 4 2 41 2 0 44 3 0
48 2 1 58 4 2 76 14 8 100 28 21 124 45 37
150 64 56 171 82 74 181 88 81 179 84 78 171 75 68
160 63 55 150 53 43 143 48 35 139 45 30 137 45 28
137 48 30 143 54 36 153 62 45 166 73 58 183 90 76
202 110 97 211 121 110 192 106 95 148 68 57 112 38 28
97 30 20 96 35 26 97 41 33 90 39 31 77 28 21
64 16 11 60 11 7 75 22 19 107 46 45 137 68 69
152 74 76 154 70 73 152 64 67 149 60 62 148 60 61
148 64 65 148 68 69 143 68 68 132 61 62 115 50 50
99 37 38 87 26 33 81 20 36 80 18 41 80 17 44
82 19 47 86 21 52 90 25 58 94 29 63 99 33 68
108 39 78 121 49 92 133 58 105 138 60 112 136 56 111
134 51 109 135 49 109 138 51 111 142 53 114 147 58 120
155 65 130 163 72 142 177 83 159 196 101 181 213 116 201
222 123 212 222 122 215 223 121 217 223 119 217 218 113 212
215 110 209 222 116 216 226 120 219 217 111 208 201 97 192
190 88 181 179 79 172 165 67 161 152 57 152 143 51 146
136 48 141 128 43 133 117 36 124 112 33 119 115 40 125
121 47 135 121 48 139 125 52 146 133 61 159 142 70 167
156 83 180 182 108 206 205 129 231 212 136 242 211 134 244
211 134 244 216 138 247 219 142 247 216 140 242 209 132 236
190 112 223 171 92 209 166 85 208 169 88 212 181 100 219
206 126 233 233 155 247 248 172 253 244 169 250 219 141 230
186 107 204 164 86 189 158 80 189 156 79 192 141 66 181
110 38 152 87 19 126 101 37 134 125 65 150 110 53 126
74 20 80 60 7 51 64 11 37 71 17 30 78 21 30
83 24 30 85 24 28 86 22 27 83 18 29 79 13 34
77 11 46 80 13 67 88 20 93 103 32 123 127 51 159
156 74 194 180 93 221 195 106 233 201 113 234 198 112 227
191 105 220 191 105 220 204 118 233 218 134 247 216 132 246
194 111 226 178 95 211 193 111 225 212 130 243 211 130 244
204 124 239 198 119 233 188 109 222 172 94 208 159 82 199
156 81 199 157 83 199 156 82 195 145 71 181 122 47 155
105 31 135 104 30 130 118 44 139 153 78 170 196 121 212
226 149 240 235 156 249 232 152 246 226 146 241 219 138 235
212 132 230 211 130 229 210 129 229 207 127 226 208 129 225
219 142 235 233 157 247 228 152 243 206 130 222 185 109 204
171 93 193 162 84 187 238 185 243 244 193 249 252 201 254
247 191 249 223 160 230 193 124 203 174 99 183 164 82 171
159 71 162 159 65 155 160 61 150 161 57 143 164 57 140
171 62 143 181 70 150 195 82 162 212 99 179 222 110 190
224 114 193 221 115 191 211 110 184 205 109 182 213 124 196
231 148 221 240 161 236 230 145 224 210 115 198 197 92 175
192 79 159 190 74 147 189 73 136 185 70 121 176 61 98
164 51 78 155 46 66 147 43 58 136 36 45 125 28 33
121 27 28 125 34 33 134 45 43 137 53 50 134 56 53
124 52 49 104 40 35 79 23 17 57 9 4 46 2 0
44 2 1 45 2 1 51 3 1 66 10 5 88 23 15
110 36 28 130 49 41 152 65 58 172 81 75 180 86 81
177 81 76 170 73 66 161 65 55 150 56 43 140 48 31
132 43 25 130 41 23 131 42 26 139 48 32 151 59 44
169 77 62 193 102 87 213 124 109 208 122 108 172 90 77
131 54 42 109 37 26 105 38 29 104 42 33 93 36 28
76 22 16 60 9 6 54 5 3 66 14 12 93 33 31
125 56 56 148 70 71 152 67 68 146 58 58 143 54 54
145 58 57 149 65 64 149 68 67 140 64 62 123 53 51
105 40 37 88 28 26 78 20 23 76 17 27 75 16 32
75 14 35 75 14 39 77 15 42 80 17 46 83 19 49
88 21 54 96 27 63 107 34 76 116 40 90 125 46 101
133 51 112 144 59 124 157 69 138 166 76 147 172 82 154
185 94 167 196 105 180 200 107 186 204 110 193 213 116 203
215 116 207 210 109 203 206 104 201 206 103 201 201 96 196
191 85 185 192 85 185 206 98 199 211 102 202 199 89 188
187 78 173 181 73 165 176 70 161 170 68 157 162 63 151
150 57 142 139 50 133 126 42 123 111 30 111 99 22 103
99 25 106 106 33 118 112 39 128 115 43 135 122 50 145
131 58 157 142 67 171 157 80 189 174 96 208 187 108 223
193 114 232 195 117 235 198 120 239 198 120 238 189 111 230
177 100 219 164 85 207 155 77 201 157 79 204 167 90 214
188 110 229 214 137 244 235 159 251 244 169 252 230 155 239
194 117 211 166 88 189 156 77 184 153 75 186 146 70 183
125 52 164 97 27 134 88 21 119 107 43 130 122 61 136
103 44 108 75 18 71 71 12 51 81 18 42 93 27 41
105 35 46 111 39 48 112 38 44 108 34 41 100 27 39
89 17 41 82 11 52 83 13 73 90 19 100 105 32 130
134 56 167 169 85 205 194 106 228 205 116 236 203 115 229
188 101 212 174 87 198 175 88 199 190 104 215 206 121 232
212 127 239 200 116 228 190 106 218 206 123 233 224 142 249
222 142 249 219 139 247 219 140 246 218 140 244 215 137 242
204 126 235 183 106 219 165 91 204 161 87 199 148 74 184
120 47 155 104 33 136 109 39 137 131 62 154 166 98 185
203 135 219 231 162 243 244 175 252 244 174 252 238 168 248
229 160 241 223 154 234 222 153 233 220 151 232 218 148 230
222 152 235 231 160 244 234 162 249 221 148 239 200 126 222
185 109 209 174 97 201 166 88 195 232 181 241 240 189 247
248 196 252 241 183 246 219 155 228 202 133 213 199 123 209
198 116 206 192 104 197 183 90 183 175 78 171 171 70 161
173 69 158 178 72 159 182 74 161 189 81 168 205 96 184
217 109 197 219 115 200 216 116 197 210 115 191 211 122 194
224 140 211 233 151 224 226 142 218 212 120 201 201 99 184
197 85 170 197 78 158 194 75 146 189 73 132 184 69 115
173 58 92 159 46 71 149 41 60 143 40 54 132 35 44
125 31 36 129 37 38 141 50 49 154 65 62 162 74 71
157 74 70 140 62 57 115 45 39 90 28 20 69 13 6
53 4 1 45 1 0 44 1 1 48 2 0 59 6 3
77 16 10 96 27 20 112 35 29 130 47 41 154 64 61
172 79 76 179 84 80 177 81 75 170 76 66 164 71 56
155 64 46 144 54 36 133 44 27 126 36 21 128 37 22
139 47 33 157 65 50 180 89 73 204 115 98 210 123 107
186 103 87 148 68 54 119 44 32 108 37 27 102 36 27
90 27 19 72 13 8 57 4 2 51 3 1 59 8 6
79 21 19 111 43 42 138 62 61 145 63 62 139 53 51
136 49 47 141 56 53 148 65 62 148 67 64 137 60 56
117 46 42 96 31 28 80 20 17 72 14 15 71 13 20
71 13 26 72 13 30 73 13 34 75 14 38 78 17 42
82 19 46 86 20 50 92 23 57 99 27 68 108 32 81
117 37 94 125 42 106 138 52 122 154 65 138 166 75 152
182 90 168 204 111 191 216 122 204 210 115 200 202 106 193
199 100 190 193 92 184 183 81 175 181 78 173 187 81 178
186 79 177 183 75 173 190 81 179 202 91 189 200 88 186
190 77 172 185 71 162 183 69 157 180 69 153 177 70 152
171 69 147 158 62 137 144 53 125 128 42 113 110 27 100
96 18 92 96 20 96 104 31 111 112 39 123 113 40 128
114 41 133 122 48 147 137 60 167 147 69 183 152 73 190
155 76 196 159 80 201 164 85 209 169 89 216 167 87 215
158 79 207 149 70 199 144 65 194 144 66 194 152 75 201
171 94 219 194 118 239 213 137 247 227 152 248 233 157 245
208 132 223 170 93 191 152 75 178 151 73 182 149 72 183
134 59 169 108 36 143 93 24 124 100 33 124 115 50 130
113 50 118 93 30 89 81 18 68 88 21 59 101 28 52
116 39 54 133 51 64 141 56 68 139 53 63 131 47 57
119 37 53 105 26 53 94 17 62 90 15 81 95 19 106
111 34 137 145 65 178 184 100 217 209 123 239 216 129 241
206 119 228 187 101 208 176 90 197 177 91 198 182 97 204
188 103 211 194 110 219 194 110 221 193 109 221 204 120 231
213 131 239 211 130 236 209 129 232 213 134 234 221 144 241
229 151 249 221 143 246 194 116 225 171 95 205 168 94 203
156 84 191 129 58 163 114 46 146 125 59 153 157 93 179
194 132 211 225 164 237 244 184 251 251 191 255 249 190 254
242 184 250 237 179 244 236 178 241 237 179 241 237 179 242
237 178 243 239 179 247 239 175 250 228 161 242 213 144 231
201 130 224 191 118 217 180 104 208 171 94 201 219 166 228
233 180 240 243 188 248 225 166 233 190 126 201 173 103 184
181 107 193 201 121 212 214 129 222 212 122 215 201 107 200
190 94 185 185 87 176 184 84 171 186 85 171 192 90 177
206 104 192 219 118 206 218 121 206 211 119 199 211 123 199
223 140 212 236 155 226 229 146 220 208 119 197 197 99 182
197 88 174 200 83 168 202 81 160 198 78 146 190 72 129
182 66 110 171 57 89 157 45 68 147 39 57 141 39 52
136 39 47 136 42 47 148 56 57 164 72 71 176 85 82
178 89 85 164 78 73 137 56 51 114 40 33 98 31 23
81 21 13 63 9 5 52 3 1 48 2 1 50 1 1
56 3 2 68 9 6 84 17 14 100 26 24 116 36 34
135 49 47 156 65 64 172 79 76 177 83 77 175 81 71
172 79 65 169 77 60 161 70 53 145 56 40 130 40 26
125 34 20 133 41 26 148 56 41 168 77 61 191 101 85
202 115 98 190 105 89 161 79 65 133 56 43 117 44 33
107 38 29 91 25 18 73 10 6 58 2 1 52 3 0
55 6 2 69 13 10 96 31 29 125 52 50 137 58 56
133 50 47 130 46 43 136 53 49 145 62 59 145 65 62
133 57 53 112 41 38 92 27 23 77 17 14 70 12 13
69 11 17 69 12 23 70 12 27 72 13 32 74 15 37
79 18 41 83 20 45 87 21 49 90 21 54 96 24 63
106 30 78 115 35 92 121 37 102 129 42 113 139 50 125
157 65 144 185 90 172 203 106 189 200 102 187 188 90 176
180 80 168 177 75 165 176 72 163 175 70 161 178 71 163
186 77 169 193 83 176 200 88 181 206 93 185 204 91 182
196 81 171 190 74 160 189 72 153 186 70 148 183 69 144
181 70 141 174 68 136 162 62 127 150 55 119 136 45 108
116 30 93 101 19 84 98 18 88 103 26 99 107 32 109
106 32 114 105 31 119 111 36 132 127 50 156 142 64 177
148 69 186 145 66 185 139 60 182 139 59 184 144 63 191
144 63 193 139 58 189 136 56 187 138 58 188 142 62 190
152 73 200 175 97 222 197 119 241 208 131 244 219 144 243
218 143 236 188 112 207 156 79 179 146 69 173 146 70 177
142 66 174 124 51 157 105 34 136 105 35 130 116 47 134
118 50 127 105 37 105 92 23 83 93 22 74 105 29 69
118 36 62 134 47 64 153 62 76 163 69 83 162 67 79
154 60 74 142 51 71 127 40 72 111 27 77 102 19 90
104 23 113 124 41 147 161 78 191 200 116 230 222 137 248
227 141 249 218 132 237 208 123 225 205 120 221 201 117 217
194 110 211 186 103 205 184 101 207 189 105 215 191 107 220
194 110 223 196 113 223 192 110 216 189 109 210 199 119 216
218 139 232 231 153 247 224 146 246 197 119 225 176 100 207
172 97 203 164 90 195 148 78 178 143 76 170 159 94 181
190 129 207 222 165 234 243 189 249 252 201 254 253 203 255
250 201 254 245 197 251 245 197 249 248 200 250 250 203 251
249 201 251 248 198 251 247 194 252 241 184 250 226 165 238
212 147 228 208 139 227 202 131 224 192 118 216 183 109 209
216 160 225 233 177 240 241 184 246 212 152 222 164 100 177
139 70 152 146 73 159 171 94 184 198 117 208 213 128 220
217 129 220 215 125 214 210 117 204 206 112 197 208 113 197
213 118 202 223 130 214 233 142 226 229 141 222 218 134 211
221 142 214 237 161 231 239 162 233 218 135 209 198 105 185
195 90 175 200 85 172 205 84 168 205 84 160 199 78 144
187 70 124 178 62 104 170 55 86 158 46 68 148 40 57
144 41 54 146 48 57 157 62 66 173 79 80 185 91 91
189 96 94 180 88 85 156 67 63 129 45 40 118 39 33
114 43 36 101 36 28 79 20 14 62 8 5 55 4 3
55 3 3 58 3 4 65 6 6 77 13 13 92 22 23
107 31 33 121 39 40 136 49 49 155 64 61 170 77 71
175 82 73 175 82 68 174 81 66 172 81 65 161 71 57
144 54 40 133 41 28 134 42 29 145 53 38 160 68 53
178 88 73 191 102 86 188 102 87 175 91 78 159 79 67
146 70 60 133 60 52 110 40 34 82 17 12 62 4 2
54 3 0 53 4 0 61 6 4 84 21 18 115 44 41
131 54 52 129 49 46 126 44 41 131 49 46 139 58 55
140 61 58 127 52 50 107 37 35 89 24 22 77 16 15
71 12 15 69 12 19 69 12 23 70 12 27 72 13 31
75 15 36 79 18 40 83 20 44 87 22 48 90 21 53
95 22 61 103 27 75 112 33 90 118 35 100 124 38 109
136 46 123 164 71 151 192 95 177 193 92 176 176 75 159
168 66 151 167 64 150 167 62 149 169 63 149 174 66 152
181 71 157 191 79 164 202 89 173 210 96 179 209 94 176
201 85 166 193 76 155 192 73 148 191 72 141 187 69 134
183 67 129 180 66 127 173 64 122 164 59 115 156 56 110
145 50 103 127 36 90 112 25 80 104 20 80 101 20 85
100 22 92 100 24 100 102 26 109 107 31 123 117 40 142
132 55 164 148 70 182 154 76 191 148 69 188 140 61 183
138 57 182 135 55 182 133 52 180 134 54 182 139 58 186
141 61 188 150 70 196 170 90 215 186 106 227 195 117 230
205 129 232 198 123 220 168 92 190 147 71 172 143 67 171
142 67 171 137 62 166 127 54 156 121 49 147 120 48 140
118 46 129 110 38 113 101 28 95 101 26 87 110 31 85
120 36 79 130 39 68 144 48 67 161 62 78 173 72 87
176 74 88 173 71 89 166 66 91 152 55 93 133 39 95
119 28 103 120 31 125 142 53 161 180 93 206 215 129 241
231 146 253 233 148 252 231 146 249 232 149 247 234 151 245
230 147 241 220 138 232 204 122 219 191 109 212 191 107 217
192 108 222 190 106 220 189 105 216 183 101 206 182 100 199
198 118 212 225 145 236 236 157 249 222 144 241 198 120 222
184 107 211 184 108 210 183 110 209 181 111 205 184 117 205
197 134 213 220 160 231 241 187 247 252 204 254 255 210 255
254 210 255 252 210 255 250 210 254 251 211 254 253 213 254
251 209 253 244 198 247 236 189 240 236 186 242 239 184 247
235 176 245 228 165 240 225 158 239 222 152 238 215 143 233
210 137 228 219 160 228 235 177 242 239 179 245 202 140 213
148 83 162 119 51 133 121 50 136 137 63 152 159 82 172
185 104 194 209 126 215 226 140 227 232 144 229 235 145 228
238 149 230 242 153 235 244 158 239 247 164 244 245 164 242
238 161 235 240 169 237 245 177 243 232 159 228 207 124 199
196 99 180 199 89 174 203 84 171 205 82 164 203 80 154
196 76 138 185 67 118 177 60 100 171 55 85 161 49 70
151 43 59 150 46 58 161 61 69 180 83 87 193 97 99
194 99 98 186 91 89 168 74 70 143 51 47 129 41 36
133 50 46 138 61 56 124 53 47 97 33 28 74 15 13
61 6 5 59 4 5 63 6 9 69 9 13 77 15 20
86 19 25 98 25 31 111 32 36 122 38 40 137 49 47
157 67 61 172 81 71 177 85 73 176 85 70 176 85 70
172 82 69 158 68 56 144 53 40 140 48 35 145 53 39
155 63 48 168 77 61 179 89 74 185 97 82 190 104 91
192 109 98 188 108 98 173 96 88 141 67 61 101 31 27
70 7 5 55 2 0 51 2 0 56 3 2 79 17 14
111 41 37 129 54 51 128 49 46 123 43 40 125 45 42
130 51 48 129 52 50 117 44 43 100 31 32 86 21 22
77 16 18 73 14 18 71 13 22 71 13 26 71 13 29
73 14 32 76 15 36 80 18 39 83 20 42 86 21 46
91 22 52 96 24 62 104 28 75 111 32 89 116 34 99
123 37 110 144 55 132 177 83 164 191 93 175 176 75 157
161 58 141 159 55 138 159 55 137 158 52 134 160 52 132
167 57 135 175 64 141 186 72 148 194 79 153 196 80 152
194 77 147 190 72 140 187 69 134 187 68 129 187 67 123
185 65 118 182 65 115 179 64 113 174 61 110 167 58 104
162 57 102 157 56 100 147 51 95 134 42 89 120 32 83
108 23 80 101 19 83 102 22 92 109 30 107 117 39 125
126 49 145 136 60 163 147 71 178 156 79 189 158 80 194
158 79 197 155 75 196 146 66 188 138 58 182 136 56 181
138 58 182 139 59 183 143 63 185 153 73 194 161 81 200
168 90 203 178 102 206 171 96 196 153 77 178 148 71 174
151 74 177 146 70 173 139 62 164 137 62 159 135 60 153
123 48 135 110 35 114 106 29 101 109 29 95 117 35 96
127 41 96 135 44 88 142 44 75 150 48 69 163 58 75
176 69 85 183 76 91 187 79 98 185 77 106 176 69 113
158 54 116 142 41 123 141 43 142 161 65 176 197 104 218
226 136 247 234 147 252 227 142 246 222 138 241 224 142 240
232 151 242 239 159 247 240 160 247 226 145 238 206 123 225
196 112 222 194 109 224 193 108 223 191 107 217 188 105 208
193 111 208 216 134 226 238 156 245 235 155 245 212 134 228
198 122 219 203 128 224 213 139 231 219 148 235 220 152 236
221 155 235 226 164 237 239 182 245 250 200 252 254 210 254
254 212 253 254 213 254 254 216 255 253 217 255 253 216 255
252 211 254 243 197 248 227 177 234 215 164 222 216 163 224
225 169 234 232 173 242 235 171 244 236 168 246 236 166 247
235 163 246 234 160 245 222 160 231 237 175 245 234 171 242
189 125 200 132 66 146 105 36 119 105 34 120 116 43 131
133 58 147 160 82 170 189 108 195 209 125 211 219 133 216
227 139 220 236 149 228 243 158 236 243 160 238 242 161 238
244 166 242 247 174 246 250 184 250 245 181 246 222 151 221
200 117 192 197 97 178 201 87 173 203 80 166 201 76 157
199 75 146 195 74 134 189 70 118 182 64 102 175 59 87
165 52 73 155 47 63 155 51 63 172 71 78 193 96 99
201 104 105 191 93 93 173 75 73 153 55 52 139 44 40
143 51 47 155 68 64 157 74 70 141 64 59 117 47 42
91 28 24 70 11 10 64 6 7 67 8 13 72 12 20
82 20 30 92 27 37 97 28 37 103 28 35 112 32 35
125 40 39 143 56 51 163 75 66 176 87 75 178 89 76
177 88 74 176 87 74 168 78 67 153 62 50 142 50 37
142 50 36 149 57 43 157 66 51 166 74 59 178 88 74
197 108 97 214 127 117 218 134 125 204 124 117 171 92 87
125 49 46 84 17 14 62 4 3 54 2 1 59 4 2
82 20 16 113 44 40 130 55 52 127 50 46 121 43 39
120 41 38 121 43 41 117 41 41 105 33 34 92 24 26
82 18 21 77 16 19 74 15 21 73 14 25 73 14 29
73 14 32 75 15 35 78 17 38 81 19 41 84 21 44
87 22 47 92 24 54 99 27 66 106 30 78 110 30 89
114 31 98 126 40 114 156 67 145 183 90 170 177 80 160
157 57 137 150 48 127 150 47 125 149 45 122 148 43 118
151 44 117 158 49 119 165 54 121 172 59 123 174 60 122
174 58 117 175 58 115 175 58 112 176 58 110 179 61 108
182 63 107 183 64 105 182 64 105 180 64 104 176 61 101
171 59 97 170 61 98 172 66 102 171 69 106 162 65 103
145 52 94 125 35 84 111 23 81 108 23 87 113 29 101
123 42 122 139 62 151 155 79 175 160 85 183 156 80 182
156 79 186 170 92 202 183 104 218 178 99 215 160 81 199
149 70 189 145 66 185 144 65 183 143 64 182 143 64 182
144 65 180 146 68 180 156 78 185 161 84 187 161 83 186
167 87 192 169 89 193 155 75 178 138 59 158 135 55 150
131 52 142 121 42 126 115 34 111 118 35 105 127 41 104
135 46 104 140 48 101 145 49 92 151 50 79 157 52 72
166 59 75 179 70 85 190 78 94 196 83 103 198 84 114
194 79 126 182 69 136 168 58 145 163 57 160 179 76 189
210 112 226 232 139 249 231 142 247 213 127 230 193 110 212
186 106 204 201 122 212 228 151 234 247 168 250 240 160 249
218 136 236 200 116 226 194 109 224 193 109 222 194 111 218
200 117 217 217 134 228 236 153 243 241 158 248 223 142 234
201 125 215 204 130 220 227 153 239 242 170 249 245 177 252
243 177 251 238 174 247 239 178 245 248 192 250 254 207 255
254 211 254 252 209 251 250 209 250 250 211 251 249 212 253
249 208 253 245 197 251 231 176 241 214 157 226 204 146 216
204 143 214 206 144 216 210 145 220 214 146 225 219 147 229
222 149 233 225 150 235 226 150 235 224 159 233 238 173 246
231 165 239 180 114 191 122 55 136 97 28 111 96 26 111
104 32 118 122 47 133 147 68 154 169 87 172 181 96 180
184 96 178 189 100 179 202 112 189 214 127 202 221 136 210
222 139 214 225 145 219 233 160 232 245 179 247 244 181 246
222 153 222 202 119 195 199 98 180 204 88 173 203 79 164
200 74 153 200 76 144 201 79 136 201 80 126 194 75 111
182 65 92 168 55 75 158 48 64 159 53 65 176 74 81
195 96 99 197 99 100 181 82 81 160 60 58 146 47 43
150 52 47 166 71 67 174 83 79 165 78 74 152 69 65
138 62 58 113 44 40 82 20 17 68 8 9 67 7 13
71 12 21 91 31 43 118 56 69 121 55 67 104 33 42
100 25 29 112 33 31 129 46 40 147 63 53 163 78 66
173 87 74 177 90 78 180 91 80 176 86 75 159 69 57
140 50 37 135 44 31 142 50 36 147 55 40 152 59 45
166 74 61 191 100 89 215 127 117 226 140 131 219 134 128
194 111 107 153 73 69 109 36 33 79 16 13 67 9 6
72 11 8 94 29 25 122 51 47 132 57 54 126 49 45
120 41 38 118 40 38 115 39 38 108 34 35 96 26 28
85 19 23 79 16 21 76 16 22 75 15 24 74 14 28
74 14 31 75 14 35 77 16 38 80 18 41 84 21 45
87 24 48 90 25 52 94 26 59 100 29 70 105 29 80
106 27 88 112 29 98 131 45 121 163 75 154 177 85 164
159 64 141 143 45 121 142 42 117 142 42 115 142 40 110
141 38 105 144 40 103 150 44 104 155 46 103 158 48 101
160 49 97 161 48 94 162 48 91 164 49 90 167 51 90
172 55 91 178 61 95 182 64 98 185 67 100 185 68 102
182 66 99 179 64 96 179 66 97 183 73 103 186 79 109
181 78 110 167 67 103 146 50 93 130 36 87 122 31 89
121 31 97 123 37 110 134 53 133 153 76 161 166 90 179
167 90 182 169 91 188 188 109 210 208 128 233 203 123 231
179 100 210 163 84 195 156 77 189 156 77 189 158 79 191
151 72 184 140 61 172 137 58 167 150 70 176 169 89 193
181 100 204 185 102 207 179 96 200 160 76 178 141 56 155
134 49 143 134 49 137 135 49 131 137 50 124 141 52 118
146 54 113 147 54 107 148 52 100 151 52 91 156 52 79
161 54 73 172 63 78 186 75 89 197 83 98 203 87 107
205 87 118 204 85 132 199 80 149 190 74 162 184 72 175
196 89 201 222 120 233 236 140 249 227 137 241 198 112 214
168 86 188 157 78 175 174 98 186 214 138 220 245 168 248
246 166 252 223 141 240 198 114 223 188 104 217 189 105 215
195 111 215 213 129 226 236 152 243 243 159 250 228 144 240
205 124 220 196 121 211 214 143 226 239 168 247 248 178 253
244 176 249 238 172 245 233 169 240 237 176 241 248 192 249
254 205 254 253 206 252 247 201 246 242 197 243 239 196 243
238 196 245 238 189 248 233 174 245 220 154 235 207 139 223
202 133 217 199 129 213 195 123 207 190 117 203 189 114 202
191 114 203 194 115 205 197 117 207 198 118 207 218 151 228
236 170 245 230 163 238 177 110 188 119 51 132 94 26 108
92 23 106 99 26 110 114 38 122 134 55 138 152 68 150
160 72 153 161 70 148 165 72 148 176 81 155 191 97 169
205 114 185 211 122 194 211 126 198 216 138 211 232 164 232
243 180 245 232 165 233 212 130 206 204 104 186 206 93 177
206 84 166 203 78 154 203 80 145 207 85 140 210 88 132
203 82 117 186 68 94 168 54 74 157 47 62 160 53 65
177 73 80 192 91 94 190 90 90 173 72 71 155 54 50
151 49 45 168 67 63 188 90 86 187 91 87 167 74 71
156 68 65 152 70 66 128 54 49 94 27 24 75 11 13
68 7 12 69 10 20 99 40 53 151 91 105 165 103 115
126 61 69 97 28 31 100 27 24 114 37 31 128 48 39
142 61 49 161 78 67 176 92 80 183 96 85 182 93 83
165 76 66 141 52 40 130 40 27 134 42 29 138 46 31
141 49 34 154 62 48 179 88 76 206 116 106 219 131 123
220 132 126 209 122 118 184 101 97 148 70 67 114 44 41
97 31 28 98 30 27 112 43 39 130 57 53 132 56 53
124 46 43 118 40 38 118 40 40 113 38 39 103 31 34
92 22 27 82 16 23 77 14 22 75 14 24 73 13 25
73 12 29 75 13 34 78 16 39 81 19 44 84 21 47
86 24 49 90 26 53 93 28 58 96 28 64 99 27 72
102 26 80 104 25 89 116 34 105 143 58 135 166 78 157
162 72 150 143 51 125 134 40 110 134 38 106 134 37 102
133 36 98 134 35 94 140 40 94 145 43 93 147 42 88
150 43 84 155 46 83 156 46 80 156 44 76 159 47 76
163 50 77 166 52 78 170 57 82 176 62 88 184 69 96
190 74 101 191 75 102 189 72 99 187 71 97 187 73 98
189 77 101 188 78 105 181 74 104 168 64 101 156 56 99
149 51 102 145 48 106 137 45 109 130 45 115 136 53 128
152 70 149 175 93 175 199 116 203 216 133 224 222 140 234
211 128 227 191 108 209 178 96 199 170 88 192 170 88 192
174 93 197 163 82 186 141 60 164 132 50 153 146 63 166
171 87 189 187 101 203 189 101 204 183 94 197 172 82 183
163 71 169 157 65 158 156 64 150 157 65 144 157 64 135
155 61 122 152 57 110 149 51 99 148 49 91 152 50 84
156 51 75 162 55 72 177 67 81 193 81 93 203 89 103
209 92 111 211 92 121 210 89 135 207 87 152 203 84 169
199 84 184 209 99 208 229 126 236 239 142 249 225 134 236
191 105 206 161 79 180 152 74 172 171 95 184 211 135 219
243 166 247 244 164 251 217 135 234 186 102 211 175 91 202
181 97 204 198 114 213 224 140 233 241 158 248 234 149 245
210 125 228 193 111 212 197 122 214 219 148 232 235 165 245
233 163 243 223 154 233 215 148 224 215 150 223 227 165 231
242 184 244 250 196 251 249 196 249 241 189 242 234 182 237
229 179 236 228 176 238 227 168 240 222 152 238 213 135 231
203 123 221 196 116 213 191 111 207 186 105 200 181 100 194
178 95 190 176 93 187 176 92 186 176 92 185 176 91 184
211 144 223 234 167 243 230 163 238 176 109 186 117 50 130
92 24 105 90 21 101 97 25 105 111 34 114 125 44 122
137 51 128 145 54 130 151 56 129 159 60 132 171 70 140
187 86 154 206 105 173 214 116 185 212 118 189 211 126 198
219 144 215 235 168 236 241 171 241 225 145 220 209 114 194
207 98 180 208 90 170 205 84 157 204 83 146 208 86 140
209 87 131 200 78 113 182 63 89 164 49 68 156 45 60
164 56 67 182 77 83 193 90 92 186 84 84 169 67 65
154 52 48 159 56 52 183 80 75 201 99 95 191 91 88
166 69 67 157 63 61 156 68 66 138 58 54 111 37 35
93 24 25 81 16 22 75 13 23 96 38 50 151 94 107
181 123 134 147 87 94 102 39 40 90 23 19 100 29 22
111 37 27 125 48 37 148 68 57 169 86 76 181 95 85
185 97 88 173 84 74 148 59 48 130 41 28 128 38 24
132 41 26 135 43 29 146 55 41 171 80 68 195 105 95
206 117 109 209 120 113 211 123 118 207 121 117 188 106 103
161 85 83 141 68 66 132 59 57 133 58 56 134 58 55
128 51 47 119 41 39 116 38 37 117 39 40 111 37 40
101 29 34 89 21 28 80 15 24 75 13 24 73 13 26
73 13 29 76 15 34 82 20 42 88 26 51 91 28 55
89 27 55 88 24 54 89 24 56 91 25 60 93 25 66
97 25 74 102 26 84 110 31 97 134 51 124 161 76 153
163 76 154 145 57 131 130 41 109 124 34 97 123 32 91
124 32 88 125 32 85 132 37 87 143 46 91 147 49 90
147 45 82 148 45 76 153 47 74 155 48 72 156 47 69
159 49 69 161 51 69 162 51 69 162 53 71 166 57 77
175 64 85 186 72 94 193 77 100 194 77 100 190 73 95
187 70 90 186 70 90 187 73 94 186 74 99 180 71 101
175 68 104 172 67 110 169 66 116 160 61 117 147 54 114
141 51 116 153 63 131 185 95 166 218 127 203 224 135 215
216 126 210 210 121 209 208 119 211 202 114 207 189 102 196
183 96 191 185 98 193 176 90 185 156 71 164 143 58 152
151 65 160 168 80 176 182 91 189 190 97 195 192 97 195
192 94 192 190 91 186 184 85 175 175 76 159 168 70 143
161 63 127 153 55 109 146 47 93 142 43 81 141 42 73
145 43 69 150 46 65 160 53 67 175 67 77 192 81 90
205 92 103 215 100 115 219 101 127 216 98 138 212 93 152
208 90 167 205 91 184 213 104 206 230 128 233 241 145 247
228 138 238 197 111 211 168 87 189 164 86 185 186 109 202
221 144 231 244 165 250 235 155 246 202 120 222 171 88 197
164 81 189 181 98 201 211 128 223 236 153 243 236 152 244
215 129 232 195 107 218 189 104 213 201 123 221 220 146 237
226 153 242 219 147 234 208 138 222 199 130 211 200 133 209
217 153 223 237 175 241 246 186 248 244 186 245 237 179 239
230 172 235 226 167 234 221 161 233 217 148 232 213 134 230
208 121 226 199 111 217 188 100 206 179 91 195 173 85 188
171 83 184 170 82 181 169 82 178 167 80 174 163 76 169
161 74 166 212 145 224 234 167 244 230 164 237 174 108 184
114 48 126 90 23 101 89 20 97 97 25 101 109 33 107
118 37 109 126 39 109 135 42 111 146 47 114 158 55 120
170 64 127 187 79 142 209 99 163 220 112 178 219 116 185
214 120 191 212 128 200 222 147 219 239 165 238 237 158 233
219 128 207 208 105 185 209 98 175 210 93 164 207 88 150
206 84 138 206 82 126 196 73 107 177 58 83 162 46 65
159 47 62 173 65 75 194 88 93 201 97 99 189 86 85
168 66 63 156 53 48 165 62 57 192 89 83 206 103 99
192 90 86 168 68 66 162 65 63 164 71 69 154 67 64
137 55 54 124 48 49 109 39 44 91 26 35 88 28 39
113 57 67 136 81 89 122 67 71 89 32 32 75 15 12
85 20 13 99 29 20 114 39 29 134 56 46 157 74 65
175 89 81 184 97 89 177 90 80 155 67 57 133 45 33
125 37 22 127 37 22 130 41 25 142 52 38 166 76 63
188 99 88 195 106 97 194 106 98 199 111 105 205 117 113
201 116 114 188 106 105 170 91 89 155 77 75 144 67 64
135 57 54 124 46 43 117 38 36 115 37 37 115 38 40
109 35 39 98 28 34 88 21 29 80 17 28 77 16 29
77 18 33 81 21 39 87 26 47 94 31 56 97 34 61
97 33 63 92 29 60 88 23 57 86 21 58 88 21 62
92 22 69 99 26 80 110 34 95 129 50 118 157 75 148
169 85 161 151 65 141 130 43 113 120 33 94 116 28 83
117 29 80 119 31 78 122 33 77 132 41 81 143 50 86
147 51 83 147 49 77 148 48 71 150 49 68 153 50 66
155 51 65 157 52 64 158 52 63 158 52 64 157 52 66
158 53 69 164 57 74 173 63 81 181 69 87 185 71 88
185 69 86 184 67 82 186 68 83 189 72 88 189 74 93
186 73 96 184 71 101 182 71 107 181 71 112 175 69 115
168 66 116 166 66 120 176 77 133 199 100 160 216 117 181
208 109 177 193 94 167 196 98 175 207 110 190 204 108 190
191 96 179 183 89 173 182 89 172 179 86 169 170 78 161
162 71 154 163 73 157 170 79 164 179 84 172 189 90 180
197 95 186 200 96 187 200 95 183 193 88 171 178 74 149
164 62 128 154 52 108 145 44 90 139 39 75 135 36 63
134 35 56 135 35 51 139 36 49 146 42 51 159 53 59
174 67 71 191 82 87 208 96 105 217 103 121 216 101 132
209 94 142 204 90 155 203 91 173 211 104 197 228 127 225
240 144 243 234 143 243 214 128 229 193 111 215 191 112 215
209 131 229 232 153 245 239 159 250 218 136 235 184 101 208
162 78 188 164 81 189 194 111 212 230 149 239 243 162 248
223 139 234 192 105 213 176 88 206 181 94 212 200 117 226
217 138 239 221 143 242 215 140 236 210 136 228 202 130 217
199 129 211 214 147 223 237 171 242 246 181 249 241 178 244
233 170 237 227 163 233 221 157 231 215 147 227 207 132 223
203 118 221 201 110 220 194 102 214 182 90 200 169 77 185
160 69 174 159 67 169 160 70 168 161 71 166 157 69 160
153 64 153 149 61 148 220 153 231 237 171 246 230 165 237
173 108 182 112 47 123 88 23 96 87 20 92 94 24 94
104 29 96 110 30 94 117 30 92 128 34 94 141 41 100
155 50 107 166 57 113 183 69 125 207 91 148 222 107 167
223 113 178 218 116 185 211 119 191 212 129 203 229 152 226
241 163 237 230 144 221 215 119 197 214 108 183 215 102 172
210 92 154 206 83 137 204 79 124 194 70 105 176 56 81
163 47 65 166 53 67 184 75 84 206 100 104 210 106 107
193 89 88 169 66 62 158 54 49 171 68 62 199 95 89
210 106 101 192 89 85 173 71 68 173 73 70 178 80 78
173 79 77 162 73 72 153 69 70 137 61 63 113 44 49
91 29 35 83 25 31 83 29 32 78 26 27 65 13 13
60 6 3 73 13 7 91 24 15 106 33 25 122 45 36
144 62 54 164 80 73 178 92 85 178 92 83 162 76 66
140 53 41 125 39 24 123 36 20 127 40 23 138 51 35
161 73 59 183 95 83 188 100 90 184 96 87 182 95 88
186 98 93 187 100 97 181 95 93 167 83 82 152 71 68
140 61 58 130 52 48 121 44 40 117 39 37 116 39 39
114 38 40 106 34 38 96 27 34 87 22 32 82 19 32
81 20 36 82 23 41 86 26 47 92 30 53 95 31 57
94 30 59 91 27 59 87 23 58 85 20 59 86 20 62
89 21 67 93 23 75 106 33 91 129 53 117 155 75 145
168 86 159 158 74 148 134 49 120 119 33 97 113 27 81
111 25 71 114 28 70 118 32 71 121 34 69 128 39 71
135 45 72 137 45 69 137 44 64 139 44 60 141 45 57
143 46 56 145 47 54 146 47 53 148 48 53 148 49 55
148 50 59 148 50 61 151 51 63 156 52 65 162 54 67
167 57 69 172 59 71 177 62 73 184 68 78 190 74 84
192 76 88 190 75 92 189 74 96 188 74 101 188 74 106
186 74 110 185 75 115 188 79 121 194 85 131 201 93 142
201 94 146 190 83 139 181 74 135 185 79 144 192 87 154
188 85 154 181 79 149 178 78 148 174 74 144 169 70 139
166 68 137 164 69 137 164 70 140 167 72 143 171 73 147
178 76 152 185 79 157 190 82 160 194 85 160 190 81 152
176 69 132 157 53 107 143 41 85 136 35 69 132 33 57
129 31 47 127 29 39 127 29 35 128 29 34 134 33 36
145 43 43 160 57 55 177 72 70 192 85 86 199 91 98
197 87 106 192 82 116 190 80 131 193 84 151 204 98 179
221 118 208 232 134 230 235 142 240 229 140 243 219 134 242
218 136 244 226 145 248 231 149 249 220 138 240 193 110 218
168 84 196 160 76 188 176 93 201 211 130 228 241 162 248
238 158 245 203 120 219 168 82 194 158 69 193 170 81 206
190 103 221 202 118 229 202 119 228 201 120 225 205 126 227
206 130 225 207 133 222 220 148 230 238 168 245 246 178 250
242 175 246 234 167 239 227 158 234 219 149 229 209 136 222
199 120 215 194 108 213 192 100 213 186 93 206 174 81 192
161 68 176 152 60 164 150 59 158 152 62 156 154 64 153
151 62 146 146 58 138 143 55 134 230 163 240 243 177 250
232 168 236 173 109 180 110 47 119 85 22 91 83 19 84
89 22 84 97 25 84 102 25 81 109 25 78 120 29 79
135 36 85 149 44 92 160 51 98 176 61 109 201 82 133
220 101 156 223 109 169 220 113 179 214 115 186 209 119 193
219 135 211 237 157 232 239 156 233 227 137 213 219 119 193
215 105 175 210 92 155 206 82 137 202 75 122 192 67 103
177 57 81 167 51 68 172 58 71 191 81 90 213 106 110
214 109 110 193 89 87 167 64 59 158 55 49 175 72 65
203 99 92 209 105 99 190 86 82 177 74 70 182 80 77
188 87 85 184 85 84 176 81 80 166 77 76 151 69 68
130 55 56 108 41 42 89 28 28 73 18 17 62 10 8
54 4 2 55 3 0 67 9 4 85 20 13 100 29 22
114 38 31 131 51 44 150 67 61 166 82 75 174 89 81
167 83 73 147 63 51 128 44 30 122 37 21 126 41 24
138 53 36 157 72 56 176 90 76 182 96 84 178 92 82
173 87 79 171 85 79 170 82 78 164 75 74 152 65 64
140 57 54 130 50 46 122 45 41 118 42 38 117 42 39
117 42 42 111 37 40 102 31 36 93 26 34 86 22 33
82 20 35 81 21 39 81 21 43 83 23 45 86 24 48
87 23 49 85 20 50 83 18 52 82 17 55 84 18 61
88 21 68 93 24 76 101 30 87 121 47 110 151 74 142
165 85 156 154 72 144 136 53 123 120 37 102 111 27 83
108 24 68 108 25 61 112 28 61 115 31 62 117 32 59
119 34 57 121 35 54 120 34 50 120 32 45 121 33 42
122 34 41 124 35 40 126 36 39 127 36 38 128 37 38
129 38 40 129 40 44 130 41 47 132 40 47 134 39 46
138 39 47 145 42 49 153 47 53 161 53 59 171 61 66
179 68 73 184 72 79 186 73 84 188 74 89 191 77 96
193 79 102 194 81 107 197 84 112 199 86 117 200 86 120
197 84 121 190 78 118 184 72 116 183 72 120 187 76 128
186 76 129 179 71 126 178 72 127 181 77 131 174 71 125
163 60 113 159 58 110 159 60 112 158 61 114 159 62 116
160 61 118 162 59 117 164 57 117 171 61 121 180 70 127
184 74 128 173 66 113 152 47 86 134 32 61 127 27 48
127 29 42 128 32 37 130 35 34 135 39 36 141 43 41
149 51 47 162 63 57 177 77 69 190 90 80 199 97 88
199 95 91 189 85 91 178 73 92 172 66 101 176 71 122
189 85 152 205 102 183 217 116 207 225 127 226 225 132 237
219 131 243 217 132 246 217 133 244 208 124 235 188 104 216
169 85 199 161 76 192 168 84 198 195 111 220 226 144 243
239 158 250 219 138 234 178 95 201 149 63 181 147 59 186
164 75 203 180 92 215 181 93 211 171 84 200 172 86 198
185 102 209 199 119 219 212 134 228 228 152 239 241 167 248
247 175 251 246 174 249 239 167 244 231 157 238 222 147 232
209 132 223 197 116 215 190 104 211 184 94 207 175 84 197
164 72 183 153 63 168 148 58 158 147 58 152 150 61 148
150 62 143 147 60 136 143 56 127 140 54 122 237 171 246
248 182 252 231 167 235 169 107 176 105 44 112 79 18 83
77 16 76 83 20 75 90 22 73 96 22 69 104 23 67
114 26 68 127 32 71 141 40 77 154 47 84 169 57 96
193 75 117 213 95 143 220 105 160 218 107 171 215 110 181
210 112 188 212 122 200 229 145 223 244 163 239 238 154 229
221 127 200 209 103 172 206 89 152 206 81 138 200 73 121
189 64 101 177 56 80 169 52 69 175 60 72 194 83 91
214 106 110 213 108 108 191 86 83 165 62 56 158 55 48
178 74 67 202 99 92 203 99 93 184 81 75 176 73 69
185 82 79 190 86 85 185 82 82 177 77 77 167 71 70
153 64 62 140 57 54 126 52 48 112 45 40 92 32 26
70 15 10 58 6 2 57 4 0 65 8 3 77 14 9
91 23 18 105 32 27 119 41 36 133 52 46 149 66 60
163 80 72 166 83 73 152 70 57 133 51 37 125 42 26
128 46 28 139 56 38 153 70 53 167 84 68 175 91 78
175 92 80 171 87 77 164 80 72 159 72 67 153 64 62
144 56 55 134 50 47 125 47 42 120 44 39 117 43 39
117 44 41 114 42 41 105 33 36 95 25 31 86 20 29
80 17 30 78 17 33 78 18 38 78 18 42 80 19 43
82 19 43 83 19 44 81 17 46 81 16 50 83 17 57
88 21 67 95 27 78 102 33 89 113 42 103 136 63 129
159 83 152 154 74 145 131 51 119 119 38 103 112 30 89
106 24 72 105 24 59 106 26 53 109 29 52 111 30 52
110 29 48 108 27 43 106 26 38 104 24 33 103 23 29
104 23 28 105 24 27 105 25 26 106 26 26 107 27 26
108 27 26 107 27 27 106 27 28 108 28 30 110 28 31
113 27 31 117 27 31 123 30 33 132 35 38 141 41 43
150 47 49 158 54 56 166 60 63 172 64 70 178 69 78
184 75 86 189 79 92 192 82 97 196 84 102 198 86 106
197 85 108 192 80 105 183 72 100 180 69 101 184 73 109
186 76 114 180 71 110 172 64 103 172 66 105 177 73 111
171 68 105 158 54 91 152 50 85 151 51 86 149 51 87
148 50 88 148 48 87 145 43 82 144 39 78 150 42 81
160 52 89 168 62 94 164 59 87 148 46 67 135 35 49
134 37 44 142 46 47 150 55 51 157 63 54 166 71 62
175 78 70 183 85 76 192 93 81 203 104 89 214 115 98
223 124 106 225 126 111 214 115 107 191 90 94 167 66 84
159 58 94 169 67 121 186 83 154 199 96 182 206 104 202
202 105 213 193 101 218 187 100 220 184 98 219 175 89 210
161 76 196 155 69 189 160 75 194 181 96 212 212 128 238
230 147 251 221 138 241 189 106 212 152 68 181 135 50 171
141 54 183 161 73 202 176 88 212 167 79 198 151 63 180
152 65 179 167 82 192 186 103 206 207 126 222 229 150 239
244 166 249 250 173 253 249 172 251 241 164 245 232 154 240
223 144 236 213 133 230 203 119 223 194 107 217 185 96 209
173 83 196 159 70 179 148 60 164 144 56 154 146 59 148
149 62 144 148 62 136 145 59 127 141 56 118 138 54 112
239 172 247 244 178 249 219 156 225 155 94 163 96 36 102
72 14 74 72 14 69 78 18 68 83 19 65 90 21 61
99 23 59 109 25 59 120 30 60 133 37 66 148 45 73
163 54 84 183 68 103 203 86 127 212 97 148 212 100 161
213 103 173 211 106 183 211 115 194 226 140 218 244 166 241
241 160 234 219 129 202 203 99 169 203 86 151 205 80 139
199 73 122 188 64 101 177 56 80 171 53 69 176 61 72
194 82 89 211 102 106 209 103 103 187 83 79 163 60 54
159 57 49 179 77 68 199 96 88 193 90 83 175 72 66
172 69 64 180 76 73 182 78 76 176 72 72 170 66 66
162 62 60 153 59 54 145 56 50 137 55 48 128 54 46
111 45 36 87 27 19 68 12 6 61 5 1 63 5 1
69 8 4 81 16 11 97 26 22 109 34 29 120 41 35
133 51 44 148 66 57 157 75 65 152 71 58 138 58 43
130 50 34 131 52 34 140 60 41 150 71 52 160 79 63
167 85 71 170 88 76 166 85 73 158 75 65 150 65 59
145 57 55 139 52 50 131 48 44 124 47 41 119 46 40
116 45 39 113 42 39 107 37 36 96 26 29 85 17 23
76 11 21 71 9 22 71 11 28 74 14 36 78 17 42
80 18 43 82 19 42 83 19 43 84 19 47 85 19 54
88 21 63 95 27 75 103 34 88 111 41 100 123 52 116
147 74 142 156 80 151 136 58 127 117 37 103 110 30 91
107 27 80 105 26 67 105 27 55 105 28 47 106 29 45
106 29 43 103 27 39 100 25 33 97 23 28 95 21 25
94 22 23 94 22 22 94 22 21 93 22 20 92 21 19
91 21 19 90 20 18 89 19 17 87 19 17 88 19 19
92 20 20 96 21 21 101 22 22 107 24 24 115 28 28
122 32 31 129 36 36 138 42 43 147 49 50 154 54 56
162 60 64 169 67 72 175 72 78 177 73 80 179 73 82
181 73 84 181 73 87 176 68 84 169 62 80 170 63 84
177 71 94 181 75 100 174 69 94 163 60 85 160 58 82
163 63 85 158 57 79 143 44 64 136 37 56 134 37 55
133 36 56 132 35 55 131 32 54 131 30 51 132 29 49
138 34 52 146 42 59 155 53 66 161 61 70 159 61 65
159 62 61 167 72 67 179 84 75 188 94 81 194 100 85
200 104 89 205 106 93 206 107 94 209 109 93 213 114 93
222 123 99 235 137 111 244 147 123 241 145 126 220 124 114
184 88 91 157 59 81 154 55 97 168 66 129 183 79 160
188 84 181 181 80 190 167 73 193 158 68 194 155 66 194
154 65 192 151 63 189 150 64 187 160 75 197 185 100 218
211 126 240 215 131 241 191 108 219 156 73 187 131 47 166
126 42 166 137 52 180 155 69 196 165 79 201 155 68 186
143 56 171 147 61 173 159 74 181 172 87 190 190 106 202
214 132 222 236 155 240 247 166 249 246 165 248 238 156 242
228 146 237 221 138 236 215 131 234 208 122 231 201 113 225
193 104 217 182 92 204 166 77 185 151 63 166 143 56 152
144 58 145 147 62 140 147 63 132 144 60 122 140 57 113
137 56 107 239 171 247 233 167 240 195 132 202 133 72 139
85 27 89 69 13 69 69 14 64 73 16 61 78 17 56
85 19 53 94 22 52 103 24 51 114 29 52 127 36 57
142 44 65 157 52 75 173 61 90 189 74 110 200 86 133
207 94 152 211 98 167 211 102 180 214 114 194 229 142 220
243 166 240 234 156 230 213 125 197 201 99 169 202 86 152
204 79 140 199 73 125 190 66 106 182 61 87 176 57 75
177 62 74 190 78 85 203 94 97 201 96 94 183 79 74
163 61 53 162 60 51 181 79 70 194 92 83 183 80 73
166 63 58 165 62 58 171 67 64 171 66 64 167 62 62
162 58 58 159 57 54 157 57 52 151 56 49 145 55 46
138 55 45 126 50 41 105 36 28 81 18 12 66 6 2
62 2 0 64 3 1 72 10 6 88 22 16 102 31 26
112 35 30 120 40 34 132 51 43 143 63 53 146 67 54
141 63 48 136 57 41 135 57 39 141 63 44 151 73 54
160 81 64 164 84 69 165 85 72 161 81 69 153 72 61
146 62 55 141 54 51 135 49 47 128 47 43 122 47 41
118 46 40 112 43 38 105 36 33 96 27 27 85 18 21
76 9 16 68 4 15 65 3 18 68 7 26 72 12 34
77 16 40 79 17 41 81 18 41 85 21 44 88 24 52
90 25 60 92 25 68 97 29 78 105 36 91 117 47 108
139 68 134 159 86 155 148 72 142 119 42 109 107 28 90
105 26 81 104 26 72 105 28 62 104 29 50 103 29 42
103 29 39 102 28 37 99 28 33 98 27 30 96 26 27
94 26 25 92 26 23 89 26 22 86 24 20 83 22 17
79 19 15 76 17 13 73 15 11 71 13 10 71 13 10
73 14 11 76 15 12 80 16 14 86 18 15 92 20 18
99 23 21 106 26 24 113 30 29 123 36 35 130 42 41
136 45 45 142 50 50 149 55 56 153 59 60 155 59 60
155 57 59 155 56 59 154 54 60 151 50 58 147 47 57
149 49 61 157 58 71 162 64 76 158 60 73 149 52 64
143 47 57 143 48 56 138 44 50 127 34 38 121 28 31
122 28 32 123 28 34 125 29 35 128 30 37 135 35 41
144 43 47 154 54 56 163 63 63 173 74 72 184 87 82
190 95 86 194 100 88 201 108 93 207 114 99 212 118 101
214 120 101 216 119 101 217 117 101 217 115 99 217 115 96
218 116 93 223 123 95 235 137 106 247 151 120 251 157 129
242 151 129 214 122 114 174 80 90 148 53 84 151 52 106
168 65 140 179 74 167 175 73 181 160 63 184 148 56 184
145 54 185 146 56 186 147 58 186 147 59 185 154 68 191
171 87 207 186 102 219 180 97 213 155 72 188 130 47 165
121 39 159 127 45 168 138 55 180 146 63 184 145 62 177
137 53 163 135 51 159 145 59 165 152 67 169 157 71 169
168 82 175 189 103 192 215 130 216 233 148 234 239 154 242
235 150 241 226 140 237 218 132 235 212 125 233 207 118 230
203 113 227 200 109 223 193 102 214 180 90 197 164 76 177
153 66 160 149 63 149 148 64 140 147 64 132 144 62 121
140 59 111 137 58 105 238 172 247 218 154 227 167 106 175
110 52 115 76 21 79 67 14 64 67 14 57 70 15 51
74 16 47 81 18 45 89 21 43 98 23 43 109 27 45
122 34 50 137 42 57 151 49 67 165 54 78 177 62 94
189 74 117 202 87 142 210 96 163 213 103 179 217 116 195
231 143 221 242 165 239 230 152 224 209 122 193 200 101 169
201 88 154 201 80 142 199 74 131 194 71 118 188 67 102
181 62 87 178 63 81 185 74 85 196 87 91 195 90 88
181 78 71 164 62 53 165 62 53 185 82 73 194 91 84
178 74 68 160 56 51 159 54 51 163 58 55 165 60 57
165 60 58 163 59 57 162 59 56 163 61 56 159 60 53
154 57 50 149 57 49 142 55 47 123 44 37 97 24 19
76 8 5 67 2 1 64 3 1 66 6 3 78 17 12
94 29 23 106 34 28 112 37 30 121 44 36 132 54 44
138 60 48 139 61 47 137 60 44 136 59 42 140 63 45
153 74 57 164 85 69 168 88 74 168 88 75 163 83 71
154 74 63 146 64 56 139 55 50 134 50 46 128 48 44
122 48 43 117 47 42 110 42 38 98 32 29 85 20 21
76 11 15 70 6 14 65 3 14 64 4 18 67 7 25
72 12 32 75 15 37 78 17 39 82 20 42 87 25 48
91 28 56 93 29 64 94 27 71 97 29 80 108 39 96
133 63 126 159 87 154 157 84 152 129 55 121 105 30 92
101 25 80 101 26 72 100 25 62 100 26 52 101 28 42
102 29 36 101 28 33 99 28 31 99 29 29 98 30 28
97 31 28 95 31 27 89 29 24 82 26 20 74 22 16
67 18 13 61 14 9 57 10 7 54 8 5 52 7 5
53 7 5 54 8 5 57 8 5 61 9 6 67 11 8
74 14 11 80 16 13 87 20 17 97 26 23 106 32 29
113 36 33 118 39 36 123 42 39 128 45 42 131 47 44
132 47 43 132 45 41 132 43 40 129 40 38 126 36 36
122 32 33 121 31 33 125 35 37 128 38 40 127 38 38
123 33 33 119 30 27 120 31 25 122 33 25 122 33 23
125 35 24 132 41 30 140 46 37 148 51 43 157 58 50
168 69 60 181 82 72 192 93 83 199 101 90 206 108 96
212 115 103 214 120 106 215 121 106 216 123 107 217 125 108
218 125 107 218 124 105 219 123 104 220 119 102 221 117 101
222 117 99 222 118 95 224 122 94 234 134 102 244 148 115
250 158 126 250 162 135 237 150 135 199 110 113 154 62 86
141 44 89 156 55 119 173 70 152 177 75 173 165 66 180
152 56 180 147 53 180 144 52 179 140 51 178 139 53 177
141 58 179 148 66 185 153 72 188 146 65 180 129 49 162
119 40 152 122 43 156 131 52 166 137 58 171 135 56 164
126 45 147 122 40 137 130 46 140 141 56 147 147 60 148
148 60 146 155 65 150 171 82 165 196 107 191 218 129 217
232 143 235 234 145 243 229 139 242 220 131 238 209 119 230
201 111 223 198 107 220 196 104 217 192 100 211 184 94 200
172 84 184 162 76 169 156 71 155 151 68 143 147 65 131
143 62 120 139 60 110 137 59 104 238 175 248 208 146 217
146 88 156 94 39 100 70 19 71 63 13 57 65 14 49
69 15 42 73 15 37 79 17 35 87 20 36 96 23 37
106 25 39 118 31 44 132 38 50 145 42 58 157 46 67
170 53 83 182 65 105 196 80 132 209 94 158 214 105 177
215 115 191 226 137 214 241 162 235 236 159 228 216 132 198
203 109 173 200 95 158 200 85 148 200 78 141 198 74 132
191 70 117 183 64 101 179 64 91 185 73 90 193 85 92
195 89 87 182 79 71 166 63 53 167 63 54 189 84 77
198 93 88 180 74 71 160 54 51 157 51 49 163 56 54
167 61 58 170 63 61 170 65 62 170 66 62 169 66 61
168 65 60 166 64 59 165 65 60 160 63 59 142 51 47
115 31 28 92 15 12 78 8 5 69 5 3 64 5 2
70 13 9 85 26 20 99 34 27 108 38 30 116 43 35
124 49 39 130 52 41 132 54 41 132 55 40 133 56 40
138 60 44 151 72 56 163 83 68 168 87 73 168 87 74
164 83 72 156 76 65 146 66 57 137 55 49 132 50 46
127 49 45 122 49 44 117 48 44 108 42 40 93 29 29
79 16 18 71 9 14 68 7 14 66 6 16 67 7 19
68 10 24 72 14 29 75 16 33 78 19 37 83 23 44
88 27 52 90 28 59 92 29 66 93 28 73 95 29 81
116 48 107 151 81 146 158 87 153 130 59 124 106 35 95
98 27 80 97 26 70 97 27 62 97 27 52 97 27 43
99 28 36 100 29 31 100 29 29 99 29 27 99 30 26
98 31 26 97 32 27 93 32 26 84 29 22 71 22 16
58 16 10 48 11 6 41 7 3 36 4 2 35 2 1
36 3 1 36 3 1 36 2 1 39 2 1 43 3 2
49 5 3 55 8 5 62 10 7 69 14 10 78 19 14
86 24 19 93 29 22 100 33 26 106 36 29 111 38 30
113 38 30 113 36 28 111 34 25 110 32 23 108 29 20
104 24 16 100 19 12 98 17 10 101 19 11 105 22 12
108 24 13 110 26 14 115 29 15 122 37 18 133 46 25
144 57 33 156 67 43 168 77 52 180 84 61 189 90 68
198 98 76 207 107 86 214 114 94 218 119 101 220 121 104
221 123 108 223 126 113 224 127 115 222 126 114 221 127 113
221 127 112 219 126 110 218 125 107 220 123 105 220 120 103
221 118 101 222 117 99 222 117 96 224 120 94 229 128 98
237 141 108 245 155 123 248 163 135 245 162 145 222 136 135
174 84 102 143 48 84 148 49 100 165 65 130 176 75 156
169 69 168 158 59 170 149 53 169 141 48 167 135 46 166
131 47 166 129 49 166 129 51 165 130 53 163 127 51 157
122 47 149 120 46 145 122 49 146 124 50 147 122 49 144
116 42 132 110 33 117 115 34 113 128 44 120 139 53 126
146 57 127 149 57 127 155 61 133 170 75 151 193 98 180
214 120 209 226 131 229 230 135 240 229 136 245 224 132 242
212 121 231 201 109 220 193 101 213 186 94 206 179 89 198
171 82 186 161 73 172 155 69 160 152 68 150 149 66 139
145 64 127 141 62 117 139 61 109 136 61 103 238 176 248
206 146 216 140 84 150 87 35 93 67 18 68 63 15 54
64 13 44 67 13 36 71 14 31 78 17 29 86 20 31
94 22 33 103 24 35 115 28 40 128 35 46 140 38 52
151 40 59 164 48 74 177 60 96 191 75 123 206 92 151
211 103 171 209 109 183 216 125 201 236 155 228 245 170 238
233 156 219 215 130 191 205 109 170 201 93 158 201 82 150
199 76 141 192 70 126 183 64 110 181 65 99 187 74 96
195 86 95 196 90 89 185 80 73 169 64 55 171 66 57
192 85 80 199 92 89 182 74 73 167 59 58 166 58 57
171 63 62 175 67 65 177 69 67 177 70 67 175 70 67
174 71 66 174 71 67 176 72 68 178 74 71 174 71 70
159 60 59 137 45 43 115 32 30 95 21 18 76 10 8
64 5 3 65 10 6 77 21 15 91 30 23 102 36 28
111 41 33 119 45 36 123 46 36 125 47 35 126 48 34
128 50 35 135 57 41 147 67 52 156 75 61 160 77 64
158 76 63 156 75 63 151 72 61 144 65 55 135 55 48
130 50 45 126 49 44 121 48 44 115 46 44 105 40 40
90 28 29 76 15 18 69 10 15 67 8 15 67 9 17
68 10 19 69 12 22 72 15 26 74 18 30 77 20 35
81 23 42 85 25 50 86 25 56 87 25 63 90 26 72
94 29 82 121 53 113 156 87 150 143 73 138 106 36 97
92 23 77 92 24 69 92 25 60 94 27 52 95 30 46
97 30 39 99 29 32 100 29 28 100 30 27 100 31 26
99 31 25 97 31 24 94 31 24 89 29 23 77 25 18
62 18 11 47 11 5 36 7 2 29 3 0 25 1 0
25 1 0 26 1 1 26 1 0 26 1 0 29 1 0
34 2 0 39 4 1 46 6 3 52 9 5 57 11 5
62 13 6 68 16 8 74 19 10 81 22 13 87 25 15
91 26 15 94 25 15 94 24 13 93 22 10 94 22 8
95 23 8 95 21 6 96 20 5 99 22 6 106 27 10
115 34 15 124 42 21 134 51 28 147 62 37 161 74 46
173 85 54 185 96 63 195 104 70 204 110 75 211 113 80
216 116 83 220 120 87 222 123 92 224 124 96 224 124 99
224 125 103 225 125 108 224 126 111 223 125 113 219 123 111
217 121 108 217 122 107 217 123 107 218 124 106 219 122 103
219 120 99 221 118 97 221 117 95 221 116 92 222 119 90
225 125 91 231 137 101 239 151 115 242 160 128 244 164 143
238 157 151 204 118 129 159 68 94 143 47 85 155 57 106
170 71 135 172 72 154 163 63 159 150 53 155 138 45 150
128 40 148 122 39 147 118 40 146 116 41 145 115 43 142
114 43 137 112 43 132 110 41 126 107 39 120 102 35 114
98 30 108 96 25 99 99 23 92 112 32 96 128 44 105
140 53 111 148 57 113 153 58 115 158 61 122 173 75 142
196 98 175 215 117 206 221 123 223 221 124 231 223 127 238
222 128 239 216 124 232 206 114 222 192 100 209 179 89 198
170 81 187 157 69 171 146 59 155 143 57 146 144 61 140
144 63 133 143 63 124 140 62 115 138 62 108 136 61 103
238 176 248 208 148 218 141 85 151 85 34 93 67 18 67
64 15 55 63 13 43 65 12 33 70 13 28 77 16 27
84 19 29 92 20 31 101 22 33 112 27 37 125 33 44
137 37 49 147 40 57 159 47 71 171 57 90 185 72 114
199 88 141 206 97 161 205 102 174 212 118 193 232 150 222
248 176 243 247 179 241 234 161 220 218 133 194 205 105 171
199 86 157 197 77 146 192 71 131 186 66 115 185 67 106
190 75 102 198 86 101 199 89 94 187 80 77 173 66 60
175 68 62 192 84 80 194 85 83 181 72 71 175 65 66
179 69 69 183 73 72 184 75 73 182 74 72 180 72 70
178 73 70 178 74 71 180 76 73 183 79 76 185 80 79
183 79 79 175 74 74 161 66 65 143 58 56 118 41 39
86 19 17 65 5 4 61 6 3 70 16 10 85 26 19
97 33 25 107 38 30 116 42 34 121 44 34 122 44 32
123 44 31 124 46 31 130 52 35 138 59 43 145 65 50
147 65 51 143 62 49 141 61 49 141 63 51 140 61 52
135 55 49 130 51 46 126 48 45 119 46 43 111 43 41
101 37 36 86 25 26 74 15 18 69 11 15 68 10 16
68 11 17 68 12 19 70 14 22 72 16 24 73 18 27
76 19 32 79 20 38 81 22 46 81 20 51 80 18 56
85 22 67 93 28 80 123 55 114 152 83 145 131 61 123
96 27 85 87 18 69 86 19 59 86 20 49 89 24 43
91 28 38 94 29 32 96 29 29 99 30 27 100 32 27
100 33 27 98 32 26 95 30 23 91 28 21 83 25 18
70 19 12 55 13 6 41 7 2 32 4 1 25 3 0
22 1 0 21 1 0 22 1 1 21 1 0 22 1 0
25 1 0 30 3 0 36 5 1 42 7 3 47 10 4
51 10 3 54 10 2 58 10 2 63 12 2 68 14 3
73 15 3 78 16 4 82 17 4 85 18 3 87 20 2
92 24 3 99 29 6 107 34 10 114 40 15 124 47 22
135 55 30 148 65 37 161 76 47 174 87 56 188 98 66
200 108 74 208 115 78 212 119 79 215 120 79 218 120 79
221 121 81 223 123 83 224 124 84 223 124 86 222 123 88
223 123 92 225 126 99 224 124 102 213 114 95 198 100 84
186 89 75 183 87 72 192 97 79 207 112 92 215 121 99
217 121 96 219 120 92 221 120 89 222 119 87 222 117 85
222 119 82 223 124 83 228 135 92 235 150 106 238 160 120
243 167 137 247 170 155 230 148 149 181 94 109 142 51 76
142 48 84 161 65 114 172 74 140 170 72 150 159 63 147
142 50 138 125 37 129 111 28 121 103 25 118 100 26 116
97 27 112 95 28 108 93 28 102 89 25 96 85 22 89
82 19 84 82 17 81 86 16 78 99 22 80 119 36 90
136 49 100 146 56 105 152 59 106 155 59 108 158 59 113
170 71 133 195 95 168 214 115 201 218 119 217 214 116 222
213 117 227 215 121 230 216 123 231 210 119 225 194 104 210
179 89 195 167 78 182 153 65 165 142 56 150 139 54 141
141 58 135 142 61 129 141 62 121 139 62 112 137 61 105
135 60 101 237 175 248 203 143 213 137 81 147 85 33 92
67 17 67 61 13 53 62 12 41 65 12 33 69 13 27
75 15 26 83 18 27 90 19 28 98 20 30 108 24 34
121 30 40 133 35 47 146 41 57 157 49 70 166 57 85
176 67 104 189 79 128 198 90 149 203 99 167 215 118 191
233 147 220 242 170 238 247 184 246 247 185 242 234 160 221
212 121 189 197 91 164 194 79 150 193 73 136 190 69 123
190 70 115 195 78 111 201 86 108 201 89 101 191 80 85
178 68 68 178 69 67 189 79 77 186 76 75 176 66 65
178 68 68 186 77 77 190 80 79 189 80 78 185 77 75
182 74 73 180 74 73 180 75 73 182 78 77 186 82 81
189 85 84 190 87 87 188 87 88 181 86 86 169 81 80
143 63 61 102 32 30 69 8 7 58 3 1 64 10 6
79 21 15 92 29 22 104 36 29 114 41 34 120 44 35
123 46 35 125 47 34 125 48 32 125 48 32 128 50 34
132 53 38 133 52 39 131 51 38 131 52 39 134 56 45
138 59 50 137 57 52 132 53 50 126 49 46 117 45 42
106 39 38 94 31 30 81 21 21 71 14 15 68 12 15
68 12 16 68 13 18 69 14 19 70 16 21 71 17 23
72 18 25 74 19 29 76 19 35 78 19 42 77 17 46
77 15 52 81 18 63 93 28 80 124 56 114 144 75 135
118 49 108 90 21 75 85 17 63 83 17 53 83 18 42
86 22 36 89 26 31 90 27 27 94 29 26 97 31 27
100 33 28 99 34 28 97 33 26 92 29 22 85 25 17
76 21 12 63 14 6 48 7 2 37 4 0 29 2 0
24 2 0 20 1 0 19 0 0 18 1 0 17 1 0
18 1 0 22 2 0 27 4 0 33 6 1 39 9 2
45 10 2 49 11 2 53 12 1 57 12 1 61 13 1
67 15 1 74 18 3 81 21 5 87 24 7 93 28 7
101 35 9 110 43 13 121 51 19 132 59 27 142 66 34
154 75 42 167 84 51 179 92 57 188 98 62 197 104 68
207 112 74 215 117 77 218 119 78 218 119 76 218 118 74
219 119 73 222 121 75 224 124 78 225 125 79 224 125 81
222 123 82 222 123 86 225 126 93 219 120 91 195 95 70
162 63 42 141 42 26 142 45 27 167 71 48 198 103 77
215 120 92 218 122 90 220 122 84 223 123 82 224 121 80
223 120 77 222 121 75 222 125 76 226 136 83 233 152 99
240 165 116 243 172 133 247 175 149 240 163 152 202 119 121
150 63 76 130 41 63 145 54 87 163 69 117 172 77 135
171 77 141 159 67 136 139 50 124 116 32 108 99 20 95
89 15 88 85 15 84 82 16 80 79 16 75 76 15 70
74 13 65 75 13 64 80 16 66 90 20 70 110 31 79
133 47 92 148 58 102 156 63 104 158 62 103 158 59 102
157 57 104 166 65 120 189 88 156 211 110 191 216 117 211
212 114 217 209 113 220 208 114 223 210 118 225 211 120 226
201 112 217 186 98 201 171 83 184 155 68 165 143 57 149
139 55 139 140 57 133 141 61 127 139 61 119 137 61 110
135 60 102 134 59 98 234 171 244 190 129 200 124 67 134
81 29 88 66 16 67 60 11 51 60 10 40 63 12 32
67 12 27 73 14 25 80 16 25 87 17 26 94 18 27
104 21 30 117 27 36 129 33 44 142 41 56 155 50 69
161 56 80 168 62 94 179 71 114 190 82 136 200 95 159
218 120 190 233 145 217 231 155 225 234 170 234 246 188 247
244 178 239 221 139 208 200 102 176 193 84 158 194 78 145
193 74 134 194 75 126 198 80 122 203 86 118 204 89 111
196 82 96 183 71 78 181 69 73 186 75 77 179 69 69
170 60 60 176 66 66 188 78 78 192 83 82 192 84 83
190 82 82 186 78 79 181 75 76 179 74 74 180 76 76
186 82 82 192 88 89 197 94 95 199 98 100 195 99 100
188 97 97 165 82 81 123 49 47 81 16 15 59 3 2
59 6 3 69 14 9 82 23 17 95 31 24 107 39 32
117 45 36 124 50 39 129 53 40 130 54 39 127 51 35
125 49 33 125 47 33 125 46 33 126 46 35 129 50 39
135 56 47 140 61 54 139 60 56 133 56 53 124 50 48
113 43 41 99 34 33 86 24 24 74 16 16 68 12 13
67 12 14 68 13 16 68 14 17 68 15 18 69 16 20
69 17 20 69 17 21 71 17 25 73 16 31 74 16 38
75 14 44 77 15 53 82 19 65 97 32 84 125 58 114
133 65 122 106 39 93 86 19 67 83 17 57 82 17 47
82 18 37 85 23 31 88 27 28 90 28 25 92 29 25
95 32 27 98 35 30 98 36 30 95 34 27 88 28 20
80 22 13 70 16 7 57 9 2 44 4 0 34 2 0
28 2 0 23 2 0 19 1 0 16 0 0 15 0 0
13 0 0 15 1 0 19 3 0 25 6 1 32 8 2
38 10 2 43 12 2 48 13 2 55 16 2 60 19 3
66 21 4 74 25 6 84 30 10 93 36 16 102 41 20
112 48 22 125 58 25 137 67 30 147 75 37 157 81 44
166 86 48 175 92 53 186 98 58 194 102 62 200 104 63
205 107 65 211 111 67 215 113 69 217 114 69 218 115 68
219 116 68 220 118 68 221 120 69 222 122 70 222 123 72
221 122 73 220 121 75 220 122 78 222 123 84 217 118 83
195 96 64 164 65 36 144 46 21 152 54 27 179 82 51
207 111 78 220 124 89 221 124 84 222 124 77 225 125 75
225 124 73 224 123 72 224 124 70 223 127 70 225 137 77
234 155 94 242 171 114 243 176 128 242 174 138 240 167 145
219 141 131 169 88 87 129 46 53 128 42 59 148 58 86
165 73 110 175 82 126 175 83 133 162 73 128 139 52 110
113 31 90 97 20 77 90 18 71 86 19 67 82 18 62
78 16 56 78 16 54 82 19 57 90 25 62 105 33 71
129 46 85 152 61 99 164 70 106 167 71 106 166 66 101
162 61 97 159 57 97 164 61 110 182 79 141 203 101 177
213 113 202 212 114 214 208 112 217 203 109 216 200 108 215
204 113 218 205 116 219 198 110 210 182 95 193 160 74 167
142 57 145 137 53 135 139 57 131 140 60 126 138 60 117
135 59 107 133 58 100 132 57 96 230 166 240 179 118 189
112 55 122 75 23 83 66 16 66 60 11 51 59 10 39
62 10 31 65 11 25 71 13 24 78 15 24 84 15 24
91 16 24 101 19 27 113 24 33 124 31 41 137 39 53
150 49 66 158 55 77 163 59 88 172 66 104 184 77 126
198 93 152 217 118 185 229 138 209 221 141 212 219 149 217
234 169 234 243 175 241 232 154 225 210 121 196 197 97 172
196 86 157 196 80 146 196 79 139 199 82 134 203 87 130
205 90 123 199 86 110 189 75 93 185 72 83 187 75 82
179 69 72 169 60 61 174 65 65 186 77 78 193 85 85
197 89 90 199 91 93 196 87 91 188 81 85 182 76 78
180 76 78 186 83 84 196 93 94 204 102 103 206 106 107
203 105 107 198 104 105 182 95 95 145 67 66 99 31 29
67 8 7 57 4 1 58 7 3 67 14 8 80 23 16
94 32 24 106 40 31 116 47 37 124 53 41 130 57 44
132 58 45 132 57 44 130 53 42 128 49 39 128 49 40
134 54 46 140 60 54 142 63 59 138 60 58 129 54 53
119 47 46 106 39 38 91 28 27 76 17 17 67 11 11
64 10 10 65 11 13 66 12 15 67 14 17 67 15 18
68 16 19 68 16 18 67 15 19 67 14 22 68 12 28
70 11 35 73 13 44 79 17 56 88 25 72 106 41 94
125 59 114 120 53 109 96 30 81 83 17 62 82 17 52
81 17 42 81 19 32 84 23 27 87 26 24 88 28 22
90 29 24 94 33 27 97 37 31 98 38 32 93 35 27
85 28 19 74 19 10 64 12 3 53 7 1 42 3 0
34 2 0 28 3 0 24 4 1 18 2 1 14 1 0
12 0 0 10 1 0 12 2 0 18 5 0 25 8 2
31 11 3 37 13 3 43 13 3 49 15 3 56 20 4
64 24 6 71 28 8 81 33 12 93 41 19 105 49 26
115 55 31 126 62 33 140 70 36 152 78 40 162 85 46
170 90 50 175 92 51 182 94 52 189 97 54 197 100 56
203 103 57 207 105 59 211 107 60 213 109 61 214 110 61
216 111 62 217 113 63 218 115 63 217 117 62 216 117 62
216 116 62 215 116 64 215 117 67 216 118 71 217 118 74
217 117 76 210 111 72 197 98 61 189 90 55 195 97 60
209 111 72 219 123 81 223 126 82 222 125 77 222 124 71
225 125 69 225 125 68 225 125 67 224 125 66 223 129 66
225 138 73 233 157 91 243 176 113 243 181 126 239 176 131
239 171 138 231 157 136 194 117 104 144 66 60 122 42 42
132 48 57 152 64 82 168 78 103 178 87 119 176 84 122
157 66 109 132 44 88 116 33 75 109 31 71 103 30 66
97 28 59 93 26 55 95 28 55 102 34 61 113 42 69
130 51 80 154 65 95 173 77 108 181 81 111 180 79 108
175 72 100 169 64 94 165 60 95 167 61 105 176 71 127
192 88 159 206 104 189 209 110 206 204 108 211 197 103 209
191 99 205 191 100 205 195 106 207 198 111 208 193 106 200
169 83 174 142 58 144 133 50 130 137 55 128 139 58 123
136 59 114 134 58 105 132 57 99 130 56 94 230 166 241
181 120 192 113 56 124 74 22 82 65 15 66 61 12 52
59 10 39 60 9 29 64 10 24 70 13 23 76 14 22
82 14 22 88 14 22 98 17 25 109 22 30 121 30 40
135 39 53 148 49 67 156 54 75 162 58 84 171 66 100
183 78 121 198 94 147 215 116 178 224 131 199 216 131 201
210 132 202 216 142 212 230 156 227 238 161 233 225 143 217
206 115 189 197 96 170 196 87 158 196 83 151 197 84 145
201 87 141 204 91 136 202 89 125 193 81 108 190 78 98
191 81 95 184 75 84 172 65 70 173 65 69 184 77 80
195 88 91 203 96 100 209 100 106 208 99 105 201 93 98
192 86 90 187 83 86 191 88 91 201 99 101 209 108 110
210 109 111 207 107 110 203 106 108 193 101 103 165 83 83
120 48 47 79 17 15 58 4 2 50 3 0 54 7 2
63 14 7 75 21 13 87 28 20 97 35 26 107 41 31
116 48 37 125 55 45 132 60 51 134 60 53 132 56 50
132 54 50 136 56 54 140 60 59 139 60 60 131 55 57
121 49 50 111 42 43 97 34 34 82 22 22 68 11 11
61 7 7 61 8 9 63 10 12 65 12 15 66 13 17
67 14 18 67 15 19 66 14 18 66 13 18 65 11 22
66 9 28 69 10 37 75 14 49 82 20 62 96 32 81
115 50 104 121 56 112 107 41 95 88 22 72 80 14 56
78 14 46 78 15 36 79 18 28 81 21 23 84 24 20
86 27 20 89 29 23 93 33 27 97 38 32 98 40 33
93 36 28 82 27 18 69 17 7 59 10 1 51 6 0
43 4 0 36 4 0 31 5 1 25 6 2 19 4 2
13 2 1 10 1 0 9 1 0 12 3 0 18 6 1
25 10 3 32 13 5 38 15 5 43 15 4 49 17 4
57 22 6 65 26 8 74 31 10 85 38 15 97 45 23
109 53 30 118 59 34 129 64 35 142 70 36 154 76 39
164 83 44 171 87 47 176 88 47 181 89 46 187 90 46
192 93 47 197 95 48 201 97 49 204 99 51 206 101 52
207 103 53 208 105 54 210 107 55 212 110 56 212 112 56
211 112 55 210 111 56 211 112 59 212 113 62 211 112 63
208 108 61 208 107 63 213 113 69 215 116 72 215 117 72
217 119 74 220 122 76 221 124 75 221 124 73 221 123 69
222 122 65 223 123 64 224 124 65 224 124 64 224 125 63
222 128 64 223 138 72 233 158 91 245 181 116 246 189 129
240 182 130 238 175 133 233 165 132 212 140 116 172 98 79
132 56 43 120 41 34 134 50 52 154 65 75 171 79 96
179 84 108 168 72 102 148 53 86 135 45 77 131 45 75
125 44 70 117 39 62 114 37 58 117 41 60 127 50 68
138 58 78 153 66 88 170 74 99 182 80 106 186 82 107
184 78 102 177 69 94 169 61 87 167 58 88 169 60 99
172 64 116 181 76 142 194 91 171 199 99 191 196 99 199
190 96 201 184 92 198 179 90 194 179 92 191 188 100 196
195 108 201 179 93 183 147 63 148 131 48 127 133 51 123
136 57 121 135 58 113 132 57 105 130 56 98 128 55 94
234 171 246 193 131 204 123 66 134 76 24 85 64 14 65
61 12 52 59 10 39 59 8 28 62 9 23 68 11 21
74 13 21 80 14 21 87 14 21 97 17 24 108 23 30
121 31 41 137 43 57 152 54 72 160 59 80 166 63 87
177 72 102 191 85 124 204 100 149 217 116 173 221 124 188
217 124 193 210 122 193 207 123 194 217 136 207 235 156 228
236 158 230 220 136 210 204 111 187 197 96 172 195 89 163
195 88 157 199 89 152 203 92 147 202 91 138 197 86 124
196 85 115 197 88 110 191 84 99 179 73 84 175 69 78
184 79 87 198 91 100 208 101 110 215 106 116 216 107 116
213 104 112 206 99 106 200 95 100 199 96 100 205 103 106
210 109 111 210 108 111 209 107 110 206 106 109 200 105 107
181 95 96 141 65 64 95 29 27 63 8 6 48 2 0
46 3 0 51 7 2 59 11 5 66 15 9 75 20 13
84 25 18 93 31 24 105 40 34 117 49 45 125 54 52
128 54 55 129 52 55 131 53 57 133 54 60 129 52 57
119 47 52 110 41 46 98 34 38 85 25 27 72 16 17
62 8 9 56 5 5 57 6 7 60 9 11 63 11 15
65 13 18 66 13 19 66 12 19 66 11 19 65 9 20
64 8 24 66 8 32 71 12 44 77 16 55 84 22 67
102 38 89 119 54 110 114 49 105 95 30 84 82 17 65
77 12 52 75 11 41 75 13 32 77 16 25 79 19 20
82 22 18 85 26 19 89 30 23 93 35 28 97 39 32
97 40 32 90 35 26 78 26 15 66 16 5 57 10 1
51 7 0 45 6 0 41 8 1 36 10 3 28 8 3
18 4 2 11 2 1 8 1 1 8 2 0 12 4 1
20 8 4 27 12 7 34 15 8 39 16 8 44 16 6
49 17 4 56 21 5 63 24 6 70 28 8 81 34 13
93 42 19 105 50 27 115 56 32 127 61 33 139 65 33
152 71 36 161 77 40 167 80 42 172 81 42 177 83 41
182 84 40 185 85 39 187 85 38 190 86 38 193 89 40
195 91 41 197 94 43 199 98 46 201 101 49 204 104 50
205 106 50 204 106 49 204 106 51 206 107 55 208 108 58
206 105 56 200 99 51 198 98 51 207 106 59 215 115 67
217 119 69 218 120 69 219 121 69 220 122 68 220 123 66
221 122 64 221 120 62 222 120 61 222 122 62 223 123 62
223 124 63 222 128 64 222 138 72 232 159 92 247 187 120
250 198 134 242 188 131 235 176 127 230 166 124 220 152 117
197 128 97 155 84 58 121 46 27 119 39 27 136 50 46
157 64 70 174 75 90 176 75 96 166 64 89 156 57 83
153 57 82 148 55 77 141 51 69 138 50 66 142 54 69
150 61 76 159 67 83 166 70 88 173 71 92 180 72 96
183 73 96 181 70 93 175 63 86 169 57 80 167 55 81
167 56 91 167 58 105 171 64 124 180 76 151 187 87 174
188 90 188 185 91 194 180 89 194 174 85 188 171 84 182
177 91 185 190 104 195 187 102 190 158 74 158 134 51 129
131 49 120 134 55 118 133 56 112 131 56 105 129 56 99
127 55 95 238 174 249 201 140 213 130 73 142 77 24 85
63 13 65 61 13 53 59 10 39 57 7 27 60 7 20
66 10 19 72 13 20 78 14 20 86 16 22 97 20 25
109 26 31 123 34 43 140 48 62 157 61 79 169 68 88
177 73 96 189 83 111 204 97 133 216 110 154 221 117 170
221 119 179 220 120 185 216 118 187 210 115 186 211 122 192
224 140 211 236 157 228 235 156 228 223 137 213 209 117 195
202 106 183 201 101 175 202 99 169 204 98 161 203 94 150
199 90 137 200 91 130 201 94 124 198 92 115 189 84 102
183 78 94 188 83 99 202 95 112 213 105 121 218 110 124
220 110 123 219 110 122 216 110 119 212 107 114 207 104 109
206 105 109 208 107 110 209 106 110 209 105 110 208 105 109
204 106 109 190 100 102 156 76 76 111 41 39 72 14 11
50 3 1 43 1 0 44 3 0 48 5 1 52 7 3
58 10 6 65 14 10 75 19 17 86 27 27 96 34 36
105 39 44 112 43 51 115 43 54 116 41 54 117 40 54
112 38 52 104 35 47 95 31 41 82 22 30 69 13 20
62 9 13 56 6 9 52 3 5 53 4 6 57 7 11
62 10 16 66 12 20 68 13 22 67 11 22 66 9 22
66 8 23 66 7 28 68 8 38 73 13 50 79 18 61
92 30 78 113 50 104 121 57 114 107 42 99 89 24 77
80 14 61 76 11 50 74 11 40 74 12 30 76 15 24
78 18 20 81 22 19 85 26 20 89 31 25 94 37 29
97 39 31 94 38 29 85 31 21 74 22 11 65 15 3
59 11 0 53 9 0 50 10 1 49 14 5 45 17 8
32 11 6 17 4 2 9 1 1 6 0 0 7 1 0
13 5 3 22 11 7 32 17 12 39 20 14 45 20 14
48 20 12 52 20 9 55 20 6 58 19 4 62 20 3
70 24 5 81 31 10 93 40 17 105 47 23 118 53 26
132 59 28 144 65 32 153 70 36 158 72 36 163 74 36
169 77 36 174 79 36 177 79 34 179 78 32 181 79 32
183 82 33 185 85 35 188 88 37 190 92 41 193 95 43
195 98 44 197 99 44 196 99 43 197 99 45 199 101 49
203 103 53 204 104 54 201 101 52 201 101 52 206 106 57
212 112 62 215 116 64 217 118 64 218 119 63 219 120 62
220 121 62 220 120 61 221 118 60 221 119 61 221 120 61
222 121 61 223 123 62 222 127 65 222 136 73 231 158 93
246 189 122 251 204 138 242 193 131 234 178 121 230 168 117
224 158 112 214 147 106 186 118 82 142 70 41 117 40 19
122 37 25 140 48 46 159 59 67 174 69 84 178 70 90
173 65 88 170 63 85 167 62 82 164 61 78 164 62 77
168 66 81 173 70 85 176 71 87 177 70 88 181 70 91
186 73 96 191 76 98 189 74 96 184 69 90 179 63 84
174 59 83 170 57 88 166 55 97 165 56 111 171 65 134
179 77 160 183 85 179 182 88 189 178 87 190 171 82 183
166 79 175 169 83 175 180 95 185 189 104 191 175 91 174
151 69 146 140 59 129 136 58 120 131 55 111 129 54 104
128 55 99 127 54 96 234 170 246 199 138 212 132 74 143
80 26 87 64 14 65 61 13 53 57 9 38 56 6 26
58 7 19 64 10 18 70 13 19 78 15 21 87 19 23
99 23 28 111 29 34 124 37 46 141 50 64 158 62 80
171 72 91 183 80 101 198 91 117 214 106 138 223 115 156
225 117 166 223 116 172 222 116 176 220 114 179 215 113 179
211 114 182 214 124 193 226 142 212 238 159 230 241 161 235
231 148 224 221 133 210 218 125 202 218 120 194 216 114 183
211 105 168 206 98 153 207 99 146 209 103 141 208 103 135
203 99 126 197 93 117 200 94 119 210 104 128 219 111 134
222 113 133 222 112 129 221 113 127 221 115 127 218 113 122
213 109 116 209 107 113 210 107 112 212 107 113 211 106 111
207 103 109 201 101 105 187 95 98 162 78 78 123 49 48
84 21 19 57 6 4 45 2 0 42 1 0 42 2 0
44 3 2 47 5 5 53 8 10 62 13 18 72 19 27
81 23 35 87 26 41 93 29 46 97 30 50 99 29 51
99 27 50 95 25 48 87 23 44 78 19 36 67 11 26
58 6 18 53 4 13 50 2 9 48 2 7 52 4 9
58 9 14 64 12 20 68 14 25 70 15 28 71 13 29
71 11 29 71 10 32 71 10 37 72 12 47 79 19 60
94 33 80 117 55 106 132 69 124 122 58 115 99 35 91
85 20 72 78 13 59 75 11 48 74 11 38 73 12 30
75 15 24 78 18 20 81 22 20 85 26 21 89 32 24
94 36 28 95 38 28 91 35 25 82 27 16 72 19 7
65 14 1 61 12 0 58 11 0 56 14 2 57 20 7
52 22 11 37 14 8 19 4 2 8 0 0 5 0 0
6 1 0 12 4 2 21 10 8 33 18 16 45 26 22
54 30 26 59 31 24 60 29 19 59 25 12 58 20 6
58 17 2 61 16 1 68 20 2 78 26 7 88 32 11
101 38 14 116 46 19 129 55 25 139 61 29 145 65 31
151 67 31 158 71 33 164 73 33 169 75 33 173 77 33
176 78 32 178 80 32 180 82 33 181 84 34 183 87 36
185 89 37 187 91 38 190 94 38 191 94 39 191 95 41
194 97 45 198 99 50 201 102 53 202 102 54 202 102 54
205 105 56 208 108 58 211 111 59 213 114 59 214 115 58
215 115 57 216 116 57 218 117 58 219 116 59 220 117 60
219 117 59 220 118 59 221 120 61 220 124 64 220 133 72
229 156 92 246 190 122 251 207 138 242 195 128 235 181 117
233 173 114 229 165 110 226 160 109 214 147 102 178 108 71
133 58 30 114 32 14 125 34 26 145 46 47 163 57 67
176 65 81 181 68 87 182 67 87 179 65 83 178 63 80
179 66 81 184 70 86 187 72 89 186 71 88 185 69 88
187 70 91 193 75 97 197 79 100 194 76 96 187 69 88
181 64 83 177 61 81 173 59 85 170 58 94 168 58 107
170 63 127 176 73 151 180 81 170 179 85 181 174 83 182
166 78 176 161 75 168 160 75 165 166 81 169 177 93 178
179 96 177 171 89 165 161 81 150 148 70 133 136 60 117
130 56 107 127 54 100 125 52 96 223 158 236 190 127 202
131 72 142 83 29 91 65 15 67 60 12 53 56 8 38
56 6 27 59 8 20 63 10 17 69 13 18 77 16 21
88 20 24 100 26 30 112 32 36 124 39 46 138 48 61
152 59 75 167 69 87 183 80 100 200 93 118 216 107 137
225 115 152 227 116 160 225 115 164 224 113 167 221 111 169
217 109 170 212 109 172 211 114 180 215 125 194 228 146 216
243 168 238 242 166 239 230 149 224 225 138 214 228 134 209
230 130 203 229 124 192 225 118 179 223 116 170 225 119 165
225 120 160 221 117 152 216 111 144 215 110 142 220 114 145
225 117 145 226 117 140 225 115 134 224 116 132 223 117 131
221 116 127 217 113 122 214 110 119 215 110 118 215 110 116
212 106 113 205 100 107 193 93 98 179 84 88 161 73 75
133 54 53 97 29 28 67 11 10 51 4 3 43 1 1
39 1 1 38 1 3 39 2 6 43 4 12 50 7 19
60 12 29 73 21 42 82 26 51 83 24 52 83 22 52
86 22 53 87 21 53 84 19 51 78 17 47 69 13 40
60 7 31 53 3 23 49 2 17 46 1 12 47 2 11
54 8 16 62 13 21 67 16 26 71 18 31 74 17 34
75 16 36 78 16 40 81 18 46 83 20 54 88 26 66
102 42 87 124 62 112 138 76 128 132 69 123 110 46 101
90 26 79 81 17 66 76 13 56 74 12 46 74 12 38
74 13 30 75 15 24 78 18 21 81 21 20 85 26 21
90 32 23 94 36 26 94 37 26 90 33 22 81 26 14
73 20 6 68 16 1 65 16 0 64 16 0 63 18 2
63 23 9 58 24 13 41 15 9 22 4 2 10 1 0
6 1 0 6 1 0 9 1 1 16 6 5 30 16 15
47 30 28 61 39 36 67 41 36 67 39 31 64 33 22
62 26 13 59 20 6 58 15 2 59 13 0 65 15 1
72 18 3 81 24 4 94 32 7 108 41 13 118 50 19
127 55 23 135 59 27 144 65 30 153 69 32 161 73 34
167 77 35 171 79 35 174 80 34 176 81 33 177 83 33
178 84 34 179 85 33 181 86 33 184 89 34 185 90 35
186 90 37 188 92 41 192 94 45 195 96 49 195 97 50
196 98 50 199 100 51 203 103 53 206 106 55 209 109 55
210 110 54 211 110 53 212 112 54 215 113 55 218 114 58
219 115 58 218 115 57 217 116 57 218 117 58 217 120 61
216 129 69 226 153 89 244 189 121 251 207 136 241 195 124
233 181 112 234 175 110 234 171 109 234 169 110 233 166 113
212 143 99 165 92 57 122 42 19 114 27 14 131 36 30
149 46 49 165 55 65 179 64 79 187 69 86 187 67 84
185 64 80 186 65 80 190 68 84 192 69 87 190 68 86
186 64 83 185 63 83 187 66 86 187 66 86 181 61 79
174 54 71 170 51 67 168 50 67 168 52 74 169 55 86
169 58 101 171 63 121 175 71 142 176 78 160 175 80 171
169 79 174 162 75 169 158 72 163 155 71 158 155 71 157
157 74 158 162 80 159 168 87 162 171 91 160 162 85 147
147 71 128 135 61 112 129 56 103 125 52 97 211 144 223
177 113 189 126 67 138 85 30 94 67 16 69 60 12 53
56 8 39 57 8 29 60 10 22 63 11 17 68 12 17
76 16 19 87 21 23 99 27 29 110 32 35 121 37 43
133 44 55 146 53 68 160 63 80 177 75 94 195 88 111
210 101 128 221 110 143 225 114 152 225 113 155 225 112 158
223 110 160 218 107 161 214 107 165 212 110 173 210 115 181
218 133 200 237 162 229 239 167 236 222 145 217 213 128 203
216 123 199 225 125 200 235 130 201 238 131 197 238 130 188
237 130 181 235 130 175 231 126 166 225 120 158 221 117 153
222 116 151 225 117 148 226 117 142 226 116 137 226 117 135
225 118 134 224 119 133 222 118 129 220 115 126 218 113 122
215 109 117 210 104 111 201 96 103 186 84 90 170 74 78
159 68 71 141 57 58 110 36 36 79 16 17 59 6 7
46 2 3 38 0 2 33 0 4 31 0 8 34 1 15
40 2 22 57 14 40 89 41 72 113 61 97 113 57 96
105 47 88 103 42 85 103 41 84 104 42 85 101 42 84
90 35 74 71 19 54 54 5 35 47 1 25 45 1 19
47 4 17 55 10 22 63 16 27 69 19 31 74 20 36
76 19 39 79 19 43 84 22 51 93 29 62 102 39 76
113 51 95 126 65 114 135 74 124 127 65 117 108 46 98
92 29 80 84 21 70 80 17 61 77 15 53 76 15 47
78 16 40 78 17 33 78 18 26 80 21 23 83 24 22
88 29 22 93 34 24 96 37 26 95 37 26 90 33 21
83 27 14 76 22 7 73 21 3 72 21 2 71 21 1
70 22 3 70 26 10 64 26 14 46 17 9 24 5 2
11 1 0 6 1 0 5 1 1 5 0 0 11 3 3
25 14 13 46 30 29 62 43 41 70 47 43 70 44 38
66 37 29 63 31 21 61 26 14 58 20 7 58 16 4
60 15 3 64 16 3 69 18 2 76 22 2 85 28 4
95 35 9 104 42 14 115 48 19 127 56 24 139 64 30
150 70 34 157 74 36 162 76 35 165 77 34 169 79 33
172 80 33 173 81 32 174 81 31 175 82 30 177 83 29
179 84 30 180 85 33 182 86 37 185 88 41 187 90 44
189 91 46 191 92 47 195 96 49 199 100 51 203 103 53
206 106 53 207 107 52 208 107 52 210 109 52 213 110 54
216 112 56 218 113 56 216 114 55 215 114 55 216 115 56
214 117 59 213 126 67 224 151 88 244 189 122 250 206 135
238 193 120 231 179 106 234 175 104 237 173 105 238 173 108
241 174 114 234 165 112 203 130 87 152 75 43 117 34 14
116 27 15 131 34 30 149 44 47 168 57 66 182 66 78
187 67 81 189 66 80 191 66 80 192 67 82 192 66 82
189 64 81 187 62 79 186 62 80 187 64 82 186 64 82
182 61 76 177 57 70 173 54 66 170 52 64 166 50 67
163 49 74 161 50 86 164 56 107 171 67 131 175 76 152
172 78 163 166 76 166 160 73 164 156 71 159 154 70 155
152 68 151 145 63 144 142 60 138 148 68 141 159 79 147
162 84 146 152 77 133 140 66 117 131 58 105 126 53 98
200 134 212 163 99 175 118 58 129 84 29 93 67 17 70
61 12 54 58 10 40 59 10 31 61 11 23 63 11 17
66 12 16 74 15 18 85 20 22 97 26 27 107 30 31
116 34 38 127 40 48 138 47 59 151 56 70 167 67 83
182 77 97 196 88 112 209 99 128 218 107 139 222 109 145
223 109 148 221 108 150 218 106 153 216 107 159 214 109 168
209 111 175 214 126 192 233 158 223 238 169 234 220 145 214
202 118 191 198 105 180 206 105 181 221 115 188 233 124 192
236 127 188 234 126 180 229 123 170 224 119 160 220 115 154
218 113 150 218 113 147 221 113 144 224 114 140 226 115 138
226 117 138 227 120 138 228 122 138 227 121 135 224 118 130
219 112 122 212 104 113 205 98 106 195 90 97 180 77 84
164 67 72 156 64 67 144 57 59 119 39 41 89 21 23
67 9 12 50 3 6 38 0 4 30 0 7 27 0 12
29 0 20 37 2 30 67 26 62 127 80 122 175 124 170
182 127 177 172 115 167 167 108 161 167 106 160 167 107 161
157 98 152 128 72 124 89 36 83 59 10 49 47 1 32
45 1 25 48 5 24 55 11 26 62 15 29 69 18 34
74 20 39 77 20 43 79 20 47 87 26 58 100 37 73
113 50 91 120 58 105 121 60 110 116 56 106 103 43 92
89 27 75 82 21 67 82 20 63 79 18 57 78 18 51
81 20 48 83 22 43 83 23 37 83 23 30 84 25 26
87 28 25 91 32 25 96 36 26 98 38 27 97 37 25
91 33 20 84 27 14 79 24 8 78 25 6 79 27 5
78 26 4 76 26 6 75 29 12 68 28 14 49 17 9
26 5 2 11 1 0 5 1 0 3 1 1 3 0 1
7 2 3 20 11 11 39 26 26 56 39 38 64 45 42
63 41 37 58 34 28 59 32 23 62 32 21 63 31 18
64 28 16 65 26 14 68 26 13 69 25 10 67 22 4
68 21 1 73 23 2 81 27 5 92 34 9 104 42 15
118 52 22 131 60 28 141 66 31 147 69 32 153 71 31
158 73 31 162 75 30 164 76 29 165 75 27 167 76 25
169 78 25 172 79 27 174 80 31 176 81 35 178 82 38
180 84 40 182 85 42 185 88 44 191 93 48 196 97 50
201 101 51 204 104 52 206 105 51 207 106 51 209 107 52
212 109 53 215 111 54 216 112 54 215 112 53 214 112 53
214 113 55 213 115 58 212 124 66 223 150 89 244 190 124
250 207 136 237 192 118 230 177 103 234 173 101 237 172 101
240 173 104 242 174 108 241 172 112 229 158 105 191 117 74
140 63 32 111 29 10 114 26 15 133 37 32 152 49 50
168 58 63 179 63 71 186 66 76 191 67 78 190 65 78
188 63 76 185 61 75 187 62 76 193 69 83 200 77 91
204 82 95 203 82 93 199 79 87 193 74 81 186 69 76
177 61 72 166 52 69 155 44 73 154 46 89 164 59 117
173 74 144 173 79 159 166 76 161 159 72 159 154 70 154
152 68 150 149 66 146 140 58 136 132 51 126 135 55 126
145 66 132 152 75 135 150 75 130 141 68 118 132 60 106
127 55 100 195 129 207 152 88 164 108 48 120 81 26 89
67 16 69 61 13 54 59 11 41 60 12 32 61 12 23
62 11 17 65 12 15 73 15 17 84 20 21 96 26 26
105 29 30 114 32 34 122 36 41 131 40 49 142 48 59
156 58 72 168 66 83 179 74 95 192 84 109 205 95 123
213 101 131 216 102 134 216 102 138 216 103 144 213 104 151
210 104 160 207 107 170 212 123 188 231 156 220 241 172 236
226 150 219 203 117 190 190 96 171 192 90 166 206 99 172
222 112 180 230 119 180 227 118 171 219 112 158 213 108 149
213 108 145 214 110 144 216 111 143 219 112 141 222 113 139
224 115 138 226 118 139 228 121 141 230 124 141 229 123 138
225 117 131 217 107 119 206 97 107 198 89 98 187 82 89
173 71 77 161 63 67 154 60 63 145 54 57 124 40 43
97 24 28 73 12 16 53 4 9 39 1 7 30 0 11
26 1 18 29 1 27 40 7 42 83 44 88 161 115 166
221 169 225 234 179 238 230 172 233 227 168 231 227 167 230
217 157 221 185 126 191 137 80 144 94 39 97 64 14 63
50 5 43 47 4 33 50 6 29 53 9 27 59 13 29
67 17 34 72 19 39 75 19 43 78 19 49 86 25 59
98 36 74 105 43 86 102 40 88 95 35 85 93 33 81
88 29 74 80 20 63 77 17 57 78 18 55 79 19 52
81 21 49 85 24 48 88 27 45 88 28 40 87 28 33
88 30 28 91 33 28 95 37 28 100 40 29 102 41 29
100 38 26 94 34 21 87 29 15 84 28 11 85 31 10
86 34 11 85 32 9 82 31 9 81 33 14 73 31 15
52 19 9 28 6 2 11 0 0 4 0 1 2 1 2
1 1 2 4 1 2 12 6 7 25 16 16 37 25 24
44 29 27 44 27 23 42 23 18 49 27 20 60 36 26
69 41 31 73 42 31 74 42 30 76 41 28 75 37 24
68 29 13 61 21 5 60 17 1 64 17 1 72 22 3
83 28 6 94 35 10 107 43 16 120 52 23 130 58 25
138 62 26 145 66 27 151 69 27 155 71 26 157 71 25
160 72 23 163 73 24 167 74 26 170 76 30 171 77 33
172 77 36 174 78 38 177 80 40 181 84 42 187 89 45
193 94 47 198 98 48 201 101 48 203 103 48 205 104 48
207 105 49 210 107 49 212 108 50 213 109 50 212 110 50
212 110 50 213 111 53 212 114 57 211 122 66 222 149 90
244 190 126 250 207 137 236 191 118 229 176 101 233 172 99
237 170 98 239 170 100 241 172 103 242 172 106 240 169 108
220 149 96 176 104 61 127 54 23 109 30 9 119 33 19
135 42 33 150 48 45 164 54 56 177 61 66 184 64 71
184 62 71 181 59 69 179 58 69 183 61 71 192 68 78
202 79 88 207 86 94 207 86 92 201 81 85 194 76 78
188 72 73 182 67 71 171 57 69 156 45 67 148 40 76
155 51 102 169 70 134 173 80 154 166 77 157 157 71 153
152 67 148 149 66 144 144 62 139 134 53 128 128 48 120
133 54 123 142 64 128 147 71 129 147 72 125 142 68 117
135 63 109 131 60 104 196 130 209 146 82 159 100 41 112
77 22 86 65 15 68 61 12 54 59 11 41 59 11 31
61 11 23 62 11 17 65 12 15 73 16 17 85 22 22
97 28 28 107 31 31 114 33 34 120 34 37 125 35 42
135 41 51 148 52 64 158 59 74 165 64 82 175 71 92
188 81 104 199 90 114 207 95 121 211 97 128 210 97 134
205 94 139 202 95 148 203 103 164 210 120 184 227 151 215
241 170 235 228 150 220 203 115 189 187 90 167 186 81 158
200 90 164 218 106 174 228 116 176 224 114 166 213 105 150
206 101 139 207 102 136 210 105 136 211 106 135 214 108 134
219 111 136 224 115 138 227 119 141 229 122 142 231 124 142
229 122 138 223 113 128 212 101 114 201 90 101 191 82 91
180 74 82 167 65 71 158 59 64 152 56 59 144 50 54
127 39 43 102 26 31 77 14 19 55 5 11 40 1 10
31 1 16 28 2 25 31 3 35 50 16 58 108 68 119
188 142 199 236 184 245 246 190 254 245 186 254 245 184 253
239 177 248 214 153 226 168 108 183 122 63 137 90 34 101
71 19 76 57 10 56 52 7 43 52 8 36 53 8 30
58 11 30 64 15 33 69 17 37 73 17 42 76 18 48
81 21 56 86 26 65 88 28 70 82 23 68 76 18 63
75 17 61 75 16 57 72 13 50 73 13 47 76 17 47
78 20 46 82 23 46 87 27 47 91 31 45 92 32 40
90 31 33 90 32 29 93 35 28 99 40 30 107 46 33
110 47 34 106 44 30 100 38 24 94 34 18 92 34 16
95 39 17 96 41 18 92 38 14 89 35 12 88 37 16
79 34 18 56 21 10 31 7 3 13 1 0 5 1 1
1 1 2 0 1 3 1 1 2 5 2 3 10 5 5
16 8 7 21 10 8 22 9 7 24 10 7 36 20 14
55 35 28 71 48 40 79 53 44 81 53 43 81 51 41
79 47 36 72 38 25 61 26 13 55 17 4 56 15 2
62 18 3 69 21 3 76 24 3 85 29 6 98 36 11
109 43 15 120 49 17 131 57 22 141 64 25 148 68 27
153 71 28 156 71 27 159 71 26 162 72 27 165 73 30
167 74 33 168 74 35 170 75 37 173 77 38 178 80 40
183 85 42 188 89 42 193 94 43 196 97 43 199 99 42
200 100 42 203 102 44 205 103 45 208 104 46 209 105 46
208 106 46 209 107 48 210 108 51 210 111 56 210 120 66
221 147 90 244 187 125 249 203 135 234 187 115 226 172 98
231 168 95 234 167 95 235 166 95 238 168 97 242 170 100
242 171 104 236 166 105 209 141 88 161 93 51 119 48 17
108 30 10 118 33 18 133 39 29 148 45 41 162 53 53
171 57 60 174 58 63 174 57 64 174 58 65 177 59 66
183 62 67 189 68 72 192 72 75 189 70 72 183 65 64
178 62 59 175 60 56 172 59 57 168 56 61 158 48 64
148 41 71 148 45 91 161 62 122 169 75 146 164 75 152
154 68 147 148 64 142 146 64 139 141 60 134 130 49 121
123 43 112 129 51 116 139 62 123 144 69 124 143 69 120
140 68 115 138 66 110 136 66 108 199 134 213 145 82 159
96 37 110 74 19 85 64 14 69 59 11 55 58 10 41
58 9 30 60 10 21 61 11 16 65 13 15 73 17 17
86 24 24 100 32 31 111 37 36 118 38 38 121 35 37
125 35 39 133 41 48 146 51 62 156 59 72 162 62 78
169 67 85 179 74 94 192 84 105 204 93 118 211 97 126
207 93 129 199 88 133 199 92 145 204 103 163 212 121 185
228 150 215 241 169 235 228 150 220 201 113 187 184 86 164
183 77 155 198 87 162 218 105 173 228 117 176 224 116 166
211 105 147 200 95 131 198 94 124 200 96 122 202 97 120
206 99 122 215 107 129 223 114 137 228 120 141 231 123 143
231 124 142 226 117 134 215 105 120 203 92 106 194 83 95
185 76 87 175 68 78 164 61 69 156 55 62 150 51 56
142 45 51 128 38 44 106 27 34 82 16 23 60 7 16
44 2 14 35 1 21 34 2 31 37 4 42 66 29 76
139 96 150 211 163 223 240 187 251 243 186 253 244 183 254
242 180 254 230 167 244 201 138 218 160 97 179 122 61 141
95 37 110 76 21 85 62 11 64 57 9 51 57 10 44
57 10 37 58 10 33 62 12 34 67 15 37 71 17 41
74 18 46 75 18 49 75 18 51 75 18 53 73 16 54
69 13 50 66 10 45 66 9 41 66 10 38 70 13 38
73 15 38 75 18 38 81 22 40 86 26 41 90 29 40
91 30 36 90 30 31 91 32 28 96 36 29 104 44 33
114 52 38 117 54 39 113 50 34 107 43 28 102 39 22
101 40 20 104 45 23 105 46 22 100 41 17 96 37 14
94 39 18 83 35 18 59 22 10 32 8 2 13 2 0
4 1 1 1 2 3 0 2 3 0 1 3 1 0 1
3 0 1 5 1 1 7 1 1 8 1 0 12 3 2
24 13 10 48 33 29 71 53 47 82 61 55 85 60 54
85 57 52 84 54 48 76 46 38 64 33 23 56 23 14
57 22 11 61 24 12 66 24 10 69 24 8 72 24 5
78 25 4 86 28 5 98 34 9 112 43 15 125 53 22
136 60 27 145 66 31 151 70 33 155 71 30 158 71 30
161 72 32 163 73 34 164 73 35 166 73 35 169 76 36
173 78 37 177 81 37 181 85 37 185 89 38 189 91 38
192 93 38 195 95 40 198 97 42 201 99 43 203 101 43
204 102 44 203 102 43 204 103 45 206 105 49 207 108 54
208 118 65 222 146 89 243 182 121 246 195 129 231 181 110
223 168 95 227 165 92 230 163 90 232 163 89 236 164 90
240 168 93 243 172 99 240 171 103 229 162 101 196 130 78
145 76 37 110 35 10 108 26 8 120 31 17 134 38 29
148 46 43 159 53 53 164 56 57 166 57 59 168 58 61
171 58 61 175 58 60 179 60 61 178 61 62 173 58 57
167 53 50 163 50 45 160 48 42 157 47 42 156 47 47
153 46 56 146 42 65 144 43 83 154 57 112 164 71 139
162 72 148 153 66 144 145 63 137 143 62 133 137 58 126
124 45 111 115 38 100 119 44 102 130 57 111 136 64 114
136 65 110 135 65 108 135 66 106 135 66 105 205 141 220
149 88 166 96 39 113 74 20 88 65 14 72 59 10 56
57 9 42 58 9 30 59 9 20 62 11 15 66 14 14
74 18 17 86 25 24 102 34 33 116 43 42 125 45 44
126 41 41 129 40 42 138 46 52 150 56 65 162 65 77
171 72 87 179 78 95 187 84 101 198 92 111 210 101 123
215 103 132 210 97 134 205 93 139 207 99 154 211 109 170
217 124 188 231 152 216 244 172 238 233 157 227 207 121 196
187 90 170 183 77 157 196 86 161 215 104 172 226 118 176
225 120 169 213 110 150 198 94 128 190 86 114 192 88 110
197 90 110 200 92 111 208 99 118 217 108 129 225 116 136
229 120 140 227 118 137 217 108 124 203 92 108 192 81 96
185 75 89 180 71 84 172 66 78 163 58 69 153 50 61
145 43 53 138 39 48 127 35 44 109 28 37 90 20 30
69 11 23 50 3 20 41 0 25 40 1 35 47 7 50
90 46 96 169 121 177 227 175 235 241 185 250 239 181 250
238 177 251 237 174 252 228 163 246 209 144 230 177 113 199
136 74 157 102 42 119 80 23 91 67 12 70 62 8 57
61 9 50 60 8 43 59 8 38 63 11 37 67 15 39
70 18 41 72 18 42 71 18 41 71 17 40 70 17 41
69 16 41 66 14 39 65 12 35 64 11 32 65 11 30
67 13 29 70 14 28 72 15 29 77 19 31 82 22 32
85 24 31 86 24 29 87 25 25 92 30 26 100 38 31
110 48 37 119 56 42 122 58 42 117 53 35 111 45 27
108 42 23 108 44 22 111 47 23 111 48 22 105 41 16
101 38 14 99 40 19 86 35 17 58 21 9 30 8 2
10 2 1 2 1 2 0 2 2 0 2 3 0 1 2
0 1 2 1 1 1 1 1 1 2 1 0 3 1 0
5 2 1 15 9 8 41 31 29 71 57 56 88 69 68
91 68 67 92 66 65 91 63 62 80 53 49 67 39 33
62 34 26 64 35 27 68 37 27 71 37 26 73 36 22
71 31 15 69 24 7 70 19 2 76 20 3 89 26 7
102 35 13 114 43 19 126 52 27 138 61 32 145 66 32
150 69 32 155 71 34 158 72 35 159 72 34 161 72 32
164 74 32 168 76 32 171 79 33 173 80 32 176 82 32
179 84 33 183 86 35 188 89 38 192 92 41 194 95 42
196 97 42 197 98 41 196 97 40 197 97 41 200 99 45
202 104 51 208 117 64 225 147 90 243 179 118 242 186 120
228 174 105 223 165 94 225 162 89 228 162 87 232 162 86
236 165 87 240 168 89 242 171 93 240 171 97 236 169 101
220 152 91 179 108 59 132 57 22 110 30 5 110 25 7
120 30 19 135 41 35 147 51 48 152 54 53 155 55 55
160 57 58 165 58 59 169 59 59 171 60 60 169 59 59
163 54 53 155 47 45 149 42 38 146 40 33 144 40 32
143 40 35 142 40 44 138 38 56 139 41 77 152 56 109
164 71 139 163 73 149 154 67 144 145 64 134 140 62 126
132 56 116 117 43 100 107 34 88 111 40 90 123 54 99
129 61 103 129 61 101 128 61 98 128 62 97 128 62 97
213 150 228 163 102 180 106 49 123 76 22 91 65 15 74
59 10 58 58 9 43 58 9 30 59 9 20 62 11 14
67 14 13 74 18 15 85 24 22 99 33 32 115 43 42
126 47 46 130 46 45 133 45 46 140 49 53 152 58 66
168 72 83 184 85 99 195 94 109 201 99 115 207 103 120
214 106 127 216 105 133 213 101 138 212 100 147 214 105 161
215 112 174 216 123 187 228 149 212 246 175 239 244 170 239
224 140 216 201 105 185 188 82 163 194 84 160 211 102 170
224 118 176 227 124 173 219 117 157 203 100 134 191 88 115
190 85 106 193 86 104 196 87 104 200 91 108 207 98 117
214 105 124 218 108 127 216 106 124 205 95 111 192 81 97
184 73 89 181 71 85 177 69 82 171 64 77 162 56 69
151 47 59 142 39 51 136 36 47 127 34 44 112 29 40
96 24 37 77 15 32 57 5 27 45 1 29 44 1 38
62 17 62 121 74 125 197 146 202 235 180 241 239 181 245
235 175 245 232 170 246 232 168 249 230 165 251 218 152 241
184 119 207 138 76 160 104 43 122 85 25 96 73 15 77
66 9 63 63 8 54 62 8 47 62 8 42 65 11 40
69 15 41 71 18 41 70 18 39 69 17 36 69 17 34
68 17 34 66 17 33 65 16 32 65 15 29 64 13 27
64 12 25 66 12 24 68 13 23 70 13 23 74 15 24
78 18 25 81 19 26 82 20 24 85 22 22 92 29 25
103 39 32 114 50 40 123 59 44 125 60 43 120 54 35
114 47 27 113 46 25 115 48 25 116 49 24 114 47 21
108 40 14 106 39 14 105 42 20 89 36 18 59 20 8
29 7 2 9 2 1 1 1 2 0 2 2 0 1 2
0 1 2 0 1 2 0 1 1 0 1 1 0 1 1
1 2 1 2 2 1 9 7 6 33 27 27 67 56 56
89 74 75 96 76 78 96 73 75 91 66 67 78 52 50
67 42 37 68 43 37 75 48 41 79 51 42 82 52 41
82 50 38 79 42 29 71 32 17 65 21 6 65 14 1
71 15 2 81 20 4 90 25 9 101 33 15 113 43 21
125 52 24 134 60 27 143 65 32 150 70 35 155 72 35
157 72 33 159 72 30 161 73 29 162 74 28 164 74 27
165 75 27 168 76 27 172 78 30 177 81 33 181 84 36
184 87 37 187 90 37 188 91 36 188 89 34 189 90 35
193 93 40 198 100 46 208 116 61 228 147 89 244 174 114
240 178 113 228 168 100 223 163 92 224 161 88 228 161 85
232 162 85 236 165 86 239 167 87 240 169 88 239 169 91
237 168 94 230 160 93 207 134 77 165 89 43 126 46 14
106 24 3 106 23 10 117 33 25 128 43 39 134 47 44
140 49 48 149 55 54 156 59 58 158 60 59 159 60 59
157 58 58 150 52 52 142 44 43 136 38 35 134 37 30
133 37 28 133 37 30 132 37 38 130 35 51 134 40 74
150 57 109 163 72 140 163 74 150 154 68 143 144 64 131
138 62 122 129 55 111 114 42 94 104 33 82 109 40 84
121 53 94 126 60 97 124 59 94 122 58 92 123 58 91
123 58 91 223 161 239 183 123 200 123 66 140 80 27 95
66 15 75 61 12 60 58 9 44 59 9 32 60 10 21
62 11 15 66 13 13 72 16 15 82 21 20 94 28 28
108 37 37 121 43 44 130 47 47 133 45 47 136 45 50
148 54 63 167 71 82 187 89 101 202 102 115 209 107 122
211 106 123 210 103 124 210 100 128 211 100 136 214 103 150
215 107 163 213 110 173 211 118 183 223 145 208 245 176 240
250 178 247 237 153 229 217 120 202 202 96 178 203 94 171
215 107 176 225 120 180 229 126 177 225 122 165 212 108 145
199 94 124 192 86 109 191 84 103 192 84 101 195 86 104
199 90 109 203 93 112 204 93 112 201 90 108 193 83 98
184 74 89 180 70 84 180 71 84 177 70 81 170 64 75
160 55 67 150 47 58 143 41 52 138 38 49 129 35 47
114 31 43 100 27 43 85 21 42 65 10 37 50 3 34
50 5 44 85 39 85 159 110 162 220 168 224 237 181 242
235 177 241 230 171 240 230 168 243 232 169 249 229 163 249
207 141 231 167 102 191 127 64 150 103 40 121 87 26 99
78 18 82 71 12 69 68 10 59 67 10 52 66 11 46
68 13 44 70 16 44 71 17 42 70 17 38 68 15 34
67 15 32 66 15 31 65 16 31 65 16 29 64 15 27
64 13 25 64 12 23 66 12 22 68 12 21 70 13 21
72 14 21 76 16 23 80 18 24 81 18 22 84 21 20
92 28 24 104 39 33 116 52 42 126 61 47 127 61 44
122 55 37 119 51 31 120 53 31 122 55 31 121 54 28
116 48 22 110 40 14 110 41 16 110 46 23 94 39 21
62 22 10 30 7 2 9 1 1 1 1 2 0 1 3
0 1 3 0 1 3 1 1 2 0 1 1 0 1 0
0 1 0 1 1 0 1 1 0 6 4 4 23 19 18
51 43 43 74 63 63 84 68 69 82 63 65 72 51 51
61 38 35 62 38 33 75 50 44 85 60 52 88 61 53
90 61 51 93 61 50 91 55 44 82 43 30 70 27 14
62 15 3 63 12 0 67 12 1 72 15 2 78 18 4
87 25 7 99 33 10 111 43 15 125 54 24 137 63 31
146 68 34 151 69 33 153 70 31 154 70 29 155 69 26
156 69 25 157 70 24 159 71 24 162 73 25 166 75 28
169 77 30 173 79 30 177 82 31 179 83 30 179 82 28
182 83 29 187 87 33 194 96 42 208 115 59 229 145 86
243 169 108 238 172 107 227 164 95 224 160 89 225 159 86
228 159 83 232 161 83 236 164 84 238 166 84 238 167 85
238 167 87 236 166 89 234 162 91 225 150 88 195 118 66
150 72 33 111 34 8 95 19 4 97 21 11 104 29 22
109 33 28 116 37 34 128 46 43 136 52 51 137 53 52
136 52 52 134 50 51 130 46 46 125 40 39 122 36 33
122 35 29 123 35 27 124 36 30 125 37 38 125 35 51
130 41 74 146 58 109 161 73 139 161 75 150 151 69 142
143 64 130 137 62 120 128 54 109 112 41 91 102 33 80
107 39 82 119 52 91 124 58 94 121 57 90 120 56 88
120 55 87 120 55 87 233 170 247 204 143 219 142 85 158
87 33 101 67 16 77 62 13 62 59 10 46 60 10 33
61 11 23 62 11 16 65 12 14 70 14 14 78 17 18
89 23 24 101 30 32 114 37 40 125 43 46 130 43 47
132 42 48 140 47 56 156 61 72 177 79 91 195 96 108
206 105 118 208 104 120 205 98 119 205 95 123 209 98 135
214 103 151 216 107 164 213 109 173 210 117 183 221 143 207
242 173 238 244 172 241 230 146 222 218 121 202 212 107 189
218 110 188 227 120 191 230 126 188 231 127 182 229 124 171
220 114 155 207 101 135 198 91 117 193 86 107 193 84 103
193 84 103 194 84 103 194 83 102 193 82 99 189 79 94
185 74 88 180 70 83 178 69 80 178 70 80 174 67 77
166 61 70 158 54 63 150 47 56 144 43 53 140 42 52
131 38 50 115 32 46 102 29 47 90 26 49 74 18 47
57 8 42 61 16 57 116 70 118 193 143 197 231 178 236
235 179 240 232 173 239 228 167 238 230 168 243 230 167 246
213 148 233 178 112 201 139 74 164 116 51 139 103 39 121
89 26 101 79 18 84 75 15 72 72 13 63 70 13 55
70 13 50 71 15 47 72 17 45 72 17 42 69 15 38
67 13 34 65 12 31 65 13 30 65 15 30 65 15 28
64 14 26 64 13 24 64 12 22 66 12 21 68 12 21
70 13 21 73 13 21 76 15 22 79 17 22 80 18 20
84 21 20 94 30 25 107 42 35 120 55 45 129 63 49
129 62 45 125 57 39 125 56 36 128 60 37 130 62 38
126 58 32 118 48 23 112 41 15 114 45 20 116 51 28
99 43 24 65 23 11 31 7 2 10 1 1 2 1 2
1 1 3 1 1 3 1 1 3 1 1 2 1 0 1
1 0 0 1 0 0 0 0 0 0 0 0 2 1 1
10 8 7 26 21 20 41 34 33 48 38 37 46 33 33
39 23 22 38 19 16 56 34 29 81 58 52 94 70 63
96 69 61 99 69 61 103 71 61 101 66 56 91 53 42
75 35 23 63 20 8 61 15 3 62 14 2 63 14 2
65 15 1 69 16 1 77 20 2 88 28 5 102 38 12
115 48 20 127 55 26 136 61 29 143 65 31 147 67 30
149 67 28 150 68 26 151 68 24 153 69 24 155 71 24
158 72 25 160 73 26 164 75 26 169 77 27 172 79 27
174 79 26 177 80 26 182 84 30 191 94 39 208 115 58
229 144 85 241 164 102 236 166 100 227 159 90 224 157 86
226 157 84 229 157 82 232 159 82 234 161 82 235 162 81
236 163 82 237 164 83 237 163 84 235 161 86 231 154 87
214 135 79 175 98 52 129 54 22 98 27 6 85 17 4
83 17 8 85 20 12 89 23 17 98 29 25 103 35 32
103 36 35 101 35 36 101 35 35 101 33 33 102 31 30
104 30 28 107 30 25 110 31 25 115 34 29 118 36 38
119 35 51 126 41 74 143 58 109 158 74 139 158 75 148
149 69 141 141 64 129 136 61 119 126 53 107 111 39 90
101 32 78 106 38 81 117 51 89 121 56 91 119 55 88
118 54 85 118 54 85 118 54 84 237 174 249 219 158 231
159 101 173 95 41 109 69 18 78 63 13 63 59 10 47
60 10 35 61 11 24 62 11 18 64 12 15 68 13 15
75 15 17 85 19 22 95 25 28 107 31 35 118 37 42
126 39 46 129 39 48 133 40 52 142 46 59 159 61 75
180 80 94 196 94 109 202 98 115 202 95 117 204 94 124
210 98 138 215 103 152 216 105 164 214 108 174 213 119 186
223 145 210 238 167 233 231 156 228 212 127 204 203 107 188
207 102 185 219 113 191 231 126 197 232 128 193 230 125 184
229 121 174 224 115 161 215 106 145 205 97 128 200 90 116
195 86 108 190 81 101 187 78 96 186 76 93 184 74 89
182 72 85 181 71 82 180 70 81 178 69 78 173 65 74
167 61 69 160 55 63 153 50 57 147 47 53 144 44 52
141 43 53 132 40 52 116 33 49 103 30 50 94 29 55
79 23 54 64 13 51 79 32 76 148 100 151 217 166 222
236 183 241 232 176 238 229 171 237 225 165 236 224 163 238
215 152 232 186 121 207 149 83 173 122 55 147 113 47 137
111 46 129 98 35 110 83 21 88 78 17 75 77 18 67
74 16 59 73 15 52 73 17 49 73 17 46 72 16 42
69 14 37 66 11 33 65 10 30 65 12 30 66 14 29
65 15 27 64 13 25 64 12 23 64 12 21 66 12 20
68 12 20 70 12 20 72 13 20 75 14 20 78 15 20
82 19 20 90 25 23 102 37 31 116 50 42 127 61 50
132 65 50 130 63 46 129 60 41 131 61 41 136 66 43
138 68 43 131 61 36 120 49 23 114 43 17 120 49 24
123 56 33 103 46 27 67 24 11 33 7 2 11 1 1
3 1 2 2 2 2 2 1 2 2 1 2 2 0 1
2 0 0 2 0 0 1 0 0 1 0 0 0 0 0
1 1 0 2 2 1 7 5 4 12 8 8 15 10 9
15 8 8 15 5 4 24 10 7 53 35 29 86 65 58
102 79 72 104 78 71 108 79 71 112 80 71 107 73 64
96 59 49 79 40 30 68 28 17 65 25 13 66 24 11
66 24 10 66 23 9 65 21 6 66 19 3 72 20 2
80 25 4 90 30 8 102 38 13 115 47 20 128 56 26
137 62 29 141 65 29 143 66 27 145 67 26 147 68 25
149 70 25 151 71 24 153 71 24 156 72 25 162 75 27
167 77 27 170 78 27 174 80 28 179 84 31 189 95 40
208 117 60 229 143 84 239 159 97 233 159 93 225 154 86
224 153 82 226 153 81 228 153 79 230 154 78 231 155 77
232 157 77 234 158 77 234 157 76 234 156 77 233 154 78
229 148 80 218 137 77 192 114 64 153 80 41 114 46 19
87 25 7 74 17 4 70 16 6 68 15 8 70 16 10
69 17 13 66 16 15 64 16 16 66 16 16 71 17 17
77 20 19 85 23 21 92 26 21 98 27 21 106 31 28
112 34 38 115 34 52 123 40 75 141 58 109 156 74 138
156 76 147 147 69 140 140 64 128 134 60 118 124 51 105
109 38 88 100 31 76 104 37 79 115 49 87 119 54 89
117 54 85 117 53 83 117 53 82 117 53 81 235 171 245
225 163 235 170 112 183 104 49 117 71 19 80 62 12 63
59 9 48 59 9 36 60 10 26 61 11 20 64 12 17
67 12 16 73 13 18 82 17 22 92 21 27 101 25 33
110 28 38 118 31 43 124 33 47 127 33 49 132 36 53
146 46 65 165 65 83 184 82 101 196 91 112 202 93 119
206 95 129 212 99 142 214 101 153 215 102 163 215 107 175
218 122 191 230 150 216 239 165 233 222 145 217 199 114 190
192 97 178 196 94 175 208 103 181 222 116 190 227 122 190
228 120 184 228 118 176 226 114 166 219 108 152 211 101 137
204 94 124 197 87 112 187 77 99 181 71 91 181 70 87
180 69 83 179 69 80 180 70 80 181 72 81 177 70 78
169 62 69 161 56 62 156 52 57 150 49 54 147 47 53
144 46 53 141 45 55 132 41 55 118 35 53 105 32 55
96 31 60 83 26 60 74 22 63 105 56 103 179 129 181
233 181 237 241 186 246 233 176 239 228 169 236 224 164 235
216 155 231 199 136 217 171 106 192 142 76 166 123 57 148
122 56 145 128 63 146 118 54 129 96 34 100 85 25 82
82 23 71 77 18 59 74 17 52 74 18 49 74 18 45
71 16 41 68 13 36 66 11 32 64 10 30 65 12 29
66 14 29 65 14 27 64 13 24 64 12 22 64 11 20
66 11 18 68 11 18 70 12 18 72 12 18 75 12 18
80 16 20 89 23 25 101 35 32 114 47 42 126 59 51
134 66 54 134 66 50 131 63 45 132 63 43 137 66 44
142 71 48 143 72 47 135 64 38 123 50 24 118 45 18
126 53 27 129 61 36 107 48 28 68 23 10 34 6 1
14 2 1 6 3 3 4 2 3 3 1 2 3 1 2
2 0 1 2 0 0 2 0 0 1 0 0 1 0 0
1 1 0 1 1 0 1 1 0 1 1 0 1 1 0
3 1 1 5 2 1 7 2 1 18 8 6 47 33 27
84 67 60 105 84 78 109 85 79 112 85 78 115 85 77
110 78 70 98 63 54 83 47 38 76 39 30 77 41 30
78 42 29 78 41 28 77 40 26 72 35 20 68 28 12
66 23 6 67 19 3 70 18 2 79 22 4 92 31 9
108 43 17 120 53 23 129 59 26 133 62 26 136 64 25
139 66 25 141 67 24 143 67 23 144 67 22 148 68 23
154 71 25 160 74 27 165 77 29 171 81 31 176 85 33
187 96 41 207 118 61 228 142 83 235 154 91 230 152 86
223 147 80 222 146 77 224 147 76 225 147 74 226 147 72
226 147 70 228 148 70 231 150 71 230 148 69 227 146 68
228 144 70 224 140 72 213 129 71 196 116 66 169 95 55
130 64 34 95 37 15 74 23 8 63 18 6 56 14 5
51 10 4 46 7 3 39 4 3 37 3 4 40 4 4
48 7 6 59 13 10 71 19 15 81 22 16 89 24 19
99 28 27 107 31 39 111 32 53 121 39 77 140 57 110
155 73 138 155 75 146 146 68 139 139 63 128 133 59 117
122 49 103 106 36 86 98 30 75 103 36 77 113 48 85
116 52 86 115 52 83 115 52 80 115 52 79 115 52 79
231 166 240 225 162 235 177 118 189 111 55 123 73 21 82
62 11 63 58 8 49 58 9 38 59 9 28 61 10 22
63 11 20 66 12 19 72 13 20 80 16 24 89 20 29
97 21 33 102 21 36 110 23 41 118 27 47 125 30 52
132 34 58 144 44 69 161 59 84 177 74 99 191 85 112
201 91 123 208 96 134 214 99 146 215 100 157 217 103 167
219 110 179 224 125 196 237 153 221 242 167 235 222 145 216
198 113 188 190 97 176 191 91 171 197 93 172 209 103 178
219 111 183 226 115 183 228 115 179 226 112 170 220 107 157
212 100 143 205 93 130 197 84 115 185 73 98 178 67 88
177 66 84 176 66 80 175 65 76 176 66 76 177 69 77
173 66 73 165 59 64 158 53 58 153 51 55 149 49 53
146 48 53 143 46 54 139 44 55 130 41 56 118 36 57
108 34 61 99 34 66 88 29 67 90 36 80 137 86 136
208 156 210 244 191 248 244 188 249 235 177 241 230 171 238
225 165 236 216 154 230 203 140 221 186 120 206 161 94 184
141 74 165 139 73 162 142 77 159 126 63 136 101 40 104
88 28 83 82 23 69 76 18 56 74 17 50 74 18 47
74 18 43 71 16 39 68 13 35 66 11 32 65 10 30
65 12 29 66 14 27 65 14 26 64 13 23 64 12 21
64 11 18 66 11 17 69 11 17 71 11 18 73 12 18
77 14 19 85 20 23 98 32 32 113 45 43 125 57 51
132 64 55 135 66 54 133 64 48 132 63 44 135 65 44
141 69 47 146 74 50 146 74 49 138 65 39 125 51 24
122 47 18 131 57 29 134 64 38 110 49 27 69 22 8
35 5 0 17 2 1 9 4 3 6 3 3 4 2 2
3 1 2 2 0 1 2 0 0 1 0 0 1 0 0
1 0 0 1 1 0 2 2 1 1 2 0 0 1 0
1 1 0 1 2 1 2 1 1 4 1 1 11 5 3
35 24 20 72 58 52 101 84 78 111 91 85 113 90 84
116 89 83 112 82 76 98 66 59 86 52 44 84 51 41
90 56 46 92 58 47 90 57 45 88 55 42 82 49 34
75 40 25 69 32 16 64 22 7 60 15 2 63 13 0
73 19 3 87 29 7 102 41 14 115 52 23 122 58 25
126 60 24 131 63 24 134 64 24 136 64 23 138 64 22
140 63 21 145 64 22 151 67 25 158 74 29 165 79 32
172 84 34 184 96 42 206 119 62 226 140 81 231 148 86
225 144 79 220 140 73 219 139 71 221 140 71 222 139 69
221 138 66 221 137 64 223 137 63 225 140 64 225 139 64
222 136 63 222 135 67 218 130 69 206 119 66 191 108 63
168 93 57 133 67 38 97 40 19 72 25 9 57 18 5
48 14 4 40 9 2 33 4 1 27 1 1 25 1 0
28 1 0 37 3 2 51 10 6 65 17 12 75 19 14
84 21 18 96 26 27 104 29 40 109 30 55 120 38 79
140 57 112 155 72 139 154 74 146 146 68 138 139 63 127
132 58 116 120 48 102 105 35 84 96 29 73 102 36 76
111 47 82 114 51 83 113 50 79 112 49 76 112 49 76
112 50 75 227 161 235 224 160 233 181 121 193 115 59 127
74 21 83 61 10 64 59 8 51 58 8 40 58 9 31
60 9 25 62 11 23 65 12 22 70 13 23 78 15 26
87 18 31 94 20 36 99 19 39 106 20 44 116 24 51
127 31 61 140 41 72 155 54 85 169 66 98 182 78 110
195 87 122 204 94 132 213 99 144 219 103 155 220 105 164
221 107 173 223 112 183 226 124 195 236 147 215 244 166 233
232 153 224 208 123 197 193 101 179 189 91 170 193 90 169
202 95 172 214 103 178 224 110 182 228 112 181 226 110 174
219 105 162 210 98 147 204 91 133 196 83 118 184 71 100
176 64 88 173 62 81 170 60 75 168 58 70 168 59 68
168 60 67 164 58 64 159 54 59 154 51 55 150 50 53
147 48 51 143 47 52 139 44 52 133 41 53 126 38 55
116 36 60 108 35 65 100 34 70 93 33 75 110 54 102
169 116 168 230 177 232 250 195 252 244 187 249 237 178 244
234 174 242 230 170 241 225 163 239 222 158 239 211 146 231
189 123 211 168 102 191 154 89 175 135 70 150 108 45 115
87 26 87 80 20 72 77 19 61 75 17 53 73 17 46
73 17 43 72 17 39 70 15 36 67 12 32 65 11 29
65 11 28 66 12 28 67 15 27 66 15 25 65 13 22
64 11 20 65 11 17 67 11 17 70 11 17 72 12 17
76 14 19 84 20 24 95 29 31 107 39 40 120 51 48
129 59 53 131 61 52 131 61 49 132 62 46 135 64 45
140 68 47 148 74 51 152 77 53 150 75 50 140 65 39
128 52 24 126 49 20 136 60 31 138 66 39 112 50 27
70 22 8 37 5 0 20 3 2 14 6 4 8 5 4
4 2 2 2 1 2 2 0 1 1 0 0 1 1 0
2 1 0 1 0 0 1 0 0 1 1 0 0 1 0
0 1 0 1 2 1 1 2 1 0 1 0 1 1 0
6 2 1 19 12 9 49 38 35 84 71 66 106 90 85
114 94 90 114 91 86 104 78 73 89 60 54 83 53 45
90 59 50 98 66 57 100 67 57 98 65 55 93 61 49
86 55 42 80 48 35 73 40 26 65 29 15 58 18 5
56 12 1 60 13 0 68 18 2 81 28 7 97 42 16
109 52 22 118 57 24 124 61 25 127 61 24 130 61 23
133 61 23 136 61 22 138 59 21 142 61 22 150 68 26
159 76 30 168 83 33 182 97 43 205 119 62 223 137 77
227 142 80 222 137 73 216 133 67 215 131 64 216 131 64
217 131 62 217 130 61 217 129 58 217 127 57 219 129 58
219 131 62 216 129 64 214 126 67 209 121 69 197 111 66
178 97 58 152 78 46 119 54 28 88 34 13 65 21 5
51 15 2 41 11 1 34 8 1 29 5 1 25 4 2
24 2 1 26 1 0 34 3 1 47 10 4 62 16 9
73 18 13 84 21 19 95 25 29 103 28 42 112 32 61
125 42 87 143 59 118 155 71 141 153 72 146 145 67 138
138 62 127 131 58 115 119 48 101 104 34 84 96 28 73
101 35 75 110 45 80 112 49 80 110 48 76 109 47 73
109 47 72 109 47 71 223 158 232 224 160 234 187 127 199
120 63 133 76 22 85 63 11 67 60 9 54 58 8 43
58 8 34 59 9 28 62 10 26 64 11 25 69 12 25
76 14 29 85 17 34 93 20 40 99 20 46 108 22 52
120 29 62 135 39 75 152 53 91 170 67 107 184 80 120
196 90 129 205 96 138 212 101 145 219 105 154 224 108 162
223 107 167 220 105 171 220 107 177 221 114 184 227 130 198
241 153 220 244 161 231 228 144 217 205 116 192 192 96 174
193 91 170 201 94 172 211 98 176 220 103 180 224 106 180
222 106 175 217 104 167 210 98 153 204 91 139 198 84 125
188 74 107 177 65 91 170 58 80 165 54 70 162 52 64
161 52 61 160 52 60 157 51 58 153 49 54 151 48 52
148 49 51 144 48 51 140 45 51 135 41 51 129 38 52
122 36 56 114 35 62 107 34 68 100 34 73 101 40 85
134 77 128 198 143 198 242 188 245 250 195 254 246 188 252
242 183 250 240 181 248 238 178 248 237 175 249 233 170 249
223 158 242 206 140 227 183 118 205 149 84 168 112 48 124
85 23 90 75 14 71 73 13 61 73 15 54 73 16 48
71 16 41 70 15 36 69 14 33 68 14 31 67 12 29
66 11 27 66 11 26 67 13 26 68 16 27 68 16 25
66 13 22 65 11 19 66 11 17 68 11 17 71 12 17
74 13 18 81 18 22 93 28 32 105 37 39 112 42 42
118 48 45 125 54 47 128 57 47 130 59 46 135 64 47
140 68 48 147 73 51 155 80 57 159 83 58 154 78 51
143 66 39 131 53 25 130 51 21 141 63 33 143 68 42
116 51 28 73 22 8 40 5 0 25 6 2 19 10 6
13 8 7 5 4 3 2 1 1 1 0 0 1 0 0
2 2 1 3 2 1 2 1 0 1 0 0 1 0 0
0 0 0 0 0 0 1 1 0 1 1 0 0 1 0
1 1 0 3 1 0 7 3 2 22 15 14 50 41 38
78 66 63 91 76 72 88 69 65 73 51 47 64 40 34
76 50 43 96 68 60 105 75 66 106 74 65 104 71 61
97 65 55 88 57 46 82 52 40 76 46 33 67 34 21
57 22 8 53 14 2 54 13 0 57 13 1 64 18 2
77 28 6 92 41 14 108 52 22 118 59 27 122 59 26
125 58 24 128 58 23 132 59 24 134 57 22 136 56 19
143 61 22 154 71 27 166 82 33 184 99 44 205 119 61
220 133 72 223 135 73 219 131 67 214 127 62 211 124 58
211 123 57 212 123 57 213 122 57 213 121 56 212 120 56
212 121 58 212 123 63 207 122 66 201 117 68 192 109 67
176 96 59 152 76 45 123 53 27 96 35 12 75 23 5
60 17 1 48 14 1 39 10 0 33 7 1 29 6 2
27 5 2 26 4 1 27 2 0 34 3 0 46 9 2
60 14 7 73 18 13 86 22 22 96 25 32 105 29 48
120 39 74 137 53 104 149 64 129 154 70 143 151 69 146
144 66 139 137 61 126 130 57 114 118 48 101 103 34 83
96 28 73 101 35 75 108 44 78 109 46 76 107 46 73
107 46 71 107 46 69 108 46 67 223 157 232 228 164 238
197 136 209 130 72 143 82 27 93 67 14 72 62 10 58
59 8 46 58 8 37 58 9 32 60 10 29 63 10 28
68 11 30 76 14 34 85 19 40 95 22 47 105 26 55
117 32 66 132 41 78 148 52 92 163 63 106 177 74 118
189 84 128 198 92 136 205 96 141 211 99 147 216 102 152
218 102 156 215 99 157 212 97 160 214 100 167 216 105 173
219 113 180 230 131 197 243 154 222 244 160 231 226 138 212
203 110 186 196 96 174 202 95 174 209 95 175 214 97 177
216 99 176 217 103 175 217 106 173 211 102 162 205 92 147
200 85 133 191 76 116 181 67 98 171 58 82 163 52 70
160 49 63 158 48 59 155 47 57 151 46 54 148 44 51
146 45 50 145 47 50 142 47 51 138 45 52 133 41 53
128 38 55 121 35 59 113 34 65 107 34 72 102 35 78
113 51 100 161 103 158 220 164 222 249 193 251 252 196 255
250 193 254 249 191 254 247 188 253 244 184 252 236 175 247
223 160 238 209 144 227 193 127 214 166 101 186 127 63 144
93 30 104 77 16 80 73 14 67 72 14 58 71 15 49
70 14 42 68 14 35 67 13 30 67 13 29 67 13 27
67 13 26 66 13 26 67 13 25 68 15 25 69 17 26
68 16 25 66 14 21 65 12 18 66 11 17 69 12 17
73 13 17 77 15 19 86 22 26 99 33 36 107 38 40
110 39 38 115 43 39 123 51 44 130 57 47 136 63 49
141 68 51 146 73 52 153 77 55 161 84 60 164 87 61
157 80 53 145 67 39 133 54 24 133 52 22 145 65 35
148 71 44 121 53 29 77 23 8 43 6 0 29 8 3
24 14 9 19 14 12 11 9 7 3 2 2 0 0 0
0 0 0 2 2 1 3 2 1 2 1 0 1 0 0
1 0 0 1 0 0 1 0 0 1 0 0 1 0 0
0 0 0 1 1 0 2 1 1 2 1 1 7 3 3
19 14 13 35 28 26 44 33 31 41 27 25 34 17 14
40 20 16 70 48 42 100 75 68 110 82 74 109 79 70
109 77 68 105 73 64 96 66 55 87 58 47 79 50 38
67 38 25 56 24 11 52 18 4 55 19 5 60 21 6
62 21 4 67 24 3 79 32 7 95 44 17 109 54 25
118 58 28 122 57 27 124 56 24 126 54 23 129 54 20
132 53 17 139 58 18 151 68 23 166 82 32 185 100 45
205 118 59 216 128 66 217 128 65 214 124 61 211 122 59
209 120 57 209 119 57 208 118 57 208 117 57 208 116 58
207 116 60 203 114 61 198 114 64 191 111 66 177 100 62
157 84 51 135 64 36 113 46 22 95 32 10 79 23 3
66 18 0 57 16 0 49 14 1 40 9 0 33 5 0
30 4 1 28 3 1 28 3 1 31 3 0 37 5 0
49 10 3 61 15 8 73 18 15 85 22 25 96 25 38
112 34 61 133 51 93 149 64 122 155 70 140 154 70 148
149 68 147 142 64 139 136 61 126 129 57 114 118 48 101
103 34 83 96 29 72 101 36 74 107 43 77 107 45 74
106 46 71 106 46 70 107 46 67 107 46 66 226 159 234
234 169 243 206 144 219 139 81 154 89 34 102 71 18 78
64 12 63 60 8 50 59 8 41 58 8 36 59 8 33
61 9 32 66 10 34 75 14 38 85 19 44 97 25 53
111 33 65 126 42 78 141 51 89 154 58 99 163 63 106
171 68 112 178 73 118 184 78 123 190 81 126 196 84 131
200 86 135 202 86 138 203 87 142 207 92 150 213 98 160
216 102 165 216 104 167 218 112 176 228 132 198 242 154 222
240 152 224 218 126 201 200 103 180 200 96 175 206 95 175
209 94 175 210 96 175 214 103 179 220 113 183 216 109 174
206 94 155 198 83 137 193 77 122 184 69 104 173 59 86
164 51 72 159 48 63 155 45 58 151 43 55 147 41 51
143 40 48 141 41 47 140 43 48 139 45 50 136 44 53
132 41 55 127 38 58 120 35 62 113 34 69 106 33 74
102 34 81 128 65 117 187 127 185 235 176 238 251 193 254
254 197 255 254 198 255 253 197 255 250 192 254 239 179 247
217 156 230 193 129 208 176 111 194 160 95 180 134 69 153
104 40 119 83 22 92 76 15 76 73 15 65 71 15 54
69 14 44 67 13 35 65 12 28 64 12 25 65 13 24
66 14 24 67 15 24 67 16 25 68 16 25 68 17 25
68 17 24 67 16 23 66 14 21 66 12 18 67 12 16
70 13 17 75 14 18 81 18 22 91 26 29 101 34 36
105 35 36 108 36 35 115 42 37 126 52 44 135 61 50
142 68 54 149 74 57 152 77 57 157 79 57 165 86 62
168 89 63 161 81 54 147 67 38 134 53 22 135 52 21
150 67 36 154 75 46 126 56 31 81 25 9 47 8 0
33 10 4 30 18 13 30 24 21 22 19 17 8 7 6
1 1 0 1 0 0 1 1 0 2 2 1 2 2 0
1 0 0 1 0 0 1 0 0 2 0 0 2 0 0
2 0 0 1 0 0 1 0 1 1 1 3 2 1 3
2 1 3 4 2 3 9 5 4 12 5 5 12 4 3
13 2 1 27 12 10 62 44 39 96 75 68 109 84 77
109 82 75 110 81 74 110 81 72 106 77 67 95 68 57
82 55 43 66 40 27 55 27 14 55 25 11 63 31 16
70 35 18 69 32 14 67 28 7 70 28 5 80 34 9
95 43 17 108 52 25 117 55 28 119 54 25 120 51 21
124 50 18 129 52 16 137 56 16 149 66 21 166 82 31
187 101 46 205 117 58 213 123 62 212 121 59 208 117 56
205 115 55 204 115 56 203 116 58 203 115 60 202 113 60
200 112 61 194 108 61 183 101 58 170 94 55 155 84 50
132 67 38 108 46 23 89 29 11 79 21 5 76 21 3
72 21 3 65 20 3 59 18 2 51 15 1 44 10 1
38 5 0 33 3 0 31 2 0 32 3 0 36 5 0
44 8 2 54 13 6 65 17 12 74 18 19 84 20 29
98 27 47 122 45 80 147 65 117 158 74 140 158 74 150
155 72 154 148 68 150 141 63 139 135 60 126 130 57 115
119 48 102 104 35 84 96 29 72 101 36 74 106 43 76
106 45 73 106 46 70 106 47 69 106 47 67 106 47 65
229 160 236 236 170 245 208 145 221 141 83 158 91 35 106
73 20 83 67 14 69 62 10 56 60 9 47 59 8 40
59 8 37 61 8 36 66 10 38 75 15 43 85 19 48
97 26 56 111 35 68 124 42 77 135 47 84 145 50 90
152 52 94 158 55 97 163 59 101 169 63 103 174 65 106
179 68 110 184 70 114 189 74 120 198 82 130 208 92 143
214 99 153 216 100 156 214 98 156 212 101 161 213 111 174
228 134 200 242 151 221 230 139 212 206 112 187 197 97 175
200 94 174 203 93 174 203 94 174 212 106 183 224 121 193
221 117 187 206 96 162 196 81 141 193 77 127 186 70 109
174 59 90 164 51 75 158 46 64 154 44 58 149 41 55
144 39 51 141 38 48 138 38 46 136 40 47 135 42 50
133 42 53 129 40 57 125 36 60 118 33 64 110 31 69
100 27 72 105 37 88 150 86 142 211 150 211 244 185 248
250 191 255 252 193 255 254 196 255 252 194 254 243 184 248
221 161 231 191 129 204 163 99 178 147 82 165 133 68 152
110 47 128 88 27 103 76 16 84 71 13 71 69 12 59
66 12 48 64 11 37 62 10 28 60 9 22 61 10 20
62 12 19 64 15 21 66 16 22 67 17 24 68 18 24
68 17 24 67 16 23 66 15 22 67 14 20 67 13 18
68 12 16 72 14 17 77 16 19 84 21 24 94 28 30
101 33 35 105 34 35 111 38 36 120 46 40 130 55 46
139 63 52 147 71 57 154 78 61 158 81 61 162 82 60
168 88 64 170 90 64 162 81 53 147 66 36 135 52 20
138 53 21 155 71 39 161 79 50 132 60 34 86 27 10
52 11 1 38 13 5 38 24 18 44 36 33 37 31 30
16 13 12 4 2 1 2 1 0 1 1 0 1 2 0
2 1 0 1 0 0 2 0 0 2 0 0 3 0 0
3 0 1 3 0 1 2 0 1 2 1 3 2 1 5
1 1 4 1 0 3 1 0 1 2 0 0 4 1 0
6 1 0 8 1 0 19 8 6 46 33 28 79 63 57
100 81 74 108 85 80 111 86 80 111 86 79 110 84 76
100 76 66 81 57 45 64 40 27 60 34 22 66 38 25
75 45 32 79 47 33 75 41 25 69 33 14 66 27 7
69 26 5 79 31 8 92 39 15 104 46 22 112 50 25
117 50 23 120 50 18 125 51 15 134 56 16 148 65 21
168 83 33 191 104 50 206 117 60 210 120 62 207 116 58
202 111 55 197 109 55 194 109 57 193 110 60 190 109 62
186 105 61 180 101 60 168 92 56 148 77 45 125 60 33
103 44 22 81 28 12 67 16 5 61 11 1 63 14 3
71 23 8 74 28 10 70 27 9 63 23 6 56 18 3
50 12 1 45 8 1 41 5 1 38 4 1 40 6 1
45 9 2 52 13 6 62 17 12 70 19 19 77 18 26
86 20 38 105 32 63 135 58 103 161 80 141 168 84 158
162 78 162 157 74 162 149 69 154 140 63 140 135 61 127
130 58 116 119 49 102 104 35 84 96 30 73 100 36 73
105 43 75 105 45 72 105 46 69 106 47 67 105 47 65
105 47 63 229 159 236 234 167 244 204 141 219 138 79 155
89 33 105 74 20 86 69 16 74 65 12 62 61 10 51
60 9 45 60 9 42 63 10 42 70 14 45 79 19 51
88 23 55 98 28 61 109 33 67 118 37 70 125 38 73
134 41 77 142 43 81 149 47 84 154 50 86 157 52 86
161 54 87 167 57 91 174 62 98 184 70 107 196 80 120
206 90 132 210 95 139 209 92 140 208 90 142 207 93 148
205 100 159 215 118 182 236 143 211 240 148 220 221 128 203
204 108 184 200 100 178 199 96 175 198 96 175 207 107 185
223 125 200 222 121 194 205 97 168 194 80 145 192 76 131
185 69 113 174 58 93 164 50 77 158 46 66 153 43 60
148 40 56 143 38 52 139 37 49 136 37 47 133 38 47
132 39 50 130 39 54 126 37 57 120 32 60 114 29 64
106 27 69 100 26 74 124 55 108 183 118 176 234 172 234
249 188 253 247 186 254 247 185 252 245 183 249 236 175 241
216 156 225 188 128 200 160 98 173 138 74 153 125 59 142
112 47 130 93 32 111 79 19 93 71 13 79 66 9 65
62 7 52 59 7 40 58 7 30 55 6 22 55 6 16
56 8 15 59 11 15 62 14 18 64 17 20 65 18 22
66 18 22 66 16 21 65 14 21 66 14 20 67 14 19
68 13 18 69 12 16 73 14 17 79 18 21 87 23 25
95 28 31 101 32 34 106 35 35 114 40 38 124 49 43
133 57 48 142 65 53 152 75 60 159 83 65 163 85 65
166 86 64 171 90 66 171 89 64 162 79 51 146 63 33
134 50 18 140 54 21 160 75 43 167 85 55 138 64 38
90 31 12 57 14 3 44 16 8 46 29 23 55 44 41
48 40 38 24 18 17 7 4 3 3 2 1 1 1 0
0 1 0 1 1 0 1 0 1 2 0 1 3 0 1
4 0 1 4 0 2 4 0 2 3 0 2 3 1 4
2 2 6 1 1 4 0 0 2 0 0 2 1 0 1
2 1 0 3 1 0 5 1 0 10 3 2 25 16 13
50 39 34 76 61 56 95 78 73 107 88 83 112 92 86
111 90 83 97 76 68 73 51 42 61 38 28 69 45 35
82 55 45 88 60 49 87 57 45 79 47 34 70 36 21
66 29 12 66 25 6 69 24 4 78 27 6 90 35 13
102 43 20 110 49 22 115 50 18 120 51 15 130 55 16
147 67 24 171 87 40 194 107 56 206 117 64 207 117 63
202 112 60 195 107 58 188 105 59 183 105 62 178 105 64
171 101 63 162 93 59 152 86 57 136 73 50 108 51 32
80 27 13 60 13 4 49 6 1 48 5 1 54 9 2
65 20 9 78 33 17 81 37 19 74 31 13 66 24 7
59 18 3 54 13 2 52 10 2 49 9 3 48 9 3
51 11 5 55 14 7 61 17 12 70 21 21 76 22 29
82 21 38 94 26 55 119 45 88 152 73 130 173 90 163
174 89 173 166 82 172 160 76 169 151 71 159 141 65 143
135 62 128 130 59 117 120 50 103 104 36 85 96 30 73
100 36 73 105 44 75 105 45 71 104 45 68 105 46 65
104 46 62 104 46 60 226 156 234 231 163 242 202 138 217
137 77 155 88 32 106 75 20 88 71 18 78 66 13 65
62 11 55 61 10 49 63 11 47 67 14 49 75 19 54
84 24 59 92 27 62 99 30 64 107 33 65 114 34 65
121 35 66 129 37 69 138 40 72 144 43 74 148 46 75
150 46 73 152 46 71 158 50 75 169 58 85 180 68 96
191 76 107 197 82 115 198 83 118 197 81 120 198 80 126
199 84 136 200 93 150 207 107 169 224 129 196 240 148 218
238 148 221 225 134 208 213 119 195 207 111 188 204 108 186
210 115 193 224 130 207 222 124 200 202 97 172 192 79 149
191 75 134 185 68 116 174 57 96 164 49 80 157 45 68
152 42 61 147 40 57 143 38 54 138 37 51 134 36 48
131 36 47 130 37 49 128 37 54 123 34 58 116 28 60
109 25 63 104 25 70 114 41 91 159 90 145 216 151 211
243 181 244 240 178 246 230 168 239 222 159 232 211 148 219
193 131 203 169 109 180 144 83 156 125 63 139 113 49 128
103 37 119 92 28 110 81 20 99 73 15 88 67 11 76
61 7 61 56 3 46 54 3 35 53 4 25 50 3 17
50 3 12 53 6 11 56 10 13 59 14 16 62 16 18
62 16 19 62 16 19 62 14 18 63 12 18 65 12 19
67 13 19 69 13 18 70 12 16 74 15 17 81 19 22
89 25 27 97 30 32 102 32 34 107 35 35 115 41 39
126 50 43 135 57 48 146 68 56 158 80 65 165 88 69
168 90 69 171 91 68 175 93 69 172 89 63 161 77 49
145 62 31 134 50 17 142 55 23 165 78 46 173 90 59
143 69 42 95 34 14 61 16 4 49 19 10 50 31 25
58 43 41 50 39 38 26 18 17 9 4 3 3 1 1
1 1 0 0 1 0 0 1 0 1 1 1 2 0 1
4 0 1 4 0 2 5 0 3 5 0 3 4 0 3
3 1 4 2 1 5 1 1 4 0 0 2 0 0 1
1 1 1 1 1 1 1 1 0 2 1 0 4 2 1
10 5 3 21 14 11 38 30 26 61 50 46 84 72 68
100 87 82 101 85 80 81 63 57 58 38 31 59 39 31
82 59 51 98 72 65 100 72 65 94 65 56 83 53 43
73 41 29 69 33 19 67 28 11 66 23 5 70 22 3
78 27 6 89 35 13 99 42 16 105 46 15 113 49 14
126 55 17 149 72 31 176 94 50 196 111 63 203 116 66
200 113 64 194 107 61 185 101 60 176 98 60 167 97 63
160 97 66 152 93 66 142 85 63 129 75 58 106 58 45
75 31 23 50 10 5 38 1 0 38 1 0 46 7 4
62 20 12 79 34 22 88 42 27 85 39 21 74 30 11
65 21 4 59 15 1 56 12 1 56 11 4 57 12 7
59 14 9 62 16 11 64 17 13 69 19 19 77 23 30
84 25 41 91 26 53 108 37 77 141 64 118 170 88 158
181 96 179 177 91 184 169 83 180 161 77 173 152 71 161
143 65 144 136 63 129 131 60 118 120 51 104 104 37 85
96 30 73 100 37 73 105 44 75 104 44 70 103 44 66
103 44 62 102 44 60 102 44 58 221 150 231 229 161 242
205 140 221 142 81 161 92 34 111 77 21 91 72 18 80
66 13 67 63 11 58 62 11 52 64 13 51 69 16 54
76 21 58 83 24 61 88 24 61 93 25 59 100 27 57
107 29 56 115 32 58 123 33 60 131 35 61 137 37 62
142 41 63 145 43 62 147 42 60 152 45 62 163 54 72
177 66 85 187 74 97 190 77 101 188 75 102 188 73 105
190 73 112 194 78 125 199 89 143 204 100 160 213 114 180
229 136 205 240 150 221 237 148 221 232 141 216 228 136 212
225 132 209 227 137 213 235 146 223 228 134 211 204 101 178
191 81 153 191 76 138 185 68 120 173 58 100 163 49 83
156 44 70 151 41 62 146 38 58 141 36 54 137 35 51
133 34 49 129 34 47 127 35 50 126 36 55 121 33 59
114 26 61 105 21 62 105 27 74 138 66 118 198 129 187
235 170 232 231 168 235 210 146 217 190 126 201 174 110 186
157 93 168 139 77 150 121 60 132 106 45 117 96 35 110
91 28 106 87 22 103 83 19 100 78 18 96 73 16 88
66 12 76 58 6 59 52 2 43 51 3 33 51 4 25
48 3 16 47 2 10 50 5 9 54 9 11 57 12 14
59 14 16 59 14 16 59 13 16 59 12 15 61 11 16
65 12 17 68 13 18 69 13 17 71 13 16 75 15 18
83 20 23 91 26 28 98 30 32 103 33 34 108 36 36
117 43 40 127 50 44 135 58 48 148 70 58 162 84 69
170 92 74 173 95 74 177 97 74 179 97 72 174 90 64
161 76 49 146 61 31 136 50 18 144 57 24 169 81 49
178 94 62 147 72 44 98 36 15 65 19 5 52 21 11
52 30 24 53 36 34 43 29 29 23 13 12 9 2 2
4 1 0 2 1 0 1 1 0 1 2 0 2 1 1
3 0 1 5 0 1 5 0 1 6 0 2 6 0 2
6 0 2 5 0 3 3 1 3 2 1 3 1 1 2
1 1 1 1 1 1 1 2 1 1 2 0 2 2 1
3 2 1 4 2 1 7 3 2 13 8 6 25 20 17
44 38 35 62 55 52 66 56 52 50 36 32 39 23 18
60 41 36 93 72 67 109 86 81 109 82 77 102 73 67
90 60 53 79 47 37 72 38 25 68 31 16 65 25 8
67 23 4 72 25 4 78 28 6 85 33 8 92 39 9
103 45 11 121 55 20 150 77 39 180 102 61 195 113 70
196 112 68 190 107 64 183 101 62 172 94 60 160 90 60
151 90 64 144 91 69 137 89 72 128 84 70 109 69 60
78 42 38 50 17 15 35 4 3 32 1 0 39 5 3
56 17 12 80 35 26 96 48 36 96 47 31 84 36 18
72 24 6 64 17 1 60 13 0 59 12 1 61 13 5
65 16 11 68 19 15 70 20 17 71 19 18 75 20 25
83 25 38 92 30 53 101 33 70 124 51 101 163 85 149
186 103 182 185 99 190 177 90 189 169 82 184 160 75 174
151 69 161 143 64 145 137 63 130 132 61 119 121 51 105
105 37 86 96 31 73 100 37 74 105 44 75 104 44 70
102 42 64 101 42 60 100 42 58 100 42 57 219 147 233
230 161 245 211 145 228 151 88 169 98 38 117 78 21 94
72 17 82 67 14 70 64 12 61 63 13 56 64 14 53
68 16 54 72 18 56 77 19 56 79 19 53 83 19 48
89 20 44 97 23 44 106 26 45 113 27 46 120 28 46
126 31 47 134 36 49 141 41 51 144 41 50 148 42 51
159 50 59 175 64 75 188 76 90 193 81 97 191 80 97
189 76 99 189 74 104 191 77 115 197 87 133 203 97 152
208 106 168 218 120 188 224 130 201 226 133 206 231 138 213
235 142 217 236 143 218 241 150 226 247 159 236 240 149 226
216 118 195 197 92 165 190 79 145 184 70 126 173 60 107
163 50 90 156 45 77 150 40 67 144 37 61 140 35 57
135 33 54 129 32 50 126 31 50 125 34 55 124 36 62
119 33 65 110 26 65 103 22 68 118 42 94 170 98 156
226 157 219 238 172 239 214 148 220 182 115 190 155 88 166
136 70 148 119 54 131 106 42 118 95 33 107 86 25 98
79 19 93 76 15 91 76 15 92 78 18 95 79 23 96
75 22 90 68 16 77 58 9 59 53 6 45 53 7 37
53 8 29 48 4 18 45 2 10 48 4 8 52 8 10
55 11 13 57 13 15 57 13 16 57 12 15 58 11 15
61 11 15 65 13 17 68 14 18 70 14 18 72 13 16
76 16 18 83 20 22 91 26 28 99 31 32 104 34 34
110 38 37 120 46 42 129 52 46 136 59 50 150 72 60
164 86 72 171 94 77 176 97 78 180 100 78 181 100 76
173 90 64 158 74 47 145 60 31 138 51 20 147 58 25
172 83 49 182 97 63 152 77 46 103 40 16 69 20 5
57 22 12 56 30 24 56 35 33 50 32 30 33 19 18
15 6 5 6 2 1 4 2 0 3 2 1 3 2 1
4 1 0 6 1 0 8 0 0 10 0 0 11 0 1
11 0 1 11 0 1 10 1 1 9 1 2 7 1 2
5 1 1 4 1 0 4 2 0 3 2 1 3 2 0
2 2 0 2 2 1 2 2 0 3 3 1 5 3 1
6 5 3 11 9 8 19 17 15 23 19 17 18 11 9
24 14 12 58 44 41 99 81 78 117 96 93 115 90 87
107 80 76 96 68 62 84 55 47 74 44 33 67 35 20
64 29 12 65 26 8 68 25 5 71 25 4 75 27 4
82 32 6 94 39 10 115 54 23 148 80 47 178 105 70
189 112 76 184 106 70 176 99 65 168 95 64 157 90 64
147 87 65 140 90 72 133 91 77 122 86 75 107 74 66
82 52 48 50 24 23 31 6 7 28 1 1 35 3 1
52 14 9 77 32 24 99 49 39 108 54 42 99 45 30
83 30 15 70 19 4 64 15 1 63 13 1 62 13 3
65 15 8 71 18 14 74 21 19 75 21 22 75 20 24
78 21 31 87 26 45 98 34 65 115 47 90 148 76 132
187 111 180 198 118 201 186 103 198 175 90 191 166 81 184
158 74 173 150 68 160 143 64 145 138 63 132 133 61 120
121 52 106 105 38 87 97 31 75 101 36 74 106 43 76
105 44 71 103 42 65 101 41 60 100 41 57 100 41 56
222 149 241 232 162 250 215 148 232 157 93 175 102 41 121
79 21 96 73 17 85 69 16 75 66 15 65 64 15 58
64 15 54 65 15 51 67 15 50 69 15 48 71 16 44
75 16 38 80 17 34 87 19 32 96 22 34 104 25 36
110 25 35 118 27 35 128 33 38 137 39 42 143 41 43
147 41 44 156 48 51 171 61 65 186 75 82 195 85 92
196 86 95 193 83 96 188 76 96 186 75 102 190 82 118
197 90 136 204 99 155 212 108 172 212 110 179 207 107 179
212 111 186 217 117 192 221 122 197 230 134 209 239 147 222
243 152 228 233 139 216 211 111 186 193 87 156 184 75 137
175 65 121 165 56 104 158 50 91 151 44 78 145 39 69
141 37 64 135 35 60 127 31 56 124 32 58 126 37 66
124 39 73 114 33 72 104 25 70 108 31 83 146 73 132
206 137 201 242 174 241 236 168 239 208 139 215 173 104 183
144 75 155 124 55 136 109 43 122 99 34 113 89 27 103
80 20 94 73 15 88 70 13 85 71 15 87 75 21 91
77 26 92 76 27 89 69 22 77 62 15 62 59 13 51
59 15 44 56 12 34 48 6 20 44 2 11 46 3 9
50 7 11 53 11 14 55 12 16 56 13 17 58 13 17
60 13 17 63 13 17 67 15 18 70 16 19 72 16 19
73 15 17 76 16 18 82 20 22 91 26 27 100 32 33
106 36 36 113 41 39 122 49 44 130 54 48 137 60 51
150 72 62 163 85 73 170 92 77 174 95 78 180 100 79
181 100 76 169 87 61 153 70 42 144 58 29 139 52 21
149 60 27 174 85 49 185 100 63 158 82 48 110 45 18
74 22 5 62 22 12 64 33 27 73 46 43 79 57 53
65 48 44 35 23 20 12 5 4 6 3 0 6 3 1
6 2 1 8 1 0 11 0 0 14 0 0 17 0 0
18 0 0 19 0 0 20 1 0 19 1 1 17 1 1
15 1 1 13 1 0 11 1 0 9 1 0 7 1 0
5 2 0 3 1 0 2 1 0 1 1 0 2 2 0
2 2 1 2 2 0 1 1 0 2 1 1 3 2 2
4 2 2 14 10 9 46 37 36 88 75 73 114 96 95
117 95 93 109 85 82 100 75 70 90 64 57 80 54 43
71 44 30 67 37 21 65 32 15 66 29 10 69 27 9
74 28 9 79 30 9 88 35 13 107 49 25 136 73 48
163 96 69 171 102 75 166 97 70 159 93 67 153 92 70
145 91 72 139 92 77 133 94 82 118 86 77 95 68 62
70 47 42 46 24 21 28 8 7 24 2 1 30 3 1
47 10 4 73 28 17 99 47 34 115 57 44 114 54 40
99 40 26 82 25 12 71 17 4 67 14 2 66 14 4
67 14 6 69 16 10 74 20 17 79 23 23 80 23 27
80 22 32 82 23 40 89 29 55 109 46 82 143 78 125
186 118 177 213 142 213 208 133 216 187 109 202 172 92 191
162 81 181 156 75 172 150 69 161 143 64 146 138 63 133
132 61 122 121 52 107 106 38 89 97 30 77 101 34 76
107 42 78 108 44 75 106 43 69 103 42 63 102 41 59
100 40 57 226 152 249 233 161 251 214 145 231 159 93 177
106 44 124 80 22 98 73 18 88 70 17 78 66 16 67
64 16 59 63 15 53 62 14 49 63 14 46 65 14 43
67 15 38 69 15 32 73 15 26 79 16 24 87 20 26
96 23 29 104 25 28 112 27 29 124 33 33 135 39 38
143 42 40 147 42 41 154 46 46 166 56 57 180 70 72
190 80 83 193 83 88 190 80 87 183 73 86 180 71 90
183 75 103 187 79 118 193 86 135 202 94 152 203 96 161
198 92 161 199 93 164 201 96 168 202 99 171 206 106 178
213 116 189 227 133 207 238 145 220 228 132 207 204 103 175
187 82 150 178 72 135 171 65 122 163 58 107 154 50 93
148 45 83 143 42 76 135 37 69 128 33 66 127 37 71
128 42 79 120 38 79 106 28 73 98 23 72 115 43 99
168 98 163 222 155 224 237 171 242 220 152 227 191 121 201
160 89 171 133 63 145 117 48 129 108 41 122 100 36 115
90 29 105 79 21 94 71 15 85 68 15 83 71 19 85
74 24 88 76 28 88 75 29 84 69 25 75 63 19 62
61 17 53 61 17 45 56 13 34 48 6 20 43 2 11
46 4 10 50 8 12 53 11 15 54 12 16 56 13 18
58 13 20 62 14 20 65 15 19 69 17 20 72 17 21
73 16 20 74 15 19 77 17 20 83 21 23 93 28 29
102 35 36 108 39 38 114 43 41 122 49 45 128 53 47
134 58 50 146 69 59 159 81 70 167 88 76 172 93 77
177 97 78 177 97 75 164 82 58 149 65 39 142 56 28
139 51 20 149 60 26 174 85 48 186 101 63 163 86 49
115 49 20 79 24 6 68 24 13 71 36 29 85 55 50
103 78 74 98 78 73 57 44 39 19 11 8 7 2 0
8 3 1 8 2 0 10 1 0 14 0 0 18 0 0
22 0 0 24 0 0 26 1 0 27 2 0 27 2 1
25 1 1 24 1 1 22 1 1 19 1 0 16 1 0
13 1 0 10 1 1 7 2 0 5 1 0 3 1 0
2 0 0 2 0 0 2 1 0 1 1 0 1 1 0
1 1 1 3 3 2 7 5 5 25 19 18 57 46 46
87 72 71 102 83 81 106 85 82 104 83 78 97 76 68
89 68 57 81 58 45 72 48 33 69 41 25 71 38 22
77 39 24 82 41 25 85 40 24 89 40 23 100 48 29
122 65 45 141 81 60 148 88 66 148 89 68 147 93 73
145 96 79 139 97 84 134 98 88 118 88 81 86 62 57
54 35 31 34 17 14 23 6 4 21 1 0 27 2 0
42 10 3 67 25 13 96 45 29 117 59 41 123 60 43
114 50 34 96 33 20 81 20 9 73 15 4 71 16 5
73 18 9 74 19 13 75 20 16 77 21 20 80 23 25
83 24 33 85 25 42 87 26 51 98 37 70 134 72 115
185 122 173 223 158 219 231 163 235 211 141 222 187 114 203
172 96 191 162 85 181 156 78 173 150 71 162 143 65 147
137 63 133 131 60 122 121 51 108 106 38 91 97 29 78
100 33 77 107 41 80 109 44 78 107 43 73 105 42 67
103 41 63 102 41 60 229 155 253 229 158 249 206 137 224
156 90 174 107 44 125 81 22 99 74 19 89 70 18 79
66 16 67 63 15 58 62 14 52 61 13 47 61 12 44
61 12 40 63 13 35 64 13 28 67 12 21 72 13 19
80 17 22 90 21 24 98 24 25 107 26 26 119 32 31
131 38 36 139 41 39 143 41 39 148 43 42 158 50 51
171 61 63 180 70 73 184 74 78 181 72 78 177 67 77
175 66 82 176 68 91 175 67 99 176 67 109 183 74 124
188 79 136 188 80 141 192 84 148 195 88 153 194 89 154
190 88 154 190 91 159 203 106 177 227 132 206 238 143 217
219 122 195 191 91 161 177 76 143 174 73 135 167 66 123
156 55 107 148 49 95 140 42 86 132 37 79 129 36 78
128 40 83 124 41 85 111 31 79 96 20 70 94 20 73
116 44 105 159 90 159 197 130 204 204 137 213 183 115 194
154 85 167 131 62 144 113 44 127 103 36 117 100 34 114
96 33 110 87 27 100 76 19 89 67 13 79 65 13 76
68 18 79 72 24 81 73 27 80 70 26 75 64 21 66
59 16 55 57 14 46 57 14 39 52 10 28 46 4 17
44 3 11 47 5 12 51 9 13 54 11 16 56 12 18
57 12 19 59 14 22 63 15 22 68 16 22 72 17 22
73 17 23 73 16 22 74 15 21 78 17 22 85 23 26
95 30 33 105 37 39 111 41 41 115 44 42 121 48 44
125 50 45 130 54 47 141 64 55 154 77 66 164 86 75
170 91 77 175 94 77 173 92 72 159 77 54 146 62 37
141 54 27 138 50 20 148 58 25 173 84 47 188 102 64
168 89 52 121 52 23 84 27 7 72 25 14 75 37 30
88 56 51 109 83 78 108 88 83 67 52 48 22 13 11
7 1 0 8 2 0 10 2 0 12 1 0 16 0 0
21 0 1 25 1 1 29 2 1 31 3 1 33 4 1
34 4 2 34 3 3 34 3 4 32 3 3 29 3 3
27 3 3 23 3 4 20 4 4 16 4 3 12 3 2
8 2 1 6 1 0 5 1 0 3 1 0 3 1 0
2 0 0 2 1 1 4 3 2 4 2 2 10 4 4
27 15 15 47 32 32 67 49 47 84 65 62 96 78 72
99 82 74 95 78 68 85 67 55 74 54 41 71 49 35
80 53 40 90 58 45 96 61 47 98 59 46 99 58 44
107 63 47 120 72 55 127 77 58 131 81 61 138 90 71
144 100 83 138 99 86 123 90 80 109 81 74 85 62 57
50 32 29 24 10 8 16 3 2 18 2 0 24 2 0
36 7 1 60 21 9 91 44 26 119 62 42 130 67 47
126 60 41 111 44 27 93 27 13 81 18 5 77 17 5
78 20 10 82 25 17 83 27 21 81 26 23 81 24 25
81 22 29 84 23 38 90 28 51 93 31 63 114 51 92
168 105 154 222 161 216 246 183 245 240 173 244 215 146 226
191 119 206 176 102 193 165 89 182 157 80 173 151 73 163
143 67 149 136 63 134 131 60 122 121 51 109 107 38 93
98 29 81 100 33 80 107 40 82 109 43 80 107 43 75
106 43 71 105 42 68 104 42 65 227 153 252 222 150 244
194 125 214 148 83 167 105 43 123 81 22 99 75 20 90
70 18 80 64 15 66 61 14 56 60 13 50 58 11 45
58 10 41 58 10 37 59 10 32 60 11 25 61 10 18
66 11 16 73 15 18 83 19 21 92 23 23 102 26 25
113 30 29 125 35 34 132 37 36 135 36 35 140 37 37
148 43 44 159 52 55 168 60 64 173 64 69 173 65 70
172 64 71 171 63 75 169 61 80 164 55 82 161 53 88
167 58 100 173 64 112 176 67 119 180 72 126 183 76 132
183 77 135 179 76 135 177 76 139 186 88 155 212 116 186
237 142 215 232 137 211 201 105 179 181 84 156 175 78 147
169 73 137 161 65 126 153 58 115 145 51 105 140 48 101
138 48 101 131 45 97 118 37 89 103 26 79 90 15 70
89 17 74 105 35 97 127 59 131 149 83 161 159 92 173
145 78 159 122 55 137 107 40 122 98 31 113 92 26 106
88 25 102 84 24 98 78 21 90 71 16 81 66 14 74
64 14 71 65 17 71 66 20 70 64 20 66 60 17 60
56 14 52 52 10 43 52 9 37 52 9 31 48 6 22
44 3 14 45 4 12 49 7 13 52 10 14 55 11 16
57 12 18 58 13 21 61 14 23 64 16 25 69 17 25
73 17 24 73 17 24 73 15 23 74 15 22 79 18 25
87 24 30 97 32 36 106 38 41 111 41 43 116 44 44
121 47 45 123 49 44 128 53 46 139 62 54 153 75 66
164 85 75 170 90 78 173 93 76 170 88 69 155 73 50
143 59 35 141 55 29 139 51 22 148 59 25 175 85 48
192 105 66 174 94 57 128 57 27 89 30 9 75 26 14
78 39 31 91 58 53 106 79 74 99 78 72 59 44 39
20 10 9 8 1 0 9 1 0 11 1 1 15 1 1
19 1 1 23 1 2 28 2 2 33 4 3 37 6 4
39 7 5 42 7 6 45 7 8 46 7 9 44 7 9
42 8 9 39 8 9 36 9 10 32 10 11 28 9 9
22 6 5 17 4 3 14 3 3 11 2 1 8 2 0
6 1 0 5 0 0 4 1 0 5 1 1 7 1 1
10 1 1 15 2 2 22 7 7 32 16 15 46 30 28
63 47 43 75 61 54 76 63 55 67 54 44 59 44 34
66 49 38 86 66 55 102 79 69 109 83 72 112 83 73
117 85 74 121 86 73 119 82 66 116 77 60 123 83 66
136 98 81 137 101 88 113 82 72 81 56 49 61 40 36
45 27 24 25 11 9 14 2 1 13 1 0 19 1 0
31 4 0 50 14 4 79 33 17 113 59 39 136 74 52
138 70 48 126 57 36 108 39 20 91 24 7 84 19 5
85 22 10 87 27 16 89 30 22 89 31 26 86 29 28
84 26 30 84 22 35 87 23 46 93 29 61 103 38 80
136 70 121 195 132 187 241 181 239 254 192 254 247 181 250
228 159 236 206 134 218 186 113 201 170 95 185 160 84 174
152 77 165 144 69 152 137 65 138 132 61 127 123 53 115
109 40 98 100 32 86 102 35 85 108 41 86 109 44 84
108 44 79 107 44 75 106 43 72 105 43 70 221 147 246
215 143 238 187 118 207 143 77 162 102 40 120 80 22 98
75 20 90 70 18 79 62 14 64 59 12 53 57 11 47
55 9 42 55 8 38 54 8 34 55 9 29 56 10 23
57 10 17 60 11 14 67 13 16 76 18 19 85 21 21
94 23 23 104 27 26 115 31 29 121 31 30 124 30 29
128 31 31 137 35 38 148 43 47 157 51 55 162 55 60
164 57 62 164 58 63 164 57 65 160 52 66 155 47 68
155 47 75 163 54 89 169 61 99 170 62 103 171 63 106
169 63 109 167 61 110 164 61 114 166 65 123 176 76 140
197 99 167 226 131 203 239 146 222 223 131 209 203 111 188
193 100 175 186 94 166 182 90 160 177 86 154 168 79 144
160 72 135 148 63 124 130 48 109 113 34 94 98 23 82
85 13 71 84 14 73 91 23 87 97 32 104 111 47 126
128 63 143 124 59 140 105 41 122 93 28 109 86 22 102
81 19 96 77 17 90 74 16 85 70 15 79 68 16 75
67 17 72 66 18 68 64 18 65 60 16 59 54 12 51
50 9 44 47 7 38 46 6 33 48 7 29 49 8 26
47 6 19 45 4 14 48 6 13 51 9 14 54 11 15
56 12 17 58 12 19 59 13 21 62 15 24 66 16 27
70 17 27 73 17 27 74 17 26 74 16 25 75 15 25
80 19 28 88 25 33 97 32 39 105 37 42 111 41 44
116 44 45 120 47 46 124 49 46 130 55 49 141 65 58
154 77 69 165 86 77 171 91 79 173 92 77 166 85 67
150 68 47 141 57 34 141 56 31 140 52 24 150 60 27
177 86 50 197 109 70 182 99 62 136 63 32 94 32 10
78 27 13 81 39 30 90 56 50 93 65 60 75 53 48
41 26 22 15 5 4 9 0 0 10 1 0 12 1 1
16 1 2 21 1 2 26 2 3 32 4 4 38 6 6
43 8 8 46 10 9 50 10 10 54 10 12 55 10 13
54 10 13 52 11 13 49 11 14 47 12 15 44 14 16
39 13 14 34 10 11 29 8 8 25 7 8 21 5 5
16 3 2 13 1 1 10 0 0 9 0 0 9 0 0
11 1 0 15 2 1 16 1 1 16 1 1 17 2 2
20 6 5 27 14 12 35 24 19 37 27 22 32 23 17
31 22 15 46 36 28 74 61 53 97 81 74 106 88 82
110 91 84 116 94 87 112 87 77 94 67 55 87 58 44
101 72 58 115 86 74 103 77 67 68 46 39 36 19 16
23 9 8 19 7 6 14 3 2 12 1 0 14 0 0
22 1 0 39 7 1 66 23 9 100 47 27 133 71 48
148 79 54 141 68 43 124 51 27 106 34 13 94 25 6
93 25 10 96 31 18 97 33 23 95 33 26 91 32 28
89 30 31 88 28 36 89 25 45 92 26 57 99 31 73
118 49 101 161 91 152 214 146 212 245 180 246 252 186 254
250 183 253 243 173 249 227 155 236 203 131 215 179 106 192
165 90 178 156 82 168 147 74 156 141 68 145 136 64 136
127 57 124 114 44 108 105 36 96 106 39 93 112 45 94
113 47 90 110 46 84 109 45 80 107 45 76 106 44 74
212 137 237 213 140 236 192 122 212 146 80 164 102 40 120
80 22 97 75 20 89 69 17 77 60 12 61 56 10 49
54 9 44 52 7 39 52 6 35 52 6 31 53 8 26
53 10 21 54 10 16 56 10 13 60 12 13 68 15 16
76 18 17 83 19 18 92 21 20 101 24 22 108 25 23
112 24 23 117 25 26 126 30 32 137 37 40 145 44 48
150 47 52 152 49 52 152 49 52 151 47 52 147 42 52
145 39 56 151 45 67 161 55 82 167 60 91 167 60 93
166 60 95 162 57 95 155 50 92 150 48 95 154 53 106
163 63 122 177 79 144 204 109 181 230 139 218 234 144 227
225 135 219 220 131 212 217 128 208 207 119 198 197 109 187
186 100 175 166 82 154 139 57 126 116 38 104 101 26 90
88 16 78 79 10 69 78 11 70 80 15 78 81 18 88
91 29 104 108 47 123 110 49 125 94 33 110 81 20 96
75 14 89 71 12 83 69 12 79 66 12 75 64 13 71
64 15 68 65 18 66 64 18 62 59 16 54 53 11 46
48 7 39 45 5 33 43 4 29 45 5 27 49 8 26
51 10 25 50 9 20 50 7 16 51 9 15 54 11 16
56 12 17 58 12 18 59 12 20 61 13 22 64 15 26
68 17 29 71 17 30 74 18 31 76 19 31 77 18 30
78 18 30 83 21 32 91 26 38 99 32 42 105 36 44
111 41 46 117 45 48 121 48 49 126 52 50 134 59 55
146 69 64 158 80 74 167 88 80 171 90 80 171 90 76
162 81 64 144 63 43 137 55 32 141 56 32 140 53 26
150 60 28 178 87 50 200 111 72 188 104 67 142 68 36
100 35 11 82 28 12 81 37 27 84 49 41 79 50 45
59 36 32 32 15 13 16 4 3 12 2 1 12 2 0
13 1 1 18 1 2 23 2 3 29 3 4 36 5 6
43 8 9 49 10 11 53 13 12 57 13 13 59 12 14
60 11 15 60 12 15 58 12 16 56 13 16 54 14 17
52 15 18 49 15 18 46 14 16 42 13 15 39 12 14
33 8 11 27 4 6 22 1 3 20 0 1 17 0 0
15 0 0 16 1 0 18 2 1 18 1 1 17 1 0
16 0 0 14 0 0 12 1 1 12 3 2 12 5 3
9 4 2 10 5 3 20 15 11 39 33 28 58 51 46
68 59 55 73 61 59 77 62 60 69 52 48 51 32 25
47 27 18 60 39 30 66 46 38 52 35 28 29 16 11
13 3 2 10 1 1 12 2 3 12 1 2 13 0 1
18 1 1 30 4 1 52 13 3 87 35 17 124 62 39
151 80 55 155 79 52 141 63 36 123 45 20 108 33 10
101 29 9 103 33 17 106 38 25 104 37 28 98 33 28
93 31 30 90 30 34 90 28 42 93 26 54 99 29 70
112 40 93 140 68 130 183 110 181 221 149 225 237 166 245
239 168 247 241 170 248 244 173 251 240 167 247 219 147 228
192 119 202 173 99 184 162 89 173 153 79 163 146 73 154
142 70 147 134 62 136 121 50 120 111 42 107 113 44 105
118 51 105 118 52 100 115 50 93 113 49 87 111 48 83
109 47 81 203 127 228 217 143 239 206 136 224 157 92 174
106 44 124 81 22 98 74 19 88 68 17 76 58 11 58
52 7 46 51 7 40 50 6 36 50 5 33 50 6 30
51 8 25 52 10 20 51 10 15 51 9 11 54 9 11
60 12 12 66 14 12 72 14 12 79 14 13 87 17 15
95 20 17 101 21 19 108 23 23 118 28 29 127 34 37
134 38 42 138 41 45 139 41 43 139 39 41 137 37 40
135 34 41 136 34 47 146 43 62 158 55 77 162 59 84
161 57 85 160 57 86 157 54 86 147 46 82 139 39 80
140 41 89 147 49 103 157 60 122 177 83 154 202 112 193
211 122 209 209 121 209 220 132 220 229 142 229 211 125 210
184 100 184 170 88 169 149 69 146 118 40 114 96 21 91
85 13 80 76 8 70 71 5 64 71 8 65 72 11 71
72 13 77 76 18 86 90 32 100 94 36 105 82 25 94
71 15 83 67 12 78 66 11 75 65 13 72 63 13 68
61 13 64 60 14 60 58 14 55 55 12 49 49 9 41
45 6 34 44 4 30 43 3 26 42 3 23 45 5 24
50 10 25 53 12 24 53 11 22 53 10 19 55 11 18
57 12 19 58 12 20 59 12 20 60 11 21 62 13 23
65 16 27 69 17 31 73 18 34 77 19 36 80 21 38
81 22 38 83 22 37 87 24 39 94 29 43 101 34 46
106 37 47 112 42 50 118 47 52 123 50 52 129 54 54
138 62 60 150 74 69 160 83 77 167 88 81 169 89 80
168 88 75 157 78 61 138 59 40 132 52 30 139 55 31
139 53 25 148 58 27 177 86 49 202 112 73 192 107 69
148 72 38 105 38 13 87 30 13 84 37 26 85 48 40
87 57 52 79 55 50 53 34 30 28 13 10 16 4 2
14 2 1 16 2 2 20 2 2 25 2 4 32 3 5
40 6 8 47 9 11 53 12 13 59 14 15 62 15 16
64 14 17 64 14 17 64 14 17 63 15 18 62 15 18
60 16 19 59 16 19 58 17 20 56 17 21 55 17 21
51 15 19 46 11 15 39 5 9 33 2 5 30 0 2
27 0 2 24 2 2 24 3 3 25 4 3 24 3 3
23 3 2 22 3 2 18 2 2 13 1 1 10 1 0
7 1 0 4 1 0 3 1 1 5 4 3 10 9 7
17 16 13 23 20 19 26 20 22 28 19 21 24 14 14
19 7 5 20 7 3 25 11 6 25 12 8 19 9 6
12 4 2 8 2 1 8 1 2 11 1 3 13 1 2
17 1 2 26 4 3 43 10 4 70 23 8 109 49 26
146 76 50 164 85 58 158 75 47 141 57 29 124 43 17
114 36 13 110 35 15 111 39 23 112 41 29 107 37 30
100 33 30 95 31 33 93 30 39 92 28 49 96 27 64
108 35 87 135 59 122 171 95 166 203 127 206 223 147 231
226 150 238 221 146 234 221 147 233 232 159 242 241 168 249
231 158 239 205 132 214 183 109 192 169 95 178 158 85 168
152 78 162 148 75 156 140 68 146 127 55 131 118 47 118
120 50 115 124 55 115 123 56 110 120 54 103 118 53 97
116 52 92 115 51 89 200 123 224 222 149 242 221 152 236
171 105 186 111 48 128 81 23 98 73 19 87 66 16 74
56 10 56 50 6 43 47 5 37 46 4 33 47 4 30
48 6 27 50 8 24 50 10 19 49 9 13 48 8 9
50 8 8 54 9 9 58 10 9 62 10 8 68 10 8
75 12 10 84 16 14 92 19 18 100 22 22 108 27 27
117 32 34 123 34 38 126 36 40 127 36 38 127 34 34
126 32 34 126 31 36 130 34 44 141 43 59 152 54 74
156 57 80 154 55 79 150 51 77 146 47 76 137 40 71
128 32 69 126 31 75 132 37 88 140 46 105 157 64 134
177 88 170 181 93 183 177 90 182 195 108 200 219 134 225
206 121 212 167 84 173 144 64 150 130 52 134 107 32 109
87 16 88 76 9 75 70 5 67 66 4 62 65 5 60
65 8 62 65 10 66 65 11 69 71 17 76 74 21 80
68 15 75 63 11 70 63 13 70 63 14 69 62 15 66
61 15 62 58 14 57 54 11 50 50 9 43 45 6 36
41 3 29 40 2 25 42 3 24 41 2 21 41 2 19
45 6 22 51 10 24 54 12 24 55 12 23 55 12 21
57 12 21 58 12 22 59 11 21 59 11 21 60 10 22
63 12 24 67 16 29 71 18 34 75 19 38 81 22 43
86 26 47 88 27 47 89 26 46 92 28 46 97 31 48
101 34 49 107 37 50 113 43 52 120 48 55 124 51 55
129 55 57 139 64 63 151 75 72 160 83 79 165 86 80
166 88 79 164 86 74 152 74 59 133 55 36 128 49 28
136 54 31 138 52 25 146 57 25 175 84 47 203 112 72
196 110 70 154 76 41 112 42 16 94 33 15 92 42 30
97 58 50 113 82 76 123 97 92 97 76 71 49 32 29
20 6 5 15 3 2 18 4 3 21 3 3 26 2 4
33 4 6 42 6 8 50 10 11 57 13 15 63 16 17
67 17 18 68 17 19 68 17 20 68 17 20 68 18 20
67 18 21 67 18 21 66 18 22 65 19 23 65 19 24
64 19 24 62 18 23 57 14 20 51 9 15 46 5 10
41 2 6 38 2 4 36 5 5 36 7 7 34 7 6
31 5 4 30 5 5 29 6 6 26 6 6 20 4 4
14 2 2 9 1 1 5 1 1 4 2 2 3 3 3
1 2 2 1 3 2 4 4 5 6 4 8 6 2 7
6 1 3 8 1 1 10 1 0 10 1 0 10 2 1
10 4 2 9 4 3 7 3 4 7 1 3 10 0 2
16 1 3 25 3 4 37 9 6 59 18 9 93 37 18
134 65 38 163 84 54 169 83 54 161 71 42 146 57 28
132 47 20 124 44 20 120 43 23 117 43 27 114 40 29
108 35 31 101 31 33 97 31 38 95 31 45 94 28 56
100 29 75 124 49 111 166 89 160 202 124 203 218 140 225
222 143 233 217 138 232 208 130 224 207 130 222 220 145 233
237 163 247 240 166 247 222 149 229 199 126 207 181 107 189
169 95 178 163 89 173 158 84 168 149 76 158 136 63 141
126 54 129 127 56 126 132 62 126 132 63 122 128 60 115
124 57 108 120 54 101 118 52 97 201 125 225 227 154 245
231 161 241 180 114 193 114 51 131 81 22 97 73 19 87
65 15 73 54 9 55 47 4 41 43 2 33 41 1 28
42 2 26 45 5 24 47 7 21 47 9 17 46 8 11
45 7 8 47 8 8 50 8 8 53 9 8 57 9 7
60 9 6 66 10 8 74 14 12 81 17 15 89 21 19
97 25 24 105 28 30 110 31 33 113 32 35 116 32 34
118 33 33 118 32 33 120 32 36 125 35 45 134 42 57
143 50 69 147 53 75 146 52 75 141 48 72 134 41 67
126 34 62 120 28 62 118 27 68 121 30 78 127 37 93
143 53 121 165 76 158 168 80 171 159 72 166 170 83 178
202 116 210 209 125 218 173 90 181 137 57 145 119 43 126
103 31 109 87 18 91 77 12 78 71 10 70 66 7 63
62 5 57 60 6 55 58 7 55 56 7 54 56 7 55
56 7 56 55 7 55 55 8 56 56 11 58 57 13 58
55 13 56 53 12 52 51 10 47 47 8 41 43 5 34
39 3 28 37 1 23 38 1 21 40 3 20 40 2 18
41 2 17 46 6 20 52 10 24 54 12 25 56 13 25
58 13 25 59 13 25 60 12 25 60 11 23 60 10 23
61 10 24 65 12 28 70 17 34 74 18 38 78 20 43
87 28 52 95 34 59 96 33 57 94 31 54 96 31 53
98 32 52 101 33 50 105 36 51 113 42 54 119 46 56
122 49 56 128 54 58 138 63 65 148 73 73 156 79 77
160 83 78 162 85 77 160 83 72 147 70 56 127 51 33
124 46 27 134 54 32 137 53 26 144 58 25 172 83 45
201 112 70 199 112 71 161 80 45 120 47 19 102 38 18
100 47 35 107 65 58 127 94 89 152 123 119 135 111 107
72 53 50 25 10 9 17 3 2 19 3 3 21 2 3
26 2 3 33 3 5 42 6 8 51 10 12 60 14 16
67 17 19 71 19 21 72 19 22 72 19 22 72 19 22
72 20 22 72 19 22 72 19 23 72 19 24 71 19 24
71 19 25 71 20 26 70 20 25 68 18 24 64 15 22
60 11 18 52 5 11 46 3 5 44 5 6 43 7 7
40 6 6 37 5 4 36 5 6 36 8 9 35 10 12
31 9 11 23 5 7 15 2 4 9 1 2 5 1 1
3 2 2 1 2 3 0 2 3 0 2 5 2 1 8
3 1 8 4 2 6 6 2 3 8 3 2 9 3 2
9 4 2 9 4 2 7 3 3 7 2 4 8 1 3
12 0 1 21 2 2 33 5 4 48 13 8 76 29 15
121 57 34 160 83 53 173 87 55 170 79 47 165 71 41
154 62 33 141 53 27 135 53 29 130 52 33 122 46 31
113 37 29 107 32 31 101 29 35 98 29 42 97 31 53
96 28 65 108 35 90 149 72 142 199 121 199 224 145 228
224 144 233 217 137 231 209 129 227 202 122 220 201 122 218
210 133 226 228 152 240 242 167 249 239 165 245 224 150 231
208 135 216 198 125 207 194 119 203 188 113 198 178 103 186
162 88 168 149 75 152 146 74 147 148 77 145 144 74 138
137 67 127 130 61 117 123 55 108 119 51 103 204 128 228
229 155 246 232 162 242 181 114 193 114 51 130 81 23 97
74 21 88 65 16 73 53 9 54 45 4 40 40 1 30
38 0 26 39 1 24 42 4 22 45 7 18 44 8 14
43 7 9 43 7 7 44 8 7 47 8 8 49 9 8
52 9 7 55 9 7 59 10 7 65 13 10 71 15 13
78 18 16 86 22 21 93 25 25 98 27 29 101 28 30
105 30 31 109 32 32 110 32 33 112 32 37 117 34 45
124 39 55 131 44 63 135 47 68 135 48 70 132 46 68
125 39 62 117 32 57 113 27 58 111 25 64 113 27 72
118 32 84 133 46 111 155 67 148 159 72 162 148 61 154
149 63 157 180 95 189 208 124 217 188 105 197 142 63 151
112 36 121 97 25 104 86 18 91 78 15 81 73 14 73
67 11 64 61 7 57 57 6 51 53 6 45 50 5 42
47 3 40 45 1 39 44 2 40 44 3 42 45 5 44
46 7 44 45 7 42 44 6 39 42 5 36 40 4 31
38 3 27 36 2 23 35 1 20 36 1 18 38 2 17
40 1 16 41 1 16 46 5 19 51 9 24 55 12 27
58 13 29 59 13 29 60 13 29 61 12 29 61 10 28
62 10 28 64 11 30 68 14 34 73 18 39 76 19 42
82 22 49 94 33 61 102 40 68 101 38 65 97 32 60
97 31 57 99 32 56 101 32 53 105 34 52 111 40 54
116 44 56 120 47 56 126 52 57 136 61 64 145 70 71
151 75 74 154 79 75 156 80 74 153 78 68 139 65 51
121 47 30 120 45 26 132 54 32 135 54 27 141 57 24
168 81 42 199 111 68 201 115 73 168 87 49 127 53 23
107 41 20 104 49 35 110 66 58 129 94 89 157 127 123
147 122 118 82 61 58 29 12 11 16 1 1 17 1 1
20 1 1 25 2 2 33 3 4 42 6 7 52 10 12
62 15 17 70 19 21 74 21 23 75 20 23 75 20 22
75 20 23 76 20 23 76 21 23 77 21 24 77 21 25
77 20 25 77 20 26 77 21 27 77 21 27 76 21 27
74 20 27 70 16 23 61 8 15 52 3 7 49 4 5
48 5 6 46 6 6 45 6 7 44 8 9 45 10 12
45 13 16 43 13 17 37 11 15 28 7 11 19 3 6
10 1 2 5 0 1 2 2 3 1 2 4 0 1 5
0 0 7 1 1 8 4 3 7 9 6 6 16 11 9
21 15 12 17 12 8 11 6 3 8 4 3 8 2 3
9 1 1 15 1 0 27 3 1 41 8 3 61 19 10
99 44 27 149 79 52 180 97 64 182 90 57 175 79 46
170 73 42 159 64 36 147 57 32 143 59 37 139 60 42
126 49 36 113 37 31 107 31 34 101 28 39 98 27 47
96 28 58 98 28 73 121 47 110 175 97 173 221 142 225
233 153 240 225 144 236 214 131 229 204 121 222 198 115 217
196 115 215 201 121 219 217 138 231 235 158 245 240 165 248
235 161 243 230 157 238 228 153 236 228 152 237 227 150 236
222 145 229 209 133 214 192 118 197 180 106 182 168 95 167
153 81 149 141 69 134 133 62 125 126 56 116 122 52 110
205 129 229 228 154 246 228 157 240 176 108 189 112 49 128
82 24 98 75 22 88 66 18 74 52 9 53 43 3 38
39 1 29 36 0 24 37 1 22 40 4 20 42 6 16
42 7 11 40 6 7 40 6 6 41 7 6 43 8 6
44 9 7 46 9 7 49 9 7 52 10 7 57 12 9
62 14 11 68 16 13 75 19 17 81 22 21 86 24 24
90 25 26 94 26 27 98 29 30 101 30 32 103 30 37
108 32 44 114 35 52 119 38 58 122 40 62 122 42 63
121 41 62 115 36 57 109 30 53 104 25 54 103 23 58
105 25 66 110 28 77 122 39 101 139 55 131 144 59 145
137 51 142 138 52 145 165 80 173 204 120 213 202 119 211
153 73 162 110 33 118 92 20 100 85 17 90 80 17 83
74 16 75 66 12 65 59 7 55 54 5 47 49 5 39
45 4 33 41 2 31 38 0 29 37 0 30 36 1 31
36 1 33 37 2 33 36 2 32 36 2 30 35 2 27
34 2 25 34 1 22 33 1 19 33 1 16 34 1 15
37 1 15 39 1 15 41 1 16 44 2 18 49 6 23
55 11 30 60 14 34 61 14 34 60 12 33 60 10 32
61 9 33 65 11 35 68 13 37 70 14 39 74 17 43
79 19 47 87 26 56 99 36 68 106 42 74 103 39 70
97 32 63 96 30 59 99 31 58 101 32 55 104 33 53
109 38 54 114 42 56 118 45 56 124 49 57 132 57 62
141 66 68 146 72 71 148 74 71 148 74 68 143 69 60
129 57 44 113 42 26 115 43 24 129 55 33 133 55 28
137 55 22 163 77 39 196 108 66 204 118 75 176 94 56
136 61 29 111 44 21 105 49 34 112 66 57 129 92 87
150 118 115 136 109 105 76 54 51 27 10 9 14 0 0
15 0 0 18 1 0 23 1 1 31 3 3 41 6 6
52 10 12 64 15 18 73 20 22 77 22 23 77 21 22
77 20 21 78 20 22 80 21 23 82 22 24 83 22 26
83 23 27 84 23 28 84 23 29 84 24 30 84 25 31
83 24 31 82 24 31 78 20 28 69 12 19 59 5 10
54 3 6 53 5 7 54 8 10 56 11 13 57 13 16
56 14 18 56 15 19 55 17 22 54 19 24 48 16 22
35 9 14 21 3 5 11 0 1 6 1 2 3 1 3
1 1 4 1 0 6 1 0 7 4 2 5 16 11 10
37 29 26 46 38 33 31 24 19 16 9 5 12 5 3
11 3 2 12 1 0 21 2 0 34 5 0 50 11 3
79 30 16 127 65 43 174 98 68 193 104 70 188 93 59
182 84 52 176 77 47 163 67 40 152 60 37 150 64 45
144 64 49 127 49 40 114 37 35 108 32 39 102 28 46
98 26 54 96 25 64 103 31 84 139 64 133 198 120 200
234 154 239 237 156 245 227 145 239 213 129 228 200 116 219
195 110 215 192 108 213 195 113 214 210 129 226 226 146 239
225 147 236 217 141 227 215 140 225 218 141 227 224 146 235
232 153 241 236 158 242 236 159 241 230 153 234 211 135 214
182 107 182 156 81 153 141 67 136 135 63 129 131 59 123
126 54 117 203 127 227 225 150 245 222 150 236 170 102 183
110 47 125 82 24 97 74 22 88 64 18 72 50 8 51
41 3 36 37 1 27 35 0 23 35 1 20 37 3 17
38 5 13 38 5 8 37 4 5 36 4 4 37 5 4
38 6 5 39 8 6 41 8 6 43 9 6 46 10 7
51 11 8 55 13 10 60 15 11 66 17 14 72 19 17
77 20 20 80 22 21 83 23 23 87 25 26 91 27 30
95 28 36 100 30 43 105 32 49 109 34 53 110 35 55
110 36 56 109 36 54 105 32 50 99 26 47 96 22 47
95 21 51 97 22 59 102 25 70 109 30 87 119 37 109
126 42 124 128 44 130 132 47 136 154 69 160 199 115 206
211 128 219 161 80 170 113 35 122 96 23 104 90 22 97
86 23 91 79 21 81 68 14 69 58 8 56 51 5 45
46 5 36 42 4 30 39 2 27 35 0 25 33 0 25
32 0 27 32 1 28 32 1 28 31 1 27 31 1 25
31 0 23 31 1 21 31 1 19 31 1 16 32 1 14
33 1 13 36 1 13 39 1 14 40 0 15 42 1 17
47 5 23 56 11 32 62 16 39 64 16 41 63 13 40
63 10 39 64 10 40 68 13 44 72 15 47 74 16 48
79 19 52 85 24 58 92 29 65 101 36 72 104 40 75
101 36 71 97 31 65 96 28 61 97 29 58 99 30 55
103 32 55 108 36 55 112 40 56 116 43 55 120 47 56
128 53 59 136 62 65 141 67 68 142 69 67 140 67 62
133 61 52 119 49 37 106 37 21 110 41 22 126 54 32
130 54 27 133 53 20 157 73 34 192 105 62 207 121 77
186 104 64 146 71 37 116 49 24 107 49 33 112 65 55
124 85 80 132 98 95 109 81 78 60 37 34 25 7 5
15 1 0 14 0 0 17 0 0 22 1 0 29 2 1
39 5 5 51 10 11 63 16 17 74 21 22 78 22 23
78 21 21 79 19 20 81 20 22 84 21 24 86 23 26
89 24 28 90 26 30 92 27 33 94 30 35 95 32 37
94 32 38 93 31 38 91 30 38 87 27 35 78 19 26
67 10 15 60 5 8 59 5 8 63 11 14 67 16 20
69 19 23 69 19 23 68 18 23 70 21 27 72 26 33
69 26 33 56 19 26 37 9 13 20 2 4 11 0 1
7 0 1 4 1 3 3 1 6 3 1 6 7 2 4
27 19 17 63 52 48 74 63 57 47 36 30 22 11 6
16 5 1 16 3 1 20 3 0 30 4 0 43 7 0
63 16 5 101 45 26 154 86 58 191 109 76 197 105 70
193 95 61 192 92 60 186 86 58 172 75 50 161 69 49
157 71 54 146 64 53 126 47 42 113 36 39 108 32 45
103 28 53 100 26 62 100 27 74 115 41 101 162 86 159
217 139 221 241 162 247 240 159 248 231 148 243 213 128 229
199 113 218 193 107 214 190 104 212 192 107 213 206 122 224
218 136 233 210 129 222 193 114 204 185 106 196 185 106 197
193 112 204 202 121 212 209 129 218 220 140 227 232 153 238
228 149 231 198 120 199 162 85 160 143 67 139 138 63 133
134 60 128 130 57 124 198 121 222 219 143 240 215 143 232
165 97 179 107 44 122 80 22 96 72 21 86 61 15 70
48 7 48 39 2 34 35 1 26 33 0 21 33 1 18
34 2 15 34 3 10 34 3 6 33 2 3 33 2 2
33 3 3 34 5 4 35 6 5 36 7 5 37 8 5
41 9 6 46 12 9 50 13 10 54 14 11 59 14 12
64 16 14 69 17 16 72 19 18 75 20 20 78 22 23
82 24 28 87 27 35 93 29 42 97 31 47 100 31 49
101 32 50 100 32 49 97 30 45 94 27 41 90 23 39
87 20 39 87 19 44 90 21 53 95 23 63 99 24 76
105 27 93 112 32 108 117 36 117 119 37 122 137 54 142
187 103 194 212 129 220 171 90 181 123 45 134 106 32 117
100 32 110 96 32 103 88 30 93 75 21 78 61 12 62
51 6 48 45 5 37 41 4 30 37 2 27 34 0 25
31 0 25 31 0 26 31 1 28 31 2 28 30 2 27
30 2 25 30 2 23 30 2 20 31 2 18 31 2 16
31 2 13 32 1 12 35 1 12 39 1 13 40 0 15
41 1 17 47 4 24 56 12 35 65 18 45 69 20 50
69 18 50 69 15 50 70 14 51 73 15 53 79 19 59
85 25 65 91 30 70 94 31 71 96 32 71 98 33 72
98 33 72 97 30 68 95 28 64 95 27 61 95 26 57
97 27 55 102 31 56 107 35 56 111 39 56 114 42 55
118 45 55 123 50 57 132 57 62 138 64 66 138 66 65
134 63 58 125 55 47 111 43 31 101 33 18 106 39 21
121 52 30 125 53 25 128 50 17 151 68 29 188 101 58
209 124 79 195 114 72 157 81 46 123 54 27 108 49 32
109 61 51 112 72 67 103 69 65 75 46 43 40 17 15
21 3 2 16 1 0 14 1 0 16 0 0 20 0 0
27 1 1 36 4 3 48 8 9 61 14 15 72 20 21
78 22 23 80 21 21 82 20 20 85 22 23 88 23 25
92 26 28 95 28 32 97 30 35 100 33 38 105 38 43
107 41 46 107 41 47 105 40 47 103 40 47 98 36 44
89 28 35 77 18 24 69 10 15 68 9 13 72 15 19
78 21 26 81 24 30 81 24 30 81 23 30 84 26 33
88 31 39 88 35 43 79 31 39 59 19 25 36 7 10
19 1 2 12 0 0 9 1 2 8 1 5 9 2 6
17 7 8 46 33 29 89 73 67 97 80 72 62 45 37
31 14 8 21 4 1 23 3 0 31 6 0 43 9 0
57 12 1 82 27 10 128 64 38 176 100 69 198 111 76
198 103 67 198 99 65 201 101 70 195 97 69 182 87 63
172 80 62 163 76 63 146 63 55 124 45 44 113 36 43
108 32 50 103 28 59 105 30 73 112 38 93 136 62 127
185 109 185 229 151 233 242 163 248 241 160 249 232 149 243
213 128 229 197 110 217 190 103 213 187 99 210 188 101 210
198 112 217 207 122 223 197 114 210 179 97 191 169 88 181
168 86 180 170 87 182 175 91 185 179 96 189 189 107 198
210 128 216 229 148 232 217 137 219 182 102 181 154 75 151
142 64 138 136 59 131 132 57 127 192 114 215 212 137 233
211 139 228 163 95 177 106 43 121 79 22 95 71 19 85
59 13 67 46 5 46 38 1 32 34 0 24 32 0 19
32 0 16 32 1 13 32 1 8 31 1 3 30 1 1
29 1 1 29 2 1 30 3 2 30 4 3 31 5 4
33 6 4 36 9 6 42 12 9 46 14 11 49 13 10
53 12 10 57 13 11 62 14 13 66 15 15 68 17 17
70 19 20 75 22 26 81 26 34 87 29 40 91 29 44
92 29 45 93 28 44 91 26 40 87 23 35 84 22 32
82 20 31 80 17 33 82 18 39 86 20 48 90 22 58
94 22 70 98 24 84 102 26 96 103 26 101 104 26 106
122 41 126 172 90 179 212 130 221 191 110 202 147 69 160
124 50 137 113 43 125 104 40 114 95 36 102 81 26 87
66 16 70 54 9 54 46 6 40 40 5 33 37 2 29
33 1 27 30 0 27 29 0 28 29 1 28 30 3 29
30 4 28 30 4 27 30 4 24 31 3 21 31 3 18
31 3 15 31 3 13 33 2 11 36 2 11 39 1 12
40 0 14 42 1 18 47 5 26 57 12 37 68 20 50
76 25 59 78 25 62 77 21 62 75 17 60 77 17 62
87 26 72 99 36 83 102 39 86 98 35 80 94 30 73
92 27 69 91 25 67 91 24 64 92 24 63 93 25 61
93 24 58 96 26 56 102 31 57 107 35 57 111 38 57
114 41 56 116 44 54 121 47 55 129 55 59 136 62 65
137 65 65 132 62 58 121 52 45 107 40 29 97 32 17
103 38 20 117 50 28 121 50 23 124 48 14 146 64 24
182 98 53 209 125 79 203 122 79 166 91 54 129 60 32
110 50 31 104 56 45 98 57 52 80 44 42 54 25 23
33 10 9 20 3 2 15 1 0 15 1 0 16 1 0
19 0 0 24 0 0 33 2 2 45 6 6 57 12 13
69 18 18 77 21 21 82 22 22 86 23 23 90 25 26
94 28 29 98 31 33 103 34 37 106 37 41 110 40 45
116 46 51 119 49 55 119 49 57 117 50 57 116 50 58
112 47 55 103 39 46 91 28 35 82 20 25 79 17 22
82 21 26 88 27 32 92 30 36 93 29 37 95 30 38
99 33 42 103 37 46 104 42 51 99 42 50 82 34 40
56 18 22 33 6 7 19 1 1 14 0 1 14 1 4
18 5 7 35 18 18 72 51 47 110 87 80 110 86 77
74 50 40 43 18 11 30 5 1 32 4 0 43 9 0
56 13 0 75 22 5 110 47 23 157 84 53 191 109 74
200 108 72 199 102 65 202 103 68 203 104 73 196 98 71
185 90 68 176 84 68 163 75 66 142 59 55 123 43 46
113 36 48 108 32 55 105 30 65 116 41 90 138 63 123
168 93 163 206 131 207 231 155 236 236 159 242 237 157 244
229 147 240 211 125 226 194 106 214 187 98 210 185 97 209
183 95 206 186 99 205 192 105 207 185 100 199 171 87 184
164 80 177 161 78 174 161 76 171 163 77 171 164 80 172
167 84 174 183 100 188 210 128 213 225 143 226 209 128 209
177 96 175 152 72 149 139 60 135 134 55 130 186 109 208
208 133 228 211 139 227 165 97 179 107 43 122 80 22 96
71 19 85 58 12 66 45 3 46 37 0 32 33 0 23
31 0 18 31 0 15 31 0 10 30 0 5 28 0 1
27 0 0 26 0 0 26 1 0 26 2 1 27 3 1
28 4 2 29 5 3 33 8 5 39 12 9 43 13 10
45 11 9 48 10 8 52 10 9 56 11 10 60 12 11
63 14 14 65 17 19 70 21 26 77 26 33 82 28 38
85 27 40 85 25 39 84 23 36 82 21 32 78 18 26
77 17 25 76 17 26 76 16 28 78 17 35 84 21 46
87 23 55 89 22 64 90 21 74 89 18 81 89 15 85
93 17 93 111 32 115 157 76 164 204 122 215 208 127 221
183 103 197 155 80 171 131 59 145 111 45 124 96 35 107
83 27 91 70 18 76 59 13 61 49 10 47 43 7 39
39 4 35 35 2 32 31 0 31 29 0 31 29 1 30
29 2 30 29 3 29 30 4 28 30 4 26 31 4 23
31 4 20 32 4 17 33 4 15 35 3 14 38 3 12
40 1 12 41 1 15 44 2 20 49 5 29 59 12 41
71 22 56 84 32 71 91 36 80 86 29 76 80 21 70
84 23 74 98 35 88 108 44 98 105 40 93 96 31 81
90 25 71 88 22 66 87 20 63 87 20 62 89 21 62
91 23 61 94 24 59 98 28 59 104 32 60 108 35 59
111 38 58 114 42 57 116 43 54 119 46 54 127 53 59
134 61 65 137 66 67 131 63 60 119 53 45 105 40 29
96 32 17 101 37 19 114 48 26 118 48 21 121 46 13
142 62 22 178 95 49 209 126 78 208 127 83 173 97 59
134 64 35 112 50 30 102 50 39 95 52 47 88 50 47
81 49 47 66 40 39 40 20 19 21 5 4 16 2 1
16 1 0 18 0 0 22 0 0 30 1 1 41 4 4
53 10 10 65 16 16 76 20 20 85 24 24 91 27 27
95 30 31 100 33 35 106 37 40 111 40 44 115 43 48
119 46 52 124 51 57 127 54 61 128 55 63 128 57 65
129 58 66 126 56 64 118 49 57 107 40 47 97 31 37
91 26 32 93 27 33 98 32 38 101 34 42 103 34 42
108 37 46 113 41 50 116 43 53 116 46 56 115 51 59
104 47 54 79 33 36 49 14 15 29 3 3 21 0 1
20 1 3 28 8 10 52 28 28 94 66 63 127 97 90
118 86 78 82 50 41 54 21 14 41 8 3 41 5 0
51 10 0 67 17 1 96 36 13 141 71 41 183 103 69
200 112 75 200 105 68 201 103 67 203 104 70 196 98 68
184 87 62 175 81 62 168 76 63 154 66 60 135 50 51
120 39 47 112 35 51 107 32 59 109 35 75 132 58 111
172 98 161 204 130 201 222 148 224 230 156 234 232 156 238
233 154 241 227 145 239 212 126 228 195 107 216 188 99 212
186 97 210 181 92 203 176 88 195 177 91 193 176 90 189
167 82 179 159 75 172 157 72 169 156 71 164 155 69 160
154 69 159 154 70 158 160 77 163 181 97 182 211 129 211
225 144 224 206 125 205 173 91 171 148 67 146 139 58 137
184 107 202 207 131 224 216 143 231 176 107 191 116 51 132
84 24 101 73 19 88 59 10 69 45 2 48 38 0 33
33 0 24 31 0 17 30 1 13 29 1 8 28 1 3
26 1 1 24 0 0 23 0 0 23 0 0 23 1 0
25 3 1 26 4 1 27 4 2 31 7 5 36 10 8
40 11 9 41 9 8 44 8 7 48 8 7 52 9 9
56 11 11 60 15 16 65 19 22 71 25 29 77 29 35
80 29 38 80 26 37 78 22 34 77 20 31 75 18 27
73 16 23 72 15 22 72 15 23 71 15 25 74 17 31
78 20 40 81 22 47 81 20 53 79 16 58 79 13 65
80 11 71 85 12 81 103 27 105 142 65 150 180 101 192
194 113 209 194 116 211 184 108 201 158 85 175 128 59 143
105 41 119 90 29 101 77 21 87 66 16 73 57 14 61
50 11 51 44 6 45 39 3 41 36 1 39 34 1 38
33 1 36 32 1 35 34 3 35 36 4 35 36 4 33
36 4 29 36 3 26 37 4 25 39 4 24 41 4 22
43 3 19 44 1 19 46 1 22 50 3 29 55 6 38
63 12 51 79 25 69 97 40 91 105 45 100 96 34 92
91 28 88 101 36 98 114 48 110 115 48 110 104 37 97
95 28 85 91 24 76 89 23 70 88 21 67 89 21 65
90 22 65 93 24 64 97 28 64 102 32 64 106 35 65
108 36 62 110 38 59 113 40 57 115 42 55 119 46 56
126 53 61 133 61 68 136 67 70 130 64 63 119 54 48
105 42 32 95 33 19 98 35 18 111 45 25 117 47 23
121 46 16 139 60 22 173 91 47 206 124 77 212 131 85
182 105 64 143 70 38 116 50 27 104 46 34 105 55 49
117 73 69 134 96 93 133 101 99 94 69 67 45 26 24
21 4 4 17 1 0 18 0 0 21 0 0 27 0 0
36 3 2 48 8 7 60 14 13 73 19 19 85 26 26
93 30 30 99 34 35 106 38 40 113 42 46 119 46 50
123 48 53 126 50 56 130 52 60 133 55 63 135 58 66
138 61 69 140 64 72 138 63 71 132 58 66 123 50 59
114 41 49 106 34 42 103 32 39 106 35 42 109 38 46
112 39 47 117 43 52 123 46 56 124 47 57 125 49 59
126 54 64 120 56 63 101 45 50 71 25 26 45 7 7
31 0 1 30 3 4 38 11 12 63 33 33 108 74 72
141 104 99 127 88 82 89 49 42 64 23 16 53 10 4
53 7 0 62 12 0 81 24 5 119 52 25 167 92 58
199 115 77 203 112 72 201 104 66 203 104 68 199 100 68
183 86 59 168 72 51 161 68 52 155 65 56 143 55 54
127 41 49 115 33 50 110 31 58 108 32 68 116 42 88
154 82 137 205 135 197 233 163 230 235 165 235 233 162 236
234 160 240 234 156 243 229 148 243 217 132 235 204 117 225
197 109 220 192 104 214 182 94 201 171 84 186 168 82 179
168 83 177 163 78 171 157 72 165 155 71 161 153 69 156
149 65 150 146 62 147 146 63 146 147 64 146 158 76 157
186 104 185 216 134 215 224 142 223 201 118 200 167 85 167
148 66 148 182 106 197 206 131 220 225 151 238 195 124 211
132 64 151 92 28 111 77 19 94 62 10 74 48 2 53
40 0 38 35 0 26 32 1 18 30 2 12 29 2 7
27 3 3 24 2 1 22 1 1 20 0 0 20 0 0
22 1 0 23 1 1 25 2 1 27 3 2 31 5 5
35 7 6 37 7 7 39 7 6 41 6 6 44 6 7
48 9 9 54 13 14 60 19 20 68 26 29 75 32 36
79 35 40 80 33 40 77 28 36 74 23 32 73 20 30
72 18 28 70 16 25 68 15 23 67 13 23 66 13 24
68 15 27 70 17 31 71 17 35 70 14 37 69 10 40
72 9 49 75 10 59 80 12 72 102 31 102 141 67 148
160 84 173 156 79 173 165 88 184 184 108 203 185 111 204
167 95 185 142 73 159 117 50 132 93 30 107 77 20 89
66 17 76 57 13 66 50 8 58 45 3 52 42 2 50
42 2 48 41 2 46 41 2 46 44 4 48 48 7 49
49 8 47 48 6 43 47 5 41 49 6 40 51 8 41
52 7 38 53 5 34 54 4 34 57 5 39 61 7 46
66 9 55 74 15 68 93 32 91 113 50 114 116 51 119
111 44 115 118 49 121 133 63 135 137 66 138 126 55 125
114 42 111 109 39 102 106 37 94 102 34 86 99 32 81
98 31 77 99 31 75 101 33 73 105 37 73 109 40 73
109 39 70 108 38 65 108 38 61 110 39 59 114 43 58
120 48 60 126 55 65 131 62 71 133 66 71 128 63 64
118 55 51 105 44 35 94 33 20 94 31 16 106 40 24
118 47 27 123 47 21 136 57 23 166 84 43 201 118 73
215 133 87 195 115 72 157 80 43 125 53 26 113 47 32
117 57 50 133 81 76 161 117 113 184 148 144 159 129 127
86 62 61 32 12 12 19 0 0 19 0 0 20 0 0
23 0 0 31 2 0 42 6 4 54 12 10 67 18 17
80 24 24 91 30 30 100 35 36 110 40 43 120 46 50
126 48 54 130 49 56 133 51 58 135 53 61 137 55 63
141 58 67 145 63 71 149 67 76 150 68 77 146 66 75
141 61 70 132 53 62 122 44 52 114 37 46 113 37 45
115 40 48 119 43 51 124 46 55 128 48 57 129 48 58
131 51 60 133 56 65 132 60 67 122 56 62 98 39 42
68 16 18 47 3 5 42 5 6 51 17 17 78 42 42
123 84 83 150 109 106 133 89 85 97 51 45 72 23 17
62 11 4 66 11 0 77 19 1 103 38 13 146 74 41
187 108 69 202 117 75 200 109 67 202 105 66 202 104 69
190 92 63 170 74 50 156 62 44 151 60 48 147 58 54
137 49 55 124 37 55 115 30 60 112 31 72 111 34 84
128 54 109 178 110 166 230 167 223 248 185 244 244 179 242
239 171 241 238 167 244 236 160 247 228 147 244 215 131 236
206 119 228 201 115 224 195 108 214 182 97 197 170 85 179
164 80 169 163 79 164 159 76 160 155 71 155 153 70 151
150 68 146 146 64 141 143 61 138 141 60 137 141 59 137
147 66 144 165 83 163 193 111 192 221 139 221 221 139 222
191 109 193 165 83 167 177 101 190 204 128 216 230 155 241
207 134 223 144 74 165 99 34 120 82 22 101 67 12 81
51 3 59 43 0 43 37 0 30 33 1 20 31 3 13
29 4 8 26 4 5 24 3 3 22 2 2 20 1 1
20 0 0 22 1 1 24 1 1 25 1 1 27 2 2
31 4 4 34 4 5 36 4 5 37 4 5 38 4 4
40 4 5 44 6 7 49 11 12 57 17 19 67 26 29
74 32 36 77 35 39 77 33 38 73 27 34 70 22 30
69 20 28 69 18 27 66 15 24 63 12 21 61 10 20
61 10 21 62 11 23 63 13 24 63 13 26 62 10 26
63 7 29 67 7 38 71 9 50 80 15 68 110 41 107
150 78 155 156 82 168 132 57 149 130 54 148 154 79 174
181 106 200 192 119 211 183 111 201 156 86 173 121 53 137
91 29 107 74 20 89 64 15 78 58 10 71 54 7 66
52 5 63 51 5 61 50 4 59 53 5 60 56 8 62
58 10 62 59 11 61 58 9 58 58 9 57 60 11 58
62 12 58 64 12 57 66 11 55 67 10 54 69 10 58
73 13 66 78 16 75 86 21 87 104 38 108 124 56 131
134 64 142 142 71 150 154 82 161 160 88 166 154 82 158
141 69 143 134 61 133 129 58 124 119 50 108 110 42 95
106 39 88 104 37 83 103 36 78 103 37 75 107 40 75
109 41 74 108 39 70 107 38 65 108 39 63 111 42 62
116 46 63 122 52 65 127 57 68 130 62 72 129 64 71
124 61 64 116 54 52 105 45 37 93 33 22 91 29 16
103 38 23 117 47 30 123 48 25 132 53 22 158 76 38
193 111 67 216 134 88 206 125 80 170 90 51 136 60 30
121 50 32 123 58 48 136 79 72 163 114 109 198 157 154
193 158 156 118 90 89 46 22 22 22 1 1 21 1 0
21 1 0 23 1 0 29 2 0 39 5 2 50 9 7
62 14 13 75 20 20 86 26 27 97 32 34 109 39 43
122 46 51 130 49 56 135 51 59 139 53 61 141 54 63
142 55 64 145 59 68 151 64 74 157 70 80 159 73 82
158 72 81 155 69 79 149 64 74 138 55 65 127 45 55
120 40 49 120 42 50 124 46 54 128 48 57 131 49 58
134 50 60 137 54 64 140 57 67 140 61 69 137 62 69
122 53 58 95 31 35 68 14 16 57 12 13 68 27 27
103 61 61 142 98 98 150 103 102 127 78 74 98 47 41
77 23 16 69 12 3 75 15 0 93 29 6 127 57 26
172 95 59 199 117 76 200 113 70 196 105 62 201 105 66
199 102 68 182 86 58 161 66 44 149 56 41 147 55 48
144 54 55 137 48 60 128 40 65 123 37 76 119 37 89
120 41 101 145 71 132 199 133 192 243 184 239 253 195 249
247 186 244 238 174 240 233 164 240 229 155 242 218 139 237
203 120 225 192 106 215 188 102 210 185 100 202 176 92 188
167 84 172 162 80 162 159 77 157 155 73 151 152 69 146
148 66 141 145 64 137 142 62 134 140 60 133 138 58 132
138 57 132 142 61 138 153 72 151 173 92 172 204 122 204
224 142 225 215 133 217 197 115 200 172 96 186 202 126 214
230 156 243 211 138 229 151 81 174 106 40 129 88 26 108
73 17 89 56 6 66 46 2 49 40 2 35 36 2 24
33 4 18 31 4 12 28 4 8 26 4 6 25 4 5
23 3 3 22 2 1 23 1 1 24 1 1 25 0 0
27 1 1 31 2 2 34 3 4 35 3 3 36 2 2
36 2 1 37 1 2 39 3 3 44 5 6 50 10 12
58 17 21 64 23 27 67 26 30 67 25 29 65 21 26
63 17 23 63 15 23 62 14 22 60 11 19 57 8 17
56 6 15 56 6 16 58 8 18 59 10 20 60 10 21
60 8 22 62 7 27 67 8 36 70 9 46 81 17 66
113 45 108 154 83 158 158 85 169 126 51 141 111 36 128
123 48 141 144 70 162 163 90 180 175 103 192 175 104 192
154 85 171 123 59 140 101 44 118 85 33 103 73 22 91
68 18 85 66 16 82 64 13 79 64 12 77 64 12 76
65 13 75 66 13 73 65 12 71 65 11 69 65 11 68
68 14 70 70 15 71 72 15 71 77 17 73 79 16 75
81 18 79 89 25 90 97 31 101 103 37 110 114 46 123
130 60 139 144 73 153 156 84 164 160 88 166 153 81 157
145 73 146 141 69 140 137 66 134 126 56 118 110 42 96
99 33 81 96 30 75 94 28 70 93 28 66 93 27 62
95 29 61 99 32 62 102 34 62 105 37 62 109 41 63
114 46 65 119 51 66 124 55 68 126 58 69 127 61 70
125 62 69 120 59 62 112 52 50 102 43 36 92 33 22
89 29 16 100 36 22 115 46 29 122 47 25 128 49 19
148 67 30 185 102 59 215 133 86 214 132 87 183 102 61
146 69 36 125 53 32 126 59 46 138 79 70 160 109 102
192 149 145 195 158 156 129 99 98 53 27 27 26 3 2
25 3 1 24 3 0 26 2 0 30 2 0 38 4 1
48 7 5 59 11 10 70 16 16 82 22 22 93 28 30
107 36 40 122 45 50 133 50 58 140 54 63 146 57 66
147 57 67 147 57 67 150 60 70 156 66 76 163 74 84
167 78 88 167 78 87 165 75 86 162 73 84 154 66 78
141 55 66 128 45 55 124 42 52 128 46 56 132 49 59
135 50 60 140 52 64 144 57 68 145 59 70 144 61 71
144 64 73 139 64 71 120 50 55 92 31 34 75 23 24
85 38 38 119 72 71 143 94 92 134 82 79 110 57 52
93 38 30 81 23 13 76 16 3 85 22 3 111 43 16
153 79 47 193 113 76 205 120 79 198 109 65 195 102 60
199 103 66 196 99 67 177 82 56 156 61 42 145 52 40
144 53 48 144 54 57 138 49 65 133 45 75 132 45 90
127 44 102 130 51 116 164 89 156 216 149 212 248 190 246
254 198 252 248 190 247 237 174 238 226 158 233 218 146 232
209 131 228 193 111 215 179 95 203 173 88 195 171 86 189
167 83 178 162 79 167 159 77 159 156 74 152 150 69 145
146 64 139 143 61 134 139 58 130 137 57 128 137 57 129
135 55 129 134 53 128 137 56 132 145 64 142 159 77 157
180 99 180 205 123 206 217 135 219 218 136 220 170 95 185
200 125 214 230 156 244 218 146 236 164 94 188 115 49 140
93 31 116 78 22 97 61 10 73 49 4 55 44 3 42
39 4 31 36 5 23 33 5 17 30 4 12 28 5 9
28 5 7 27 5 5 26 4 3 26 2 2 25 1 1
26 0 0 28 0 0 31 1 1 33 3 2 34 2 2
34 1 1 34 0 0 35 0 0 37 1 1 40 2 2
43 4 5 48 8 11 53 12 16 55 14 18 56 14 18
54 12 16 53 9 14 53 8 14 54 8 15 54 7 14
52 5 13 51 3 12 52 4 13 55 6 16 57 8 18
59 8 19 60 8 21 64 9 27 68 10 35 72 11 45
81 18 64 108 40 100 147 77 148 159 86 166 128 55 141
105 32 120 106 32 122 112 39 128 118 47 134 133 62 149
157 87 174 172 104 189 167 103 185 153 95 173 136 81 157
119 65 139 107 53 126 95 41 114 85 30 102 81 25 97
78 23 93 75 20 89 75 19 86 75 18 85 74 17 83
75 17 82 77 19 83 82 23 87 89 29 94 97 34 102
100 34 105 105 39 111 116 49 124 124 57 134 126 58 136
126 57 136 127 58 137 129 58 137 130 59 135 127 56 129
120 49 119 117 47 113 118 48 111 113 44 104 102 34 88
91 25 72 85 20 62 84 19 58 84 20 56 85 20 53
85 20 51 87 22 50 92 26 52 97 30 55 102 35 57
108 41 61 115 48 64 120 53 66 123 56 67 125 58 67
124 60 67 121 60 66 115 56 59 107 49 48 99 41 35
90 33 23 87 29 17 96 34 20 112 44 28 120 46 25
123 45 16 138 57 21 174 92 49 211 129 83 221 139 93
196 115 73 158 80 46 133 59 36 130 62 47 140 79 69
156 103 95 182 137 131 187 148 145 131 99 98 60 33 32
33 9 7 31 8 4 29 5 1 28 2 0 30 1 0
36 3 1 46 6 4 56 9 8 66 13 12 77 17 18
89 23 25 104 32 36 121 43 49 135 52 60 145 57 67
152 62 72 155 63 74 155 63 74 156 64 75 161 69 80
167 76 86 171 80 90 172 80 91 172 79 91 172 78 91
167 75 88 154 64 76 138 50 62 131 44 55 134 47 58
138 50 62 140 51 63 146 54 67 150 58 71 150 60 72
149 61 73 149 64 75 149 68 77 139 63 71 115 47 52
93 34 36 98 45 45 121 68 67 128 73 70 113 56 51
98 39 32 90 30 19 86 23 9 87 23 4 102 35 10
136 65 35 180 103 69 206 124 87 205 118 78 196 105 63
196 101 60 197 101 66 189 93 64 169 74 51 148 55 38
140 47 37 140 49 47 142 52 59 139 49 69 135 45 80
135 47 97 132 48 110 141 61 131 181 106 178 227 158 226
248 186 248 252 195 252 251 194 251 240 180 242 224 159 231
212 140 224 203 126 221 191 110 213 178 94 201 169 84 191
165 79 182 161 77 173 158 75 164 156 74 156 151 70 147
145 64 139 141 60 133 138 57 129 135 54 126 133 53 125
132 52 125 129 49 123 127 46 121 129 48 125 137 56 134
146 65 143 157 75 155 172 90 171 188 106 187 198 116 198
169 94 184 196 122 212 229 156 243 228 157 244 185 116 207
133 67 158 101 40 125 83 26 103 65 13 80 54 7 62
48 6 48 42 5 37 39 6 29 35 6 22 32 5 16
30 5 12 31 6 10 31 7 8 30 5 5 28 2 3
27 1 1 28 0 0 29 0 0 30 1 1 33 2 1
34 2 1 34 1 0 35 1 0 36 1 1 38 2 1
39 2 1 41 2 3 43 2 5 45 4 8 47 6 10
47 6 10 46 5 9 46 4 8 46 4 8 48 5 10
49 5 12 49 4 11 49 3 11 51 4 12 54 6 15
57 8 17 59 9 19 62 10 21 65 11 27 68 11 33
71 12 43 81 18 61 98 32 88 131 61 128 154 83 158
138 66 147 108 36 120 98 26 112 99 29 114 99 30 114
103 34 117 122 54 137 156 89 172 179 115 198 180 120 202
175 118 198 172 115 194 166 109 188 148 91 169 127 69 146
116 57 134 107 49 125 96 37 112 90 30 104 89 29 102
92 31 104 95 34 106 100 38 109 115 52 123 134 70 144
143 76 154 139 71 152 137 69 150 140 71 152 139 70 151
130 62 142 120 51 130 111 42 118 104 35 108 101 31 100
98 29 94 95 27 87 94 26 83 93 26 80 89 22 72
84 18 63 81 16 55 80 16 50 80 17 48 82 19 48
84 20 48 85 20 46 86 22 45 89 25 47 93 28 48
97 32 51 104 39 55 111 46 60 117 51 62 120 54 62
120 55 62 119 56 62 116 57 62 110 53 56 102 46 45
95 40 34 89 33 24 86 28 17 92 31 19 107 41 26
117 45 25 119 42 14 130 50 15 163 81 39 204 122 76
223 141 94 208 126 83 174 95 59 145 70 46 136 67 50
142 80 67 153 99 88 172 125 117 182 142 137 149 115 112
89 59 57 51 24 21 39 14 10 34 8 4 29 3 1
29 1 0 36 2 1 46 6 4 55 9 7 64 11 10
74 14 14 86 20 22 101 29 33 119 42 48 135 52 60
148 59 69 158 66 77 164 70 82 165 71 82 165 71 82
167 73 84 170 76 87 172 78 90 174 79 91 175 79 92
177 80 94 175 79 93 165 71 84 149 57 70 140 48 61
140 48 61 143 51 64 146 53 67 152 57 71 156 61 75
157 62 76 157 64 77 155 65 77 155 68 79 153 70 80
134 59 66 108 42 45 112 50 51 135 74 73 133 71 68
112 49 42 99 35 25 95 29 15 93 26 7 100 32 8
124 53 25 166 90 58 203 122 87 212 127 89 202 112 72
195 102 61 195 99 61 192 95 64 180 84 59 159 64 45
139 46 33 132 40 34 135 43 46 138 47 60 136 46 71
133 44 84 136 48 102 139 54 121 156 75 150 197 121 197
231 161 234 242 177 245 247 187 249 252 196 252 247 189 249
229 166 236 210 140 222 199 124 216 191 111 212 179 96 202
169 84 190 163 77 181 160 74 172 156 73 163 152 70 154
146 65 143 140 59 133 137 57 129 135 55 126 133 53 124
131 51 123 128 48 121 123 43 115 119 39 112 122 42 116
131 50 126 139 58 135 144 63 140 147 66 145 154 73 152
161 80 159 167 94 182 190 117 206 223 150 237 235 164 248
209 141 228 160 94 183 116 54 139 88 30 108 69 15 85
58 9 67 51 7 55 46 6 43 41 7 34 38 6 26
35 5 19 33 5 14 34 7 11 34 8 10 32 5 7
30 2 3 29 1 1 30 1 1 30 1 1 31 1 1
33 2 1 35 2 1 35 2 0 37 3 1 40 5 3
42 6 4 43 6 4 43 4 4 43 3 5 44 3 6
44 4 7 44 4 7 44 4 7 44 4 7 44 4 7
45 4 9 47 5 11 47 4 11 47 4 10 50 5 12
54 7 15 57 10 18 60 11 20 63 11 21 65 11 25
66 10 29 71 12 41 80 19 58 91 27 78 114 47 109
144 74 145 146 76 152 121 51 130 101 31 111 93 24 104
90 22 102 89 21 100 96 29 108 122 57 136 149 85 166
154 93 175 158 98 180 172 113 194 186 127 209 188 128 210
177 116 197 168 106 187 157 95 175 137 74 154 121 58 137
119 56 134 128 64 141 136 72 149 146 81 158 162 96 174
175 107 188 171 102 187 158 87 174 147 76 162 138 68 151
128 59 139 116 47 125 104 35 110 95 27 96 90 22 86
87 20 79 86 19 73 84 18 68 82 18 63 80 16 58
79 15 54 78 15 50 77 15 45 77 14 42 78 16 41
82 19 42 83 21 41 83 20 39 83 21 38 86 23 39
89 26 41 93 29 44 98 35 48 104 41 52 109 46 54
113 49 55 114 50 55 113 52 56 111 53 57 105 50 52
97 43 41 91 38 32 87 34 25 83 28 18 88 29 17
102 37 23 113 43 24 117 41 15 125 47 13 153 73 32
194 112 67 220 138 91 215 133 89 187 107 70 154 79 52
139 68 48 143 78 63 153 95 82 165 115 105 184 140 133
181 143 138 131 98 95 74 44 40 48 21 16 40 13 8
33 5 2 31 1 0 36 2 1 46 6 4 55 9 7
63 10 9 72 13 13 83 18 20 98 27 31 116 39 45
134 50 58 148 59 69 161 69 80 172 77 89 176 80 92
175 79 91 174 77 90 173 76 88 174 76 89 176 78 91
179 80 94 180 80 96 180 80 96 174 76 91 163 66 80
151 55 69 146 50 64 146 51 65 152 55 70 159 61 76
163 63 79 165 65 81 165 67 82 162 67 81 161 69 82
162 73 85 150 68 77 127 51 57 136 65 67 169 99 98
164 94 89 130 60 51 110 40 26 104 33 14 103 31 8
117 44 16 149 73 42 191 112 77 216 132 95 211 122 84
198 105 66 195 98 60 193 95 61 186 89 61 172 76 55
150 56 42 132 39 31 127 35 33 130 39 46 133 43 61
133 44 74 133 44 89 138 51 110 151 66 137 176 94 174
211 134 216 232 161 239 236 170 243 240 178 244 247 191 249
250 193 251 237 175 242 215 147 226 200 126 216 190 112 210
178 96 199 168 83 188 163 77 180 159 73 172 154 70 162
149 67 152 142 62 141 136 57 131 134 54 125 133 54 124
132 52 123 131 51 123 126 46 118 118 38 109 114 34 105
118 37 109 127 46 119 135 55 128 139 58 133 140 59 134
140 59 135 141 60 136 166 94 180 184 112 198 211 140 226
233 164 246 228 161 243 188 123 208 136 74 158 96 37 116
72 18 88 61 11 71 54 9 59 49 7 47 44 7 37
41 7 29 37 5 22 35 5 16 35 6 12 36 7 11
34 5 8 32 2 4 31 1 3 32 2 3 33 2 3
33 1 2 35 2 1 36 2 1 37 3 1 40 5 3
44 9 6 47 11 8 48 11 9 48 9 8 46 6 7
46 5 7 45 5 6 45 5 6 45 5 7 45 5 7
45 5 8 45 5 9 46 6 9 45 4 9 46 4 8
49 5 11 54 8 15 58 10 19 61 12 20 63 12 21
64 11 22 66 11 28 73 15 41 81 20 56 89 26 73
106 40 98 131 65 129 146 78 148 135 67 140 111 44 118
91 24 99 84 18 93 83 18 93 86 22 96 100 36 112
118 55 133 122 60 140 119 58 139 128 67 149 149 88 170
169 107 190 178 115 198 179 115 198 178 114 196 173 108 190
167 101 183 166 99 181 169 102 182 171 104 185 175 107 187
176 106 188 167 96 180 150 78 165 135 62 149 126 53 139
118 47 129 111 40 118 103 34 106 96 28 95 90 22 83
84 18 73 80 16 64 78 15 57 77 15 52 76 15 48
74 14 44 74 13 41 74 14 39 73 14 36 74 14 34
77 16 34 81 19 36 82 21 36 81 20 33 80 19 31
82 21 33 86 24 35 89 27 38 92 30 40 96 34 43
100 39 45 104 42 47 107 46 48 108 49 51 106 51 53
101 48 49 93 41 39 88 37 31 85 34 26 82 28 18
85 27 16 97 35 22 110 41 24 115 42 18 123 47 15
147 68 29 185 104 60 215 133 87 219 137 92 196 115 76
161 84 54 140 67 45 142 75 57 152 91 76 162 107 96
179 132 124 187 146 140 146 110 105 84 52 47 55 25 20
46 17 12 38 8 4 34 3 1 37 3 1 45 6 4
53 9 7 62 11 9 71 13 13 81 17 19 96 25 29
114 37 43 132 49 57 147 58 68 163 70 81 178 83 94
185 88 101 185 87 100 181 82 95 177 76 90 176 75 89
179 79 92 184 82 96 184 81 98 183 80 97 182 80 96
175 75 91 162 63 78 150 51 66 148 49 65 156 56 71
164 62 78 167 64 81 169 66 83 170 68 84 169 69 85
167 70 85 168 74 88 163 74 85 152 68 76 170 90 94
202 122 123 186 108 103 144 67 57 120 44 27 112 36 13
115 38 10 136 58 26 172 92 57 208 124 87 218 130 92
206 114 76 196 100 63 195 96 61 191 91 61 181 83 59
165 69 53 144 50 39 127 35 30 122 32 33 125 36 46
128 40 62 130 42 77 132 44 94 142 56 119 164 80 155
195 113 196 222 144 230 234 160 243 234 165 243 234 170 240
240 182 242 249 193 250 245 186 249 226 161 237 208 137 223
192 116 211 177 97 197 167 83 186 161 76 178 156 71 169
151 67 160 146 65 150 141 61 141 134 56 131 131 53 124
130 52 121 131 52 122 131 51 122 126 46 116 116 37 106
111 32 100 115 35 104 124 44 113 131 51 121 134 54 124
135 55 125 134 54 125 133 53 124 167 97 178 179 109 191
202 133 216 228 160 241 236 170 249 210 146 228 159 97 179
109 50 128 78 23 94 65 13 75 57 10 62 51 8 50
47 8 40 43 7 30 40 6 23 38 5 17 38 6 14
38 8 13 37 6 10 34 3 6 33 2 5 35 3 6
36 4 6 36 3 4 37 3 3 37 2 1 38 3 2
41 6 4 47 11 8 52 16 12 54 17 14 53 14 12
51 10 10 49 8 9 47 7 8 46 6 7 45 6 7
45 6 7 45 6 8 45 6 8 45 6 8 44 4 7
46 4 8 50 6 11 55 9 16 60 12 20 62 13 21
64 13 22 65 13 23 69 14 30 76 20 43 82 23 56
88 26 69 101 37 90 117 52 111 128 62 125 127 61 127
111 45 113 92 27 95 83 19 88 81 18 87 82 20 90
90 29 99 102 41 114 106 45 122 99 38 118 98 36 117
108 46 127 123 60 141 132 69 151 136 71 154 145 79 161
165 98 180 184 116 199 186 117 200 170 101 183 155 86 168
149 79 162 141 70 153 129 56 140 116 43 128 108 34 118
103 30 112 100 29 105 97 27 98 95 26 90 92 24 82
86 20 71 81 17 61 78 16 53 75 14 46 73 13 40
72 14 37 72 15 35 70 13 31 69 12 29 71 13 28
72 14 28 75 16 28 79 19 30 80 20 30 79 20 28
78 20 27 80 21 28 83 23 30 86 25 32 88 27 35
91 30 37 94 34 38 98 38 40 101 41 42 102 45 46
102 49 50 98 47 47 90 41 38 86 36 31 84 34 26
81 28 20 83 27 17 94 33 21 107 41 25 114 43 20
121 46 16 140 62 25 174 94 52 208 127 81 220 138 93
204 123 83 172 93 61 147 72 47 142 71 51 150 85 68
159 101 88 169 118 108 163 118 111 123 83 78 77 42 37
58 26 21 52 21 15 45 13 8 38 6 2 37 3 1
43 6 3 51 9 6 61 12 10 70 14 14 79 17 18
92 23 26 110 34 40 129 46 54 145 56 66 162 69 80
180 84 96 190 92 105 192 92 106 188 87 101 181 79 93
178 76 90 182 80 94 187 83 99 188 83 100 186 82 99
186 83 100 183 81 98 171 70 86 157 56 72 152 51 67
158 56 72 165 61 78 169 64 81 171 66 83 172 67 84
172 69 86 172 71 87 172 74 89 173 78 91 176 85 94
197 108 113 212 125 125 185 100 95 145 62 50 123 41 22
116 36 9 128 48 15 158 77 40 195 111 72 216 129 90
212 122 83 199 106 69 195 98 62 194 95 62 188 88 61
176 77 58 159 62 50 138 43 37 122 30 28 119 29 34
121 33 47 123 37 62 126 40 78 131 46 98 150 65 131
180 96 175 210 128 214 227 148 237 233 157 244 232 161 243
230 165 238 235 176 239 247 192 248 251 195 253 240 179 248
222 153 235 200 127 217 181 103 200 168 85 186 160 76 177
155 70 169 151 68 161 148 66 154 145 65 146 140 62 137
137 61 131 136 59 128 136 57 126 135 55 124 130 51 118
122 43 109 117 38 104 120 41 106 125 46 111 130 51 115
132 53 117 132 53 117 131 52 117 131 52 116 169 100 177
181 113 190 204 136 215 228 162 240 237 172 250 219 156 235
176 114 194 124 65 141 87 31 102 70 17 81 62 13 67
56 11 55 50 8 42 45 6 31 43 6 24 42 6 19
41 7 16 41 8 14 40 8 13 38 5 10 37 3 8
38 4 9 42 8 11 43 8 10 40 5 6 38 3 2
38 2 2 40 4 3 47 10 8 54 17 15 58 20 18
57 18 16 55 14 14 53 12 12 50 10 10 48 8 9
47 7 8 46 7 8 46 7 9 46 7 8 45 6 7
45 5 7 47 6 9 52 8 13 58 12 18 63 16 22
66 17 24 68 18 25 70 18 27 73 19 33 77 22 43
82 24 54 87 27 66 94 31 79 99 34 88 102 38 95
104 40 99 97 33 94 86 23 84 79 17 80 77 17 79
78 19 83 84 25 90 91 31 100 93 33 106 91 30 107
90 28 106 92 29 108 95 32 111 97 34 114 99 35 115
105 40 121 127 60 141 157 88 170 166 95 178 144 73 156
120 49 132 112 41 124 109 36 120 103 29 112 98 24 105
95 21 100 92 19 94 90 18 88 89 19 82 89 20 76
87 20 69 82 18 60 78 16 51 76 15 44 74 15 38
72 14 33 71 14 30 71 15 29 70 15 27 70 14 25
71 14 25 73 15 25 74 16 24 75 18 24 76 19 24
76 19 23 76 19 23 77 20 23 80 21 25 83 24 29
87 28 33 91 31 36 93 34 36 95 36 36 96 38 37
97 41 40 98 46 46 96 47 45 89 41 37 85 36 31
82 33 26 81 29 21 82 27 18 92 33 21 105 41 26
111 43 22 116 44 16 131 55 21 161 83 42 199 118 74
220 139 94 213 131 90 185 105 71 157 79 52 143 70 46
145 77 58 153 92 77 156 101 89 134 85 77 92 50 43
64 26 20 58 22 17 57 23 17 52 18 13 43 9 5
37 3 1 40 4 1 48 8 5 59 12 10 68 15 13
76 16 16 86 19 22 102 28 33 122 41 48 140 53 62
158 67 77 179 83 95 191 93 106 196 96 110 195 93 107
187 84 98 183 78 93 185 80 95 188 83 99 190 85 101
189 84 101 187 84 101 185 83 100 179 77 93 167 65 81
159 57 73 160 57 74 166 62 79 171 65 82 173 67 85
174 68 86 174 69 86 175 71 88 177 75 91 181 80 94
190 91 102 204 107 114 202 108 110 173 82 76 140 52 38
122 36 13 123 38 8 146 62 26 183 98 58 214 127 85
219 130 89 205 114 75 196 102 66 194 97 64 190 91 61
181 82 58 169 71 55 153 56 48 133 38 34 119 27 28
117 28 36 119 33 49 121 37 64 126 43 83 138 55 109
167 83 151 201 118 198 222 140 227 227 148 238 228 152 241
229 157 240 229 162 237 231 172 237 242 187 245 251 197 253
248 190 253 233 168 244 213 142 228 195 119 212 178 98 195
166 84 183 161 77 175 158 75 169 156 74 163 155 75 157
154 76 152 153 77 148 153 76 144 151 72 140 147 68 134
143 64 129 137 59 122 134 56 118 134 56 117 134 56 116
134 56 115 134 56 114 132 54 112 131 53 111 131 53 111
178 111 184 196 128 202 218 151 226 237 172 246 239 175 249
216 154 230 176 114 192 129 69 144 93 36 107 77 23 88
70 19 76 62 16 62 54 10 45 47 6 33 46 6 25
44 6 20 42 6 16 42 7 15 42 7 14 41 6 12
40 5 11 42 7 13 48 13 18 49 14 17 44 8 10
40 4 4 39 2 3 40 3 3 45 7 6 51 13 12
56 18 16 57 19 17 56 16 16 55 14 15 53 13 13
51 11 11 50 10 11 49 9 10 48 9 10 47 8 9
46 6 7 46 5 7 49 7 10 55 11 15 61 15 20
67 19 25 70 21 27 72 22 28 75 23 31 76 23 36
77 23 42 79 23 50 82 23 58 84 22 65 84 21 69
86 23 75 90 28 81 85 24 78 77 17 71 74 15 70
75 17 73 77 20 77 81 23 83 83 25 88 82 23 92
81 22 94 83 22 96 84 23 98 85 23 99 86 23 100
86 23 100 88 23 101 99 32 111 123 54 134 142 71 152
135 63 145 114 42 124 102 30 112 99 27 109 95 22 102
90 17 94 88 16 87 86 15 82 85 15 77 85 16 72
84 17 66 83 17 60 80 16 52 76 15 44 74 15 38
73 16 34 73 16 30 72 16 28 71 16 27 71 16 26
71 16 25 72 16 24 73 17 23 73 17 22 74 18 21
74 18 20 75 19 20 75 19 20 76 20 21 79 22 24
85 27 30 91 33 36 95 37 39 96 38 38 96 38 37
94 38 36 94 40 38 96 46 43 95 47 44 89 42 37
83 36 30 81 33 26 80 30 22 81 28 19 89 32 21
101 40 26 108 43 24 113 43 18 124 51 18 149 73 34
187 108 66 216 136 91 218 137 95 196 114 78 166 86 55
147 70 44 141 69 47 141 76 58 136 78 65 113 61 51
81 36 27 68 27 20 69 31 25 65 29 23 56 21 15
46 11 7 38 4 2 37 2 0 43 5 3 54 10 7
63 14 11 71 15 14 80 17 18 95 24 28 115 36 43
134 49 57 153 63 73 175 81 92 190 92 105 198 98 111
199 97 111 194 90 105 190 85 100 189 83 99 191 84 101
191 86 102 190 86 103 189 85 102 188 85 102 184 82 99
174 72 89 164 62 78 162 59 76 167 63 80 173 67 84
176 70 88 177 71 89 177 71 88 178 72 90 181 76 93
186 81 97 195 90 104 202 99 108 191 91 93 163 68 61
137 45 29 125 36 11 135 48 14 166 80 40 203 117 73
222 134 90 216 126 84 202 110 71 196 102 68 193 97 68
184 86 61 171 73 54 160 62 51 146 50 45 128 35 33
118 27 30 119 31 40 119 34 52 122 38 67 135 53 94
157 75 131 188 106 175 217 135 215 228 147 234 226 147 237
225 148 237 225 152 236 224 157 233 223 163 230 232 177 238
246 191 250 249 192 253 236 174 245 220 153 234 210 137 225
196 120 213 181 101 197 171 90 186 166 84 178 162 81 170
161 81 164 161 83 160 161 85 156 161 84 152 159 80 147
155 76 141 151 73 136 148 70 131 146 68 128 145 67 125
143 65 121 140 63 117 137 60 112 134 57 109 133 56 108
132 55 107 204 138 209 222 156 226 238 174 242 248 186 251
244 183 249 215 154 227 171 109 186 125 65 141 94 36 108
82 27 93 78 26 85 69 20 69 57 12 50 51 7 36
48 6 27 45 4 21 42 4 17 43 5 16 43 5 15
42 5 14 42 5 13 46 9 16 53 16 23 54 18 23
47 11 15 42 5 8 40 3 5 41 2 4 42 4 4
46 7 7 50 12 12 54 16 15 55 15 15 55 15 15
54 14 14 53 14 14 52 12 13 51 11 11 50 10 10
49 8 9 48 7 8 49 7 9 52 8 11 57 12 15
63 17 21 68 21 25 71 23 27 73 23 28 74 23 31
75 23 34 75 21 38 74 18 43 74 16 47 74 14 52
75 14 56 80 19 65 86 26 73 81 21 69 72 13 61
70 13 61 73 18 66 75 20 71 75 20 73 73 18 75
70 14 77 70 13 80 73 15 83 76 18 86 79 19 89
79 19 90 79 17 89 79 16 89 83 18 93 98 30 107
121 52 130 135 65 143 126 56 135 110 39 118 98 27 106
92 20 97 87 16 87 85 14 79 83 13 74 82 14 70
82 15 65 81 16 60 80 16 53 77 15 46 75 14 40
74 15 35 74 16 32 73 16 29 72 16 27 71 16 25
71 16 24 71 16 24 72 17 23 73 18 23 73 18 21
74 19 20 74 19 19 74 20 19 75 19 19 77 21 21
82 26 27 89 32 34 95 39 40 100 43 44 100 44 43
98 42 40 95 41 38 94 42 38 95 46 41 93 47 41
87 42 35 81 36 28 80 32 25 78 29 22 79 27 19
85 30 20 96 37 24 105 41 25 111 44 21 119 48 18
137 64 27 172 96 54 208 129 85 221 141 98 206 125 86
176 95 61 151 72 42 137 62 38 128 60 40 120 58 43
108 53 41 98 50 40 107 63 55 116 75 69 99 60 54
67 30 25 46 10 7 38 3 1 36 1 0 39 3 1
48 7 4 58 12 8 67 15 12 76 17 17 89 22 24
107 32 37 126 44 52 146 58 68 168 76 87 185 89 101
196 96 110 201 99 114 202 98 113 200 95 110 198 92 108
197 91 107 193 89 105 191 88 105 191 88 105 192 89 106
188 87 103 179 78 94 168 67 83 164 62 79 169 65 82
175 70 87 180 73 91 181 74 92 181 73 92 181 74 92
184 76 95 190 81 99 197 89 105 200 92 104 184 81 85
157 58 52 136 41 24 134 43 16 154 66 30 189 102 60
218 131 86 220 134 88 208 119 76 198 107 69 195 102 70
192 97 71 178 82 61 160 64 49 149 53 45 137 43 40
123 32 31 118 29 33 121 35 45 119 35 54 123 40 70
148 66 108 181 98 154 208 126 194 227 145 224 232 151 235
226 147 235 222 145 232 220 146 230 217 150 226 215 155 223
222 166 229 239 183 243 247 190 251 237 176 244 221 156 232
213 144 227 204 131 220 190 113 206 177 98 192 168 87 181
161 80 171 158 78 163 157 79 157 156 78 151 154 76 145
153 74 140 150 71 136 147 68 130 144 66 126 143 65 122
142 64 119 140 63 115 137 61 111 135 59 106 133 57 104
132 56 102 131 55 101 235 172 238 243 180 246 248 185 251
250 189 252 245 185 250 222 161 233 179 118 194 129 68 145
94 35 109 84 27 97 82 28 91 73 22 75 60 12 55
54 8 40 51 7 31 47 4 23 44 3 19 44 4 18
44 4 17 43 4 15 43 4 15 47 9 18 54 16 24
57 19 27 51 14 20 44 7 11 41 2 6 41 2 5
41 2 4 43 4 5 46 8 8 51 12 12 53 14 13
54 14 13 55 14 14 55 14 14 54 13 13 53 11 12
51 9 10 50 8 9 52 8 10 53 8 11 54 9 12
58 12 15 63 16 20 67 20 23 69 21 24 69 20 25
69 18 25 70 18 28 70 16 32 69 13 36 68 10 39
69 10 44 71 12 50 78 18 59 83 25 66 77 19 61
68 11 52 68 12 54 71 18 60 71 19 63 66 14 61
61 9 59 59 6 61 60 6 65 64 9 69 69 13 74
72 16 78 74 16 79 73 14 79 73 12 79 75 12 81
82 17 88 99 33 105 121 53 126 130 61 135 122 52 127
107 37 112 96 26 98 88 18 84 85 15 76 83 14 70
81 14 65 80 13 60 79 14 54 78 14 48 76 14 41
74 14 36 73 14 32 73 14 29 72 14 27 71 14 25
71 14 23 70 14 23 71 15 22 72 17 23 73 18 23
73 19 21 74 19 20 74 20 19 75 20 18 75 20 19
79 23 22 86 31 31 94 38 39 99 44 44 102 47 47
102 47 46 100 45 43 97 44 40 95 44 39 95 47 39
92 46 38 86 41 32 80 35 26 78 32 23 77 28 21
77 26 18 81 28 19 91 33 22 101 39 25 109 44 23
114 45 18 126 54 21 156 81 41 194 118 74 220 141 97
215 133 93 187 104 67 157 76 44 137 60 33 125 53 31
118 53 36 118 60 47 128 77 66 153 106 98 174 130 124
158 117 111 108 69 64 62 24 22 40 5 4 37 3 2
37 3 1 43 6 2 53 11 6 63 15 11 73 18 16
84 21 22 100 29 32 119 40 46 137 52 61 158 68 78
177 83 94 191 93 106 201 101 115 208 106 120 210 106 120
208 103 118 204 99 115 196 92 109 192 89 106 194 91 108
195 93 110 193 91 108 185 83 100 173 72 88 168 66 82
171 68 85 177 73 90 183 77 95 185 78 96 185 77 95
185 76 95 187 77 96 192 81 100 200 88 106 201 90 104
185 78 84 159 57 52 141 44 27 147 55 27 177 89 52
212 125 81 226 140 93 214 129 82 199 112 69 193 104 67
191 100 71 187 95 72 172 79 62 152 58 47 138 45 40
128 36 34 119 29 29 120 32 35 125 39 48 121 37 55
126 42 72 160 77 119 201 118 173 226 142 210 238 155 231
238 157 239 231 153 237 224 149 232 217 145 226 213 146 222
211 150 219 214 157 222 229 173 235 245 189 249 242 183 248
225 164 235 211 146 224 199 129 213 187 113 202 177 100 192
168 89 181 160 80 171 155 75 161 152 72 153 149 71 145
147 68 138 144 65 132 141 62 127 138 60 122 137 59 118
136 59 114 135 58 110 133 56 105 130 55 100 128 53 97
127 52 94 125 50 92 124 49 91 243 182 246 239 177 243
234 171 239 232 170 238 231 169 239 224 163 237 197 136 213
146 85 164 102 42 119 85 27 100 82 26 93 76 22 80
64 13 61 57 9 46 55 7 36 50 5 28 47 4 23
47 5 22 46 5 21 45 3 18 44 3 16 46 6 18
52 12 23 56 17 26 55 15 23 47 8 14 41 2 7
40 1 5 42 3 6 43 5 6 45 8 8 49 11 11
51 12 11 53 12 11 54 13 12 54 13 12 54 12 12
54 10 11 52 8 10 53 8 9 55 9 11 55 9 12
56 9 12 59 11 15 62 14 18 64 16 20 65 16 20
64 15 19 64 13 20 65 13 23 66 12 28 65 10 32
65 9 36 66 9 41 69 12 46 75 18 54 79 22 58
73 17 53 66 11 46 67 13 49 69 18 55 67 17 56
60 10 51 53 3 47 51 1 48 53 2 51 57 5 56
63 10 62 68 14 68 71 15 71 71 14 71 71 13 71
74 13 74 76 14 77 83 19 83 98 32 98 114 47 114
120 53 121 118 50 118 109 41 107 97 29 91 89 21 78
85 18 71 83 17 65 80 15 58 77 13 50 76 13 44
76 14 40 73 14 34 72 13 30 71 13 27 71 13 25
70 13 23 70 13 22 69 13 21 70 14 21 72 17 23
73 18 23 74 19 22 74 20 20 74 20 19 75 21 19
75 21 19 80 25 24 89 34 34 96 42 42 100 46 46
102 48 47 101 48 46 99 47 43 98 46 41 96 46 39
94 47 37 91 45 35 86 39 29 80 34 24 77 31 22
75 28 20 75 26 18 78 26 18 86 30 21 97 38 25
106 43 25 111 44 19 119 48 17 141 68 30 178 103 60
212 134 89 220 138 95 197 114 75 166 83 49 143 63 34
130 55 31 124 56 38 131 70 56 146 92 81 167 118 109
191 146 139 200 157 151 168 126 122 103 63 61 54 18 16
40 6 4 37 4 2 39 6 1 48 11 4 59 15 10
69 18 15 80 21 20 94 26 29 112 35 41 129 46 54
148 60 70 169 77 88 186 91 103 199 101 114 209 109 122
214 111 125 214 110 124 208 104 120 198 95 111 194 91 108
196 93 110 198 95 112 197 94 111 190 88 105 179 78 94
171 70 86 173 70 87 179 75 93 186 80 98 189 81 100
189 79 98 188 77 96 188 77 96 193 79 100 201 86 106
204 90 107 194 84 92 170 67 62 154 56 39 166 74 44
201 113 73 227 141 95 224 140 90 205 121 73 192 107 63
187 100 64 185 95 68 180 90 70 167 77 63 147 57 48
131 41 37 121 32 30 116 28 28 120 34 37 127 41 50
123 38 56 128 43 73 165 80 122 209 123 178 232 147 213
243 159 233 246 166 244 243 165 245 234 160 239 222 151 228
213 148 221 210 149 218 209 152 217 219 164 227 237 182 243
245 189 250 238 180 245 220 158 230 198 131 210 183 112 197
176 101 191 170 92 183 162 82 173 156 75 162 151 70 152
148 68 144 145 65 137 141 62 130 138 59 124 136 58 119
135 57 115 134 57 111 132 56 106 129 53 100 126 51 94
122 47 89 120 45 85 118 44 83 117 42 81 220 158 225
210 147 217 202 139 209 199 136 208 203 140 214 214 152 228
210 149 228 171 110 192 120 60 141 91 32 110 84 26 98
79 24 87 70 16 69 61 10 52 57 8 41 54 7 33
51 6 27 51 7 26 50 7 25 48 5 22 46 3 19
46 4 18 49 8 21 54 14 24 56 16 25 50 10 18
43 4 10 41 2 7 43 4 8 46 8 10 48 11 12
50 12 13 51 12 12 52 12 11 53 12 10 54 12 11
55 11 11 55 10 11 55 8 10 56 8 10 57 9 12
57 9 12 57 9 12 59 10 13 61 11 15 61 13 17
61 12 16 61 12 16 62 12 19 64 12 23 65 11 27
65 10 31 66 10 36 67 10 40 68 11 44 71 15 48
73 17 50 69 14 46 65 12 43 66 15 46 68 18 51
63 15 49 55 8 44 49 2 40 47 0 39 48 1 41
51 3 45 58 8 52 65 14 59 69 17 63 70 16 64
71 15 65 73 16 68 74 15 69 74 13 70 81 19 77
93 29 89 103 37 98 112 46 108 118 52 112 111 45 102
97 31 85 88 22 72 85 20 66 84 19 60 79 16 51
76 14 44 75 14 39 74 14 33 72 13 29 72 14 26
72 14 24 71 14 22 71 13 21 70 13 20 71 14 21
73 17 23 74 19 24 74 19 22 74 20 21 75 21 20
75 21 20 75 21 20 79 26 25 88 34 34 95 41 42
98 45 45 100 47 46 99 47 44 97 46 42 97 46 41
96 47 38 94 46 35 91 44 32 85 38 27 80 33 23
77 30 21 74 27 19 74 25 17 76 25 18 83 28 20
94 36 24 104 43 25 110 45 21 116 47 17 130 58 23
161 86 45 200 122 77 221 139 95 210 126 85 179 95 59
151 69 39 135 58 34 130 59 40 136 73 58 149 92 81
158 107 98 172 125 117 197 153 147 197 155 150 139 98 95
69 32 30 41 7 5 37 5 2 37 6 1 43 9 2
54 14 7 65 18 13 76 20 19 89 24 25 104 30 35
121 40 47 140 55 63 162 73 83 183 89 100 196 100 112
206 107 120 212 111 125 214 111 126 209 105 121 200 96 112
195 92 109 197 94 111 199 96 113 198 95 112 194 92 108
184 82 99 175 73 89 174 72 89 181 77 94 189 82 100
192 84 102 192 81 100 190 78 97 189 75 96 193 77 99
201 84 106 207 91 109 203 92 100 185 80 76 173 75 57
188 96 66 219 131 90 230 146 98 215 132 82 197 114 65
186 102 59 180 94 59 177 90 63 173 85 67 160 73 62
142 55 47 127 40 35 118 32 29 115 29 28 120 35 37
127 42 50 125 40 57 129 43 72 160 73 115 195 107 162
215 128 193 229 144 216 241 160 236 247 170 247 243 171 246
230 162 235 220 156 226 215 155 224 213 156 223 216 160 225
226 171 233 238 185 244 245 190 251 235 176 242 207 144 219
185 116 199 176 103 191 171 94 185 163 84 175 157 75 163
151 69 153 148 66 144 145 64 138 141 61 131 138 59 125
137 58 120 135 57 116 134 57 111 132 55 105 128 52 98
124 49 91 120 45 84 117 42 80 115 40 78 113 39 76
184 121 192 178 115 186 173 109 181 173 109 182 179 117 192
197 134 213 211 147 230 191 128 213 143 81 166 104 43 125
89 30 107 86 28 96 76 21 79 65 12 59 59 8 46
56 7 38 54 7 33 54 9 32 55 10 31 52 8 27
49 6 23 47 5 20 48 6 21 52 11 23 55 15 25
53 13 21 47 7 14 43 3 10 44 5 10 49 11 15
52 15 18 54 16 17 54 15 15 54 13 12 54 13 11
54 12 11 55 11 10 56 10 11 58 10 12 59 10 13
59 9 12 58 8 11 58 8 11 59 9 13 60 11 15
61 12 16 60 12 16 61 12 16 64 13 20 65 13 24
65 13 28 67 13 33 68 13 37 68 13 41 67 12 42
68 12 43 69 14 44 67 14 42 67 15 42 68 18 45
66 18 46 59 12 42 51 6 36 47 1 33 45 0 31
45 0 32 47 2 34 53 7 41 62 14 50 68 18 56
70 19 58 70 17 59 71 16 60 71 15 60 72 14 62
78 18 67 84 22 73 87 24 76 96 33 86 112 48 101
117 53 105 109 44 95 96 32 80 88 24 68 84 21 61
81 19 54 79 18 47 76 16 41 75 15 35 75 15 31
75 15 27 75 15 25 74 15 23 74 15 22 73 15 21
73 16 22 74 18 24 74 19 24 74 19 23 75 20 22
75 21 21 75 21 21 76 22 21 78 25 25 84 31 32
90 38 39 95 43 43 97 46 45 97 46 44 96 45 42
95 45 39 94 45 36 92 45 33 89 43 30 84 38 25
78 32 21 75 29 19 73 26 17 72 24 16 75 25 17
81 28 19 91 35 23 101 42 26 110 47 25 115 49 21
123 53 20 146 73 33 185 108 64 219 138 93 221 138 95
194 110 72 162 79 48 144 65 40 137 65 45 139 74 58
147 90 77 152 101 90 157 109 101 176 130 123 184 140 135
139 98 94 71 34 31 40 6 4 36 5 1 35 5 1
38 6 1 48 10 4 61 15 11 72 19 17 84 21 23
97 26 30 113 35 41 133 49 57 156 68 78 179 87 97
193 97 109 201 103 116 209 108 122 213 111 126 209 106 122
201 97 114 197 93 110 197 94 111 198 95 112 198 95 113
196 93 110 188 85 102 178 75 92 176 73 90 182 78 95
190 84 101 194 85 104 193 82 101 190 78 97 189 74 95
192 75 98 199 81 106 206 90 110 206 95 105 196 91 88
192 94 76 209 117 86 229 142 100 225 141 92 206 123 72
192 109 61 181 98 56 173 88 55 170 85 61 167 82 66
152 68 59 134 50 44 122 39 35 117 34 31 115 31 30
120 36 38 127 42 50 127 40 57 131 43 71 153 63 104
176 86 139 190 100 163 204 117 187 222 140 213 239 162 235
246 175 246 242 176 245 235 174 240 232 173 239 229 172 238
224 168 232 220 166 228 227 174 234 241 188 246 245 188 249
224 163 232 196 129 209 182 110 197 174 99 189 166 87 178
159 78 167 154 72 157 150 68 149 147 66 142 144 63 135
141 61 129 139 60 125 137 59 120 135 58 113 132 56 106
128 52 99 123 48 91 118 44 83 115 41 79 113 39 77
111 38 75 159 95 164 158 94 164 156 92 164 159 95 169
167 102 180 183 117 200 202 136 223 200 134 224 165 100 191
122 58 146 99 37 119 93 33 107 83 25 91 69 14 71
62 9 58 60 9 50 57 10 44 57 11 40 57 11 38
55 10 34 51 8 29 49 6 25 49 7 23 51 10 23
53 13 24 54 14 23 50 10 18 46 6 14 45 6 13
49 11 16 54 16 21 57 19 22 58 18 20 58 16 17
58 15 15 58 14 14 58 13 13 59 13 13 60 13 15
61 12 15 60 10 13 59 9 12 59 9 12 60 10 14
62 12 16 62 14 17 62 14 17 62 13 18 65 14 21
67 15 26 69 17 31 71 19 36 71 19 39 69 17 40
65 13 38 63 12 37 64 13 38 65 15 39 66 18 40
67 20 42 63 18 40 55 11 33 47 4 27 42 1 24
42 0 24 43 1 25 45 2 27 50 7 32 58 13 40
65 18 47 69 20 50 70 20 52 69 17 51 69 14 51
72 16 54 77 19 59 79 20 61 80 19 62 85 24 67
96 34 79 109 46 92 115 52 99 111 48 93 98 35 78
85 23 64 81 20 57 81 21 54 80 20 49 79 17 43
79 17 39 79 18 36 78 18 32 77 17 28 76 17 25
75 16 23 74 16 22 74 17 23 74 18 23 75 19 22
75 20 22 75 21 22 76 22 22 76 22 22 78 24 25
81 29 30 86 35 35 92 42 41 97 47 45 98 48 45
96 47 43 93 45 39 92 44 36 91 45 34 87 43 30
82 38 25 76 32 20 74 29 18 73 27 16 72 25 15
74 25 16 79 28 17 87 33 21 98 40 25 108 47 28
114 49 25 118 50 21 133 63 28 168 94 53 208 130 85
225 144 99 208 126 85 176 95 60 155 76 47 147 73 50
145 78 59 147 87 71 152 98 85 157 106 96 162 115 107
155 110 104 113 71 67 62 23 20 40 3 2 36 3 1
32 3 0 34 4 0 43 7 3 56 12 9 68 16 16
79 18 20 91 22 26 107 31 37 126 44 51 149 61 70
171 80 90 188 92 104 198 100 113 207 107 121 214 112 128
212 109 126 205 101 118 201 96 114 199 95 113 198 94 113
198 94 113 198 94 112 191 88 105 181 78 95 178 74 91
183 78 96 191 85 103 194 87 105 193 85 103 191 80 99
188 75 96 189 75 97 196 80 104 203 89 109 205 95 107
203 99 98 210 111 96 226 133 104 232 143 102 217 132 84
199 116 66 187 105 58 175 93 54 166 84 54 165 83 63
161 79 68 143 63 57 125 45 42 117 38 35 115 35 33
115 33 33 120 36 40 128 41 51 132 42 60 138 45 73
152 57 97 167 72 122 178 84 142 192 100 165 211 124 192
232 152 220 247 174 240 251 185 249 250 189 251 249 190 252
245 188 250 235 180 241 222 169 229 219 167 227 233 179 239
247 192 250 239 181 245 216 152 227 198 129 212 186 113 200
175 99 188 168 90 178 162 82 169 157 75 160 152 70 151
149 66 143 145 63 136 142 61 131 140 60 125 138 59 119
134 57 112 129 53 103 122 48 93 117 44 85 114 41 80
111 39 77 110 38 75 146 82 146 147 83 149 147 82 152
150 84 158 157 90 170 171 103 188 192 123 214 204 135 229
188 120 215 150 83 177 116 51 140 99 36 119 88 28 103
77 19 87 69 14 76 67 14 68 63 14 59 60 13 51
58 12 46 56 11 41 54 10 36 52 9 31 50 8 26
49 8 23 50 10 21 52 12 22 52 12 21 49 9 17
45 7 14 45 7 15 49 12 19 56 16 23 61 19 24
63 19 22 63 18 20 62 17 18 62 16 17 62 16 17
62 16 17 62 15 17 61 13 16 61 12 16 61 12 16
62 13 17 64 14 18 65 16 19 65 17 19 66 17 20
68 17 23 71 20 29 75 24 35 76 26 39 72 23 38
65 18 34 58 12 30 55 9 28 55 10 29 58 14 32
62 18 35 63 20 37 60 18 33 52 11 26 44 4 19
39 1 16 39 1 17 42 2 20 45 4 22 49 7 26
53 10 31 60 15 37 67 20 43 71 22 46 69 19 45
69 16 44 71 17 46 74 19 49 75 18 50 75 17 50
76 17 51 80 20 56 91 30 69 106 45 87 119 57 100
117 55 98 102 40 83 90 29 71 85 24 65 82 21 59
81 19 54 81 19 50 82 22 47 82 22 42 79 20 35
77 18 30 75 17 25 73 16 22 73 15 21 74 16 22
75 17 21 76 19 22 76 20 23 77 22 24 78 23 24
79 26 26 81 30 29 84 34 33 90 40 38 97 48 45
99 52 48 97 50 45 94 47 41 91 46 38 89 45 36
85 43 31 79 37 25 75 33 21 74 31 18 74 30 17
74 28 16 74 27 15 76 27 15 83 30 18 94 38 24
104 45 28 109 48 28 113 49 25 123 56 28 149 79 44
191 116 73 221 144 97 219 140 96 190 112 73 163 86 52
153 78 50 150 80 56 148 84 64 150 91 75 154 100 87
151 101 91 128 81 74 86 42 37 54 12 10 46 6 4
44 9 8 37 8 6 33 4 2 38 4 3 50 9 8
63 13 15 74 16 18 86 19 23 103 29 33 123 42 47
142 55 62 162 70 80 182 86 98 197 98 111 208 107 123
215 113 131 217 113 132 213 108 127 209 103 123 204 99 119
201 96 116 200 95 116 201 95 115 196 91 111 187 82 101
181 75 94 185 79 98 193 87 105 196 90 108 196 89 107
193 85 103 188 79 98 185 75 96 191 79 102 199 88 109
203 95 108 208 103 106 224 123 113 236 141 116 229 138 100
210 123 77 194 110 62 180 97 53 166 85 50 160 79 55
158 79 65 152 74 68 135 58 56 118 42 41 112 35 34
112 34 34 115 34 37 121 37 43 129 41 53 140 48 67
150 54 82 159 59 97 168 67 113 180 79 132 194 96 154
210 116 177 225 137 200 238 157 220 248 175 236 253 189 248
255 195 254 250 193 253 237 183 243 221 168 228 215 163 224
227 173 235 243 188 248 245 188 250 236 174 244 223 157 234
210 141 222 197 127 211 189 115 202 181 104 193 174 94 184
169 86 174 163 78 162 155 70 150 147 63 140 141 60 132
138 59 125 134 57 118 128 53 108 122 48 97 116 45 89
113 42 82 111 40 78 109 39 76 139 76 136 141 77 139
141 76 143 143 76 149 149 81 161 162 92 180 182 111 204
202 131 228 206 136 234 184 115 212 145 78 172 112 47 136
95 32 115 83 22 100 76 17 90 72 17 81 68 16 71
63 15 61 61 14 55 59 13 49 57 12 43 54 10 35
50 7 28 47 6 22 49 8 20 52 11 21 53 13 21
49 10 18 44 5 13 42 4 12 45 7 16 52 12 20
59 16 22 62 17 22 63 17 20 63 17 19 63 17 17
62 17 17 62 17 18 62 17 19 63 16 19 63 16 20
63 15 20 64 16 19 65 17 20 68 20 22 70 22 24
73 23 26 75 24 30 77 26 33 76 27 35 72 25 34
64 19 29 55 13 24 49 7 19 46 5 18 48 7 21
52 11 25 56 15 29 59 18 30 57 17 28 50 12 22
43 6 15 38 2 11 38 1 12 42 3 16 45 5 20
48 7 22 51 9 25 57 13 30 65 20 38 71 23 42
71 22 42 70 19 42 72 19 42 72 18 42 72 17 42
72 16 42 72 15 42 74 15 44 79 19 53 91 31 69
111 50 90 123 62 104 120 59 102 108 47 92 97 36 80
90 28 71 87 25 66 85 23 60 84 23 54 83 24 48
81 22 41 78 20 34 75 18 27 73 15 22 72 14 20
73 14 20 75 16 20 76 18 22 77 21 24 79 23 25
80 26 26 80 28 27 81 30 29 82 33 31 87 39 36
95 47 43 99 52 48 97 51 46 94 49 43 92 48 40
89 46 37 84 43 32 78 38 26 75 34 21 74 32 18
73 31 17 74 29 16 74 28 15 76 27 14 81 29 16
90 36 22 100 42 27 106 46 29 110 49 29 117 53 30
135 69 37 171 101 59 209 136 88 224 149 103 206 130 88
175 100 63 157 82 50 152 79 52 150 81 59 149 85 66
147 88 73 137 83 71 108 59 49 74 28 22 61 18 15
72 31 28 80 44 41 67 36 33 45 16 14 36 5 4
46 7 7 60 12 13 71 14 16 81 16 19 97 24 27
118 39 43 139 52 58 158 67 75 177 82 93 193 95 108
206 105 122 216 113 133 220 116 137 220 115 136 216 110 132
210 104 126 206 100 122 205 99 121 205 99 121 201 95 116
192 86 106 184 78 98 187 81 101 195 89 108 199 93 111
199 94 112 196 91 109 190 84 102 184 77 97 187 78 100
195 86 107 202 94 109 209 104 110 224 123 117 232 135 115
221 128 95 205 116 74 190 104 61 171 88 49 157 75 46
151 72 53 149 72 62 141 66 62 126 52 52 112 38 39
109 33 33 111 34 35 115 35 39 120 37 45 131 42 56
147 53 73 162 63 91 171 68 104 177 72 115 185 80 129
195 92 145 204 105 161 211 117 175 219 129 190 233 150 211
248 175 235 254 191 251 251 193 252 237 181 241 220 166 227
215 161 224 224 170 234 235 179 243 237 180 244 238 177 245
238 174 246 234 169 244 227 159 239 217 146 231 208 133 224
204 124 218 199 115 208 190 104 193 177 91 176 162 77 159
150 67 145 143 63 134 137 60 125 131 56 115 124 52 103
117 47 93 113 44 85 111 43 81 110 42 79 133 71 128
134 72 131 135 71 135 137 71 142 143 75 154 154 85 171
171 101 193 191 120 217 205 134 233 201 131 230 174 106 202
137 70 163 107 42 130 89 27 110 80 19 98 75 18 88
72 19 78 68 18 69 65 16 63 62 14 56 59 12 48
55 9 39 50 6 30 48 5 24 49 7 23 52 11 23
52 12 22 49 9 18 44 4 13 41 2 11 44 5 14
50 9 18 56 13 20 59 14 19 59 14 17 59 15 16
59 15 15 59 15 15 59 15 16 61 16 18 63 18 21
64 18 21 64 17 21 64 17 21 66 20 22 70 23 25
74 27 28 77 29 31 78 29 33 76 27 32 70 23 29
61 17 24 52 11 18 45 5 14 42 3 12 41 3 13
43 5 16 47 9 20 51 13 23 53 15 24 52 15 23
47 11 18 42 6 13 38 2 10 38 1 11 42 3 15
45 5 19 48 7 21 50 8 23 55 12 27 62 18 34
69 23 39 72 24 42 72 22 42 72 20 40 72 18 39
71 16 39 72 16 39 72 15 39 73 15 41 76 17 47
83 23 57 95 35 72 108 48 87 114 53 96 115 54 98
115 53 98 114 52 97 107 45 87 95 33 72 87 26 59
84 24 50 82 23 43 79 21 34 76 18 27 73 16 22
72 14 20 73 14 20 75 16 20 77 19 22 79 22 25
80 25 27 81 27 28 81 29 28 80 29 28 80 30 29
85 36 33 92 44 40 96 50 45 96 51 45 94 49 43
92 48 41 89 47 38 84 43 33 78 38 26 74 34 21
73 31 18 73 30 16 72 28 15 74 28 15 76 28 15
80 29 17 87 34 20 96 40 25 104 45 28 109 49 30
114 52 29 125 61 30 151 84 43 190 120 73 221 148 102
221 147 105 196 121 82 169 93 59 154 80 50 149 77 51
144 76 55 135 72 55 120 62 49 100 47 37 87 39 32
94 50 45 117 76 72 131 94 91 114 83 78 76 46 42
48 15 13 46 6 5 57 10 10 67 13 14 76 14 15
89 19 21 111 33 36 135 51 56 155 65 73 170 77 88
185 88 103 202 102 120 215 113 134 222 119 141 224 119 142
220 114 137 213 107 129 209 103 125 209 103 125 208 102 124
203 97 119 194 88 110 188 82 103 190 84 105 197 91 111
202 96 116 203 97 117 201 95 114 194 88 108 187 81 102
187 79 100 194 85 106 201 94 110 208 103 112 217 115 113
220 122 107 212 118 91 200 110 75 184 97 60 163 80 47
149 67 43 143 64 49 140 63 55 131 56 54 118 44 45
107 34 35 107 32 32 111 34 35 114 35 39 119 36 44
130 43 56 146 54 74 164 67 93 177 76 110 185 81 121
188 83 128 190 86 136 194 92 146 197 98 155 201 106 165
215 125 186 236 155 216 250 181 243 252 190 251 241 182 243
226 169 231 222 166 230 227 172 237 228 172 237 222 164 230
220 159 227 224 163 233 234 170 243 238 171 247 228 158 241
216 142 231 212 133 226 209 126 220 203 118 209 195 109 198
184 100 185 174 92 172 166 86 160 156 79 147 145 71 131
133 62 115 122 53 100 115 48 90 112 46 84 110 44 81
124 65 117 126 66 120 128 65 125 130 66 132 137 70 145
147 78 161 161 90 180 175 104 198 185 113 211 188 117 216
180 111 208 156 89 183 124 59 148 100 36 122 88 25 108
82 22 97 79 23 88 75 22 79 70 18 70 65 15 62
61 12 54 57 10 45 53 7 37 51 6 30 51 8 28
53 10 27 53 11 25 50 9 21 46 5 16 44 4 14
46 6 16 51 10 19 56 13 21 59 14 20 58 13 17
57 13 15 56 12 13 55 11 12 54 10 11 55 11 13
58 13 16 59 14 17 59 14 17 60 15 17 62 17 19
65 20 21 68 23 23 71 24 25 70 23 25 66 19 23
59 14 18 51 9 14 44 5 10 40 3 9 39 3 10
40 4 11 41 6 13 43 8 15 46 10 17 46 11 18
45 10 17 42 8 13 38 4 10 36 2 8 37 2 10
41 3 14 45 6 18 48 7 20 49 8 21 53 11 24
59 16 30 66 21 36 71 24 41 73 24 42 72 21 40
71 18 38 70 16 36 70 15 36 71 15 37 73 15 40
75 17 44 80 21 51 85 26 58 91 31 67 96 35 75
103 42 83 118 57 101 132 71 114 126 64 105 106 44 82
91 30 63 85 25 52 82 23 43 79 21 35 75 18 27
74 16 23 74 16 22 75 16 22 77 18 22 78 20 24
79 23 26 80 25 27 81 27 28 80 28 27 78 27 26
78 28 27 82 34 30 88 41 36 92 47 42 94 49 44
93 49 43 91 48 41 88 46 37 83 42 32 77 37 26
74 33 21 73 31 18 72 30 16 72 28 15 74 28 15
77 28 16 80 29 17 85 31 19 92 37 22 100 43 26
106 47 29 110 50 27 116 53 23 132 67 28 166 98 53
205 135 90 227 154 111 217 143 103 188 113 77 162 86 54
146 72 43 134 62 38 120 52 33 107 45 30 104 47 36
114 63 55 130 84 79 145 104 100 151 116 112 141 109 103
107 77 70 69 35 30 50 11 8 53 8 6 64 12 10
72 13 12 83 16 16 102 28 29 126 46 50 147 61 68
161 70 81 176 80 96 196 97 117 214 112 136 224 121 145
226 121 146 221 115 139 213 108 131 210 105 128 210 105 128
209 103 127 204 98 121 197 91 114 192 86 108 193 88 109
198 93 114 204 98 119 207 101 122 205 100 121 199 94 115
193 87 109 191 83 106 195 87 108 201 94 112 208 102 114
212 110 112 211 113 104 204 110 90 194 103 76 177 90 61
157 73 47 145 62 44 140 60 49 135 57 52 124 49 48
112 38 39 104 31 31 104 30 30 109 33 34 112 34 38
116 35 43 125 41 53 138 49 67 154 59 84 171 72 104
184 82 120 188 84 127 187 82 131 186 82 135 186 83 139
186 86 144 195 98 158 216 126 188 238 159 223 250 180 244
248 183 246 240 178 242 236 177 242 236 179 244 229 172 237
214 157 223 202 143 211 199 138 208 210 147 220 225 159 236
223 154 236 206 132 219 193 115 206 190 108 201 188 104 196
188 104 194 190 106 194 190 109 192 186 108 184 174 100 169
159 87 149 142 73 127 126 59 106 116 51 93 111 46 84
108 44 79 115 58 103 118 60 108 120 60 113 123 61 121
131 66 135 140 73 150 151 82 165 159 88 178 162 91 185
164 93 189 164 94 190 154 86 180 134 68 158 112 47 134
96 32 116 88 27 104 84 27 96 81 26 88 76 21 80
71 18 72 66 15 63 62 13 55 58 10 46 55 9 39
54 9 35 55 11 33 55 12 31 53 10 27 50 8 22
49 8 21 51 10 22 55 14 24 59 16 25 61 16 23
59 14 20 56 12 16 53 10 13 50 7 10 48 6 8
48 5 7 48 5 8 49 6 9 50 6 9 51 8 10
52 9 11 54 11 11 55 12 12 57 13 12 56 12 13
53 9 11 48 6 8 43 3 6 39 3 6 38 3 7
38 5 9 38 6 11 39 7 11 40 7 12 40 7 12
40 7 12 38 6 10 36 4 7 34 2 5 33 1 5
36 2 9 40 4 14 44 6 18 46 7 19 48 7 19
51 9 21 56 13 26 63 18 32 69 23 38 71 23 40
71 21 38 70 18 35 69 16 34 69 15 34 69 14 35
70 14 36 73 15 39 77 19 44 81 22 51 84 25 57
86 26 61 89 29 67 104 43 83 122 61 101 123 61 100
106 45 81 92 31 63 86 26 52 83 24 44 80 22 36
77 19 29 76 18 25 78 19 25 79 20 26 80 21 26
80 22 26 80 23 26 80 24 27 79 26 26 78 26 25
76 25 24 77 27 25 80 31 28 84 37 32 88 43 38
92 47 41 92 47 41 90 46 39 87 44 36 82 41 31
76 36 25 73 33 20 73 31 18 73 30 16 73 29 15
74 28 16 77 29 17 79 30 18 82 30 18 88 34 20
97 40 24 103 45 27 106 47 25 109 48 20 118 56 19
141 77 34 178 110 67 213 143 101 226 153 112 208 133 95
178 100 65 151 73 42 132 55 29 116 43 22 107 39 23
112 51 39 129 75 67 143 95 90 144 102 99 141 105 100
136 104 97 117 86 78 84 50 43 56 19 13 49 7 3
58 9 6 69 13 10 78 15 13 92 22 22 113 37 40
135 52 59 150 61 73 166 71 88 188 89 111 211 109 134
224 121 147 226 122 148 220 116 140 213 109 133 211 106 131
210 106 130 208 104 128 204 99 123 199 95 118 196 92 115
195 91 114 198 93 116 204 99 122 208 104 126 209 104 127
205 100 122 201 95 117 199 92 115 200 92 114 203 96 115
207 102 116 210 107 114 209 109 107 201 105 94 188 96 78
171 82 63 154 69 51 144 61 49 140 59 53 133 55 53
120 45 45 108 34 35 101 28 28 102 28 28 105 30 31
108 32 35 114 35 42 121 39 49 127 40 57 139 47 70
158 61 90 176 76 111 186 82 123 187 81 128 186 79 130
182 75 129 174 70 125 175 73 131 192 95 157 217 128 193
237 157 224 248 175 241 250 183 248 248 187 251 245 187 251
235 179 243 219 163 229 201 143 211 185 126 196 188 127 199
209 144 221 221 151 232 205 132 217 183 106 194 172 92 183
167 86 179 167 85 178 170 89 180 172 94 179 170 95 175
163 91 163 153 84 148 140 73 129 125 60 108 114 51 93
107 44 82 102 40 75 111 56 93 115 59 98 117 60 105
121 61 113 128 66 127 137 72 141 144 77 153 149 80 162
151 81 169 153 82 174 153 83 176 149 81 172 140 72 162
125 59 146 107 42 127 94 31 111 88 28 102 85 26 96
81 24 90 78 22 84 74 20 76 70 17 68 65 14 59
61 11 50 58 11 44 58 12 40 57 12 37 55 11 33
53 10 29 53 10 28 55 13 29 58 15 30 61 17 30
61 16 28 60 14 25 56 12 20 53 9 16 49 7 12
47 5 10 46 4 9 46 3 8 46 3 7 46 4 7
46 4 6 46 4 5 46 4 4 45 4 3 46 4 3
46 5 5 44 3 4 40 1 2 37 1 2 35 2 3
35 3 4 34 4 6 35 5 7 36 6 8 36 5 8
35 4 7 33 3 6 32 2 4 31 1 3 30 0 2
31 0 3 34 2 8 40 4 13 44 7 17 46 8 18
46 7 17 48 8 19 53 10 22 59 15 28 66 20 33
68 21 35 68 20 35 68 18 33 68 16 32 67 15 31
68 14 32 68 13 31 69 12 32 73 15 37 76 18 42
78 19 47 79 19 50 80 21 54 88 28 64 103 42 79
110 49 85 102 40 74 90 29 59 84 25 49 81 22 41
80 22 36 79 22 32 80 22 30 82 24 30 83 24 30
83 24 28 82 24 28 80 24 27 79 24 26 78 24 24
76 24 23 75 25 24 76 26 25 78 29 26 80 33 29
84 39 34 89 44 38 90 45 39 88 44 37 84 42 33
79 39 28 75 35 23 72 32 19 72 31 18 73 31 18
74 30 17 75 30 17 77 30 18 79 30 18 81 30 18
85 32 19 93 37 22 99 43 25 102 45 24 104 46 18
109 50 14 122 60 20 148 84 42 186 118 76 215 144 103
218 143 104 197 119 81 168 88 54 142 63 34 124 47 23
115 44 25 119 54 40 131 74 64 140 90 84 138 94 90
130 93 88 124 91 83 111 80 70 87 54 45 60 24 17
47 7 3 54 8 4 66 14 9 74 15 12 84 18 17
101 29 30 121 41 48 139 52 64 155 62 80 178 80 102
204 102 128 221 118 145 223 119 146 217 113 139 212 108 133
210 106 131 208 104 130 206 102 127 203 99 124 202 98 123
201 97 122 198 94 118 197 93 117 202 98 122 209 105 129
211 107 131 209 105 129 207 103 126 208 102 125 207 100 123
206 99 121 207 101 120 209 106 119 209 109 114 200 103 101
182 89 81 165 75 66 152 65 57 144 60 55 139 57 56
130 51 52 117 41 43 105 31 33 99 26 26 99 26 25
102 28 28 106 31 34 113 35 41 118 38 47 123 38 53
131 41 61 148 53 80 170 70 102 182 79 116 187 80 124
191 83 131 190 81 132 179 71 124 173 66 121 181 78 138
197 100 165 216 127 195 235 155 222 248 176 242 253 188 252
251 192 254 243 187 250 231 175 240 210 153 220 185 126 195
177 116 187 194 130 205 217 149 228 214 141 224 187 111 198
165 87 178 155 76 170 151 72 167 149 71 164 147 72 160
145 72 155 142 72 147 137 71 137 131 67 125 122 60 110
113 52 95 104 44 81 97 37 72 115 62 91 119 66 97
121 67 103 125 68 111 132 72 124 139 77 137 143 78 146
146 79 154 149 81 162 153 84 169 156 87 174 157 88 176
159 90 177 155 88 174 139 72 157 113 48 131 95 32 111
88 26 102 85 24 98 83 23 93 81 23 87 77 21 80
73 18 72 68 15 63 63 13 54 61 12 49 59 12 45
57 11 40 55 10 36 54 10 34 56 12 34 58 14 34
59 14 34 59 14 32 58 13 30 56 12 27 54 10 23
52 9 20 51 8 18 51 8 17 51 8 16 50 8 14
48 6 11 45 5 7 44 3 4 43 2 2 42 2 1
43 2 2 43 3 3 40 2 3 36 0 1 33 0 0
32 1 1 31 2 2 30 2 2 30 2 2 31 3 3
32 3 3 30 1 3 28 1 2 27 0 1 27 0 1
28 0 1 30 1 3 34 2 7 39 5 12 43 8 16
45 9 17 45 7 16 46 7 16 50 9 19 55 13 23
61 17 28 64 19 30 66 18 31 67 18 31 67 17 30
67 15 29 66 14 29 67 12 28 68 12 28 70 13 30
71 14 33 72 14 36 72 13 39 74 15 44 81 22 53
93 33 65 102 42 73 99 38 68 91 31 58 85 26 48
81 22 40 81 23 37 83 25 37 85 27 36 85 27 34
85 26 32 85 26 30 83 25 29 81 24 27 79 24 26
77 23 24 76 24 23 75 25 24 76 26 25 77 28 25
78 30 26 81 35 31 86 41 36 87 43 37 85 42 34
82 39 31 77 36 26 73 33 21 71 31 19 72 31 19
73 32 20 75 32 20 75 31 20 76 31 19 78 31 20
80 31 19 83 31 18 88 35 20 95 40 23 99 44 23
100 44 18 103 46 13 110 51 13 126 63 24 155 90 49
192 123 82 216 142 102 215 137 98 192 112 75 163 82 50
139 60 33 125 51 29 122 54 37 127 67 55 134 81 72
133 87 81 123 84 77 112 78 69 99 67 57 80 47 37
59 24 16 50 11 5 56 13 8 66 17 11 72 17 12
78 17 14 91 23 23 109 33 39 129 45 56 147 55 72
167 70 92 195 93 120 216 112 140 219 115 143 214 110 137
211 107 134 210 106 132 207 103 130 204 100 126 203 99 125
205 101 127 206 102 128 200 96 122 196 92 118 200 96 122
208 104 130 213 109 134 213 109 134 213 108 133 215 109 133
214 107 131 209 103 126 206 101 122 207 104 122 210 110 121
200 103 108 178 84 85 160 69 69 150 62 62 142 57 58
134 52 55 124 44 49 113 36 40 104 29 30 97 24 23
96 24 22 100 27 26 106 31 34 112 35 41 119 39 48
127 44 57 135 47 65 148 53 77 167 67 97 181 77 112
187 80 120 196 86 130 200 90 136 192 81 130 182 72 123
182 74 131 186 83 147 196 100 168 216 129 196 239 161 227
252 183 247 254 192 254 250 194 254 243 188 249 221 166 230
190 133 200 173 113 183 182 118 192 209 140 219 218 145 227
192 117 203 162 87 177 148 72 166 142 67 163 139 65 159
137 65 155 135 64 149 132 64 143 128 64 134 125 64 124
121 61 112 113 54 98 103 45 83 95 38 72 120 71 92
124 74 98 128 76 105 132 77 113 138 81 124 143 83 135
145 82 143 147 81 149 150 82 157 154 85 165 161 92 174
173 104 187 189 120 204 198 129 214 186 117 202 152 84 169
114 49 132 94 30 112 88 24 104 84 21 98 81 20 93
80 20 88 79 21 84 76 20 78 70 16 68 65 13 60
61 10 53 57 8 47 55 7 43 55 8 40 54 9 38
55 10 38 57 11 38 58 12 39 59 12 38 59 13 37
58 13 35 58 13 32 57 12 30 57 13 28 57 14 27
54 11 22 50 8 16 48 7 12 46 6 10 45 5 7
43 3 4 43 3 4 42 3 6 39 2 5 34 1 3
30 0 1 28 0 0 26 1 0 26 1 0 26 1 1
28 2 1 28 1 1 27 0 0 25 0 0 25 0 0
25 0 0 27 1 1 30 2 3 34 4 7 39 6 12
43 9 15 44 10 16 44 8 15 45 7 14 48 8 16
52 11 19 56 13 22 59 15 25 62 16 27 64 17 28
66 17 28 65 15 27 65 14 26 65 12 24 66 11 24
68 12 25 69 12 27 69 11 29 69 11 32 72 14 37
77 19 44 85 27 52 94 34 60 96 36 61 93 34 57
90 30 51 86 27 44 85 27 42 87 29 42 88 30 40
87 28 36 87 28 34 86 27 32 85 26 30 82 25 29
80 24 26 77 23 24 75 23 23 75 24 23 76 26 25
76 28 25 77 29 25 80 34 29 84 39 34 85 40 34
82 38 31 79 36 28 75 34 24 72 32 21 71 31 20
72 32 20 73 33 21 74 33 21 75 32 20 75 30 20
77 31 20 79 31 20 81 31 19 85 34 19 91 38 21
94 41 21 96 42 17 99 44 13 104 47 11 113 53 15
131 68 28 164 96 55 199 127 85 220 144 103 216 137 98
191 110 75 161 81 50 138 62 36 125 55 35 124 60 45
128 71 60 126 76 68 113 70 62 98 61 52 85 51 41
70 36 26 58 23 13 58 21 13 65 25 17 69 24 17
70 20 14 75 19 15 84 20 20 100 28 32 120 40 49
139 50 65 159 63 84 186 85 110 209 105 133 216 113 140
215 111 138 213 109 136 212 108 135 209 105 132 205 102 129
205 101 129 207 104 131 208 104 131 201 97 125 195 91 119
198 95 122 208 104 131 214 110 137 215 111 138 216 112 138
218 113 138 216 110 136 210 105 130 205 101 125 206 103 125
210 109 127 200 102 115 176 80 90 157 65 72 147 57 64
138 51 59 129 45 53 118 38 44 109 32 36 102 26 28
96 22 22 95 23 21 99 27 26 106 33 34 112 36 41
117 38 46 127 45 56 141 53 69 152 59 80 166 67 93
180 76 107 188 81 116 193 83 123 196 85 127 190 79 123
182 72 118 181 71 123 183 75 136 188 86 151 204 110 176
229 144 210 248 175 239 254 191 253 253 196 255 250 195 253
233 178 240 205 148 214 185 125 195 184 120 194 205 137 215
219 147 229 197 123 208 163 89 178 143 70 164 135 62 159
131 59 155 127 57 149 123 56 143 119 55 135 117 56 127
115 57 119 112 55 108 105 50 93 96 42 79 89 36 69
120 73 88 124 76 94 129 80 103 135 82 113 140 85 123
144 85 132 146 84 139 147 83 145 149 82 152 154 85 161
166 96 175 187 116 197 211 140 222 223 152 235 216 145 230
188 118 204 146 78 164 113 46 132 96 29 113 88 22 104
82 18 97 80 17 93 82 21 93 84 24 92 80 22 85
72 16 73 62 8 61 56 4 53 55 4 49 54 5 46
52 4 43 52 4 42 56 7 44 59 10 47 62 13 49
65 16 50 65 17 49 63 17 46 61 16 42 61 16 39
60 16 36 56 13 29 52 9 23 52 10 21 53 12 20
51 10 16 46 5 11 42 3 8 41 3 9 38 4 10
34 2 7 29 1 4 25 0 1 23 0 0 24 1 1
25 2 1 26 1 1 26 0 0 25 0 0 24 0 0
24 0 0 25 1 0 27 2 0 30 3 3 34 6 7
39 8 11 43 11 15 44 11 16 44 9 14 44 8 13
46 8 14 48 8 15 50 9 16 54 11 18 58 13 21
61 15 24 63 16 25 63 15 24 63 13 23 63 12 22
64 11 21 66 11 22 67 11 24 67 11 25 68 12 27
71 14 31 74 17 35 79 21 41 86 28 48 91 32 52
92 33 52 92 33 50 90 31 47 89 31 46 90 32 45
90 32 43 89 30 38 88 29 35 88 29 34 86 28 32
84 27 30 80 25 27 77 23 24 75 23 22 75 24 23
77 27 25 77 28 25 77 30 26 80 34 29 83 38 33
82 37 32 78 34 27 75 32 24 73 32 22 72 32 22
73 33 22 73 33 21 72 32 20 72 32 20 72 31 19
73 30 20 75 30 20 77 31 20 80 32 19 83 34 19
87 36 20 89 38 19 91 39 16 95 42 14 100 45 12
106 48 12 116 54 16 136 71 30 169 100 58 205 132 90
224 148 106 214 136 98 188 110 75 158 82 52 135 64 40
127 61 42 126 65 51 120 65 54 105 57 47 87 47 36
72 36 25 60 26 16 59 24 15 66 31 22 71 34 26
69 28 22 68 23 17 72 21 16 79 21 19 93 25 28
110 34 42 129 45 57 151 58 76 175 77 99 197 95 121
211 108 134 215 111 138 214 111 138 214 110 137 211 108 135
208 105 132 207 104 132 207 104 133 207 104 132 202 99 127
196 93 121 198 94 123 208 104 133 214 111 139 215 112 140
218 114 141 219 115 141 216 111 137 211 106 133 206 102 129
207 103 129 210 109 132 201 102 121 177 81 97 154 61 75
140 49 62 130 43 54 123 39 49 114 34 41 105 28 32
99 24 26 96 22 22 95 23 21 99 28 26 107 34 35
111 36 39 109 32 38 116 34 43 136 48 62 154 61 79
164 65 88 176 73 100 187 80 111 189 81 115 187 77 114
180 70 108 174 65 105 176 65 112 179 69 125 183 77 139
194 95 159 214 124 188 236 157 221 249 181 244 252 190 251
250 191 252 240 184 246 222 165 230 205 145 215 199 135 209
211 143 221 225 154 235 209 136 221 172 98 188 142 70 165
127 57 154 119 50 146 111 44 137 105 40 128 100 38 119
98 40 112 98 42 105 94 41 93 88 37 80 82 33 68
77 30 60 116 71 83 120 73 89 125 77 97 132 81 108
138 83 118 142 84 127 145 84 135 147 84 142 151 85 151
159 91 162 173 103 179 192 120 199 206 135 215 211 140 222
209 137 221 197 126 211 167 97 184 131 61 149 106 37 124
94 26 112 87 20 105 84 18 100 85 21 100 88 25 101
86 25 97 79 20 88 69 11 75 61 6 65 58 4 59
57 4 56 56 4 53 56 4 53 58 6 55 62 10 58
66 14 62 69 17 63 69 18 62 67 18 58 65 17 53
64 17 49 62 16 44 57 13 37 55 11 31 56 12 30
56 13 28 52 10 23 45 4 16 41 2 13 40 3 14
38 4 15 34 3 12 28 1 7 23 0 3 21 0 1
23 1 2 24 2 2 25 2 1 25 1 0 25 0 0
24 0 0 24 0 0 25 1 0 26 2 0 29 4 2
34 7 6 39 9 10 42 11 13 43 11 14 43 9 13
43 8 12 44 8 12 46 7 12 47 7 12 50 9 14
55 11 17 59 14 20 61 15 22 62 14 21 62 13 20
62 12 20 64 11 20 66 11 20 66 10 21 67 11 22
69 13 23 71 15 26 73 17 29 76 20 33 81 23 38
85 27 41 87 29 44 89 31 45 89 31 45 89 31 45
89 31 45 90 31 43 89 30 38 89 29 35 88 29 34
87 29 33 85 28 31 82 27 29 80 26 27 78 26 25
78 27 26 79 29 27 79 30 27 79 31 27 80 34 29
82 37 31 80 35 29 76 32 25 73 30 22 72 31 22
73 32 22 73 33 23 73 33 21 72 32 20 71 31 19
71 31 20 73 31 21 74 31 22 76 31 21 78 32 20
81 33 19 82 34 18 84 34 16 87 36 15 92 40 14
97 44 13 102 46 12 107 48 11 118 57 16 142 77 34
177 108 65 208 136 93 221 147 105 210 135 97 184 109 76
156 84 56 138 69 46 126 61 43 113 52 38 96 42 29
77 32 20 61 22 12 53 16 7 58 23 14 70 35 26
73 38 30 67 30 23 64 23 17 68 22 17 74 21 19
84 21 23 99 27 33 119 38 48 141 52 67 164 69 89
185 85 108 200 98 123 209 106 133 214 111 138 215 112 139
212 109 136 208 105 133 207 104 132 207 104 132 207 104 133
204 101 130 199 96 125 199 96 125 207 104 133 212 109 138
213 110 139 216 113 141 217 114 141 216 112 139 213 109 137
209 105 134 208 105 134 210 109 135 204 105 129 182 86 107
152 58 76 131 40 57 122 34 49 117 33 45 110 30 38
102 25 30 97 22 25 95 22 22 95 23 22 98 27 26
105 32 33 108 33 36 106 29 34 110 30 37 128 42 53
145 53 69 154 57 77 167 66 89 181 76 103 188 81 110
188 80 110 177 69 101 168 60 95 168 58 100 170 59 110
173 64 122 180 77 137 192 97 159 213 128 191 235 160 223
247 179 242 247 184 247 238 178 243 224 165 232 213 151 222
208 144 218 216 148 227 231 159 242 223 150 237 186 113 204
146 76 170 124 56 152 111 44 140 99 34 127 90 27 116
84 25 106 81 25 98 79 27 90 75 27 79 72 25 67
68 23 57 64 22 51 113 69 82 115 71 86 120 74 93
127 77 102 133 80 112 140 83 123 144 85 132 150 87 142
159 93 155 170 101 170 180 109 183 185 114 190 185 113 192
185 112 193 186 113 195 184 111 196 167 96 182 139 68 155
116 45 133 106 35 123 98 29 116 93 24 110 90 23 107
90 24 106 90 27 106 87 25 102 80 20 93 73 15 84
69 12 77 67 11 74 67 12 72 67 12 72 68 13 73
69 14 74 71 16 75 71 16 74 69 15 71 67 14 66
65 14 62 64 14 57 61 13 51 58 11 44 57 11 40
56 11 37 52 9 32 47 5 25 42 2 20 41 2 20
41 4 22 38 5 21 33 3 17 28 1 12 23 0 7
21 0 4 22 1 4 23 2 4 24 2 2 24 1 1
24 0 0 24 0 0 24 0 0 25 1 0 26 3 0
29 4 2 34 7 5 37 8 8 39 9 10 41 10 11
41 9 10 42 8 10 43 7 10 44 7 10 46 7 10
49 8 11 53 11 14 56 13 17 59 14 19 60 14 19
61 13 18 62 12 18 64 11 18 66 11 18 67 11 19
68 12 20 69 14 21 71 16 23 73 18 25 75 19 27
76 20 29 79 22 32 82 24 36 84 26 38 85 27 39
85 27 41 86 29 41 88 29 40 88 29 37 88 29 35
89 30 35 89 31 35 89 32 35 88 33 35 87 34 34
85 33 33 83 32 31 82 32 30 81 32 29 80 33 28
80 34 29 80 35 30 78 33 28 75 31 24 74 31 22
74 32 23 74 33 24 74 34 23 73 34 22 72 33 21
71 32 21 71 32 21 73 32 23 74 32 24 76 32 22
77 31 20 78 31 18 78 31 16 79 31 14 82 33 12
89 38 13 94 41 13 98 44 12 101 46 10 107 49 10
122 61 18 146 81 37 176 108 64 206 135 92 217 145 104
207 135 98 184 112 80 156 86 58 130 62 38 107 42 23
86 28 12 68 18 6 54 11 2 50 10 3 57 20 11
68 33 24 70 37 28 63 29 22 59 23 17 63 21 17
68 19 17 75 18 19 88 22 26 106 30 38 128 44 56
152 61 77 171 75 95 185 85 109 201 98 125 215 112 139
220 117 144 214 111 138 208 105 132 206 103 130 207 104 132
208 105 134 207 104 133 203 100 129 202 99 128 206 103 132
209 106 135 211 108 137 213 110 139 215 112 140 216 113 142
216 113 142 213 109 139 210 108 137 210 109 137 209 110 137
193 97 120 158 64 85 129 38 56 119 31 47 115 31 44
110 29 38 102 25 31 98 22 26 95 22 23 95 23 22
97 27 25 102 30 30 104 31 32 108 32 35 116 37 43
128 44 53 137 47 60 143 48 64 155 56 75 169 66 88
180 75 99 187 80 106 181 74 101 169 61 91 162 54 89
162 51 96 165 56 108 170 65 121 177 79 137 194 103 163
220 138 199 240 166 229 245 178 242 235 172 238 218 156 225
207 144 217 204 139 216 210 142 223 227 156 241 229 157 244
196 125 216 153 83 178 128 60 156 112 46 142 98 34 127
87 26 115 79 22 105 73 20 94 68 20 82 65 20 71
62 20 60 59 19 51 57 18 46 112 70 83 114 71 86
118 73 91 124 76 99 131 80 109 139 84 120 146 87 131
154 91 142 165 98 157 174 105 169 177 106 176 174 102 175
169 96 173 169 96 174 173 100 180 177 104 186 171 98 182
156 84 169 143 70 157 133 61 149 123 52 140 113 42 131
103 34 123 98 30 118 97 32 117 95 32 115 91 29 109
86 25 103 81 21 97 77 19 91 75 18 88 75 18 88
76 18 88 75 17 87 73 15 85 71 14 82 69 13 79
68 12 75 67 13 71 66 13 67 63 12 61 60 11 54
58 10 50 55 8 45 50 4 38 45 2 32 45 2 32
45 5 33 43 6 32 38 5 28 33 2 23 28 1 17
24 0 12 22 0 9 22 1 7 23 2 5 23 2 3
23 1 1 24 0 0 24 0 0 24 0 0 25 1 0
26 3 0 28 4 2 32 6 5 35 7 6 36 7 7
38 8 7 39 7 7 40 7 8 41 7 7 42 6 7
44 6 7 47 7 8 50 10 11 54 12 14 57 13 15
58 14 16 59 13 16 61 12 16 64 12 16 66 11 17
67 12 18 69 14 19 70 15 20 72 17 21 73 18 23
73 18 23 73 17 23 75 18 25 78 21 29 80 23 32
81 24 34 82 24 35 83 25 36 85 27 36 87 28 36
90 31 37 94 35 39 97 38 42 98 41 44 98 43 45
97 43 44 93 41 41 88 37 36 84 35 33 83 34 31
81 34 30 80 34 29 79 34 29 78 33 27 77 32 26
77 34 26 78 36 27 78 37 27 77 37 27 75 37 25
73 35 23 72 34 23 72 33 23 73 34 25 74 33 25
75 32 23 75 31 20 75 30 17 75 29 14 75 29 12
78 30 10 84 35 11 89 39 12 93 42 11 97 44 10
100 45 7 107 49 8 121 60 16 143 79 34 171 105 60
198 129 87 212 142 102 206 136 98 182 111 78 151 79 50
119 49 24 91 27 8 70 14 1 56 7 0 52 8 1
56 16 8 62 26 17 62 28 21 56 24 18 54 20 15
55 18 14 59 15 14 66 15 16 77 17 20 92 23 29
113 35 45 139 53 66 158 66 84 172 74 97 193 91 117
215 113 139 224 122 148 219 117 143 210 107 134 206 104 130
206 104 131 207 105 133 208 105 134 206 104 133 205 103 131
206 104 132 206 104 133 208 106 135 212 109 138 215 112 141
218 115 144 218 115 145 215 112 142 212 111 140 211 110 139
212 114 141 206 110 135 178 84 105 142 51 69 123 35 51
117 33 46 111 30 40 103 25 32 99 24 28 96 23 24
94 23 22 97 26 25 99 28 28 100 27 29 106 32 35
119 42 46 131 50 57 138 52 62 144 53 65 151 55 71
161 61 79 170 67 87 176 71 92 175 69 92 169 62 87
162 54 84 162 53 92 167 59 104 171 65 115 175 74 127
187 92 148 208 121 181 232 153 216 245 174 238 239 173 240
220 156 226 204 139 214 198 131 211 203 134 218 220 150 236
232 160 247 209 138 228 168 99 192 140 73 167 122 56 151
105 42 135 92 32 121 81 26 108 72 21 94 64 18 80
59 17 68 56 18 57 53 18 49 52 17 44 114 73 85
115 74 87 118 74 91 123 77 98 130 80 107 138 84 118
145 87 128 153 91 138 160 95 148 163 95 154 163 92 158
163 91 161 163 91 163 166 93 168 172 99 175 177 103 182
178 104 184 175 102 184 173 100 183 168 95 180 157 85 173
143 72 161 127 56 147 114 44 135 107 40 130 103 38 127
100 35 123 95 32 118 90 28 111 85 25 105 81 22 100
79 20 98 80 19 97 79 18 97 77 17 95 77 17 94
77 17 93 77 19 91 76 19 88 75 19 84 73 19 78
68 15 70 62 11 62 58 9 57 56 8 53 54 7 51
55 9 51 53 10 49 46 8 42 39 5 35 34 2 28
28 0 23 24 0 17 23 0 14 22 1 11 22 1 8
23 1 5 23 1 3 24 0 1 24 0 0 24 0 0
25 1 0 26 2 0 28 4 2 31 6 4 33 6 4
33 5 3 35 6 4 36 6 4 38 6 5 40 6 5
41 5 5 43 5 5 45 6 6 48 8 8 51 10 11
54 12 12 56 13 13 58 14 14 60 13 14 64 12 15
66 12 16 68 13 17 70 15 18 71 17 19 73 18 20
74 19 21 73 18 21 73 17 21 75 18 23 78 21 27
79 22 29 79 22 30 79 22 31 80 23 32 83 25 33
88 30 36 94 35 41 101 42 46 106 48 52 108 51 55
107 52 54 104 50 51 98 46 45 90 39 38 86 36 34
84 36 32 83 35 31 80 35 30 79 34 29 79 34 28
80 36 29 83 39 32 84 41 33 82 42 32 81 41 31
78 40 29 76 38 26 74 36 24 72 34 24 72 34 25
73 33 25 73 32 23 73 31 20 73 30 17 74 29 14
74 28 12 76 29 10 79 32 9 83 36 9 89 39 10
94 43 10 97 44 7 101 45 5 109 50 7 119 58 14
136 73 27 161 96 51 189 122 79 206 136 95 204 133 95
185 112 77 153 80 49 118 49 24 88 26 8 68 13 2
57 8 1 53 10 3 53 14 7 50 16 10 46 15 10
44 13 9 45 11 9 50 11 10 58 12 13 68 14 17
81 17 23 99 28 36 124 45 56 145 58 73 160 66 86
184 84 108 211 110 135 224 123 148 222 121 146 213 112 137
207 106 132 205 105 131 205 105 131 207 106 134 208 107 135
207 106 134 205 105 133 205 104 132 206 106 134 210 109 137
214 112 141 218 115 145 218 115 145 216 113 143 214 113 141
212 112 140 213 115 142 215 120 143 200 107 128 166 76 93
134 47 62 118 34 46 110 29 38 102 25 31 99 24 28
98 25 27 97 26 25 96 25 24 93 22 22 91 21 21
101 29 30 118 44 47 132 55 59 142 60 67 151 64 73
160 68 79 168 71 85 173 73 89 173 69 87 170 64 84
167 61 81 165 59 84 169 62 94 173 66 105 173 67 111
175 70 120 182 84 138 197 106 165 221 139 200 244 169 233
247 178 245 232 165 236 212 145 222 199 131 213 198 128 215
211 141 230 228 157 245 223 153 241 195 126 217 165 98 191
138 73 166 114 53 145 98 39 128 84 31 112 72 24 97
63 19 81 56 16 66 52 17 55 50 18 48 48 18 43
115 75 86 116 75 87 118 75 90 122 77 96 128 79 103
135 82 112 141 83 120 146 85 128 151 87 136 153 85 140
154 83 144 156 84 149 161 88 156 167 93 164 171 97 170
173 99 173 174 100 176 178 104 181 182 109 188 183 110 192
179 106 192 169 96 185 155 83 175 142 71 164 133 64 157
127 60 153 119 54 146 110 46 137 101 38 126 93 31 117
87 27 111 85 24 108 86 23 107 86 23 108 87 23 109
87 24 110 87 25 108 86 25 106 86 26 103 84 26 99
80 24 93 76 21 85 74 21 81 75 23 80 75 24 80
72 22 77 68 19 72 61 16 64 49 10 51 40 5 40
34 2 33 29 0 27 25 0 22 23 0 17 23 1 14
22 1 10 23 1 6 23 1 4 24 0 2 24 0 0
24 0 0 25 1 0 26 2 1 29 4 2 31 5 3
31 5 3 31 3 1 32 3 1 34 4 2 36 5 3
38 5 3 39 4 3 41 5 3 43 5 4 46 7 6
49 9 8 52 11 9 55 13 11 58 14 13 60 13 13
63 12 13 67 13 14 69 14 16 71 16 18 72 18 19
73 19 20 74 20 20 74 19 20 74 18 21 76 19 23
78 22 27 80 23 28 80 23 29 80 23 29 81 24 31
85 27 34 92 34 40 100 41 46 107 48 52 112 54 58
113 56 59 110 54 56 104 50 51 97 45 44 89 39 38
85 35 34 84 36 32 83 36 32 81 36 31 80 35 30
81 36 30 85 40 34 89 45 38 89 47 39 87 46 37
84 44 34 80 42 31 77 39 28 73 35 25 71 33 23
71 33 23 71 32 23 72 32 22 72 31 21 73 31 18
74 31 16 75 31 14 76 31 12 76 31 9 78 32 7
83 36 7 90 40 9 95 43 8 99 45 6 105 47 6
110 50 7 116 54 9 130 67 21 153 88 43 180 112 68
202 131 90 207 133 94 189 115 78 157 85 53 122 56 31
92 32 15 71 17 6 57 9 2 48 7 1 42 7 2
37 7 3 34 5 3 35 4 3 40 6 5 49 8 10
60 11 14 72 14 19 88 21 29 110 35 45 130 47 62
149 57 76 173 75 97 198 99 122 216 116 139 220 120 144
215 115 140 210 110 135 207 107 132 206 106 132 208 108 134
210 110 137 209 109 136 206 106 134 204 104 132 205 105 133
207 107 135 211 109 139 214 112 142 215 112 142 214 112 142
213 113 141 212 113 140 212 115 140 215 120 143 212 119 139
191 101 118 157 70 84 126 42 53 110 30 38 104 26 32
101 25 30 100 27 30 100 28 29 94 23 22 84 15 14
82 13 13 93 25 24 114 43 44 130 56 59 141 63 67
153 70 76 166 77 85 178 84 95 184 85 98 182 79 95
178 72 88 173 66 84 171 64 86 173 68 95 174 69 102
170 63 103 168 62 109 173 71 123 184 89 145 207 120 181
235 156 221 249 177 244 245 176 247 228 160 237 206 137 222
193 123 212 195 124 217 209 137 231 221 151 243 219 150 240
198 131 222 165 101 193 133 72 162 108 51 138 90 37 118
75 27 100 63 20 82 55 18 67 52 19 57 50 21 50
48 21 45 113 74 83 114 74 84 116 74 86 119 75 91
123 76 96 128 76 103 132 77 109 137 78 116 144 81 125
149 83 133 151 82 137 153 82 142 157 84 148 163 89 156
168 94 162 171 96 166 172 97 169 174 100 174 179 105 181
183 110 189 184 110 194 182 108 196 181 108 199 182 111 204
181 111 205 173 105 199 157 90 185 136 71 164 115 51 143
101 37 127 94 31 119 92 28 116 92 27 116 93 28 117
94 29 120 93 28 118 90 26 115 91 28 113 94 33 115
96 37 116 97 40 114 104 47 117 114 59 125 119 65 129
112 59 122 94 42 105 77 26 88 63 16 72 50 10 57
41 6 45 35 2 37 29 0 30 26 0 25 24 0 20
23 0 15 22 0 11 23 0 7 23 0 5 23 0 2
24 0 1 24 0 0 25 1 0 26 2 1 29 4 2
30 5 2 30 4 1 29 2 0 30 2 0 32 3 1
35 5 2 37 4 2 38 4 2 39 4 2 42 5 2
45 6 4 48 8 5 51 10 7 54 12 9 57 14 11
60 14 12 63 13 12 66 13 12 69 15 15 71 18 17
73 19 19 74 20 20 74 20 20 73 19 19 74 18 20
76 20 23 80 23 27 82 25 29 82 26 29 83 27 30
84 27 32 89 32 37 98 39 45 105 46 51 110 51 55
112 54 58 110 54 57 105 50 52 98 44 44 91 39 38
86 36 35 84 34 32 83 35 32 84 37 32 82 37 32
81 37 31 84 39 33 89 45 38 93 49 43 92 50 43
89 49 39 85 46 36 81 42 32 76 38 27 71 34 24
68 31 22 68 31 21 69 31 22 71 31 22 72 32 22
74 33 20 76 34 19 77 34 18 77 34 15 75 32 10
74 30 6 77 32 5 84 37 7 92 41 8 97 44 7
103 46 8 107 49 7 110 50 6 115 53 8 125 62 16
144 78 33 171 101 57 194 121 79 202 127 87 190 117 81
163 94 65 131 67 44 100 41 25 74 22 10 54 10 2
42 5 0 35 4 0 30 2 0 28 1 0 32 2 2
41 4 6 53 8 11 66 12 17 79 18 24 95 26 34
115 36 49 138 49 66 160 64 84 181 83 104 200 101 123
212 113 136 216 116 140 213 113 138 210 110 135 208 108 134
210 110 136 212 112 138 210 110 137 207 107 134 203 103 131
202 102 130 203 103 131 205 105 134 209 108 138 210 109 139
211 110 139 211 111 140 212 113 139 212 114 139 213 117 139
213 120 139 206 116 133 185 98 111 153 69 80 125 44 52
110 31 38 105 28 34 104 30 34 101 30 31 91 22 21
79 11 11 75 9 8 83 17 16 101 34 33 121 50 51
136 61 63 148 67 71 163 76 82 180 87 96 189 91 102
189 86 99 186 79 94 181 73 89 175 68 87 172 67 90
169 65 94 164 58 94 161 54 97 162 58 108 169 70 125
186 95 155 214 131 195 238 163 230 248 178 248 240 170 247
215 145 230 189 119 211 176 105 202 180 108 207 198 127 223
217 148 239 217 151 240 195 131 221 158 97 187 122 65 152
97 45 126 78 31 104 64 23 84 58 21 70 55 23 61
53 25 54 51 26 50 110 70 78 111 70 78 112 70 81
114 70 84 117 70 88 120 70 93 122 69 97 127 71 104
135 76 114 143 80 123 148 83 131 151 82 136 152 82 139
157 85 146 164 92 155 171 97 163 172 98 168 173 99 171
177 104 178 182 109 186 184 111 191 186 113 197 197 124 211
211 139 228 217 146 237 208 139 231 188 120 212 162 95 186
136 71 162 121 56 146 117 51 141 117 51 140 118 50 139
118 50 140 116 49 140 111 44 135 108 43 133 115 52 139
128 66 149 138 78 157 147 89 164 164 108 177 181 126 191
178 124 189 149 95 161 109 55 123 79 25 94 63 13 77
55 12 66 47 10 55 39 5 44 32 2 34 28 1 27
25 1 20 23 0 14 22 0 10 22 0 7 22 0 5
22 0 3 23 0 2 24 0 1 25 1 1 26 3 1
29 4 2 30 5 2 30 4 1 30 2 0 30 2 0
33 3 1 35 4 1 36 4 1 37 4 1 39 4 1
41 5 1 43 6 3 46 7 4 49 9 6 52 12 8
55 13 10 58 14 10 61 13 10 64 13 10 66 15 12
69 18 15 71 19 18 72 20 19 73 19 19 72 19 18
73 18 19 77 21 23 82 26 27 84 28 30 85 29 31
86 29 31 87 30 33 91 33 37 98 39 43 101 43 47
103 45 48 103 46 49 101 45 47 96 42 43 90 38 37
87 36 34 86 36 34 85 37 34 84 37 33 84 38 33
83 39 33 83 40 34 87 44 37 92 49 42 94 52 44
93 52 43 90 50 40 85 46 36 80 42 31 74 37 26
69 33 23 67 31 21 68 32 22 70 33 22 71 33 23
73 34 23 74 34 22 76 35 21 77 36 20 77 35 17
74 33 12 72 29 6 73 29 4 78 32 4 85 36 6
92 40 8 99 44 9 103 48 10 107 49 9 109 50 8
112 51 7 118 54 11 134 67 24 159 89 46 180 109 67
191 119 82 186 116 84 166 99 73 137 75 53 105 49 31
73 25 12 51 10 3 39 5 0 33 4 0 28 2 0
28 1 0 33 2 2 45 5 6 58 10 12 70 15 18
81 20 24 100 28 37 126 42 56 148 56 73 166 70 89
184 87 107 200 102 123 211 112 134 214 115 138 213 113 137
211 112 137 212 113 138 213 114 139 211 112 138 208 108 136
204 105 133 201 102 130 199 100 128 199 101 129 203 105 133
206 108 136 208 110 137 209 111 138 211 112 138 211 113 137
212 115 137 212 117 138 210 118 136 206 116 131 188 101 115
156 72 84 128 46 56 115 35 44 110 34 41 103 31 34
90 20 21 77 10 11 73 7 7 76 11 11 88 22 21
108 39 39 127 54 56 141 61 64 154 68 73 172 80 87
185 87 96 185 83 93 182 75 87 178 69 83 170 63 79
164 58 78 162 57 82 161 54 85 159 51 89 156 50 96
157 55 107 165 70 127 184 97 158 214 134 200 238 163 233
238 166 243 215 142 230 186 114 210 167 95 196 160 88 192
169 98 199 188 119 214 206 139 231 207 142 233 179 117 207
139 81 167 109 56 137 87 40 112 70 27 90 61 23 75
59 25 67 56 26 60 55 27 57 104 64 70 105 64 71
106 65 74 107 65 77 109 65 81 111 64 84 113 63 88
118 66 93 127 72 104 137 79 115 144 84 124 148 85 131
150 83 134 153 85 139 160 90 148 167 95 158 169 96 164
172 98 169 178 105 177 184 111 186 186 113 190 190 117 196
202 129 211 217 145 228 222 150 235 214 143 229 197 128 215
178 109 197 162 94 182 156 88 175 158 90 178 163 93 180
165 93 181 163 92 180 157 87 177 150 81 171 151 85 173
163 100 184 179 117 198 191 131 207 203 145 216 221 166 230
231 178 238 212 158 221 161 105 174 108 52 124 78 22 97
68 16 87 65 21 81 57 18 68 45 10 51 36 5 38
31 2 28 26 1 18 23 0 12 22 0 9 22 0 7
21 0 6 21 0 5 22 0 3 23 1 2 24 2 2
26 4 1 29 5 1 30 5 1 31 4 1 32 3 0
33 4 1 34 4 1 35 5 2 36 5 2 37 4 1
39 5 1 41 5 2 42 6 3 45 7 4 48 9 6
50 11 8 52 12 9 55 13 9 58 13 8 59 12 8
61 12 8 65 16 12 68 18 15 69 18 16 70 18 16
71 19 17 75 21 20 81 26 25 86 31 31 89 33 33
89 32 32 88 30 30 87 29 30 89 30 32 90 32 34
90 33 35 89 33 34 89 34 35 90 36 36 89 37 35
87 36 34 87 38 35 89 42 38 89 43 39 87 42 37
86 42 36 86 44 37 88 47 39 91 51 43 93 53 45
93 52 43 91 51 42 89 50 39 84 47 36 79 43 31
74 39 27 70 36 24 70 36 24 72 37 25 73 38 25
73 38 25 73 37 24 74 36 23 75 35 22 75 35 21
76 35 18 74 33 14 72 30 8 72 27 4 73 27 3
78 30 4 84 35 7 91 41 9 97 45 11 101 47 11
104 48 11 106 48 9 107 48 8 112 51 10 125 61 20
140 75 34 156 89 51 170 102 68 172 105 75 161 96 70
135 76 53 100 48 29 69 25 11 51 14 3 41 10 2
33 7 1 29 4 0 29 2 0 36 3 2 47 8 5
59 13 11 70 17 17 87 23 27 112 35 44 136 50 63
154 64 80 169 76 93 183 88 106 199 102 122 211 113 134
214 115 137 213 114 138 214 115 139 214 116 141 212 115 140
209 111 138 206 108 136 202 103 131 197 101 127 196 102 127
198 105 129 201 107 131 204 109 133 206 111 135 209 112 135
210 112 135 212 113 136 212 115 137 210 115 135 211 117 136
207 117 135 190 102 119 164 77 93 139 55 70 121 42 53
106 32 39 89 20 23 79 12 14 79 13 15 78 13 14
83 16 17 101 32 33 122 48 50 136 56 60 145 59 64
157 65 71 170 73 80 175 74 82 173 68 78 168 61 72
161 54 67 155 49 65 156 50 70 160 52 78 160 53 84
157 51 90 154 51 97 154 57 107 162 72 128 190 106 167
224 145 213 233 157 235 210 136 225 183 110 209 165 92 197
154 81 189 152 80 186 160 89 189 178 109 205 199 133 227
194 130 221 162 102 189 130 75 155 102 52 125 80 35 100
68 27 83 63 25 74 60 26 67 58 25 64 96 56 61
97 57 62 97 58 65 99 59 68 101 59 72 103 59 76
104 59 78 110 62 84 120 69 95 130 77 107 138 83 117
144 85 125 146 84 129 148 84 134 152 85 140 157 88 148
162 90 156 167 94 164 174 101 173 182 110 182 186 114 188
191 118 193 202 129 206 212 139 218 212 140 220 205 133 215
195 124 207 186 116 199 180 111 195 181 112 196 186 116 201
191 119 204 192 119 203 190 117 203 187 115 202 185 115 203
188 121 207 197 133 215 206 144 222 214 154 226 226 169 236
242 187 248 244 190 248 212 157 219 152 96 165 103 46 119
82 25 102 77 24 97 72 27 90 60 21 74 46 10 54
38 4 39 32 2 27 28 1 18 25 1 12 24 1 9
23 1 8 22 1 8 22 0 7 22 0 5 23 1 4
25 3 3 27 4 2 29 5 1 30 5 1 32 4 1
33 4 1 34 4 1 35 4 1 36 5 2 36 5 2
37 5 2 39 4 1 40 5 1 41 6 2 44 7 4
46 9 6 49 10 8 51 11 8 53 12 8 55 11 7
55 9 5 57 10 5 62 13 9 66 17 13 67 18 14
68 18 15 72 20 17 78 25 23 86 31 30 92 37 36
95 38 38 93 36 35 90 32 32 88 30 29 88 30 30
88 31 32 88 32 33 88 32 33 88 34 34 89 36 35
89 38 35 88 38 35 88 40 36 90 44 39 91 46 41
91 47 42 91 49 43 92 51 44 94 54 46 95 57 48
95 56 47 91 52 42 89 50 40 88 49 39 84 47 36
79 44 32 75 41 29 73 40 28 74 41 28 75 42 28
75 42 27 74 41 26 73 39 24 74 37 23 74 36 23
75 35 22 75 35 20 75 34 16 74 31 12 71 28 7
70 26 4 73 27 4 78 31 6 84 36 8 90 40 10
95 44 11 99 46 12 102 47 11 102 46 9 103 46 7
106 48 9 113 53 14 123 61 22 137 71 36 148 81 49
150 86 57 138 78 52 112 59 36 85 38 19 65 25 10
51 18 6 38 11 2 31 7 0 29 4 0 32 4 0
40 6 1 51 11 6 62 15 11 76 18 18 95 25 31
119 40 49 140 56 68 154 66 80 167 75 90 185 91 108
203 107 126 211 113 134 211 113 135 213 115 138 214 117 141
212 116 141 210 113 139 208 110 137 204 106 133 198 103 129
195 104 127 195 105 127 197 106 127 199 106 129 202 108 130
205 109 132 207 110 133 209 110 134 210 112 135 209 112 135
208 113 135 208 115 136 207 116 137 197 107 128 174 87 106
146 64 79 116 41 51 92 22 27 86 17 21 90 22 26
87 21 23 85 18 20 97 27 29 116 42 45 130 50 54
136 51 55 142 51 57 154 58 64 164 63 70 167 63 71
166 60 69 161 55 66 155 49 62 154 48 64 158 51 72
160 54 80 159 54 88 157 53 94 154 55 101 158 65 115
183 95 152 220 138 203 233 155 231 211 135 224 184 109 209
165 92 199 153 80 190 145 73 181 143 72 175 154 84 182
179 112 207 196 132 223 187 127 212 157 101 181 119 68 142
92 45 112 76 33 93 69 29 82 64 27 74 60 24 69
86 49 52 86 49 53 86 50 55 88 51 57 90 51 60
92 52 63 94 52 66 98 55 72 108 63 82 118 70 94
127 77 105 134 80 115 137 80 121 138 78 124 140 77 128
144 77 135 150 80 144 157 84 152 166 93 162 175 103 173
182 110 181 189 116 188 198 125 200 204 131 207 200 128 205
194 121 200 190 117 198 187 115 197 188 116 198 190 119 201
192 121 203 193 121 203 192 119 201 191 118 201 193 122 206
198 128 213 202 135 218 205 141 221 209 147 223 218 159 229
234 177 242 247 193 252 242 188 245 201 147 208 143 86 155
103 45 119 89 31 109 83 30 104 73 27 91 59 19 72
47 9 54 39 5 40 35 4 29 31 3 21 28 2 14
26 2 11 26 2 10 25 2 10 24 2 9 24 1 7
24 2 5 25 4 3 27 5 2 29 5 1 31 5 1
32 4 1 33 4 1 34 4 1 35 4 1 36 5 2
36 5 2 37 5 2 38 4 1 39 4 1 40 5 2
43 7 3 46 9 5 48 10 7 51 11 8 53 11 8
53 10 6 53 7 3 55 8 4 60 12 8 65 16 12
66 17 13 68 17 14 72 20 18 80 27 24 88 33 32
94 38 37 97 40 39 96 38 37 93 35 34 92 34 33
92 35 34 93 37 37 95 39 40 96 41 42 95 42 41
93 42 39 91 41 37 89 40 37 89 41 37 89 43 38
91 47 42 95 52 46 98 56 50 99 59 51 99 60 51
97 59 50 94 55 46 89 49 40 87 48 37 86 48 37
84 47 35 80 45 33 77 43 31 76 44 31 77 45 31
77 45 30 76 44 29 74 41 26 73 39 24 73 37 23
74 36 23 75 36 23 77 37 22 77 36 19 75 33 15
72 29 10 70 26 6 70 26 4 73 28 5 78 31 5
83 34 7 88 38 9 93 42 10 97 44 11 99 45 10
99 45 8 100 45 8 104 47 10 109 49 12 114 51 16
120 56 24 125 62 33 121 61 35 107 53 30 88 41 21
71 30 14 55 22 8 41 14 2 34 9 0 32 7 0
33 5 0 38 5 1 47 8 3 57 12 7 68 13 12
81 16 19 99 27 33 118 41 49 133 51 61 148 61 74
169 78 93 189 95 113 200 104 124 204 106 128 210 110 134
214 115 140 213 114 140 209 112 137 207 109 135 204 107 134
201 105 131 197 105 128 195 104 126 195 103 126 196 103 126
198 104 127 201 105 129 204 106 131 205 107 131 205 107 132
206 108 132 205 109 133 206 112 135 210 116 139 210 118 140
201 112 133 179 95 112 140 63 74 102 30 37 93 22 28
99 30 35 98 30 33 93 23 26 96 24 27 109 34 37
123 43 47 131 45 50 137 47 52 147 51 57 156 56 62
162 59 66 167 63 70 167 62 71 161 56 67 156 51 65
157 51 69 160 55 78 162 57 87 160 57 93 157 57 99
159 64 112 180 91 145 212 128 192 226 147 222 213 136 224
192 116 216 174 100 207 158 86 196 145 73 181 136 65 167
137 68 165 152 85 179 176 112 202 193 133 218 180 125 204
141 90 163 104 57 125 85 42 103 76 36 90 69 31 80
64 27 74 78 46 47 78 45 47 78 45 47 78 45 48
80 45 50 82 46 52 83 47 54 87 49 59 95 55 68
104 61 79 113 67 90 120 71 101 125 72 109 127 71 114
128 69 117 132 68 124 140 71 133 149 76 142 158 85 152
169 96 164 178 105 174 185 112 183 194 121 193 198 125 199
193 121 195 188 115 192 187 114 192 189 116 195 192 120 200
193 121 202 191 120 200 190 118 197 189 117 195 188 117 196
192 122 202 199 131 212 203 137 217 206 142 219 214 152 225
228 169 237 244 188 249 253 199 254 242 188 244 198 144 205
143 86 155 108 50 124 95 37 115 86 32 106 71 24 89
58 17 71 50 12 57 44 8 44 38 6 33 34 4 23
30 3 16 29 3 14 30 5 14 29 5 14 27 4 12
26 3 9 26 3 7 27 4 5 28 5 3 30 5 2
31 4 1 32 4 1 33 4 1 34 4 2 35 4 2
36 5 2 36 5 2 36 4 2 37 3 1 38 3 1
40 5 2 43 7 4 46 9 5 49 10 7 51 12 9
53 11 8 52 9 5 51 6 2 53 7 2 59 11 7
63 15 11 65 16 12 67 17 13 71 20 17 78 26 23
85 31 29 90 35 34 93 37 36 93 36 35 93 35 34
93 36 35 96 39 39 98 43 43 101 46 47 101 48 47
98 46 45 94 43 41 91 41 38 89 41 37 89 42 38
90 44 39 93 49 44 99 56 50 103 62 55 103 63 55
99 61 52 94 56 47 89 51 41 85 46 36 85 46 35
85 47 36 83 47 35 81 46 34 79 45 33 79 46 33
79 47 34 79 46 32 77 44 29 75 41 27 74 38 24
73 36 23 73 36 22 75 36 23 76 37 22 77 37 21
76 35 18 72 31 13 69 27 8 68 25 6 70 25 4
72 26 3 75 29 3 80 32 6 86 37 8 91 41 10
95 44 11 96 44 10 98 44 10 100 45 11 103 46 12
105 46 13 107 47 16 109 49 21 107 50 25 99 47 25
86 39 19 70 29 12 55 20 6 43 15 2 38 12 1
36 10 0 35 7 0 37 5 0 43 6 1 52 9 4
61 11 8 70 12 13 82 16 20 95 25 30 108 33 41
125 44 55 146 61 74 167 78 94 182 89 107 191 95 116
202 103 126 209 109 134 210 110 136 207 108 133 205 106 132
204 106 132 202 105 131 198 104 129 196 104 128 196 103 127
197 102 127 197 102 127 199 102 127 200 102 128 201 103 128
201 103 129 201 103 129 202 106 131 204 109 133 206 111 136
208 114 138 209 118 140 201 114 133 167 87 99 120 44 52
99 26 33 106 34 40 110 39 43 104 33 37 98 25 29
101 25 29 114 34 38 128 43 47 140 49 55 148 54 59
153 55 60 157 56 62 162 59 66 166 62 70 165 61 70
159 55 67 157 52 67 160 55 75 164 59 84 162 59 91
158 58 96 158 62 107 170 79 131 192 106 168 210 128 204
214 135 223 205 127 227 186 111 218 164 91 200 145 74 180
134 64 165 130 62 157 132 66 158 147 85 173 175 116 199
188 133 211 162 110 183 119 72 139 95 51 112 85 45 100
78 39 90 73 35 83 75 45 45 74 44 44 73 44 44
73 43 44 74 44 45 76 45 47 79 47 49 82 49 53
87 52 60 94 56 68 101 60 78 108 63 89 114 66 98
118 67 106 121 68 112 129 69 120 139 71 130 149 76 140
158 85 150 167 95 161 175 103 170 182 110 178 191 118 188
195 122 193 192 120 192 189 116 190 189 117 192 193 120 197
198 126 203 200 128 206 197 126 203 194 123 199 191 121 195
189 119 194 191 123 199 198 131 208 204 139 216 212 149 223
225 164 234 240 181 246 250 195 253 254 200 255 243 189 246
205 150 212 154 97 166 118 60 134 100 41 119 86 31 105
71 22 88 61 18 75 55 16 63 47 10 48 39 6 34
35 4 24 34 5 20 34 7 19 35 9 19 33 8 18
31 7 16 29 5 13 28 4 9 29 5 7 29 5 5
30 5 3 31 4 1 32 4 1 33 4 1 34 4 2
35 4 2 36 5 2 36 5 2 36 4 2 37 3 1
39 4 1 40 5 3 43 8 5 47 10 7 50 12 9
53 13 10 54 12 9 53 9 5 51 6 2 53 7 2
57 11 6 62 14 10 64 15 11 65 16 12 69 19 15
74 23 20 79 27 24 83 29 27 85 30 29 86 30 29
88 31 30 91 35 34 96 41 40 100 47 46 102 49 49
100 49 48 97 46 44 92 42 39 89 40 36 89 41 37
90 43 39 92 47 42 95 52 46 100 58 52 103 62 55
101 62 54 95 57 48 88 50 41 84 46 36 84 45 35
85 47 36 85 48 37 84 48 36 82 47 35 81 46 34
81 47 35 81 48 35 79 46 32 78 44 29 76 42 27
75 39 25 73 37 23 73 36 22 73 35 22 75 36 22
76 37 22 75 36 20 72 32 16 69 28 12 68 26 8
67 25 5 68 24 3 70 25 3 74 28 4 79 32 6
84 36 9 89 40 11 92 42 11 94 43 12 96 45 13
99 46 15 102 47 16 103 47 17 103 48 21 102 49 25
97 47 26 85 39 20 68 27 11 54 18 4 45 16 2
42 15 2 39 13 2 37 9 1 37 6 0 40 5 1
47 8 3 56 10 7 64 12 11 71 13 14 77 15 18
87 20 25 101 29 37 120 42 53 141 57 71 159 71 87
174 80 100 189 91 113 200 101 124 204 104 129 203 103 129
203 104 130 204 105 131 203 106 132 201 105 131 200 105 131
200 105 131 200 104 131 200 103 130 199 101 128 198 100 127
199 100 127 200 101 129 200 101 129 200 102 129 201 105 131
203 107 134 205 110 136 207 114 138 207 117 137 187 103 117
142 63 72 110 33 41 111 36 43 119 46 51 118 45 49
106 31 35 96 19 23 105 24 28 125 40 45 144 54 59
153 59 64 153 57 61 151 52 57 152 51 57 155 54 60
158 57 64 155 54 62 152 50 61 155 52 67 160 55 76
161 57 84 158 57 91 157 59 100 160 67 116 174 85 146
198 114 188 216 135 223 209 131 230 184 108 214 157 83 191
140 69 173 132 64 162 129 63 156 129 64 154 133 71 157
153 94 176 179 124 201 171 120 192 131 84 150 103 59 120
93 52 108 87 47 99 82 44 93 69 41 40 68 41 39
68 41 39 69 42 40 72 44 43 76 48 46 80 51 51
83 54 55 87 56 60 91 57 66 95 58 72 100 58 80
104 60 89 111 65 100 120 71 112 132 75 124 145 79 135
154 84 145 161 90 153 166 95 159 170 99 163 175 104 170
183 112 178 188 116 184 187 115 185 185 113 184 185 114 186
190 119 192 197 126 200 202 132 206 203 133 207 200 130 203
193 124 196 190 122 193 193 126 198 201 135 208 211 146 220
222 159 232 234 173 242 242 183 248 246 189 250 248 192 251
244 188 248 217 160 224 170 112 182 129 70 145 103 43 121
85 29 104 73 23 90 66 22 80 59 18 68 48 10 50
39 4 34 36 4 26 39 9 25 40 12 25 40 12 25
37 11 23 34 9 19 31 7 15 30 5 11 30 5 8
30 5 5 30 5 3 32 4 2 32 4 1 33 4 1
34 4 2 35 4 2 36 5 3 36 5 2 37 5 2
38 4 2 40 5 3 42 7 5 45 9 7 49 11 9
52 14 11 55 15 12 56 14 11 54 11 7 53 8 3
53 8 3 57 12 7 61 15 10 63 15 11 64 16 12
66 17 13 68 18 15 72 21 18 77 24 22 79 26 24
81 27 25 84 29 28 89 34 33 94 40 39 97 45 44
98 47 46 96 45 44 93 43 41 90 41 38 89 41 37
90 42 38 91 45 40 93 50 44 96 54 48 98 57 51
99 59 52 96 57 49 91 53 44 84 47 38 82 45 35
86 48 38 89 52 41 89 53 41 88 52 40 86 50 38
84 49 37 84 49 37 83 49 36 81 47 33 79 45 31
79 44 29 78 42 28 76 40 26 74 38 24 73 36 23
73 36 22 74 36 23 73 35 22 72 33 19 70 30 16
68 28 12 67 26 9 66 25 6 67 24 5 70 26 5
73 28 5 77 31 7 81 34 9 85 38 12 89 41 14
92 44 17 96 46 18 98 47 19 98 46 19 98 46 21
97 47 23 92 44 23 81 37 18 66 26 9 54 18 3
48 18 4 45 17 5 42 14 3 39 11 1 38 8 1
41 8 1 45 8 3 51 10 6 58 13 10 63 13 12
67 13 13 74 15 18 83 19 25 96 26 35 116 39 51
137 54 68 155 65 83 172 78 97 188 90 112 196 97 121
200 101 125 204 104 130 207 108 133 208 110 135 207 109 136
205 108 136 205 109 136 205 108 135 204 105 133 202 103 131
199 100 128 199 100 128 201 102 130 202 103 131 202 103 131
204 106 133 206 109 136 207 110 137 206 111 136 207 115 136
198 111 126 164 82 92 126 46 55 116 39 46 123 48 54
129 54 59 117 41 46 98 20 24 99 18 22 120 35 39
141 53 57 152 60 65 152 58 62 148 51 56 144 46 51
144 45 50 146 47 52 146 47 52 144 44 52 146 44 55
150 47 63 155 51 73 156 54 83 155 55 92 154 58 105
165 73 132 195 107 181 218 135 222 206 126 224 170 94 199
143 70 175 132 61 164 129 62 158 130 64 155 131 67 155
130 69 153 140 82 162 168 114 189 172 121 192 137 90 155
108 63 124 97 55 111 90 50 102 86 47 97 59 33 30
59 34 31 61 36 33 65 40 37 71 46 44 79 53 52
85 59 59 90 62 63 92 62 66 92 61 68 92 58 70
92 54 73 95 54 81 105 61 94 120 73 111 135 82 127
147 86 139 156 88 147 160 91 152 160 91 152 158 89 151
160 91 154 167 97 161 172 103 168 173 104 170 171 102 170
172 102 171 176 106 177 183 115 186 191 123 194 197 128 199
197 129 200 196 130 198 200 135 202 207 142 210 212 149 218
219 156 227 226 163 234 229 168 236 229 169 235 229 171 234
236 178 240 242 184 246 227 169 235 185 125 196 137 76 152
104 44 123 86 29 105 76 25 94 71 24 85 63 19 72
51 10 52 41 4 36 39 6 29 42 11 28 44 14 29
43 15 28 40 13 26 37 11 22 34 8 17 32 6 13
31 5 9 31 5 6 31 5 4 32 4 2 32 4 1
33 4 1 34 4 2 35 4 2 36 5 3 36 5 3
37 5 3 39 5 3 41 6 4 43 8 6 46 11 9
50 13 11 54 15 14 56 17 15 58 16 13 57 14 10
55 11 6 55 11 5 58 13 8 61 16 11 62 15 11
63 15 11 63 15 11 64 15 11 69 19 15 75 24 21
79 27 24 81 28 26 83 30 28 87 33 31 90 37 35
91 40 39 91 41 39 90 41 39 90 42 39 91 43 40
92 45 41 92 45 41 92 48 42 94 51 45 95 53 47
94 54 48 93 54 47 91 53 45 88 51 42 85 48 39
86 49 39 92 55 44 95 59 47 95 59 47 93 57 45
90 54 42 88 52 40 88 52 40 86 51 38 84 48 35
83 47 33 83 47 33 82 46 32 80 44 30 77 41 27
74 38 24 72 36 23 72 35 23 72 35 23 71 34 22
70 32 19 68 30 16 67 28 13 66 27 11 67 26 9
68 26 8 69 26 6 70 26 5 72 28 6 76 31 9
81 36 13 85 40 16 89 43 18 92 44 19 92 44 18
90 42 18 87 41 18 82 37 16 73 31 12 62 23 6
55 19 4 51 20 6 47 19 6 43 15 4 40 12 2
40 11 2 42 11 3 44 10 4 48 11 5 53 12 8
57 13 10 60 13 11 67 16 16 74 18 21 82 21 26
98 29 37 118 41 52 136 53 67 156 66 83 175 80 100
190 92 114 200 100 124 208 108 132 214 114 139 216 116 141
214 115 142 212 114 141 211 112 140 208 110 138 206 107 135
204 105 133 202 103 131 201 102 130 203 104 132 205 106 134
207 108 136 210 111 139 211 113 140 210 112 140 209 111 138
207 113 135 202 114 130 181 98 109 144 63 72 118 39 47
119 43 49 132 57 61 130 54 58 108 30 34 97 17 20
109 26 30 129 42 46 142 52 56 147 54 58 146 52 56
142 47 51 138 42 46 136 40 43 139 42 45 139 41 45
138 38 45 140 39 50 148 45 62 153 51 75 153 52 86
150 52 96 159 66 122 192 103 174 219 134 219 205 124 220
166 90 192 139 66 170 130 60 160 129 63 156 130 66 153
131 69 153 129 69 151 137 80 157 163 109 183 174 124 193
146 99 163 115 70 130 100 57 113 92 51 103 87 47 98
53 28 25 55 30 27 60 35 33 67 42 41 75 50 51
85 60 62 93 68 71 96 70 74 95 66 73 92 61 71
88 55 69 86 50 69 88 49 74 98 56 87 114 69 105
132 81 124 146 87 139 154 90 147 155 90 148 148 83 142
141 75 135 140 74 135 147 81 143 155 89 151 157 91 155
156 90 155 156 90 156 159 93 160 166 100 168 175 110 178
186 121 189 197 132 199 207 143 208 216 153 218 221 159 224
219 157 225 215 153 222 213 151 220 210 149 217 208 147 214
211 151 216 221 162 226 234 175 240 230 171 239 195 134 207
145 84 161 107 46 126 87 29 106 79 26 97 74 25 87
65 18 72 53 10 54 46 6 40 44 8 33 45 12 31
45 14 30 44 14 29 41 12 26 38 10 23 36 8 18
33 6 13 32 5 9 32 5 6 32 5 4 32 5 2
32 4 1 33 3 1 34 3 1 35 4 2 36 5 3
36 5 3 38 5 4 40 6 4 42 7 5 44 9 7
48 12 10 52 14 13 55 17 16 58 18 17 59 18 16
59 16 13 57 13 9 57 13 8 59 15 10 61 16 12
62 16 12 62 16 12 63 15 12 65 16 13 70 21 18
77 27 24 82 31 29 83 32 29 82 31 29 83 31 29
84 33 31 84 35 33 83 35 33 84 37 34 89 41 39
93 47 43 95 49 44 93 49 43 91 48 42 90 48 42
90 49 43 90 50 44 90 51 44 91 53 44 91 53 44
90 53 44 93 56 46 98 62 51 101 65 53 99 63 51
96 60 48 92 56 44 90 54 42 89 53 41 89 53 40
86 50 37 86 50 36 87 51 37 86 50 36 84 48 34
80 44 30 76 40 26 73 37 24 72 36 25 72 36 25
71 35 24 71 34 22 69 32 20 68 30 17 66 28 14
66 27 12 67 28 11 66 27 9 65 24 6 64 23 4
66 24 5 69 27 7 73 31 10 77 34 13 82 38 15
83 40 16 82 38 15 80 36 15 75 33 13 69 29 10
62 25 7 57 22 6 53 21 7 49 19 6 44 16 4
42 14 4 42 14 5 43 13 5 43 12 5 45 12 5
49 12 6 52 12 8 56 14 10 62 18 15 68 20 20
74 20 22 84 24 28 101 33 41 120 43 55 140 56 70
161 71 88 180 85 105 196 99 120 210 111 133 219 119 143
222 122 147 221 121 148 219 120 147 216 117 144 211 112 139
207 108 136 205 107 134 205 106 133 205 106 133 206 107 135
209 110 137 212 113 140 214 115 143 215 117 144 215 116 143
212 113 140 207 112 134 203 114 129 191 107 118 156 75 84
118 39 47 110 34 40 126 51 55 135 60 64 119 43 47
99 20 23 98 17 20 111 26 30 124 37 40 135 45 48
140 50 52 140 48 51 134 42 45 131 38 40 134 40 41
136 40 41 135 37 40 137 37 45 144 42 56 150 48 69
151 50 80 149 50 90 154 59 112 183 92 161 211 124 208
204 122 216 171 94 195 146 73 175 136 68 165 135 70 159
134 71 155 132 71 151 130 71 149 135 80 154 156 103 174
174 125 192 164 118 180 134 90 149 110 67 122 95 54 106
89 49 100 56 30 29 60 35 34 69 44 45 76 51 55
82 57 62 91 66 73 99 73 82 99 72 83 94 65 78
88 57 72 83 50 68 81 45 68 82 43 70 88 46 77
101 57 92 120 71 113 139 84 134 152 92 147 154 93 150
143 82 139 126 65 124 120 59 118 129 67 127 140 78 139
144 82 144 145 83 146 145 83 146 148 85 149 157 95 160
174 112 177 191 129 194 203 141 206 212 150 214 218 158 220
219 159 223 211 150 217 198 137 206 190 129 198 188 127 196
191 130 198 199 139 206 210 150 217 224 163 231 227 166 236
203 142 216 159 97 175 114 53 133 88 29 108 80 26 98
74 23 88 64 15 71 55 9 56 50 8 44 49 10 38
48 12 34 46 13 31 43 11 28 39 9 24 37 7 21
36 6 18 34 5 14 32 4 9 32 4 6 34 6 5
33 5 4 32 4 2 32 3 1 33 3 1 34 3 1
35 4 2 37 6 4 38 6 4 41 6 5 43 7 6
45 10 8 48 12 11 52 15 14 56 18 17 59 19 18
60 19 18 60 18 15 59 15 12 59 14 11 60 16 12
62 17 14 63 18 15 63 17 14 63 17 14 66 19 16
72 24 22 79 30 28 84 34 32 84 34 33 82 32 31
81 31 29 80 31 29 79 32 30 77 31 29 79 33 31
86 41 37 93 48 44 94 51 45 92 49 43 88 46 40
84 43 37 84 44 38 87 48 41 90 52 44 94 56 48
96 59 50 97 60 51 99 63 53 103 66 55 103 67 55
100 64 52 95 59 47 90 54 42 88 52 40 89 53 41
90 54 41 89 53 39 88 52 38 89 53 39 88 52 38
86 50 36 82 46 32 78 42 28 75 39 26 73 38 27
73 38 28 73 38 27 72 37 26 70 34 22 68 31 18
65 28 14 64 27 13 65 28 13 65 27 11 63 24 8
61 22 5 60 21 4 60 21 4 62 23 4 65 26 6
69 30 9 72 33 11 73 32 11 72 32 12 69 30 11
65 28 9 61 26 8 57 24 6 52 21 5 48 19 5
46 18 5 44 16 6 43 16 6 43 15 7 43 13 7
44 12 6 47 12 6 51 14 8 55 17 12 59 20 15
62 20 17 66 20 18 73 21 22 86 26 31 103 34 42
121 45 56 141 57 72 162 73 90 183 90 108 202 106 126
217 119 140 225 126 149 226 127 152 226 127 152 222 123 149
214 116 141 208 110 135 206 108 134 206 108 134 207 109 135
208 110 136 210 112 138 213 114 140 215 116 142 216 118 143
214 116 142 210 112 137 204 109 130 200 110 126 192 108 119
159 79 88 116 39 46 100 25 31 111 38 42 127 54 57
126 51 54 107 31 33 96 17 19 98 16 19 108 24 26
120 35 36 129 42 43 133 45 46 131 42 43 127 37 37
127 36 36 130 37 37 133 38 40 138 41 46 144 44 54
146 46 63 147 47 72 146 47 84 148 53 103 167 75 141
192 104 185 193 110 203 172 94 193 152 79 179 143 76 171
141 77 163 138 76 156 133 74 150 131 74 147 132 78 149
142 90 158 162 114 178 175 129 190 160 116 173 127 85 139
102 61 113 93 53 104 63 37 39 73 46 50 84 58 64
87 60 70 84 57 70 88 61 76 95 67 85 96 66 86
92 61 82 86 53 76 81 46 71 78 41 70 77 37 69
78 36 70 85 41 78 100 52 95 123 70 120 146 89 144
156 99 155 145 88 144 118 61 118 104 46 104 112 54 114
127 69 129 135 77 138 137 79 140 138 79 141 143 85 147
162 103 166 185 126 191 196 137 201 193 134 198 196 137 199
204 145 208 207 147 212 199 138 205 185 124 193 176 114 185
175 113 184 181 120 190 193 131 201 204 142 213 216 154 226
224 162 236 213 150 227 174 111 191 124 62 144 93 33 114
83 27 101 75 22 89 64 14 72 57 9 57 53 9 48
52 12 42 51 14 38 48 13 34 43 10 28 39 7 24
37 6 21 36 6 19 35 5 14 33 4 9 33 4 7
34 6 6 34 6 5 33 4 3 33 3 2 33 3 1
34 3 1 35 4 2 37 6 4 39 6 5 41 6 5
43 7 6 45 9 8 48 12 10 51 14 13 55 16 16
57 18 17 59 18 17 60 17 15 60 16 13 60 16 13
61 17 14 63 19 16 64 19 16 63 18 15 63 17 15
67 20 18 73 25 23 78 31 29 82 35 33 83 35 33
82 33 32 80 32 30 79 32 30 78 32 29 75 30 27
77 32 29 84 40 36 91 48 43 92 50 44 89 48 42
86 45 39 84 44 37 85 46 39 89 50 43 93 55 47
97 60 51 100 63 54 101 64 55 102 66 56 103 68 56
101 65 53 95 60 48 90 54 42 86 50 38 86 50 38
89 52 41 91 55 42 91 55 42 91 55 41 90 54 40
89 53 39 86 50 36 82 46 32 78 43 29 76 41 27
75 41 29 75 41 30 74 40 30 73 39 28 72 36 25
69 33 21 66 30 17 64 28 15 64 28 14 63 27 12
61 25 10 59 23 7 57 21 5 56 20 4 56 20 3
57 21 3 58 23 4 59 24 5 61 24 5 61 24 6
59 24 6 57 22 5 54 21 4 51 20 3 48 19 2
46 18 2 45 17 4 44 16 5 43 16 6 42 15 7
42 14 7 43 13 7 46 13 7 50 15 9 53 18 12
57 21 15 59 22 16 61 21 17 65 19 18 73 20 22
86 25 30 101 32 40 119 42 54 141 58 72 162 74 90
182 91 108 203 108 127 219 122 143 227 129 152 229 131 156
225 128 152 217 120 144 210 112 137 207 109 134 207 109 133
207 109 133 208 110 134 208 110 135 209 111 136 210 112 137
210 112 137 206 109 133 201 104 128 194 100 120 189 101 116
182 99 109 151 72 80 108 33 40 90 17 22 96 25 28
113 43 45 123 51 54 115 41 43 102 27 28 97 19 20
100 20 20 108 27 27 115 33 33 121 37 37 122 37 37
121 33 33 121 32 31 125 35 34 131 39 39 137 42 45
141 44 52 141 43 57 140 42 64 138 41 73 139 44 90
149 58 120 167 79 157 174 91 181 165 88 185 154 82 180
148 80 173 144 82 164 140 80 155 133 75 147 128 72 143
126 73 141 128 77 142 141 93 155 163 118 176 169 126 181
146 104 157 118 77 127 105 64 114 67 38 47 81 53 63
93 65 79 88 60 77 75 46 68 73 44 68 80 50 77
85 54 84 88 55 86 86 52 84 83 46 81 79 41 76
76 36 73 75 32 71 76 31 72 83 36 81 103 52 103
131 78 133 151 98 153 143 89 146 112 59 116 93 39 97
101 47 106 120 65 125 129 74 135 131 76 137 136 81 143
153 97 159 176 119 182 187 131 194 177 120 184 163 107 171
169 112 176 185 126 191 191 132 198 185 125 193 173 112 182
166 104 177 168 105 178 176 113 187 190 127 201 203 140 214
214 151 226 225 161 238 222 159 237 188 125 207 137 74 158
101 40 122 88 29 106 79 23 92 68 15 75 60 10 61
57 11 51 56 14 45 55 16 42 51 15 37 45 12 31
40 8 25 38 6 22 37 6 20 36 6 16 34 5 11
34 5 8 35 6 8 34 6 6 33 5 4 33 4 3
33 3 2 34 3 2 35 4 2 37 6 4 39 6 5
41 6 5 42 6 6 44 8 8 46 10 9 49 12 11
52 14 13 54 14 14 56 15 14 58 16 14 60 16 14
61 17 14 63 19 16 65 21 18 64 20 17 62 18 15
62 17 15 66 21 18 71 25 23 76 30 27 79 33 30
80 34 31 80 34 31 80 33 31 80 34 31 78 33 30
76 31 28 77 33 30 84 41 37 90 47 42 90 49 43
87 47 40 86 46 40 88 49 42 91 52 45 94 55 48
96 59 51 98 61 53 100 63 54 100 65 55 101 67 56
101 67 55 97 62 50 90 55 43 85 49 37 84 48 36
86 50 38 90 53 42 93 56 44 94 56 44 93 56 43
91 55 41 89 53 39 86 50 36 83 47 33 79 45 31
78 44 30 78 44 31 78 44 32 77 43 31 75 41 29
73 39 27 71 36 24 68 33 21 66 32 19 65 31 17
63 29 14 60 27 12 58 24 9 56 22 7 55 20 5
55 20 5 53 19 3 51 18 2 50 17 1 51 18 1
51 18 1 50 17 1 48 16 1 46 15 0 44 15 0
44 16 0 43 16 1 43 16 2 42 15 3 42 15 5
42 14 6 42 14 7 43 14 7 46 14 8 49 16 9
51 18 11 53 21 14 55 21 15 56 20 15 58 18 14
64 18 16 74 20 22 84 23 28 99 30 38 119 43 54
140 58 71 159 73 87 181 91 107 202 109 128 217 123 144
224 128 150 222 127 149 217 121 143 211 114 137 208 110 133
206 108 131 206 108 131 205 107 130 204 106 129 204 106 129
203 106 129 200 104 127 195 99 122 188 93 115 180 89 107
174 89 103 166 86 96 137 60 68 98 25 32 81 11 15
85 16 19 98 30 31 111 43 44 114 44 44 107 35 35
100 26 26 99 23 22 102 25 24 105 27 25 108 28 27
110 28 27 112 27 26 116 29 27 122 33 32 128 38 38
134 42 44 137 42 49 136 40 52 133 37 56 129 33 62
127 33 76 134 43 102 147 60 134 157 75 162 159 82 177
154 82 179 149 83 173 146 85 164 141 83 154 132 76 144
124 69 135 119 67 131 117 67 129 121 73 132 137 92 147
157 114 167 159 117 167 141 99 148 123 82 130 67 36 52
81 51 68 89 59 79 80 49 74 65 34 64 61 29 64
67 35 73 75 42 82 82 47 89 88 51 94 88 50 94
84 44 88 79 37 81 75 31 76 73 28 73 76 29 77
89 41 93 113 64 119 134 84 140 131 81 138 108 57 115
91 40 99 97 46 105 113 61 121 122 70 130 127 74 136
143 90 152 168 114 176 180 126 189 168 114 178 147 92 157
138 84 149 150 95 160 166 110 176 172 113 182 165 105 176
157 95 168 155 93 168 162 98 175 176 112 189 194 130 207
208 143 221 216 151 230 226 161 241 228 163 244 201 136 220
151 87 173 112 49 133 94 33 112 83 25 97 72 17 80
64 12 65 61 13 55 60 16 49 58 18 45 54 17 40
48 13 33 42 8 27 39 6 23 38 7 21 38 7 18
36 6 13 36 6 10 36 7 9 35 7 7 34 6 5
34 4 4 34 3 3 34 3 2 35 4 3 37 6 4
38 6 5 40 6 5 42 6 6 43 7 7 45 8 8
47 9 9 49 11 10 51 11 11 53 12 11 56 15 12
60 17 14 62 19 16 65 21 18 66 22 19 65 21 18
62 18 15 62 18 15 66 21 18 70 25 22 73 28 25
76 31 28 77 32 29 78 33 31 80 35 32 81 37 34
80 36 33 78 35 32 80 37 33 85 43 39 90 49 43
90 49 43 87 47 41 87 48 41 91 53 45 95 56 49
96 59 51 97 60 52 97 61 52 98 62 52 98 64 54
99 65 55 99 65 54 94 60 48 89 54 42 86 50 38
86 50 38 90 53 41 93 55 44 95 56 45 95 57 45
95 57 44 93 55 42 90 54 40 88 52 38 85 51 37
84 50 35 83 50 35 82 49 34 81 48 34 80 46 33
78 45 31 76 42 29 74 40 27 72 38 25 70 36 23
68 35 20 65 32 17 62 29 14 59 26 11 56 23 9
55 22 7 54 21 7 52 20 5 49 18 4 47 16 2
47 16 2 46 16 1 45 16 0 44 15 0 43 15 0
42 15 0 42 15 0 42 15 0 41 15 1 41 15 2
42 15 4 42 15 6 42 15 8 43 15 9 45 15 9
48 17 10 50 19 11 50 20 12 50 19 11 52 18 11
55 18 12 62 20 16 69 21 20 74 19 21 84 22 26
101 32 39 121 46 55 139 60 70 157 73 86 176 88 104
194 103 121 204 111 131 208 114 134 208 113 134 206 110 131
204 107 128 204 106 128 203 106 127 201 104 125 199 101 123
196 99 121 193 97 118 189 94 115 184 90 110 177 84 104
170 81 98 164 82 94 152 76 84 121 49 55 89 19 24
76 9 12 77 12 13 83 19 19 94 29 29 101 35 34
100 32 31 97 28 26 99 28 25 103 30 27 103 29 26
100 24 21 99 20 18 104 22 20 112 26 25 119 32 31
126 38 38 131 41 43 133 41 46 131 38 49 128 34 50
122 29 54 120 27 66 127 37 91 142 56 126 155 73 158
157 80 174 152 80 176 147 81 169 144 84 159 139 83 150
129 75 138 118 65 127 111 61 121 108 60 117 107 60 115
114 69 122 135 92 143 156 114 163 152 110 158 133 91 137
68 36 59 77 45 69 79 47 75 70 37 70 60 26 65
58 23 67 63 27 75 71 34 84 81 44 95 94 55 107
99 60 111 93 52 104 82 39 90 75 31 81 74 28 79
76 29 81 82 35 89 97 50 106 114 66 124 120 71 129
112 62 121 105 56 115 108 59 119 117 67 128 124 74 135
133 82 145 149 97 161 161 109 173 157 104 169 140 88 153
127 74 140 127 73 140 139 85 152 150 94 162 149 92 163
143 83 157 139 78 154 145 82 160 157 93 173 178 113 193
201 135 215 213 146 227 216 150 232 223 157 240 225 160 244
207 142 228 164 99 186 123 59 144 100 39 119 88 29 102
77 20 85 68 15 70 65 16 59 63 18 52 61 20 48
57 19 42 50 14 35 43 9 28 40 7 24 39 7 22
40 8 20 38 7 15 37 7 12 37 8 10 36 8 8
35 7 6 35 5 5 34 4 4 35 3 3 35 4 4
36 5 4 38 6 4 40 5 5 41 5 5 42 6 6
44 7 7 46 8 8 48 9 9 49 9 9 51 11 10
56 15 12 60 18 15 63 21 17 65 23 19 66 23 19
65 21 18 63 19 16 63 19 16 66 22 19 69 24 21
71 27 24 73 28 25 74 30 27 77 33 30 81 37 34
84 40 37 83 40 37 81 39 36 82 41 37 87 47 42
90 51 45 90 50 44 87 48 41 88 49 42 92 54 47
96 58 50 96 59 51 96 59 51 94 59 49 93 59 49
95 60 51 97 63 53 97 64 52 94 61 49 91 57 45
91 55 43 93 56 44 95 57 46 96 57 47 96 57 46
96 57 45 95 57 44 94 57 44 93 57 43 92 57 42
91 57 42 90 57 42 89 56 41 87 54 38 85 52 36
83 50 34 81 48 32 79 46 31 78 45 30 77 44 29
74 41 27 70 38 23 67 34 19 63 31 16 60 27 13
57 24 11 55 22 9 53 21 8 52 21 8 50 20 8
49 19 7 48 19 6 46 18 4 45 18 2 45 18 1
45 18 0 44 18 0 42 17 0 42 16 0 42 16 2
42 16 3 43 16 5 43 16 8 43 16 10 43 16 10
45 17 10 48 18 10 50 20 12 51 21 13 52 21 14
54 21 14 57 21 15 61 21 17 64 20 17 68 19 18
75 20 21 87 26 29 103 36 41 120 47 54 133 56 66
147 64 77 163 75 91 176 85 102 186 93 112 193 99 118
196 101 121 197 101 120 198 101 121 199 102 122 197 100 120
191 95 114 184 88 108 178 83 103 174 80 99 171 78 96
167 77 94 163 78 93 157 79 89 138 66 72 104 36 41
78 13 16 71 8 10 72 11 11 74 13 13 79 18 17
84 22 20 86 22 19 88 22 19 95 27 24 104 34 30
105 34 30 99 26 23 95 18 16 100 19 17 108 25 23
117 32 31 124 38 38 128 40 42 128 39 45 127 37 46
125 33 48 120 28 50 117 26 61 127 38 89 149 63 131
163 81 163 159 81 174 148 76 170 140 75 161 136 77 150
133 78 141 124 71 130 112 61 118 104 55 111 102 55 108
100 55 106 101 57 106 115 73 120 139 97 143 140 98 144
122 81 126 67 34 65 73 40 72 74 39 76 67 32 73
61 25 72 60 24 75 66 29 84 79 42 100 98 59 118
114 74 133 120 79 137 111 70 127 96 53 109 85 40 96
83 36 93 84 37 94 87 41 98 98 52 110 115 68 128
128 80 141 133 86 146 137 89 149 139 91 152 142 93 155
146 97 160 151 101 164 150 99 163 141 90 155 129 78 144
122 70 136 120 67 134 123 70 138 132 78 146 135 79 150
128 71 144 123 64 140 127 65 144 138 75 155 155 91 172
180 114 197 203 136 219 209 142 226 209 141 226 211 144 229
214 148 235 207 142 229 176 111 199 134 71 157 107 45 126
93 34 108 82 24 90 73 18 74 68 17 63 65 19 55
63 21 49 59 20 44 52 15 37 45 10 29 41 7 24
41 8 23 41 9 22 40 9 17 39 8 13 38 8 10
37 9 8 36 8 7 35 6 6 35 4 5 35 3 4
35 4 4 36 5 4 38 5 4 39 5 4 40 4 4
41 5 5 43 6 7 45 7 8 47 8 9 49 9 9
52 12 11 57 16 14 61 20 16 63 22 18 65 23 19
65 22 19 64 21 18 64 20 17 64 21 18 66 23 19
67 24 21 69 25 22 70 26 23 72 28 25 77 33 30
82 38 35 86 43 39 86 44 40 84 43 39 85 45 40
89 50 44 91 52 46 90 51 44 87 48 41 88 49 42
92 54 46 95 58 50 95 59 51 93 58 49 90 56 46
90 56 46 92 58 48 95 61 51 96 64 52 96 64 51
96 62 50 97 62 50 98 61 50 99 61 50 98 59 49
98 58 47 97 57 46 97 58 46 97 60 47 98 61 47
97 62 48 96 63 48 95 63 48 94 61 46 91 58 41
88 55 38 86 53 36 84 51 34 82 49 32 82 49 32
81 48 32 79 46 30 74 42 26 69 37 22 65 33 18
61 29 15 58 26 13 56 24 11 54 22 10 53 22 11
52 23 13 51 23 12 50 22 10 48 21 8 47 21 5
47 22 3 47 22 2 46 22 1 45 21 1 45 20 2
45 20 4 45 19 6 45 18 8 45 18 10 44 18 12
45 18 12 47 19 11 49 20 11 51 21 13 56 26 18
61 30 22 64 31 24 64 29 23 62 24 19 61 19 15
63 18 15 68 19 17 77 21 22 88 26 29 100 33 38
111 39 46 122 44 55 135 51 65 150 62 77 165 74 91
178 86 103 185 91 109 187 92 110 189 93 112 192 95 113
190 92 111 180 84 102 167 73 91 157 64 81 153 60 77
153 62 78 154 66 81 153 70 83 144 69 78 119 50 56
86 22 25 66 5 7 63 5 5 67 10 9 70 12 11
72 14 12 74 15 12 75 13 10 78 14 10 87 21 17
98 31 26 104 35 30 100 30 25 95 21 18 97 18 17
105 23 22 114 30 30 120 36 37 123 38 40 123 37 42
123 35 43 122 33 46 119 29 49 116 26 59 127 39 87
151 66 131 166 84 164 160 82 173 146 73 166 135 70 155
130 71 141 127 73 132 119 68 123 108 58 112 101 52 104
99 52 103 97 52 101 95 52 99 102 60 106 116 75 120
119 77 121 109 67 111 66 32 69 71 37 75 75 40 82
77 42 89 81 45 97 85 49 106 94 57 118 111 73 136
128 89 152 137 97 160 138 97 160 133 91 153 124 81 142
116 71 132 110 65 125 110 64 125 117 71 132 129 83 144
140 93 155 145 98 160 146 100 162 150 103 165 152 104 167
153 104 168 155 106 171 154 104 170 143 93 159 129 78 145
119 68 135 116 64 131 117 65 133 123 70 139 127 73 144
123 67 140 114 56 132 113 54 132 125 63 144 139 75 158
156 92 175 181 115 200 199 131 217 197 129 216 193 124 211
194 126 213 200 133 221 206 140 229 187 122 211 145 81 168
114 51 134 98 37 113 86 27 95 76 20 79 70 19 66
66 20 58 64 21 51 60 20 45 53 15 39 46 10 30
41 7 25 41 8 24 42 10 23 41 10 19 40 9 14
39 9 11 38 9 9 37 8 8 36 7 6 35 5 5
35 4 4 35 3 4 36 4 5 37 5 5 39 4 4
40 4 4 41 5 5 43 7 7 46 8 8 48 9 10
50 10 11 53 13 12 58 17 16 62 21 18 64 23 19
64 23 19 63 22 18 63 21 18 64 22 19 65 23 20
66 24 20 66 24 21 67 24 21 68 24 21 71 27 24
76 32 30 83 40 36 87 45 41 86 45 41 84 45 40
86 46 42 89 50 45 91 52 45 89 50 43 86 48 40
86 49 41 91 54 46 94 57 49 94 58 50 91 57 48
88 54 44 88 54 44 90 56 46 94 61 50 97 64 52
99 66 54 100 67 55 101 66 54 101 64 52 100 62 51
100 60 50 99 59 49 100 60 48 101 61 49 102 64 51
103 66 52 102 67 53 101 67 52 98 66 51 96 64 48
94 60 43 92 58 39 90 55 37 88 53 35 85 52 34
84 51 34 84 51 35 83 50 34 79 47 30 75 43 27
71 39 23 66 34 20 63 31 17 59 28 15 57 26 14
56 26 15 56 27 18 54 27 17 52 26 14 50 25 11
49 25 9 49 26 7 49 26 6 49 26 5 49 26 5
48 25 6 47 24 8 47 23 9 47 21 11 47 20 13
46 19 14 47 20 14 50 22 14 52 24 14 56 26 17
62 31 24 70 37 30 74 40 33 74 39 33 71 34 28
64 25 20 61 18 15 63 17 14 69 18 17 77 19 21
84 22 25 91 24 29 102 29 36 115 35 47 131 46 60
149 61 76 165 75 90 172 81 97 174 81 97 176 81 97
178 82 99 176 80 97 166 70 87 150 57 73 138 46 62
132 42 57 132 45 59 135 50 64 133 55 65 120 50 56
94 31 34 69 10 12 57 2 2 56 3 2 61 8 6
66 12 9 69 14 11 71 14 10 70 12 7 71 11 6
77 15 9 88 24 18 97 31 25 98 30 24 94 23 19
95 18 17 101 20 21 109 27 28 115 33 34 117 34 37
118 34 39 118 33 41 118 32 44 116 29 48 114 26 57
121 35 81 141 57 119 157 76 153 158 80 168 147 74 165
135 70 152 128 71 138 125 72 128 119 68 120 109 60 110
102 55 103 99 53 100 95 51 97 93 50 95 96 54 97
102 61 103 105 64 106 105 63 104 66 31 72 72 36 79
82 46 92 97 61 111 111 74 129 117 81 140 124 86 149
130 92 157 131 91 157 128 87 152 128 86 151 134 91 155
143 99 162 147 103 165 145 99 162 143 97 161 147 102 165
150 104 168 146 100 164 136 90 154 126 80 145 125 78 143
127 79 144 129 80 146 131 82 149 131 81 149 127 77 146
121 69 139 112 60 130 107 54 125 110 57 128 118 64 137
122 68 142 117 62 138 110 53 131 115 55 135 129 67 150
145 81 165 162 97 182 182 116 201 190 123 209 182 114 201
176 108 195 179 110 199 188 120 209 200 133 223 191 125 216
157 92 181 125 62 147 105 43 123 89 30 103 78 23 87
72 20 75 67 20 64 63 19 55 59 19 48 53 15 40
46 10 32 42 7 25 42 8 24 43 10 23 42 10 20
40 9 15 39 9 12 37 9 9 35 8 7 35 7 6
35 6 5 35 5 5 36 5 5 37 5 6 38 5 6
38 5 4 39 5 4 41 7 6 43 8 7 45 9 9
48 10 10 50 11 11 53 13 13 58 17 16 61 20 18
62 21 19 62 21 19 62 21 19 62 21 19 64 22 20
65 24 21 66 24 22 66 23 21 66 22 20 67 23 21
71 27 25 77 33 31 83 40 37 86 44 41 84 43 39
81 42 38 82 43 40 85 46 42 86 47 42 85 47 40
83 46 39 85 48 41 91 54 46 94 58 50 94 59 51
91 57 48 87 54 44 87 54 44 91 57 47 96 62 51
99 66 54 102 68 56 104 69 57 103 68 56 101 65 53
100 63 51 101 62 51 102 62 51 103 64 52 104 65 53
105 67 54 106 69 55 106 69 56 104 69 55 101 67 54
99 64 50 97 61 45 95 59 42 94 57 41 92 56 40
90 54 38 88 54 38 88 54 38 86 53 37 85 52 37
82 50 35 79 47 32 74 42 28 70 39 25 67 36 23
64 34 21 62 33 22 61 32 23 59 32 22 57 30 19
54 29 16 53 29 14 53 29 12 53 30 12 53 30 12
52 29 11 51 28 12 50 27 12 49 26 12 48 24 13
48 23 15 48 21 15 49 22 15 53 25 17 57 28 19
61 31 23 66 35 27 73 39 33 79 44 38 84 48 42
85 48 42 78 39 35 68 27 23 62 18 16 64 16 15
69 16 16 72 15 17 76 15 18 84 18 23 97 23 32
111 33 44 128 47 59 144 61 73 153 68 81 155 68 82
157 68 82 159 70 84 158 68 82 148 59 73 134 46 60
123 37 50 117 34 47 116 36 48 114 38 49 105 36 44
87 27 31 66 13 15 54 4 4 51 2 2 50 3 2
55 6 4 62 12 8 68 16 12 70 17 13 69 14 9
68 11 5 70 11 5 78 18 10 87 25 17 90 27 20
90 23 17 90 17 14 95 18 17 102 24 25 108 29 31
111 32 35 113 32 38 113 32 40 113 31 44 111 29 48
109 27 56 112 30 73 124 44 101 142 65 136 154 79 161
151 80 165 140 76 154 134 77 140 131 79 130 125 76 122
117 70 113 110 64 104 103 58 97 95 53 90 92 51 87
94 54 90 97 58 93 101 61 96 103 64 98 67 32 75
74 38 82 88 52 99 105 68 118 114 76 131 111 73 132
108 69 131 107 67 132 103 63 128 99 57 122 100 58 123
113 70 134 131 87 150 143 99 161 146 101 163 143 98 161
138 93 157 130 85 150 120 75 141 110 64 130 102 55 122
98 51 118 99 50 118 102 52 121 106 56 126 110 59 131
112 60 132 108 56 129 100 47 121 96 42 116 99 45 119
107 53 129 114 60 138 118 62 142 121 64 145 129 70 152
143 82 165 159 96 180 175 110 194 185 119 204 182 115 200
171 102 189 167 98 185 172 103 192 181 112 203 192 124 215
191 124 216 174 108 198 149 85 172 119 58 141 95 36 114
83 28 100 76 24 88 68 20 73 61 17 60 57 17 51
53 14 42 46 10 33 43 8 27 43 9 25 43 10 24
42 9 20 41 8 17 39 8 13 35 7 8 32 7 6
33 7 5 35 6 6 36 6 6 37 7 7 39 7 8
39 7 7 39 7 6 39 8 6 40 8 7 42 9 8
45 10 9 47 11 10 49 11 10 52 12 12 56 15 15
58 17 17 59 18 18 60 19 19 61 19 20 61 20 20
63 21 21 65 23 22 66 23 23 65 22 21 64 21 20
66 23 22 71 28 28 78 34 33 82 39 38 82 40 38
77 37 35 75 35 33 75 35 34 77 37 35 78 39 36
79 42 36 81 43 37 84 47 41 90 54 48 94 59 52
94 59 51 90 57 48 87 53 44 87 54 44 91 58 48
97 63 53 101 66 56 103 68 58 105 69 58 104 68 57
103 66 54 102 65 52 103 65 52 105 67 54 108 69 57
108 70 57 107 69 56 107 69 57 107 69 58 106 69 58
104 67 56 102 64 53 100 62 49 99 61 48 98 61 47
98 60 47 96 59 46 94 58 44 91 56 42 90 56 42
90 56 43 89 56 43 86 54 40 81 50 36 77 46 33
74 45 31 72 42 29 69 39 27 66 38 27 65 37 26
62 35 24 59 33 21 58 32 19 57 31 18 57 32 18
56 32 18 54 31 17 53 30 17 52 29 16 51 28 16
50 27 16 49 26 16 49 24 16 50 25 16 55 27 19
61 31 23 64 34 26 67 36 28 73 39 32 81 46 40
90 54 48 98 60 55 98 58 55 87 46 43 74 30 28
67 20 19 65 15 15 64 12 13 65 11 13 70 12 16
79 15 21 90 21 28 102 30 39 115 41 51 126 50 60
132 55 65 137 59 69 140 61 71 138 59 69 129 50 61
118 39 50 110 33 44 108 34 44 104 35 45 94 31 39
76 22 26 56 10 12 43 3 3 42 3 2 45 5 3
47 6 3 51 7 4 59 13 9 67 20 15 70 21 16
68 17 11 65 11 5 65 10 2 69 13 5 76 19 10
82 24 14 84 22 13 84 17 10 87 16 12 93 21 19
100 26 26 105 30 33 108 32 37 108 32 41 107 31 44
106 29 49 104 27 56 103 27 67 109 34 86 128 56 120
149 79 152 153 86 163 147 85 156 142 86 144 139 88 133
134 86 124 128 83 115 120 76 104 108 66 92 98 58 83
94 55 80 95 58 83 97 60 86 99 63 88 101 65 90
69 35 78 74 39 83 83 48 93 91 55 103 90 54 105
82 45 100 76 37 95 76 37 96 79 39 100 80 39 101
83 42 104 95 53 115 110 68 129 118 76 137 118 75 135
112 69 130 107 63 126 103 58 123 98 54 120 93 48 115
89 43 110 85 38 106 84 36 105 88 38 109 95 44 116
100 48 121 100 49 123 97 44 119 91 38 113 88 35 110
91 37 113 99 45 123 110 56 137 123 68 151 138 81 164
154 95 179 169 108 192 182 120 204 193 129 213 196 130 215
186 120 204 175 107 193 174 105 192 180 110 199 186 117 207
193 124 215 196 128 219 194 128 217 178 114 201 141 80 164
105 47 128 90 35 112 82 30 100 70 22 82 61 17 67
58 16 57 53 14 46 48 11 37 44 9 30 44 10 28
44 10 26 43 9 22 42 8 19 40 8 15 34 7 9
31 6 6 32 7 6 34 7 7 37 7 8 38 8 8
40 8 9 40 8 8 39 8 8 39 9 7 40 9 7
41 10 8 44 10 8 46 11 9 48 11 9 51 12 11
54 14 15 56 16 17 57 17 18 58 18 19 59 19 20
60 20 21 61 21 21 63 22 22 64 22 23 63 21 21
62 20 20 64 22 23 70 28 29 76 34 34 79 38 37
78 37 36 73 33 32 71 31 30 71 31 31 72 33 31
73 35 32 76 38 34 78 41 36 82 46 40 87 52 46
90 55 49 90 55 47 87 54 45 85 52 43 86 53 44
90 57 47 94 61 51 98 62 53 100 64 55 102 65 56
103 67 55 103 67 54 103 67 54 105 68 55 109 71 58
112 74 61 112 74 61 110 72 59 108 70 58 107 69 59
106 68 59 105 66 57 103 64 55 103 64 54 104 65 54
104 65 54 103 65 53 101 63 52 98 61 49 95 59 47
93 58 45 92 58 46 92 59 46 89 57 44 84 53 40
80 50 36 78 49 35 75 46 32 72 43 30 69 40 29
67 39 28 65 37 26 62 35 23 60 33 22 59 32 21
59 32 21 58 32 21 55 31 20 54 30 20 53 30 19
52 29 18 51 29 18 50 28 17 50 27 17 52 27 17
57 29 20 62 33 25 65 35 27 67 35 28 72 38 32
82 46 40 93 56 50 103 65 60 109 69 66 106 64 62
95 52 51 84 39 38 74 27 27 66 18 18 62 13 13
64 11 13 69 12 16 76 14 19 83 17 23 90 23 30
99 30 38 109 38 46 116 45 53 120 49 57 119 47 56
112 40 49 104 32 41 99 29 38 97 32 40 92 32 38
78 24 29 57 13 15 39 3 4 32 1 0 35 3 1
41 6 4 44 7 4 48 7 4 56 14 10 67 21 16
70 23 17 67 18 12 63 12 5 61 9 1 64 11 3
70 17 7 77 22 12 80 22 12 80 18 8 81 16 8
86 19 13 92 23 21 98 28 29 102 30 34 103 30 38
102 29 42 101 28 47 99 26 53 95 23 60 98 28 74
116 48 105 141 73 140 151 86 157 150 89 155 147 92 145
143 92 133 138 91 123 134 89 114 125 83 103 113 73 90
104 66 81 100 63 79 100 65 81 101 67 84 103 69 85
104 70 87 66 34 75 68 36 77 71 39 81 72 39 83
69 36 82 64 30 79 61 26 76 61 25 77 63 26 79
65 27 82 71 32 88 82 43 100 94 54 111 98 58 115
93 53 110 87 46 104 86 44 104 88 45 108 87 45 108
82 39 103 77 33 98 75 29 96 76 29 97 80 32 101
86 36 107 90 40 112 91 39 113 88 36 111 85 33 108
85 32 107 88 34 110 95 41 120 107 53 136 122 68 153
140 84 170 159 101 187 175 115 201 187 125 211 195 132 217
198 134 219 196 131 216 194 127 212 196 129 214 202 135 221
205 137 225 204 137 225 206 139 227 213 148 233 206 143 224
165 105 185 118 60 139 96 40 117 87 34 107 74 25 90
65 19 75 61 18 65 56 15 54 50 11 43 46 9 36
45 10 32 45 10 29 43 9 24 43 8 20 40 8 16
35 8 11 32 7 8 33 7 8 35 8 9 37 8 9
39 8 10 40 8 9 40 8 9 39 9 9 39 9 8
39 9 8 41 10 8 43 10 8 45 10 8 47 11 9
49 12 11 52 14 14 54 16 16 55 17 17 56 18 18
57 19 19 58 20 20 59 20 21 61 21 22 61 22 22
60 20 20 59 19 19 62 22 22 67 28 28 73 34 33
76 36 36 74 35 34 70 31 31 69 30 29 69 31 30
70 32 31 72 34 32 74 37 33 76 39 35 78 43 38
82 47 41 83 49 42 83 48 40 82 48 39 82 49 40
84 51 42 87 54 45 89 55 46 91 56 46 94 57 48
97 60 50 99 63 52 101 65 52 103 66 53 106 69 55
109 72 59 112 74 61 112 74 61 110 72 59 109 71 59
109 71 61 108 70 61 106 68 59 106 67 58 107 69 59
109 70 59 108 70 59 106 68 57 103 66 55 100 64 52
98 62 50 95 60 48 94 59 47 93 59 47 90 58 45
85 54 41 81 51 37 79 50 36 77 48 34 73 44 31
70 42 30 68 40 29 66 38 27 63 35 24 62 34 23
61 33 22 60 33 22 59 33 22 56 32 21 55 31 21
54 30 20 53 30 20 52 30 19 51 29 18 51 28 18
53 28 19 59 31 22 64 34 26 66 36 28 66 35 28
72 38 31 82 46 40 93 57 51 102 64 59 108 68 65
113 72 70 114 70 69 107 62 62 97 50 50 85 37 37
74 26 26 68 18 19 70 15 18 72 14 18 74 12 17
77 12 18 82 16 23 89 22 29 96 28 35 100 32 40
101 32 41 98 29 38 94 25 34 91 25 33 88 27 34
80 25 30 65 17 19 47 7 8 34 2 2 30 1 0
33 3 1 39 6 3 42 6 3 46 7 4 54 13 9
65 21 16 70 23 18 66 18 12 61 11 5 58 7 1
61 9 1 67 15 5 73 21 10 77 22 11 77 18 8
78 16 7 81 17 9 86 20 15 91 24 22 95 26 28
97 26 32 97 25 36 96 24 42 94 23 48 92 23 56
96 28 71 112 45 98 135 68 130 149 84 150 151 91 153
148 93 143 143 93 131 138 92 121 134 90 112 127 86 101
118 79 91 112 74 85 109 73 83 107 73 84 108 75 86
109 76 87 111 78 89 57 29 67 60 32 69 62 33 71
60 31 69 57 28 67 56 25 66 54 23 64 52 20 62
49 16 61 50 16 62 56 20 69 66 29 80 75 39 90
78 42 94 75 37 90 70 32 87 71 32 89 75 35 93
76 35 94 73 32 92 71 29 91 73 30 93 75 31 95
78 32 98 82 34 103 84 35 105 83 33 105 82 31 105
81 30 104 82 30 106 85 32 109 90 36 117 97 43 128
108 53 142 121 66 155 136 79 169 150 90 180 160 99 189
169 106 194 177 113 201 188 123 210 197 132 218 207 141 226
216 150 235 218 151 236 213 147 232 215 150 234 227 164 243
228 167 240 189 129 203 132 74 150 100 44 121 90 36 111
78 28 97 70 23 85 66 22 76 59 16 64 52 11 51
48 9 43 46 9 38 45 9 32 43 8 25 42 7 20
40 8 16 36 8 13 34 8 11 35 8 11 37 8 11
38 8 11 39 9 11 40 9 11 40 9 10 39 9 9
39 9 9 39 9 8 40 10 8 42 10 8 44 10 8
45 10 8 47 11 10 49 14 14 50 16 16 51 17 17
52 18 18 53 19 19 55 20 20 56 20 20 57 21 21
57 22 21 56 21 19 56 20 19 59 23 21 64 28 27
70 33 32 72 35 34 71 33 32 67 30 29 66 29 28
68 30 29 69 32 30 71 34 31 73 36 33 74 38 34
75 40 36 77 43 37 77 43 36 76 42 34 77 44 35
80 47 38 83 50 41 84 51 42 84 51 41 84 49 40
87 51 42 91 54 45 93 58 46 95 60 47 98 63 49
102 66 52 105 69 55 107 70 57 107 70 56 107 69 56
108 70 58 110 72 62 111 73 64 110 72 63 110 72 63
111 73 63 111 73 63 110 72 61 107 70 59 104 67 56
101 65 53 98 63 51 96 61 50 95 60 49 94 60 49
91 59 47 87 55 42 83 53 39 81 51 38 79 49 36
75 46 34 72 43 32 69 41 30 67 39 28 64 36 25
63 35 24 62 34 23 61 34 23 60 33 23 58 32 22
56 32 22 56 31 21 55 31 21 54 31 20 53 31 20
53 30 20 55 30 21 61 33 24 66 36 28 67 37 29
67 36 28 72 38 31 82 46 40 93 56 50 100 62 57
105 65 62 112 71 69 117 74 73 117 72 71 114 67 67
109 61 61 98 50 50 87 37 38 81 29 30 80 24 27
80 21 25 81 18 23 82 18 24 85 18 25 87 20 28
90 22 30 91 24 33 91 24 33 89 23 32 86 24 32
81 24 30 70 20 23 54 11 12 39 3 3 31 1 0
29 1 0 32 3 1 37 5 3 41 6 2 44 6 3
52 11 8 63 20 16 69 23 18 66 18 13 59 10 5
56 6 1 57 7 1 63 12 4 69 18 8 73 20 9
74 18 7 74 16 6 76 16 6 80 17 10 85 20 16
88 22 21 90 22 26 90 20 29 90 20 35 92 23 45
97 29 60 107 41 81 123 57 107 140 74 133 151 87 149
153 93 151 149 94 142 143 93 129 138 92 119 134 91 110
129 88 100 122 84 92 118 81 88 115 80 87 113 80 86
113 80 87 115 82 88 116 84 89 52 28 60 55 30 62
54 30 61 50 25 56 46 21 52 44 19 50 43 16 48
40 13 46 39 11 46 40 10 48 44 14 54 52 20 63
59 27 71 62 29 76 60 26 74 58 23 73 61 24 76
66 28 81 71 32 87 77 37 93 84 44 101 91 50 109
93 51 112 90 47 110 86 41 106 83 36 104 80 32 102
78 29 101 79 28 103 81 29 104 82 29 107 84 30 113
88 33 122 95 40 134 106 49 145 117 59 155 128 68 163
136 75 169 143 80 174 152 88 180 166 101 191 181 116 204
193 128 214 202 137 221 206 141 224 208 144 225 217 153 234
234 172 247 241 180 248 210 150 220 153 94 169 113 56 133
97 42 119 83 31 106 74 24 95 70 23 87 62 17 74
54 11 61 49 8 51 48 8 44 46 8 36 44 6 28
42 6 21 40 7 17 37 8 15 36 8 14 37 9 14
38 9 13 39 9 13 39 9 12 40 9 12 40 9 11
39 9 10 39 9 9 39 9 8 40 10 8 41 10 8
42 9 8 43 9 8 44 11 10 45 14 13 46 16 15
47 17 16 49 18 17 50 19 19 51 20 19 52 21 19
53 22 20 54 22 20 53 21 19 53 20 19 57 23 22
62 29 27 67 33 31 68 34 32 67 32 30 65 29 28
65 29 27 67 31 29 69 33 31 70 35 31 72 36 33
73 38 34 74 39 35 75 41 35 74 40 33 73 40 33
75 42 34 79 46 37 82 49 40 83 50 41 81 48 39
80 46 36 82 47 37 85 50 40 87 53 41 89 55 42
92 57 43 96 60 46 99 63 49 101 64 50 101 65 51
102 66 52 105 68 55 109 71 61 112 74 65 113 75 66
113 75 65 112 74 65 111 73 64 108 71 61 106 68 59
103 66 56 100 64 54 98 62 52 96 62 51 95 61 51
95 61 51 92 60 49 88 56 45 85 54 42 84 53 41
81 51 39 77 48 37 74 44 33 71 41 31 68 40 29
66 38 27 64 36 25 63 35 24 62 35 24 61 34 24
59 33 23 58 32 23 57 33 23 56 32 22 56 32 22
56 32 22 55 33 22 57 33 23 63 35 26 68 38 30
69 39 31 69 38 30 73 39 33 82 47 41 92 56 50
99 61 56 106 66 63 113 71 70 115 72 71 114 69 68
116 69 69 121 73 73 117 69 69 107 58 58 99 49 50
97 44 46 96 40 43 95 35 39 94 31 36 93 28 34
92 26 34 92 25 34 92 26 34 91 26 35 89 27 35
85 27 34 75 23 28 60 15 18 44 6 7 33 1 1
28 0 0 27 0 0 31 2 1 36 5 2 39 5 1
42 4 2 50 10 6 61 18 15 67 22 18 64 18 13
57 10 5 54 5 1 54 6 0 59 10 2 64 14 5
68 17 7 69 16 6 69 15 5 71 14 5 74 15 8
79 17 13 82 19 18 84 19 21 83 17 24 84 16 29
91 24 44 106 40 69 128 62 100 146 80 128 156 91 146
159 95 155 157 97 153 151 97 142 144 95 128 139 94 118
136 92 109 130 90 99 124 86 91 120 85 87 118 84 86
115 83 84 115 83 84 116 85 85 118 86 85 46 25 52
47 26 52 45 24 49 39 18 42 34 13 37 33 11 34
32 10 33 31 8 33 32 8 35 34 9 38 38 12 44
45 17 52 51 22 60 53 24 65 52 23 66 52 21 65
55 22 69 62 26 75 71 34 85 84 46 99 99 60 114
109 70 125 113 72 130 107 65 126 94 51 114 84 39 105
79 32 101 77 29 100 79 29 103 81 30 106 81 29 108
83 29 114 88 34 127 96 40 139 104 47 148 113 54 155
121 61 161 129 67 166 136 72 169 143 79 175 156 92 185
169 105 195 175 112 198 178 115 198 184 121 203 198 135 215
217 155 233 238 177 248 247 187 252 228 169 237 184 126 199
144 86 164 116 60 141 93 39 120 79 26 105 73 22 96
65 17 84 57 12 71 52 9 61 50 9 52 48 8 43
45 7 32 43 6 25 41 8 21 39 9 19 38 9 18
38 9 17 39 9 16 40 9 15 40 9 14 40 9 13
40 10 12 39 9 11 39 9 9 39 9 8 39 9 8
40 9 8 41 9 8 41 9 8 41 10 9 42 14 13
43 16 15 44 17 16 46 18 17 47 19 18 48 19 19
49 20 19 50 21 19 52 22 20 52 22 20 52 22 19
56 25 23 61 30 28 65 34 31 66 34 32 64 32 30
63 29 27 64 29 28 66 31 30 69 34 31 71 36 33
72 37 33 72 38 34 73 40 34 74 41 35 74 41 34
74 41 34 76 43 36 79 47 38 82 49 40 82 50 40
80 48 38 78 45 35 79 46 35 82 48 38 84 50 38
85 51 38 87 53 39 90 55 41 93 58 44 96 60 46
96 60 46 98 62 48 101 65 52 106 69 59 110 72 63
111 73 64 111 73 64 110 73 64 109 71 62 106 69 60
103 66 57 101 64 55 99 63 53 97 62 53 96 62 52
96 62 52 96 62 52 93 61 50 90 58 47 87 55 44
86 54 43 84 53 42 80 49 38 75 45 35 72 42 32
69 41 30 67 39 28 65 37 26 64 36 25 64 36 25
63 36 25 61 34 24 60 33 24 59 34 24 58 34 24
58 34 24 58 34 24 58 34 24 59 34 24 63 35 27
69 39 31 71 41 33 71 40 33 75 41 35 83 47 41
91 55 49 99 61 56 108 68 65 118 76 74 118 75 74
111 66 66 112 65 65 120 72 72 120 72 72 114 66 66
111 62 63 110 59 60 108 53 56 105 46 50 102 40 46
100 36 42 99 32 41 97 30 39 94 29 37 92 29 37
88 29 37 81 28 34 68 21 25 52 11 13 37 4 4
29 1 0 26 1 0 26 0 0 29 2 1 34 4 1
36 4 1 39 3 1 47 8 6 58 17 13 64 21 17
62 17 12 56 10 5 52 6 1 52 6 0 55 8 1
59 11 3 61 13 4 63 14 5 64 13 5 66 13 6
70 15 9 75 17 13 78 18 17 79 17 19 78 14 21
79 14 28 89 24 44 112 48 76 145 80 117 167 102 148
173 108 162 171 107 165 164 105 158 156 102 145 149 100 131
143 98 120 139 96 109 132 92 99 125 88 89 121 86 84
118 84 82 115 83 79 114 83 78 115 85 79 117 86 79
36 19 41 36 19 41 35 17 38 30 13 33 27 10 28
26 8 25 27 8 26 28 8 27 30 9 30 32 10 33
35 12 38 40 16 45 45 19 52 47 21 57 47 21 59
48 20 60 51 20 63 57 24 69 66 32 79 79 43 92
91 54 105 100 62 115 105 66 123 104 64 124 95 52 115
85 40 106 79 33 102 79 31 103 84 34 108 88 37 113
88 37 116 91 38 124 99 45 140 105 49 151 108 51 155
112 53 157 118 57 160 125 63 164 134 70 170 143 79 177
158 93 188 170 106 197 171 109 195 168 106 189 176 115 194
200 139 215 226 166 239 243 184 251 249 190 254 241 182 249
219 160 232 186 127 205 145 87 171 109 52 140 87 32 118
77 23 106 69 18 95 61 13 82 57 11 71 54 11 61
52 10 50 48 8 39 45 8 30 43 9 25 41 9 23
40 9 22 39 9 20 39 9 19 40 9 17 40 9 15
40 9 14 40 10 13 40 10 12 39 9 10 39 9 9
39 9 9 39 9 9 39 9 8 40 9 8 40 10 10
40 13 13 41 15 15 42 16 15 43 17 16 45 18 17
46 19 18 47 20 19 49 21 20 51 23 21 51 23 20
51 23 20 55 26 24 61 32 29 64 35 32 64 35 32
63 32 30 62 30 28 64 30 28 66 32 30 69 35 33
71 37 35 72 38 35 72 39 35 73 40 35 75 43 36
75 44 37 76 45 37 77 47 38 80 49 40 81 50 41
81 51 41 80 49 39 78 46 36 79 46 35 82 48 37
83 49 38 84 50 37 85 52 37 87 54 39 90 56 41
91 56 42 92 56 42 94 58 44 98 61 49 103 66 55
107 69 60 108 71 62 109 71 62 108 71 62 107 70 61
104 67 58 101 65 56 99 64 54 98 63 53 98 63 53
97 63 53 96 63 53 96 64 53 94 62 51 91 59 48
89 57 46 88 56 45 86 54 43 82 50 40 76 46 36
73 43 33 71 41 31 69 39 29 67 37 27 66 37 26
65 37 26 64 36 26 62 35 25 61 34 25 60 34 25
60 34 25 59 35 25 59 35 25 59 35 25 61 34 25
64 35 27 69 39 31 73 43 35 74 43 35 77 43 37
83 48 42 91 54 48 97 59 54 108 68 65 120 78 77
120 77 76 110 65 64 108 61 61 116 68 68 118 70 70
114 65 65 113 64 64 113 62 63 110 56 58 106 49 53
103 42 48 101 37 44 99 33 41 96 30 39 93 28 37
89 28 36 83 28 34 74 25 30 59 17 20 43 8 9
31 2 2 26 1 0 25 1 0 25 0 0 28 1 0
32 3 1 34 3 0 37 3 1 45 8 5 56 16 13
61 20 16 59 16 12 55 11 6 52 7 2 51 6 0
53 7 1 54 8 1 56 9 3 58 11 4 60 12 6
63 13 8 68 16 12 73 18 16 76 18 19 76 16 21
76 13 23 78 14 30 87 23 45 112 47 77 150 86 123
178 113 159 185 120 173 181 118 173 173 114 165 162 109 149
155 106 135 149 104 123 143 101 112 136 96 99 126 90 88
120 86 80 117 84 77 113 82 73 112 82 72 114 84 73
115 86 73 29 15 32 30 16 33 30 16 32 28 13 29
25 10 24 23 8 21 23 7 22 25 8 24 28 10 28
30 10 31 31 10 33 34 12 38 38 15 44 41 17 49
42 18 52 44 18 55 48 18 59 53 21 64 60 27 71
67 33 79 73 37 86 78 41 93 84 45 101 88 48 108
86 45 108 82 39 105 80 34 103 83 35 107 92 42 117
102 51 128 104 52 132 105 53 139 113 59 155 118 63 164
117 60 162 115 56 159 117 56 158 124 62 162 136 72 171
151 87 183 166 103 195 176 113 201 177 115 198 176 115 194
188 128 203 215 156 227 238 180 247 246 188 253 244 185 250
241 181 248 234 174 246 211 150 230 169 109 198 129 70 163
102 44 137 85 28 118 75 21 105 68 17 94 63 15 82
61 15 72 57 14 60 52 11 47 48 9 37 45 10 31
43 9 27 41 9 26 40 9 24 40 9 22 40 9 19
40 9 17 40 9 16 40 10 14 40 10 13 40 10 12
40 10 11 39 10 10 39 9 10 39 9 10 39 9 9
38 10 11 39 13 13 39 15 15 40 16 15 41 17 15
43 18 17 44 19 18 46 20 19 47 21 20 49 23 21
50 23 21 51 23 21 54 26 24 58 30 28 61 34 31
62 34 31 61 32 30 62 31 29 64 32 30 66 34 32
69 36 34 70 38 35 71 39 35 71 39 35 73 41 36
75 44 38 77 47 40 78 48 40 79 49 41 80 50 41
81 51 41 81 51 41 80 49 39 78 47 36 79 47 36
82 49 38 83 50 38 84 51 38 85 52 38 87 54 39
88 55 40 88 54 39 89 53 39 90 55 41 93 58 45
98 62 51 102 66 57 105 68 59 106 69 60 105 69 60
104 68 58 102 66 56 100 64 55 98 63 53 97 63 53
97 63 53 97 63 53 96 64 53 96 64 53 95 63 52
92 60 49 90 58 47 89 57 46 87 55 44 82 50 40
76 45 35 73 42 32 71 40 30 69 38 29 67 37 27
66 37 27 66 37 26 64 36 26 63 34 25 62 34 25
61 34 25 61 35 26 61 35 26 60 36 26 61 35 26
61 35 26 64 35 27 69 40 32 75 45 37 77 46 39
80 46 40 84 49 43 89 53 47 95 57 52 106 66 63
118 76 74 118 75 74 109 64 64 109 62 62 116 68 68
116 68 68 111 63 63 109 61 61 108 57 59 106 52 55
104 47 51 101 41 47 99 35 43 96 30 39 93 28 37
90 27 36 85 27 35 78 25 31 65 20 24 50 11 14
34 4 5 25 0 1 22 0 0 23 0 0 24 0 0
26 1 0 30 3 0 33 3 0 35 3 1 42 7 4
51 13 10 56 17 13 56 15 11 53 11 6 51 8 3
50 7 2 51 7 1 51 7 1 52 8 2 53 9 4
56 11 6 60 13 10 65 15 14 70 18 18 74 18 21
75 16 24 75 14 26 77 14 33 83 20 45 106 42 73
146 82 120 179 115 159 188 125 175 185 123 176 177 118 166
166 113 151 158 110 137 153 108 125 147 105 113 138 99 100
128 92 86 120 87 78 116 84 73 113 83 69 112 83 68
113 84 68 114 85 68 28 16 30 30 18 32 32 19 33
30 17 31 26 13 26 22 8 22 21 7 21 23 8 24
26 9 27 27 9 29 27 8 31 30 10 35 34 14 41
38 17 46 39 17 48 41 17 51 45 16 55 48 18 59
52 20 63 55 23 68 59 25 73 65 29 80 72 34 89
77 37 97 78 37 100 79 36 102 82 36 106 86 38 111
98 48 125 115 64 143 123 71 152 122 70 156 127 73 165
134 78 174 131 75 173 126 68 165 125 66 163 133 72 168
150 87 181 172 108 199 187 124 211 191 129 212 192 131 210
199 139 214 214 156 226 235 178 243 245 189 251 239 182 245
228 169 236 222 162 234 219 157 236 204 142 228 176 114 208
149 86 185 121 60 159 96 36 132 82 25 115 76 22 104
73 21 95 70 22 85 63 18 70 56 13 54 52 11 44
48 11 37 45 10 33 43 10 30 41 9 27 40 8 24
40 9 21 39 9 19 40 10 18 40 11 17 41 11 15
41 11 14 40 11 13 40 11 12 39 10 12 39 10 11
38 10 11 37 11 12 37 13 13 37 14 14 38 15 14
40 16 16 42 17 17 43 19 18 44 20 19 46 21 20
48 22 21 49 23 21 49 22 21 50 24 22 53 26 25
56 29 27 58 31 28 59 32 29 62 32 30 64 34 32
66 36 33 67 37 34 68 37 34 68 38 34 69 39 35
72 41 36 75 44 39 77 46 40 79 48 41 80 50 42
81 51 42 81 51 42 80 50 41 79 48 38 78 46 36
79 47 36 82 49 38 83 51 39 84 51 38 84 52 37
85 53 38 86 53 38 86 53 38 86 53 38 87 53 38
88 54 41 90 56 45 94 59 50 99 63 54 101 65 56
100 65 55 99 64 54 98 63 53 97 62 53 96 62 52
95 62 52 95 62 51 95 63 52 96 64 53 96 64 53
95 63 52 92 60 49 90 58 47 90 58 47 87 55 44
81 48 38 74 42 32 71 39 30 70 38 29 69 37 28
67 37 27 66 36 26 65 36 26 64 35 25 63 34 25
62 34 26 62 35 26 62 35 26 62 35 26 62 35 26
62 35 26 62 35 26 65 36 27 70 40 32 77 47 39
81 50 42 83 50 43 86 50 44 88 52 46 94 56 51
105 65 62 115 74 72 115 72 71 110 65 64 112 65 65
114 66 66 110 62 62 108 60 60 105 56 57 101 49 51
99 45 49 100 42 47 98 38 44 96 33 41 93 28 37
90 25 35 86 25 34 82 26 34 72 23 29 56 15 19
40 6 8 28 1 2 21 0 0 19 0 0 21 0 0
23 0 0 25 1 0 28 2 0 31 3 0 34 3 1
38 5 2 44 9 6 50 12 9 52 13 9 51 11 7
51 10 5 50 9 4 50 9 3 50 8 3 50 8 3
50 9 4 53 10 7 56 12 10 60 13 13 65 15 17
71 18 23 75 18 27 76 15 31 76 14 35 80 17 44
99 35 68 137 73 111 173 110 153 186 124 171 184 123 171
175 117 161 164 112 146 157 110 133 153 109 123 147 106 111
139 100 98 129 94 85 121 88 75 117 85 70 115 85 67
114 86 66 113 85 64 113 85 63 28 17 30 32 21 33
35 24 37 35 22 36 30 17 32 25 12 27 22 8 25
23 8 26 25 8 28 26 8 30 27 8 32 30 11 36
34 14 41 36 16 44 37 15 45 37 13 47 39 12 50
42 11 53 43 12 55 46 14 59 50 16 66 58 21 74
66 27 84 73 33 93 77 34 99 79 34 102 85 38 109
92 43 118 103 53 131 125 73 154 145 93 175 151 99 183
156 102 189 164 108 198 164 108 199 159 101 192 158 99 189
166 105 194 182 120 207 203 141 224 216 154 234 217 156 233
219 158 232 226 167 237 238 180 245 246 190 250 238 183 243
218 161 226 202 142 214 196 133 213 194 131 218 187 122 217
173 108 208 157 92 195 133 69 172 105 44 143 88 29 122
82 26 112 80 27 104 76 26 94 67 20 77 59 15 62
54 13 51 51 12 44 47 11 38 44 10 34 42 9 31
41 8 27 39 8 23 39 9 21 40 10 20 41 11 18
41 12 17 41 12 16 41 12 15 40 11 14 39 11 13
38 11 13 37 11 13 36 12 13 36 13 13 36 14 14
37 14 15 39 16 16 41 17 17 42 18 18 43 19 19
45 20 20 47 21 21 47 22 21 47 22 21 48 22 21
50 24 23 52 27 25 54 29 26 57 31 28 61 32 30
63 34 32 65 36 33 65 36 33 65 36 32 65 36 32
67 38 34 69 40 35 72 42 37 74 44 38 77 47 40
79 49 42 80 50 42 80 50 41 79 49 40 77 47 37
77 46 35 79 47 36 81 50 38 82 51 38 82 50 37
82 50 35 82 50 35 83 51 36 83 51 36 84 51 36
84 51 36 83 50 36 84 50 39 87 52 42 92 56 47
94 59 50 94 60 50 94 60 50 94 61 51 95 61 51
95 61 51 95 62 52 95 63 52 95 63 52 95 63 52
95 63 52 95 63 52 93 61 50 91 59 48 90 58 47
86 54 43 79 47 36 73 40 31 71 38 29 70 37 28
69 36 27 67 36 26 66 36 26 65 35 25 64 35 25
63 34 26 63 34 26 63 35 26 63 35 26 63 35 26
63 36 27 63 36 27 63 36 27 66 37 29 71 41 33
77 47 39 81 50 42 84 50 43 86 50 44 88 52 46
94 56 51 104 64 61 112 70 68 112 68 67 109 64 63
110 63 63 108 60 60 103 55 55 104 56 56 102 52 53
96 44 46 95 40 44 96 38 44 95 35 42 94 31 40
91 27 36 87 24 33 83 24 33 77 24 32 65 20 26
48 11 14 32 3 5 22 0 1 18 0 0 17 0 0
19 0 0 22 1 0 24 1 0 27 2 0 31 3 0
34 3 1 36 4 2 40 6 4 46 10 7 49 11 8
50 11 7 50 11 7 50 10 6 50 10 5 50 9 5
49 9 4 48 9 4 51 10 7 54 10 9 57 11 12
64 14 17 71 18 25 75 18 30 75 16 34 77 15 38
80 17 46 95 32 65 128 66 103 165 103 143 182 120 163
180 120 163 171 114 152 161 110 139 156 109 129 152 109 119
147 106 107 139 101 94 130 96 82 123 90 73 118 87 67
116 87 65 115 87 63 114 86 61 113 86 60 26 14 28
32 20 34 38 26 41 40 27 44 36 23 41 30 17 36
26 12 33 25 9 32 25 8 32 26 8 34 28 9 36
29 10 38 31 11 40 32 11 41 33 11 43 34 10 44
35 7 47 37 7 50 39 7 52 41 8 55 45 10 61
53 15 70 61 22 81 71 30 92 76 34 100 77 32 102
85 38 111 100 50 127 117 66 147 145 92 175 174 121 205
189 135 219 195 140 224 201 145 230 204 147 232 202 144 229
203 144 228 209 149 231 219 158 238 231 169 246 237 175 248
235 174 246 233 172 242 234 175 242 239 180 244 236 179 240
216 160 221 190 131 200 175 113 192 172 108 197 175 110 206
176 110 211 169 103 208 158 92 198 139 74 178 114 50 151
95 34 129 87 29 116 83 28 108 79 27 98 71 22 84
62 16 69 56 13 58 52 12 50 49 11 44 46 10 38
43 9 34 41 8 29 40 8 26 39 9 23 40 10 21
41 11 19 41 12 17 41 12 16 41 12 15 40 11 15
38 11 14 37 11 14 36 11 14 36 12 14 35 13 14
36 14 15 37 14 16 38 16 16 39 17 17 41 18 18
42 19 19 43 19 19 45 20 20 45 21 20 46 21 20
47 22 21 48 24 22 50 26 24 53 28 26 55 29 27
58 31 28 61 33 30 63 34 31 63 34 31 62 34 30
63 34 30 64 36 32 66 37 33 67 38 33 70 40 34
73 44 37 76 47 40 78 48 41 77 48 40 76 47 38
75 46 36 76 46 35 78 47 37 80 50 38 81 50 37
80 49 35 80 48 33 80 48 33 81 49 34 81 49 34
81 49 34 81 48 33 80 47 33 80 46 35 82 48 38
86 52 42 89 55 45 91 57 47 91 58 48 92 59 49
93 60 50 94 62 51 95 63 52 96 64 53 95 63 52
94 62 51 94 62 51 94 62 51 93 61 50 92 60 49
90 58 47 84 52 41 78 45 35 73 40 30 71 37 28
70 37 28 69 36 27 68 35 26 66 35 25 65 35 25
65 35 25 64 34 26 64 34 26 64 35 27 64 35 27
64 36 27 64 36 28 64 37 28 65 37 28 68 38 30
72 42 34 77 47 39 80 49 41 82 49 42 86 50 44
91 54 48 97 59 54 103 63 60 107 66 64 107 64 63
107 62 61 108 61 61 104 56 56 100 52 52 102 53 53
99 49 50 93 40 43 92 37 41 93 35 41 93 33 40
92 30 38 88 26 34 84 24 32 80 24 32 72 23 30
58 17 22 40 8 11 25 2 3 17 0 0 14 0 0
15 0 0 18 0 0 21 1 0 23 2 0 26 2 0
30 3 0 33 4 1 35 4 2 39 6 4 44 9 7
47 11 8 47 10 7 48 10 7 48 10 7 48 10 7
49 10 6 49 10 6 49 10 5 51 10 7 53 10 9
57 11 13 64 15 19 71 18 27 74 17 32 75 16 36
78 16 42 83 21 51 96 34 67 124 62 98 158 97 135
175 115 153 175 116 153 167 112 144 159 109 133 155 109 124
152 109 114 147 107 103 140 103 91 132 98 79 125 93 71
120 90 66 116 88 62 114 87 59 113 87 57 113 86 56
23 9 27 29 15 33 36 22 41 39 26 46 39 25 47
37 22 46 36 20 46 36 19 47 35 16 46 33 13 44
31 10 43 30 8 42 29 8 41 30 8 42 31 8 43
32 7 45 34 6 48 36 5 51 38 5 54 39 5 56
43 7 61 51 13 70 60 20 81 70 28 93 77 33 101
82 35 107 91 43 119 113 62 141 144 91 174 175 121 206
193 138 224 197 142 226 198 142 225 202 145 227 208 150 232
216 156 238 222 162 243 226 165 245 229 167 245 230 168 243
228 166 239 222 160 232 215 154 224 213 152 221 217 157 224
213 155 220 190 132 199 164 104 179 153 89 178 154 88 187
161 93 199 167 98 207 166 98 209 159 92 201 146 79 185
127 62 162 110 47 141 97 38 125 87 30 111 79 25 99
72 22 88 65 17 76 59 14 65 55 13 57 51 11 49
47 10 42 45 9 37 42 8 32 40 8 28 40 9 25
40 10 22 40 11 20 41 12 18 41 12 17 41 12 16
40 11 15 38 11 15 37 11 15 36 11 14 35 12 15
35 13 15 36 14 16 36 15 16 37 16 17 38 17 17
39 18 18 40 18 18 41 19 19 42 19 19 43 20 19
44 21 19 45 22 20 47 23 22 49 25 23 50 26 25
52 27 25 55 29 26 58 31 27 59 32 29 59 32 29
59 32 28 60 32 28 61 33 29 62 34 29 62 34 28
64 36 30 68 40 34 72 43 37 74 45 38 74 45 37
73 44 35 72 43 33 74 44 34 77 47 36 79 49 37
80 50 37 80 49 35 80 48 34 80 49 33 80 49 34
80 48 33 80 48 33 80 47 32 79 46 32 79 45 34
81 47 37 84 51 41 87 54 44 89 56 46 89 57 47
90 58 47 91 59 49 92 60 50 93 61 51 94 62 52
94 61 51 92 60 49 93 60 50 93 61 51 93 60 50
92 59 49 89 57 46 83 51 40 76 43 33 72 39 29
71 37 28 70 36 27 69 36 27 68 35 26 67 34 25
65 34 24 65 34 25 65 35 26 65 35 27 65 35 27
65 36 28 66 37 29 66 38 29 66 38 30 67 39 30
69 40 32 73 43 35 77 47 39 80 49 41 83 50 43
88 52 46 94 58 52 101 63 58 105 65 62 104 63 61
104 60 59 106 61 60 108 61 61 104 56 56 100 52 52
100 51 52 96 45 47 89 37 40 88 34 38 89 33 39
90 31 38 89 28 36 85 25 33 82 23 32 77 24 32
66 21 27 50 13 18 33 5 8 20 1 1 13 0 0
12 0 0 13 0 0 17 1 0 20 1 0 22 2 0
25 3 0 29 3 1 32 4 2 35 5 3 38 6 4
41 8 6 44 9 7 45 9 7 46 10 7 47 10 7
47 11 8 48 11 8 49 11 8 51 12 8 52 12 9
54 10 10 58 11 14 64 15 21 70 16 29 74 17 34
76 16 40 81 18 47 90 27 59 104 42 76 127 66 101
154 93 129 169 109 144 169 111 144 163 109 136 158 108 127
155 109 119 152 110 110 148 109 100 142 106 88 134 101 78
128 97 70 123 94 65 119 91 61 116 90 58 115 89 55
114 88 53 22 7 29 25 11 34 30 15 39 33 18 44
36 20 47 40 22 51 46 27 58 50 31 64 51 30 65
46 24 61 39 16 54 34 10 49 32 8 47 31 7 46
32 7 46 32 6 47 34 5 51 37 5 54 38 5 56
39 4 58 42 5 62 50 11 71 60 20 83 70 27 94
79 33 104 91 43 118 107 57 136 136 84 166 174 120 204
191 136 223 180 124 212 165 109 196 161 103 188 164 105 189
177 117 201 196 135 218 207 146 228 209 146 228 205 141 222
199 135 215 192 128 207 187 123 201 183 120 197 185 123 199
194 133 209 194 133 208 173 113 190 149 87 172 138 72 171
138 70 179 145 76 190 154 84 200 158 89 204 157 89 200
152 85 191 145 79 178 136 73 165 125 64 150 104 47 127
83 28 103 71 19 88 65 16 79 61 15 71 57 13 63
53 12 54 49 11 45 46 10 40 43 9 35 41 9 31
40 9 27 40 11 24 40 11 21 41 12 19 41 12 17
41 12 16 40 11 15 38 11 15 36 11 15 34 12 15
34 13 15 35 14 16 35 15 16 35 15 16 36 16 17
37 17 17 38 17 18 38 18 18 39 18 18 39 18 17
40 18 17 42 20 19 43 22 20 45 23 22 46 24 23
48 25 24 49 26 24 52 27 24 54 29 25 56 30 26
56 30 26 56 30 26 56 30 26 58 31 27 59 31 27
59 31 25 60 33 26 64 36 29 67 39 32 69 41 33
70 41 33 69 40 32 69 40 30 72 42 32 75 45 34
78 48 36 79 50 36 79 50 35 79 49 34 80 50 34
80 50 34 80 49 34 80 48 33 80 48 33 79 47 33
80 47 35 82 50 39 86 53 43 88 56 46 89 57 47
88 57 47 88 57 47 88 57 47 89 57 47 90 57 48
90 57 48 90 57 47 90 57 48 91 59 49 92 59 50
91 59 49 90 57 48 88 55 45 82 49 39 75 42 33
71 38 29 71 37 28 70 36 27 69 35 26 68 34 25
67 34 25 66 33 24 65 34 25 65 35 27 65 36 28
65 36 28 66 37 29 67 38 30 68 39 31 68 40 32
69 40 32 71 41 33 75 45 37 79 49 41 83 52 44
86 52 46 90 55 49 96 60 54 102 64 59 105 65 62
102 60 59 101 58 57 106 61 61 110 63 63 106 58 58
103 55 55 101 52 52 94 43 46 86 34 38 84 32 36
86 31 36 87 30 36 86 27 35 82 24 33 78 23 32
72 23 31 59 18 24 42 10 14 26 4 5 16 1 1
11 0 0 11 0 0 13 1 0 17 1 0 20 2 0
22 2 0 25 3 0 28 4 1 32 4 2 34 5 3
36 6 4 39 7 5 41 8 6 42 8 6 44 9 7
45 10 8 46 11 9 47 12 9 49 12 10 52 14 12
55 14 13 55 12 13 58 11 16 64 14 23 69 15 31
75 18 40 81 20 48 87 24 57 101 37 73 119 57 94
137 76 112 155 95 129 164 106 138 164 108 137 160 107 131
157 108 122 155 110 114 153 112 106 150 112 97 145 110 87
138 106 78 132 102 70 128 100 66 125 99 63 123 97 61
121 96 58 120 94 55 23 7 34 26 9 37 29 12 41
31 14 44 34 15 47 37 18 51 43 23 58 50 29 66
54 32 71 54 30 71 49 24 67 42 17 60 36 10 54
32 6 50 33 6 50 35 7 53 37 6 56 39 6 58
41 6 60 41 5 62 44 6 65 51 12 74 63 21 87
72 29 98 82 36 109 99 50 127 127 75 156 165 111 195
191 135 222 179 122 211 149 92 183 135 76 167 133 73 163
140 79 168 158 95 185 176 112 202 182 118 206 178 113 201
171 105 193 163 97 185 158 92 179 158 92 180 163 98 184
174 110 197 188 125 212 186 123 211 165 102 191 141 76 173
128 60 170 127 58 176 134 64 185 143 72 193 149 79 197
152 82 195 155 87 193 162 96 194 171 107 197 167 106 190
139 81 160 101 46 121 77 25 95 67 17 83 61 14 75
57 12 66 54 12 57 51 11 48 47 10 42 44 10 37
42 9 33 41 10 29 39 11 25 40 12 22 41 12 19
41 12 17 40 12 16 39 12 16 37 11 16 35 12 15
33 12 15 33 13 16 34 15 16 34 15 16 35 16 16
35 16 17 36 17 17 36 17 18 37 17 18 37 17 17
36 16 16 38 17 16 40 19 18 42 21 20 43 23 22
44 23 22 45 24 23 46 24 22 48 25 22 51 26 23
52 28 24 53 28 24 52 28 24 53 28 24 55 29 24
57 30 25 57 30 24 58 31 24 60 32 26 62 34 27
64 35 28 65 36 28 65 36 28 66 38 28 69 40 29
72 43 32 75 46 34 77 48 35 77 48 34 77 48 33
78 49 33 79 50 34 80 49 34 80 49 34 80 48 33
80 48 34 80 48 36 82 50 39 86 54 43 88 57 46
88 57 47 86 56 46 86 56 46 85 55 45 85 54 44
85 53 44 85 52 43 86 53 44 88 55 46 91 58 49
91 58 49 89 56 47 88 55 46 86 53 44 81 48 39
75 41 32 71 37 28 70 36 27 70 36 27 69 35 26
68 34 25 67 33 24 66 33 24 66 33 25 66 35 27
66 36 28 67 37 29 67 38 30 68 39 31 69 40 32
70 41 33 70 41 33 72 42 34 76 46 38 82 52 44
86 55 48 89 55 48 91 55 49 94 57 51 98 60 55
101 61 58 99 57 55 99 56 55 106 61 60 109 62 62
106 58 58 105 57 57 101 52 53 92 41 44 84 32 36
82 30 34 83 31 35 84 30 35 84 28 35 80 25 33
75 24 31 66 21 28 50 14 19 33 7 9 21 2 3
14 0 1 10 0 0 10 0 0 12 0 0 16 1 0
19 2 0 22 2 0 25 3 1 28 4 2 31 4 3
34 5 3 35 5 4 37 6 4 38 6 4 40 7 5
42 8 6 43 10 8 45 11 9 46 12 10 48 13 11
53 14 13 56 15 16 56 12 16 58 10 19 63 12 26
70 15 36 80 22 49 91 30 63 98 35 72 114 50 89
136 73 114 152 90 129 159 100 135 163 106 138 163 107 136
160 108 129 157 109 120 156 112 112 154 114 104 152 115 96
148 114 87 142 111 78 137 108 72 134 106 68 133 107 68
132 107 67 130 105 63 128 103 61 24 5 37 27 9 41
31 13 45 33 14 48 33 12 48 33 12 49 35 13 51
39 16 57 45 21 63 50 25 69 53 26 72 51 23 70
45 17 64 40 12 59 38 10 59 41 11 61 45 12 65
48 13 69 49 13 71 49 12 71 51 12 74 59 18 83
71 28 97 82 37 109 93 46 122 118 68 147 154 101 184
181 126 212 178 122 210 148 91 182 125 67 159 123 64 157
129 68 163 143 79 175 160 95 191 165 100 196 157 91 186
149 82 177 146 78 174 143 74 170 142 74 170 148 80 176
158 91 188 175 109 206 190 124 223 184 118 218 159 94 196
137 71 178 127 58 175 127 56 180 132 61 186 139 68 192
145 74 193 149 79 192 158 90 194 177 111 207 200 135 224
203 141 223 174 115 194 131 76 151 99 46 118 79 28 97
65 16 81 58 12 69 55 12 59 52 12 51 49 11 45
45 10 40 43 9 34 41 10 29 40 11 25 40 11 22
41 11 19 41 12 17 40 12 16 39 12 16 37 11 16
35 12 16 33 12 16 33 13 16 33 15 17 33 16 17
34 16 16 35 16 16 35 17 17 35 17 17 36 17 17
35 16 17 34 16 16 36 16 16 38 18 18 40 20 20
42 22 21 43 23 22 43 23 22 44 22 21 46 23 21
48 24 22 50 26 22 50 26 22 50 26 22 51 26 22
52 27 23 55 29 24 56 29 24 56 30 24 56 30 24
57 30 23 59 31 23 60 32 24 62 33 25 64 35 26
66 38 27 70 41 30 73 44 32 74 45 32 74 45 31
74 45 30 74 45 30 76 47 31 78 49 33 79 49 34
79 48 33 78 47 33 78 46 34 80 48 37 83 51 41
85 54 43 85 54 44 84 54 44 83 53 43 82 52 42
82 51 41 81 50 41 81 49 40 83 51 42 87 55 46
90 58 48 89 57 47 87 55 45 86 53 44 84 52 43
80 48 39 74 42 33 71 37 28 70 36 27 69 35 26
68 35 26 68 34 25 66 33 24 65 32 23 65 33 24
66 35 27 67 37 29 68 38 30 68 39 31 69 40 32
70 41 33 71 42 34 71 42 34 72 43 35 78 48 40
85 55 47 89 58 50 89 56 49 88 52 46 87 51 45
89 51 46 93 53 50 94 52 51 97 54 53 103 58 58
104 57 57 102 55 55 104 56 57 102 53 54 91 40 44
83 31 35 81 30 34 82 31 35 82 30 36 81 29 36
78 27 34 71 24 31 59 18 24 41 10 13 25 3 5
16 1 1 11 0 0 9 0 0 8 0 0 11 0 0
16 1 1 19 1 0 22 2 1 25 3 1 28 4 2
31 5 3 33 5 4 35 5 4 35 5 3 36 5 3
38 6 4 40 8 6 42 10 8 44 11 9 46 12 10
48 12 11 52 12 14 56 13 18 57 11 19 58 9 23
63 11 30 72 16 42 87 28 61 103 42 80 112 48 91
126 61 106 149 86 130 163 102 143 165 105 142 165 108 140
165 110 136 161 110 128 158 111 118 157 114 110 156 117 102
154 118 95 151 117 88 146 115 80 142 112 74 139 112 71
139 113 71 138 114 70 136 112 67 134 110 64 23 3 36
27 7 41 31 11 45 33 12 47 32 10 47 31 8 46
32 8 48 36 10 53 40 13 58 45 17 63 51 21 70
56 26 76 59 28 78 59 27 78 55 23 76 54 20 76
58 21 81 63 24 86 67 26 90 68 27 92 71 29 95
80 36 106 95 49 122 108 61 136 124 75 154 155 103 185
180 126 210 173 117 205 143 87 176 118 60 152 110 51 144
117 57 152 132 71 168 149 85 184 156 92 191 148 84 183
134 69 168 128 63 161 130 63 163 132 64 164 135 67 168
142 75 176 155 88 190 171 104 207 183 116 220 177 110 216
155 89 196 137 69 181 130 60 179 132 60 183 137 65 189
144 72 193 149 78 194 157 87 196 173 104 206 195 128 223
212 146 236 210 146 231 189 128 209 163 104 183 139 82 158
113 58 130 86 33 101 69 19 78 61 15 65 55 13 55
50 11 48 47 10 42 44 9 36 41 10 31 40 11 27
40 11 23 40 12 21 41 12 19 40 12 18 39 12 17
38 11 16 36 12 16 34 12 16 34 13 17 34 15 17
34 16 18 34 16 17 35 16 16 35 16 16 35 16 16
35 16 16 34 16 16 33 15 15 34 16 16 37 18 18
40 20 20 41 22 21 41 22 21 41 22 20 42 22 20
43 23 20 46 24 21 48 25 21 48 25 21 48 25 20
48 25 20 50 26 21 52 28 23 54 29 24 54 29 24
54 28 23 54 28 22 55 29 21 57 30 22 58 32 24
61 34 25 64 37 26 67 39 28 69 41 30 70 42 30
70 42 28 69 41 27 70 41 28 72 43 30 75 46 33
77 48 34 76 47 33 75 45 32 74 43 32 75 44 34
78 47 37 80 49 39 80 50 40 79 50 40 79 50 39
78 49 39 78 49 38 78 49 38 79 48 38 81 50 40
85 55 45 87 57 47 86 55 45 83 53 43 82 52 42
81 51 41 78 48 38 74 43 33 70 38 28 68 36 26
68 35 26 67 34 25 66 34 24 65 33 24 64 32 23
64 33 24 65 35 26 66 36 28 67 37 30 68 38 31
69 39 32 70 41 33 70 41 34 71 42 34 73 44 36
79 49 42 85 56 48 88 58 50 87 54 48 83 49 43
81 45 39 81 44 39 85 46 43 90 49 47 96 54 52
100 56 56 98 53 54 96 50 51 99 52 54 98 50 54
90 39 45 82 30 37 80 28 36 81 30 37 81 31 38
79 30 38 73 27 34 63 21 28 49 13 18 33 5 8
21 2 3 14 0 0 10 0 0 8 0 0 8 0 0
11 0 0 16 0 0 20 1 1 22 2 2 25 3 2
28 4 3 31 5 3 33 5 4 34 5 3 34 4 2
36 4 2 38 6 3 40 7 5 42 9 7 44 10 9
46 11 10 48 10 12 52 10 17 57 11 23 58 9 26
59 8 30 64 10 38 74 17 51 95 36 76 119 58 103
127 65 113 137 74 123 158 96 142 170 110 151 169 111 146
167 113 140 167 114 135 163 114 125 158 114 114 156 116 106
156 118 100 155 120 95 153 119 89 149 117 83 144 114 76
140 112 72 138 111 69 137 112 67 136 112 65 136 112 64
24 2 36 27 6 40 31 9 44 32 9 45 31 7 44
31 6 45 34 8 49 39 11 55 43 14 60 47 16 64
52 19 69 60 25 77 69 34 87 79 43 98 87 50 107
90 50 111 91 48 115 97 52 123 105 59 131 111 64 137
116 69 142 127 79 154 143 93 171 154 103 183 163 112 193
176 122 206 171 116 202 141 85 173 111 55 145 97 41 132
97 40 132 113 55 148 139 79 174 148 87 184 140 78 176
128 66 164 121 59 156 118 55 153 119 54 153 120 55 155
122 57 158 130 66 167 144 79 181 153 89 192 157 92 196
155 90 195 144 78 184 133 65 175 132 62 176 141 69 185
154 82 197 166 94 207 172 101 210 182 112 215 196 126 225
206 137 232 205 137 229 193 126 217 183 118 207 181 118 204
180 118 199 164 104 180 130 72 142 94 40 101 72 24 76
60 17 62 53 12 52 48 11 45 45 10 38 42 10 33
40 11 29 40 11 25 40 12 23 40 12 22 40 12 21
39 12 19 38 12 18 37 12 17 36 12 17 35 13 17
35 15 19 35 16 19 35 16 18 35 15 17 35 15 16
34 15 15 33 15 15 33 15 15 33 15 16 35 16 17
37 18 19 39 20 21 39 22 21 39 22 20 39 22 19
40 22 18 42 23 19 44 24 20 45 24 21 46 24 20
46 24 20 46 25 20 47 25 20 48 26 21 49 27 22
50 27 22 51 28 22 51 28 22 52 29 22 53 30 23
55 31 24 57 32 25 61 35 26 63 36 26 65 37 27
66 38 28 66 39 28 67 39 28 67 39 28 69 41 30
71 43 32 73 44 33 73 44 33 72 43 32 70 41 31
70 41 31 72 42 33 73 44 35 73 45 34 72 45 34
72 44 33 72 44 34 73 45 34 75 46 36 76 48 37
78 50 39 81 52 42 82 53 43 81 52 42 79 51 40
78 50 39 77 49 38 76 48 37 73 44 33 69 39 28
66 36 26 66 35 25 65 35 25 64 34 24 63 33 23
62 32 22 62 33 23 63 34 26 64 35 28 65 36 29
66 36 30 66 37 31 67 38 32 68 39 32 69 40 34
74 45 39 79 50 44 84 54 48 85 55 49 83 52 45
80 47 40 78 44 37 79 43 37 83 45 40 89 50 47
95 55 54 97 55 56 93 50 52 89 45 48 90 45 50
91 43 51 87 37 47 81 29 41 78 27 39 79 29 41
79 31 42 75 30 40 65 24 32 50 14 20 35 6 10
25 2 4 19 1 2 14 1 1 11 1 0 9 0 0
9 0 0 12 0 0 17 0 1 21 1 2 24 2 3
27 4 4 29 5 4 31 5 4 33 5 3 33 5 1
34 4 1 36 4 1 38 5 2 40 6 4 43 7 6
45 9 7 46 9 9 49 8 14 55 9 23 60 11 32
61 9 36 62 8 40 67 12 49 80 23 65 111 53 100
144 85 136 148 89 141 149 90 140 163 105 150 172 115 153
172 117 147 170 118 139 169 119 132 164 118 121 158 117 109
156 118 101 155 119 97 154 120 94 152 119 90 148 115 83
140 110 75 133 104 66 128 100 58 127 101 56 130 105 58
133 109 61 28 4 39 31 7 42 34 10 46 34 9 47
32 7 46 33 6 47 36 7 51 41 11 57 47 14 63
54 19 70 60 23 76 64 26 81 75 36 93 100 60 119
129 88 148 144 101 166 145 99 170 147 98 174 154 104 182
157 108 185 160 110 188 167 116 195 174 123 203 175 122 204
166 113 196 150 96 181 128 73 159 105 50 137 92 36 125
88 32 122 95 39 129 122 65 157 149 91 184 146 87 181
128 69 163 117 58 152 111 52 147 106 46 142 104 43 140
104 42 140 105 43 142 115 52 151 126 64 163 129 67 167
125 63 164 124 61 162 122 58 161 123 57 163 134 65 174
152 81 191 169 98 207 181 111 217 189 118 221 194 124 224
195 126 223 191 121 217 181 112 208 172 104 200 173 106 201
183 117 208 198 133 219 204 140 219 180 118 189 131 74 137
88 38 92 66 21 69 56 15 57 51 12 48 46 11 40
42 10 34 40 10 29 39 10 26 39 11 25 40 12 24
40 12 23 39 12 21 38 11 19 37 11 18 36 11 17
35 12 18 36 14 19 36 15 20 35 15 19 35 14 17
34 14 16 34 14 15 33 14 14 32 14 15 33 14 16
34 15 17 36 17 19 38 19 20 38 21 20 38 21 19
37 21 17 38 21 17 40 23 18 42 23 19 43 24 20
43 24 20 44 24 19 44 25 19 44 25 19 45 25 19
46 25 20 47 26 20 48 27 21 49 28 21 49 29 22
50 30 23 51 30 23 54 30 24 56 31 24 58 32 24
60 33 24 61 35 26 63 36 27 64 37 28 65 38 29
66 39 30 67 39 31 69 41 32 70 42 33 70 42 33
69 40 32 68 39 31 68 39 31 69 40 31 68 41 30
67 40 29 67 40 29 67 40 29 68 41 30 70 43 32
72 45 34 74 47 36 76 49 38 77 49 38 76 49 38
75 48 37 74 47 36 74 46 35 73 46 35 71 43 32
67 39 28 65 37 25 65 36 25 64 35 25 63 35 24
62 34 23 61 33 23 62 33 23 63 34 26 64 35 28
64 35 29 65 36 30 65 36 30 66 37 31 66 37 31
68 39 33 73 44 39 78 49 44 81 52 47 82 52 47
80 50 44 79 47 41 78 45 39 79 44 38 82 46 41
88 50 47 93 53 52 92 52 53 88 46 50 84 41 46
84 39 46 85 38 48 83 34 48 79 28 44 77 27 43
78 30 45 77 31 46 70 28 40 55 18 28 37 8 13
25 2 4 19 0 1 16 1 1 13 0 0 11 0 0
11 0 0 11 0 0 14 0 1 19 1 2 23 2 4
26 3 6 28 4 6 30 5 5 31 5 4 32 5 2
33 4 1 34 4 1 36 4 1 38 5 2 41 6 4
44 7 6 46 8 7 47 8 10 51 8 17 57 10 29
62 11 38 62 9 42 64 10 48 72 17 60 91 36 83
136 79 131 174 117 171 171 114 168 162 106 156 167 112 156
172 118 154 174 122 149 174 123 141 170 122 131 164 120 118
160 120 107 156 120 99 154 119 95 152 117 92 148 115 87
142 109 79 132 101 67 122 93 55 115 87 45 114 88 43
120 95 47 125 102 52 34 7 46 35 8 48 37 10 51
37 9 51 36 7 51 37 6 51 39 7 55 43 9 60
50 14 67 59 21 76 65 25 83 73 32 92 96 54 115
131 89 151 161 117 181 170 125 193 165 118 191 159 111 187
155 106 184 151 101 180 151 100 179 154 102 182 152 101 182
143 90 172 126 73 156 109 54 139 94 39 125 84 29 116
82 28 115 91 36 124 111 56 144 138 82 171 150 94 184
135 79 170 117 60 151 106 49 141 96 39 131 88 31 124
86 29 123 85 26 122 90 30 126 102 42 138 109 49 146
107 47 144 102 42 140 101 40 138 103 41 140 114 50 152
137 70 175 155 86 193 158 89 196 158 89 193 163 95 196
168 100 199 166 99 196 161 94 191 157 89 187 158 90 189
165 98 196 177 110 205 194 128 218 210 145 227 202 139 212
157 99 163 100 49 105 69 24 73 59 17 61 52 14 51
47 12 42 43 11 35 39 10 29 38 10 26 39 11 25
40 12 25 39 12 23 39 11 21 38 11 20 37 10 18
35 10 17 34 11 17 35 12 20 35 13 21 34 13 20
34 13 18 34 13 17 33 13 16 32 13 15 32 13 15
32 14 15 34 15 16 35 17 18 37 18 19 37 20 19
37 20 17 35 20 15 36 20 15 38 21 17 40 22 18
41 22 18 42 23 19 42 23 19 43 24 19 43 24 18
43 24 18 43 24 18 44 24 19 45 25 19 46 25 20
47 27 20 47 27 20 48 28 21 50 28 21 52 27 20
53 28 21 55 29 22 57 31 24 59 33 26 61 35 27
63 36 29 64 36 29 64 37 30 67 39 32 69 42 35
70 42 35 70 41 34 68 39 33 67 38 31 66 38 30
65 38 28 64 37 26 64 37 26 64 37 26 64 37 26
66 39 28 67 40 29 69 42 31 71 44 33 72 45 34
72 45 34 71 44 33 70 43 32 70 43 32 69 42 31
68 41 30 66 38 27 65 37 26 64 36 25 64 36 25
63 35 24 62 34 24 62 33 24 62 33 25 64 35 27
65 36 28 65 36 29 65 36 30 65 36 30 66 37 31
66 37 31 67 38 33 69 41 37 73 45 41 76 47 43
78 49 44 78 48 42 77 46 41 77 45 40 78 45 40
81 45 42 84 46 45 86 47 47 85 45 47 82 41 46
80 38 44 79 36 44 80 34 46 80 32 47 77 28 46
76 28 46 76 30 46 73 29 45 62 23 36 44 12 22
28 3 8 19 0 1 15 0 1 13 0 1 13 1 1
13 1 1 13 2 2 15 2 3 18 2 4 22 2 5
25 3 7 28 4 8 30 5 8 31 5 7 32 5 5
32 4 2 33 4 1 34 4 2 37 5 3 39 5 4
42 6 6 45 7 8 47 8 10 49 9 13 52 10 21
58 10 32 61 10 40 62 10 45 65 12 52 76 22 67
106 52 101 161 106 160 196 141 197 187 132 186 174 119 169
173 120 164 176 123 159 177 126 153 175 126 145 170 122 132
163 119 118 160 120 107 155 119 98 150 115 91 145 111 85
140 107 78 132 100 68 122 91 56 113 84 44 108 80 36
108 82 35 112 88 38 117 94 43 41 9 56 42 10 57
42 10 58 43 10 59 43 9 59 44 8 61 45 8 63
48 10 67 55 15 74 63 22 83 72 29 92 93 49 114
131 86 153 161 115 182 162 115 184 146 99 170 130 82 156
119 71 147 111 62 140 107 58 136 111 61 140 117 67 146
114 63 144 101 49 131 91 38 121 87 33 117 83 29 114
79 25 111 87 34 120 110 57 143 130 76 163 135 81 167
127 73 159 111 57 143 97 42 130 86 31 119 77 22 110
73 18 107 74 18 108 74 18 108 82 25 116 95 38 130
98 40 133 93 35 129 90 32 126 90 32 126 94 35 131
113 52 151 141 77 179 149 82 186 134 67 171 122 55 158
124 58 158 132 66 164 138 72 170 143 76 175 145 78 178
150 82 184 162 94 196 174 106 205 182 116 209 190 125 209
186 123 198 151 93 160 99 48 105 68 23 72 58 16 60
52 14 51 47 12 42 43 11 36 40 11 30 39 10 27
39 11 26 40 12 25 39 11 23 38 10 21 37 10 19
36 9 17 34 9 16 33 9 17 33 11 20 33 12 21
33 12 20 33 12 19 33 12 18 32 12 17 32 12 16
31 12 15 32 13 14 33 14 15 34 16 16 35 17 16
36 18 15 35 18 14 34 18 13 34 18 13 37 19 15
38 20 16 39 20 16 40 21 17 40 21 17 41 22 17
41 22 17 41 22 16 41 22 17 42 23 17 43 23 17
44 23 18 44 24 18 45 25 18 45 25 18 46 25 18
48 25 17 49 25 18 51 27 19 53 29 21 56 31 24
58 33 26 60 34 27 61 35 28 62 36 29 66 39 32
70 43 36 72 45 38 72 44 37 70 41 35 67 39 33
66 38 30 64 36 28 63 35 25 62 35 24 62 34 24
62 34 24 63 35 25 64 37 27 66 38 28 67 40 29
68 40 30 67 40 29 67 39 29 66 39 28 66 38 28
65 38 28 65 37 27 64 36 26 64 36 25 63 36 25
63 35 25 62 35 24 62 34 24 61 33 24 62 34 25
64 35 27 64 36 29 65 36 29 65 36 30 65 36 30
65 36 30 65 36 30 64 36 31 65 37 33 66 39 35
69 41 38 72 43 39 73 43 39 73 43 39 74 43 39
75 42 39 76 42 40 77 40 40 77 39 41 77 37 41
77 36 42 76 35 43 76 33 43 76 32 45 76 30 47
75 29 48 74 28 47 70 27 44 63 23 39 50 15 29
34 6 16 22 1 6 16 0 2 14 0 2 13 1 3
14 2 4 15 4 5 17 5 6 20 5 7 22 5 8
25 4 9 28 4 9 30 5 9 31 6 10 32 6 9
32 6 7 32 4 4 33 4 4 35 4 5 38 5 7
40 6 8 43 7 10 46 9 13 48 10 15 50 11 18
53 11 25 58 11 36 60 10 43 62 10 48 66 14 56
81 28 74 123 70 120 182 128 182 209 155 211 197 142 197
183 130 181 181 128 173 180 128 166 177 127 156 173 125 146
167 120 133 161 117 119 156 116 106 150 113 94 141 106 83
135 101 74 131 97 67 124 92 58 116 85 47 109 80 38
107 80 34 108 81 33 110 85 35 113 89 38 52 15 69
51 14 69 51 14 69 53 15 71 55 16 74 57 17 77
58 17 79 59 16 80 63 19 85 74 29 96 94 47 116
127 79 150 158 110 182 160 111 184 135 85 158 109 59 133
93 44 119 84 36 111 79 31 107 80 32 109 89 40 118
98 49 128 95 45 125 84 34 114 79 28 109 80 28 111
81 29 112 89 37 120 108 56 140 127 75 159 127 75 159
110 58 141 95 43 125 86 34 116 78 26 108 69 17 99
63 11 94 63 10 94 65 13 98 70 17 103 82 28 115
92 38 125 91 36 124 86 31 119 85 30 119 90 35 124
103 47 138 126 68 162 143 81 179 135 72 172 116 51 152
104 40 140 103 39 137 109 45 142 119 55 153 131 66 165
138 72 174 146 80 184 160 94 198 169 102 204 167 101 197
164 99 186 157 94 172 129 72 139 88 38 94 62 17 65
54 12 54 49 11 47 45 11 40 43 11 35 41 12 31
40 12 28 40 12 26 40 12 25 39 11 23 37 10 21
36 9 19 35 8 16 33 8 15 32 8 16 31 9 18
31 9 20 31 10 20 31 10 20 31 10 19 32 11 18
32 11 16 31 11 14 31 12 13 31 13 13 33 15 13
34 16 13 34 17 12 34 17 11 33 16 10 33 16 10
35 17 13 36 18 14 36 18 14 37 19 15 38 19 15
39 20 16 39 20 16 39 20 15 40 21 16 41 22 16
41 22 16 42 22 16 43 22 17 43 22 17 43 23 17
44 23 16 45 23 16 47 23 16 48 25 17 51 27 19
53 29 22 55 31 24 58 33 25 59 33 26 61 35 28
65 39 32 70 44 37 72 47 40 73 46 39 70 43 36
68 41 34 66 39 32 65 37 29 63 35 26 62 34 25
61 33 24 61 33 24 62 33 24 63 34 25 63 35 26
64 35 26 64 35 26 63 35 26 63 35 26 63 34 26
63 34 25 62 34 25 62 34 25 62 34 25 61 34 25
61 34 24 61 34 24 61 34 24 60 33 24 60 33 24
61 34 25 63 35 27 63 36 29 63 36 29 63 36 29
63 35 29 63 35 29 63 35 29 61 34 29 59 32 29
59 32 29 62 34 31 64 36 33 67 38 35 68 39 35
69 39 36 70 38 36 70 36 36 70 34 36 69 32 36
71 32 38 72 32 40 73 33 42 74 32 43 74 31 46
74 30 48 73 29 49 69 26 45 60 20 38 49 13 29
37 6 20 27 2 12 19 1 7 15 0 5 13 0 4
13 1 5 14 3 6 17 5 8 19 6 9 22 7 11
24 7 11 27 6 11 29 5 11 31 6 11 33 7 11
33 7 11 34 7 10 34 5 8 34 5 8 36 5 9
39 6 11 41 7 14 44 8 16 47 10 20 49 11 22
51 12 25 55 12 31 59 12 40 61 11 47 63 11 52
68 16 60 91 39 87 145 92 143 203 149 203 220 166 222
204 151 206 190 137 189 185 132 179 179 129 168 174 124 156
169 121 145 164 117 134 158 114 120 153 112 105 144 107 90
134 99 77 128 94 67 126 93 61 123 92 55 118 88 48
113 85 41 111 84 37 111 84 35 111 86 35 113 88 37
70 29 91 69 28 90 70 28 91 73 30 94 78 34 100
82 37 104 82 37 106 82 36 106 86 38 109 101 52 124
131 80 154 157 107 181 157 106 181 130 78 155 102 50 127
87 35 112 78 29 105 72 24 99 69 22 97 72 24 100
79 31 108 85 37 115 82 34 112 75 26 104 72 23 102
73 23 104 84 33 114 108 58 139 127 77 157 122 72 153
103 53 134 85 36 115 75 26 103 70 22 98 66 18 93
61 12 88 58 9 86 58 9 87 62 12 92 72 22 102
84 33 114 87 35 117 83 31 113 84 32 114 94 42 124
108 56 139 123 71 155 132 78 166 127 69 162 111 51 146
98 38 134 92 32 128 90 30 125 94 32 128 105 43 140
118 56 155 129 66 167 142 77 181 155 90 195 159 94 196
154 90 186 150 86 174 138 76 155 109 52 119 74 25 80
54 10 55 47 6 45 44 7 39 42 8 35 41 10 32
41 11 29 40 12 27 40 12 25 39 11 24 38 10 22
37 9 20 35 8 18 34 7 15 32 6 14 31 6 14
30 7 17 30 7 19 30 8 20 30 8 19 30 9 19
31 10 18 31 10 17 31 11 15 30 11 12 31 12 11
32 14 11 33 15 10 33 15 9 32 15 8 31 14 7
31 14 8 33 15 11 34 16 13 34 16 13 35 17 13
36 17 14 37 18 14 37 18 14 38 19 15 40 21 15
40 21 16 41 22 16 41 22 16 42 21 16 42 21 16
42 21 16 42 21 16 43 21 15 45 22 15 46 24 16
47 25 17 49 27 19 52 29 21 54 30 23 55 31 24
57 33 26 62 37 31 66 42 35 69 44 38 69 44 37
68 42 35 66 39 33 65 38 31 64 36 29 63 35 27
62 33 25 60 32 24 60 31 24 60 31 24 60 32 24
61 32 24 60 32 24 60 32 24 60 32 24 60 32 24
60 32 24 60 32 24 60 32 24 60 32 24 59 32 24
59 32 23 58 32 23 59 32 24 58 32 23 58 32 23
58 32 23 59 33 24 61 34 27 61 35 28 61 34 27
61 34 27 60 34 27 60 33 26 59 33 27 58 32 27
55 29 26 54 28 25 56 29 26 58 31 28 61 33 31
64 35 33 65 35 33 65 33 33 64 31 33 64 29 33
65 28 35 67 28 37 69 29 39 70 30 41 71 30 44
72 30 46 72 29 48 70 27 47 61 20 40 49 12 30
37 5 21 28 2 14 21 1 11 18 1 10 14 1 8
12 1 7 13 2 7 14 3 8 16 4 8 19 5 9
21 5 10 24 5 11 28 5 11 31 6 11 32 7 12
34 7 13 35 8 13 36 7 13 36 7 13 37 6 13
38 5 15 40 6 17 43 7 20 45 9 23 48 10 27
51 12 30 53 13 32 56 14 38 60 13 46 62 13 52
64 14 57 72 21 67 104 53 102 165 113 165 218 166 219
229 177 232 214 162 217 200 148 201 190 139 186 180 130 171
172 123 157 167 120 147 165 119 138 161 117 126 155 115 111
145 108 95 136 100 81 131 97 72 132 99 68 132 101 64
129 99 58 124 95 51 119 91 45 116 89 41 115 89 40
116 90 41 108 63 132 107 62 131 108 63 132 113 67 138
121 74 145 126 79 151 128 79 152 128 78 152 132 81 156
146 94 170 161 109 186 158 105 183 129 76 154 97 43 123
81 27 107 75 23 101 70 22 96 66 19 92 65 18 91
66 19 93 68 21 95 70 23 98 68 21 97 65 18 94
65 18 94 70 22 100 92 44 122 122 74 152 126 78 155
102 54 130 80 33 108 69 23 97 64 19 90 60 15 85
58 13 82 57 13 82 59 14 84 61 16 87 68 23 95
79 33 106 83 36 110 78 30 105 78 30 105 90 42 118
108 60 136 122 74 150 122 73 151 109 59 140 94 41 127
85 29 118 82 26 116 80 24 115 80 23 115 86 28 121
99 40 135 113 53 151 124 64 164 135 73 176 145 82 185
148 85 185 145 83 178 141 79 167 124 64 141 92 37 102
62 14 65 46 4 43 40 2 33 38 3 30 38 4 27
38 7 25 39 10 24 39 11 23 39 12 23 39 12 22
38 11 20 36 9 19 34 7 17 33 6 15 31 5 13
30 5 13 29 6 15 29 6 17 30 6 18 30 7 19
30 8 19 30 9 18 31 10 17 31 10 15 30 11 12
31 11 10 31 13 9 32 14 9 31 14 8 30 13 7
29 12 7 30 12 8 32 14 11 33 15 13 33 15 13
34 16 13 34 16 13 35 16 13 35 17 13 37 18 14
40 21 16 41 22 17 41 22 17 41 22 17 41 22 16
41 21 15 41 20 15 41 20 15 41 20 14 42 21 14
43 22 15 44 23 16 45 24 17 47 25 18 48 26 19
50 27 20 52 29 22 56 33 27 60 37 31 63 39 33
62 39 32 61 37 31 61 35 30 61 35 29 62 35 28
62 35 27 60 33 26 59 31 24 58 30 23 57 30 23
58 30 23 58 30 23 58 30 23 58 30 23 58 30 23
58 30 23 58 30 23 58 31 23 58 31 24 57 31 23
56 30 22 55 30 22 55 30 22 55 30 23 56 30 23
56 30 23 56 30 23 56 31 24 58 33 25 59 33 26
58 33 26 58 32 25 57 32 25 57 31 24 56 31 24
55 30 25 53 29 24 52 27 24 52 26 24 55 28 26
59 31 30 61 33 32 62 32 33 61 30 32 60 28 32
62 27 34 64 27 36 66 27 39 67 27 40 68 27 41
68 27 43 70 28 46 70 29 49 65 24 45 52 14 33
39 6 22 29 1 16 23 0 12 19 1 10 17 2 11
15 3 11 15 4 10 15 4 10 16 4 10 18 4 9
20 4 9 22 3 9 24 3 10 28 4 11 31 5 12
34 6 13 36 7 15 37 8 17 38 8 18 39 7 19
39 6 20 39 5 21 41 6 23 43 7 26 46 8 30
49 11 34 51 13 37 54 14 40 57 14 45 60 13 50
62 13 56 66 16 62 78 28 75 114 64 113 173 123 174
217 166 220 228 176 232 224 172 228 215 164 217 204 154 202
190 141 183 176 129 165 170 123 153 170 124 147 169 125 139
164 123 124 155 117 108 147 110 96 145 109 89 147 113 85
148 115 81 144 112 74 137 106 64 128 99 54 122 94 48
120 92 47 120 92 46 153 105 178 148 100 173 145 97 170
148 99 173 155 106 180 161 111 186 162 112 188 163 112 188
169 117 194 175 123 200 163 111 189 130 77 156 97 43 123
79 24 104 71 17 97 68 16 93 64 17 89 62 16 86
61 17 86 61 16 87 60 14 86 60 14 87 59 14 87
59 14 87 67 22 96 85 39 113 110 65 138 123 77 150
107 61 133 81 35 107 66 21 92 59 16 84 56 14 78
53 12 75 53 12 75 56 15 78 60 19 82 65 25 88
73 32 96 78 36 102 75 33 99 74 31 99 84 40 109
96 53 122 105 61 130 104 61 130 92 48 118 76 30 104
69 21 99 70 19 101 72 20 104 71 19 105 75 22 109
85 31 120 100 45 137 113 57 151 121 63 160 124 65 165
128 68 168 131 70 168 131 70 162 126 67 150 108 51 124
79 25 85 55 8 52 42 2 33 37 0 25 35 1 22
34 2 19 34 4 17 34 7 16 35 8 17 36 9 18
37 10 18 36 9 18 35 8 17 34 7 16 32 5 15
31 5 14 30 5 13 29 5 14 29 6 16 30 6 18
30 7 19 31 8 20 31 9 19 31 10 18 31 10 15
30 10 12 30 10 9 30 12 8 30 13 8 30 13 8
29 12 8 28 10 7 29 11 8 30 12 11 31 14 12
32 14 12 33 15 13 33 15 13 34 16 13 35 16 13
37 18 14 39 20 17 40 21 18 40 21 18 41 22 17
40 21 16 40 21 16 41 20 15 41 20 15 40 20 14
40 20 13 41 21 14 41 21 14 41 22 15 42 22 15
43 23 16 44 23 16 46 24 18 49 27 21 52 30 24
54 32 25 55 32 26 55 32 26 55 32 26 57 32 26
58 33 27 59 33 26 58 32 25 57 31 24 57 30 24
56 30 23 56 30 23 56 30 23 56 29 23 56 29 23
56 29 23 56 29 23 56 30 23 57 30 24 57 31 24
56 30 23 53 29 22 52 28 21 52 28 21 52 28 21
52 29 21 52 29 21 52 28 21 53 29 22 54 30 23
54 31 23 54 30 23 54 30 23 53 29 22 53 29 22
53 29 22 53 29 23 52 29 23 51 27 23 52 26 24
54 27 26 57 29 29 59 30 32 60 30 33 59 28 33
59 26 34 61 27 37 64 27 40 65 26 41 66 25 43
66 25 44 66 25 45 67 25 46 66 25 47 58 19 41
44 9 28 32 2 18 26 0 14 21 0 13 18 1 11
17 3 13 19 7 16 21 8 17 21 8 16 22 7 15
22 6 13 23 4 12 24 3 11 26 2 11 30 3 12
33 4 14 35 5 15 37 7 18 40 8 21 42 9 24
42 8 26 41 6 26 41 5 28 43 6 31 46 8 35
49 9 38 51 11 42 54 14 46 57 15 50 59 15 53
62 15 57 64 15 62 70 21 69 86 36 85 120 71 121
169 119 172 201 150 205 213 162 218 220 169 224 221 171 223
217 167 216 205 157 200 188 141 179 179 132 164 181 135 161
181 137 155 174 133 140 166 126 124 159 121 112 158 121 105
160 125 101 159 125 96 154 121 87 146 114 76 136 105 65
128 99 58 124 94 54 122 92 52 157 107 183 147 96 172
136 85 161 133 83 159 137 87 163 141 90 167 142 91 168
144 93 170 154 102 179 159 107 184 137 85 162 100 48 125
79 26 104 72 19 97 67 14 92 63 13 88 61 15 84
59 16 82 59 16 83 59 16 84 57 14 83 56 13 83
57 13 84 64 20 91 84 41 112 110 66 137 120 77 147
106 63 132 82 40 107 65 23 89 58 16 80 54 13 75
51 12 70 50 13 69 52 15 71 56 19 75 59 22 79
62 25 82 65 28 85 65 28 86 66 28 87 78 38 100
89 50 112 89 49 111 81 42 104 74 35 97 67 27 90
61 20 86 61 18 88 64 18 93 66 18 96 69 20 100
76 27 108 88 38 122 103 50 137 110 56 146 108 52 146
105 48 144 107 49 145 109 50 143 110 52 137 106 50 126
92 37 103 69 18 69 51 5 42 43 2 28 38 1 21
35 0 16 32 1 12 30 1 9 29 2 8 29 3 8
30 4 10 32 5 12 33 6 14 33 6 16 33 5 16
32 5 17 32 5 17 32 6 16 31 7 16 31 8 17
31 8 19 32 8 20 32 9 21 32 9 20 32 10 19
31 10 16 30 9 12 29 9 10 29 10 8 29 11 8
29 11 8 28 10 9 28 10 9 28 10 9 28 11 10
29 12 11 30 13 12 32 14 13 33 15 13 34 16 14
35 17 14 36 18 15 38 19 17 39 19 17 39 20 17
39 20 16 40 21 16 40 21 16 40 21 16 40 21 16
41 22 15 40 22 14 40 21 14 40 21 14 39 20 13
39 20 13 39 20 13 40 20 13 41 21 14 42 22 15
44 23 16 45 24 18 47 26 19 48 28 21 51 29 23
53 30 24 54 30 24 55 30 25 56 31 25 57 31 26
57 31 26 57 31 26 56 31 25 56 30 25 55 29 24
54 29 23 54 29 23 55 29 24 56 30 25 56 31 25
56 31 25 54 30 24 51 28 21 48 27 20 48 27 20
48 26 19 48 26 19 48 26 19 47 26 19 47 26 19
48 26 19 48 26 19 48 26 19 48 26 20 48 26 20
48 26 20 48 26 20 50 27 21 51 28 22 51 27 23
52 27 25 53 26 26 54 26 28 56 27 31 57 27 33
57 25 34 58 25 36 61 25 40 63 25 43 64 24 44
65 24 46 66 24 48 65 23 48 63 21 45 57 17 41
49 11 34 38 4 25 29 1 17 25 0 15 22 0 15
19 1 15 20 4 16 24 9 20 27 11 22 28 11 22
28 10 21 29 8 19 29 5 17 29 3 15 31 3 15
35 5 18 38 5 19 38 5 19 40 7 23 44 10 28
47 12 32 47 11 35 47 9 36 46 7 38 48 9 42
51 10 46 53 11 49 54 12 52 57 15 57 60 16 60
63 17 63 67 19 67 70 21 71 77 27 78 96 46 97
128 78 130 163 113 166 185 134 189 195 144 199 203 153 206
209 159 210 214 165 213 215 166 210 204 156 195 194 147 181
194 147 177 191 146 168 180 138 151 171 130 135 165 126 124
162 124 115 161 124 107 158 123 100 153 119 92 148 115 84
142 109 77 136 103 70 129 97 64 124 92 59 122 72 148
111 61 137 100 50 125 96 46 121 98 48 122 99 49 124
99 49 124 101 52 127 112 62 136 119 69 143 105 55 129
83 32 106 72 22 96 70 20 93 65 15 88 61 13 84
58 14 80 57 15 79 57 16 80 57 16 81 56 14 81
55 13 81 62 19 88 84 41 110 110 68 137 117 76 143
102 61 126 80 39 103 65 24 86 57 16 77 52 12 71
50 12 68 48 13 65 47 14 63 49 16 65 51 18 67
52 19 69 52 19 69 51 19 69 51 18 69 58 24 76
76 40 94 83 48 103 74 38 93 62 27 83 59 23 79
58 22 79 58 20 79 58 19 82 60 19 86 64 21 91
70 26 99 78 33 108 87 40 118 93 44 125 94 43 126
89 36 123 87 33 123 89 34 123 91 35 121 93 38 115
89 35 102 76 24 80 60 11 53 49 5 33 44 4 23
40 3 16 35 1 11 31 1 7 29 0 4 27 0 3
26 0 4 27 1 6 29 2 9 30 3 13 31 4 16
32 4 18 32 4 20 33 6 22 34 8 22 34 9 22
33 10 21 33 9 21 33 9 22 32 8 21 32 8 21
31 9 19 30 9 17 30 9 14 29 9 12 29 9 11
29 9 10 29 10 10 29 10 10 28 10 11 28 10 11
27 10 11 27 11 11 29 12 12 31 13 13 32 14 13
34 16 14 35 17 15 36 17 16 37 18 16 38 18 16
38 19 16 38 19 16 39 19 16 39 20 17 40 20 17
40 21 16 40 22 16 40 22 15 39 22 14 39 21 13
38 20 13 38 19 12 37 18 11 37 18 11 37 19 12
38 19 12 38 19 12 39 19 13 41 21 14 43 23 16
45 25 19 48 27 20 51 27 22 53 28 23 54 29 25
55 31 26 56 31 26 56 31 26 55 30 26 55 30 25
54 30 25 54 30 25 54 30 25 55 30 25 55 30 25
55 30 26 55 31 26 53 30 24 48 27 20 45 25 18
45 25 18 44 24 18 44 24 17 44 24 17 43 23 17
43 23 16 43 23 16 43 23 16 44 24 17 44 24 17
44 24 17 44 24 17 45 25 18 47 26 19 50 27 21
51 26 22 51 25 24 51 24 25 51 23 26 53 24 30
56 25 35 56 23 37 57 22 39 59 22 43 62 22 46
63 22 49 65 23 51 66 23 52 62 19 49 56 13 43
48 8 36 42 4 30 36 1 25 30 0 21 26 0 20
24 1 20 23 2 20 24 4 21 26 7 23 28 8 23
30 8 23 32 7 23 33 6 22 34 6 22 35 4 21
38 5 23 43 9 27 45 9 28 45 8 28 47 10 32
50 12 37 53 15 43 55 16 47 55 15 50 56 14 52
56 13 55 56 13 56 57 13 59 59 15 62 61 16 66
65 20 70 70 23 75 73 24 77 74 24 78 84 34 88
107 57 110 137 87 140 162 112 165 177 127 181 185 135 188
189 139 192 193 143 194 201 151 200 213 164 209 216 168 209
208 161 198 198 152 184 187 141 168 176 133 151 170 128 139
164 123 129 156 116 116 148 109 102 142 104 91 139 103 85
140 104 84 141 106 83 138 104 80 132 97 73 127 93 69
89 41 114 83 35 108 77 29 102 75 27 99 76 28 100
76 28 100 75 28 99 77 31 101 84 38 108 89 43 112
83 36 105 72 25 93 67 22 89 66 21 88 62 17 84
59 15 80 59 17 79 60 20 80 61 21 82 61 20 83
62 21 85 67 26 91 84 43 109 112 71 137 123 82 147
101 62 125 74 35 96 61 22 81 56 18 75 52 13 69
48 10 64 46 11 61 45 13 59 44 15 57 43 15 57
43 15 57 43 14 57 41 13 56 40 11 55 40 11 55
48 18 63 64 33 80 70 39 86 61 29 78 52 20 70
52 20 69 53 21 71 53 20 72 54 19 74 57 20 80
63 24 87 69 30 95 74 33 101 76 33 104 75 31 104
74 27 103 74 25 105 76 25 107 78 27 107 82 30 106
84 32 99 78 27 83 65 15 60 54 7 40 48 6 26
45 6 18 40 4 12 36 3 8 32 2 4 29 1 2
27 1 2 26 0 3 26 0 6 27 1 10 30 2 16
32 4 21 34 5 25 35 6 28 36 8 30 36 9 30
36 10 28 35 11 26 34 10 25 33 9 24 32 8 23
32 8 22 32 8 22 31 8 20 30 9 18 30 9 16
30 9 15 30 9 14 30 10 13 30 10 13 30 10 14
29 10 13 27 10 11 27 11 11 28 12 12 30 13 13
31 14 13 33 15 14 34 16 15 35 16 16 36 17 16
36 18 16 37 18 16 38 18 16 38 18 16 38 19 17
39 19 17 39 20 16 38 21 15 37 22 15 37 21 14
37 20 13 36 19 12 36 18 11 35 18 11 35 18 11
35 17 10 35 17 10 35 16 10 35 16 10 36 17 11
38 19 13 40 20 14 43 22 17 47 25 20 50 26 22
51 27 23 52 28 24 53 29 24 52 28 24 52 28 23
52 28 23 53 29 25 53 29 25 53 29 25 53 29 25
53 29 24 52 28 24 52 28 24 50 27 22 45 24 19
42 23 16 42 22 16 41 22 16 41 22 15 40 21 15
40 21 15 40 21 14 40 21 14 40 21 14 40 21 14
41 22 15 41 22 15 42 22 15 42 23 16 45 24 18
49 26 21 49 24 21 49 21 21 49 20 23 49 20 26
52 21 32 56 23 38 57 23 42 58 21 45 60 21 49
62 21 52 64 22 56 66 22 58 64 19 57 57 13 50
49 6 41 43 2 36 40 1 33 37 0 30 33 0 28
29 0 26 28 1 26 28 3 27 29 5 28 30 5 27
31 4 26 33 4 26 35 4 27 38 4 28 41 6 30
43 7 31 47 9 34 52 12 38 54 14 40 54 13 41
56 15 45 58 17 50 61 19 55 62 20 59 64 21 63
66 21 67 65 19 68 63 17 68 63 16 69 63 17 71
68 21 76 81 33 90 88 40 97 83 33 91 82 32 88
96 45 101 120 70 124 145 95 148 162 112 165 171 121 173
176 126 177 180 130 181 182 132 182 188 139 187 204 155 200
219 170 212 217 169 207 198 151 186 177 131 162 167 123 147
164 121 140 158 116 130 145 104 112 130 89 93 121 81 79
120 81 75 125 87 78 132 94 83 132 95 82 129 91 78
126 89 76 70 25 94 67 23 91 65 20 88 65 20 87
64 20 87 64 19 86 64 21 86 68 26 90 74 31 95
74 31 94 68 26 88 62 20 81 59 19 78 60 20 79
59 19 78 58 18 77 62 23 80 67 28 85 72 33 91
79 40 99 90 51 111 103 63 125 118 78 140 126 87 149
109 71 132 77 39 99 58 21 79 54 17 72 51 15 67
47 11 61 45 11 58 45 13 57 42 14 53 40 15 50
39 14 50 37 12 49 36 11 47 34 9 46 33 7 45
32 5 44 37 10 49 49 22 62 55 27 68 50 22 64
45 17 59 45 17 60 47 18 62 48 18 65 50 19 68
54 22 73 59 25 80 62 27 85 63 26 86 63 23 86
62 21 86 63 20 89 66 21 93 70 22 96 73 25 96
78 29 95 80 30 87 71 23 69 59 12 47 52 8 31
49 9 22 46 9 15 42 6 10 37 4 6 33 3 3
30 2 2 28 1 3 26 0 5 25 0 7 27 1 14
32 4 23 38 8 33 42 12 40 43 13 44 41 11 43
38 10 39 36 9 34 35 9 30 33 8 29 33 8 27
32 8 26 33 8 26 34 9 26 33 10 25 32 9 23
31 9 20 31 9 19 31 10 18 31 10 17 31 10 17
31 10 16 29 10 15 28 10 12 27 10 11 27 11 11
28 12 12 30 13 13 31 14 14 32 14 14 33 15 15
34 16 15 35 17 15 36 16 15 36 17 15 37 17 16
37 17 16 37 18 16 37 19 15 36 20 14 35 20 13
34 20 13 34 19 12 34 18 11 34 17 10 33 17 10
33 16 9 32 15 8 32 15 8 32 14 7 32 14 8
34 15 9 35 17 10 37 18 12 40 20 15 43 22 18
46 24 20 47 25 21 48 26 21 48 26 22 48 25 21
47 24 20 47 25 21 49 26 22 49 27 23 49 27 22
48 26 22 47 25 21 47 25 20 47 24 20 45 23 19
41 21 16 39 20 15 39 20 14 38 19 14 38 19 14
37 19 13 37 18 12 37 18 12 37 18 12 37 18 11
37 19 12 38 19 12 39 20 13 39 21 13 40 21 14
43 23 17 48 24 20 48 21 21 47 19 21 49 19 25
51 20 30 53 21 36 56 21 42 58 21 47 60 21 52
63 22 58 67 24 63 68 24 66 68 22 67 63 17 63
54 8 54 46 2 45 43 0 40 42 0 39 40 1 38
36 0 36 34 1 34 34 3 35 37 7 39 40 10 42
40 8 40 40 7 38 42 5 37 44 5 37 46 6 38
49 7 40 52 9 42 55 11 45 58 14 47 61 16 51
63 18 55 65 20 59 67 21 63 68 22 66 69 22 69
70 23 73 73 25 78 72 24 79 70 21 78 68 19 77
68 19 78 81 33 92 106 57 117 113 63 123 102 51 111
102 51 109 117 65 123 135 84 139 150 99 153 158 108 160
161 111 162 163 113 163 167 117 167 173 123 172 180 130 177
192 143 188 210 161 203 217 169 208 204 156 193 181 134 167
166 121 150 161 117 142 153 110 131 139 96 114 123 81 95
113 71 81 112 71 77 116 76 79 122 81 83 124 83 83
123 82 82 122 82 81 59 17 81 58 16 79 57 15 78
56 15 77 56 14 76 55 14 75 58 18 77 64 25 83
68 29 86 64 26 81 57 19 74 52 15 68 51 15 67
54 18 70 56 21 73 58 23 74 64 26 79 69 31 84
77 38 93 95 57 112 118 80 137 126 87 146 120 81 140
106 68 127 81 44 102 59 23 80 51 15 69 49 14 65
46 12 60 44 10 55 44 12 54 43 14 52 39 14 47
35 13 43 33 11 42 32 9 41 30 8 39 29 6 38
28 5 38 27 4 38 29 5 39 36 11 46 40 15 51
40 14 51 39 13 50 39 13 51 41 15 54 45 18 59
47 19 63 49 20 66 51 21 70 53 21 72 53 19 73
53 18 74 54 16 76 57 17 79 62 19 83 66 21 86
70 24 87 75 28 84 74 28 74 65 19 55 56 12 36
53 11 25 51 11 19 47 10 14 43 8 10 38 5 6
33 3 4 30 2 3 28 1 5 26 0 8 26 0 12
29 2 21 38 8 34 48 17 49 55 23 61 55 23 64
49 18 60 42 11 50 36 7 40 34 6 34 32 5 32
31 5 30 31 6 29 33 8 30 34 9 30 34 10 30
33 9 27 32 8 24 31 9 23 31 9 22 31 9 21
31 10 20 31 10 19 30 10 16 28 10 13 27 10 11
27 11 11 27 11 12 28 12 12 30 13 13 31 13 13
32 14 14 33 15 14 34 15 15 34 16 14 35 16 14
35 16 15 36 16 15 36 16 15 35 17 14 34 18 13
33 19 12 32 19 11 32 18 10 31 16 9 31 15 8
31 15 8 30 14 7 29 13 6 29 13 6 29 12 6
31 13 6 32 15 8 34 17 10 36 18 12 38 20 14
40 21 16 42 22 18 43 22 18 43 23 19 43 23 19
43 22 18 41 21 17 41 21 17 42 22 18 42 22 18
42 22 18 42 21 17 41 20 17 40 20 16 40 20 16
39 19 15 37 19 14 37 18 14 36 18 14 36 18 13
35 17 13 35 17 12 35 17 11 34 17 10 34 17 10
34 17 10 35 17 10 36 18 10 37 19 11 38 20 12
39 21 13 42 21 16 46 21 20 47 19 21 48 18 24
51 20 30 54 22 36 54 20 40 55 18 44 59 20 52
66 24 62 75 31 74 81 35 83 80 32 84 73 25 79
65 16 72 58 9 65 53 5 58 50 3 53 48 3 50
44 2 48 41 2 46 40 3 46 43 7 49 50 14 56
55 18 60 56 17 58 56 15 56 56 13 54 57 11 53
58 11 53 59 12 53 61 13 55 62 13 55 63 14 57
67 18 61 71 22 68 74 24 72 74 24 74 73 24 76
74 24 78 75 25 82 77 27 85 76 25 86 74 24 85
74 24 85 79 29 91 105 55 117 133 83 146 133 82 144
125 73 135 132 79 139 142 89 147 149 96 152 152 99 153
153 101 153 154 102 152 154 102 151 156 104 153 163 112 160
172 121 168 182 131 176 195 144 187 210 160 201 213 164 203
197 150 186 178 133 166 168 122 153 157 113 142 145 100 127
133 89 113 125 81 102 121 79 96 122 79 94 124 81 94
125 82 94 125 82 93 125 82 92 55 15 74 53 14 73
52 13 71 52 13 71 51 13 70 52 14 69 55 18 72
60 24 76 61 26 77 55 22 71 49 16 64 46 14 61
46 15 60 50 18 63 53 22 67 56 24 70 61 26 74
64 27 77 70 32 84 92 54 107 116 78 133 109 72 128
87 49 106 71 34 91 59 23 79 50 15 69 46 12 63
43 10 57 41 9 53 42 11 52 43 12 50 39 12 45
34 11 40 30 11 37 29 9 36 27 7 35 26 6 34
26 6 34 26 6 34 26 5 34 26 5 34 28 6 37
30 7 39 32 8 41 33 9 43 33 9 43 36 12 47
41 17 53 43 18 56 43 16 57 44 16 59 46 16 62
48 17 66 51 17 69 52 16 70 54 16 72 58 18 76
63 21 78 68 24 78 70 26 74 68 23 61 60 17 42
55 12 27 54 13 20 52 13 17 48 11 14 44 9 10
39 6 7 34 4 5 30 2 5 28 0 7 27 0 12
28 1 19 35 6 31 47 16 50 60 28 69 68 35 81
67 34 84 60 27 78 50 18 66 42 11 52 37 8 43
34 6 39 32 5 35 31 5 33 32 6 33 33 8 32
34 8 32 33 8 30 33 8 29 32 9 27 32 9 26
32 9 25 32 10 23 32 11 21 31 11 18 28 10 14
27 10 12 26 10 11 27 11 12 27 11 12 28 12 12
29 12 12 30 13 13 31 14 14 32 14 14 33 15 14
33 15 14 34 15 14 35 15 14 35 15 14 34 16 13
32 17 12 31 18 11 30 17 10 30 17 9 30 15 8
29 14 8 28 14 7 28 13 7 27 12 6 27 12 5
28 11 5 29 12 6 30 14 7 32 16 9 34 18 11
36 19 13 37 19 14 38 19 15 39 20 16 39 20 16
39 20 16 38 19 15 36 17 14 36 17 13 36 17 13
36 17 13 35 16 13 35 16 12 35 16 12 35 16 12
35 16 12 35 16 12 35 17 13 35 17 14 35 17 13
34 16 12 34 16 12 33 16 11 33 16 10 33 16 9
33 16 9 33 16 8 33 16 9 34 17 9 36 19 11
37 20 12 38 21 13 40 20 15 44 19 19 47 18 23
50 19 27 53 20 33 54 20 38 54 19 43 59 21 52
75 34 72 96 53 97 111 65 116 114 65 121 104 54 114
87 37 99 75 23 88 69 17 83 66 14 78 61 12 71
57 9 65 53 8 62 49 7 59 49 8 60 53 13 64
60 18 70 66 23 74 69 24 75 71 23 74 71 21 72
71 19 70 71 18 69 71 18 68 71 18 68 70 17 68
70 17 68 74 21 73 79 26 80 81 28 83 80 27 84
78 26 85 80 27 89 83 31 93 84 32 95 84 32 96
89 37 102 98 46 111 112 61 124 143 92 155 163 112 175
153 101 164 148 95 157 157 103 164 161 107 167 159 105 162
154 101 154 151 99 149 150 98 147 150 98 145 151 99 146
157 105 152 166 114 160 174 122 167 182 131 174 198 147 189
213 163 203 210 162 201 198 151 188 187 140 177 177 131 167
168 122 157 160 115 148 155 110 140 151 106 134 148 104 129
147 102 125 145 100 121 142 97 118 140 95 115 52 14 69
50 13 68 50 13 67 50 14 67 50 15 66 50 15 65
52 19 67 55 23 69 54 23 68 50 20 63 46 17 59
43 15 55 43 15 55 46 18 57 49 21 61 52 22 64
56 23 68 58 23 70 63 26 76 85 48 99 102 65 117
85 48 101 61 25 78 53 18 71 49 15 67 45 11 61
42 10 56 39 8 51 38 8 47 41 11 48 43 14 48
39 13 43 33 12 38 29 12 35 27 10 33 26 8 32
26 7 32 26 7 33 26 8 33 26 7 33 25 6 32
26 6 33 26 5 34 27 6 35 29 8 38 29 7 38
30 9 39 34 12 44 37 14 48 38 14 50 40 14 53
43 15 57 46 17 61 49 18 64 51 17 66 53 17 67
56 18 69 61 20 71 65 23 70 66 23 63 61 18 48
56 14 31 54 13 20 54 14 16 52 14 15 49 13 14
45 10 11 39 7 7 34 4 6 30 2 6 28 1 10
28 0 15 32 3 26 43 12 44 58 26 66 71 37 86
77 42 97 76 41 100 70 35 96 63 29 86 54 22 71
48 17 60 44 13 53 39 9 46 35 7 41 33 6 37
33 7 36 33 7 35 34 8 34 34 8 32 33 9 31
33 9 29 33 10 28 33 10 26 33 11 23 31 11 20
28 10 15 27 10 13 26 10 12 26 10 12 26 10 12
27 11 12 27 11 12 28 12 12 30 13 13 31 13 14
32 14 14 32 14 14 33 14 14 33 15 14 34 15 14
33 15 13 31 16 12 30 17 11 29 16 10 28 15 10
28 15 9 27 14 8 27 13 7 27 13 7 27 12 7
26 11 6 26 11 6 27 11 6 27 12 7 29 13 8
30 15 10 32 16 11 34 17 13 35 17 13 36 18 14
36 18 14 35 17 14 34 16 13 33 15 11 31 13 10
31 13 9 30 13 9 31 13 9 31 13 9 31 13 10
31 14 10 32 14 10 32 15 11 34 16 13 34 17 14
34 16 13 34 16 12 34 16 12 33 15 11 33 15 11
33 15 10 32 15 9 32 15 8 33 16 8 34 18 9
35 19 11 37 20 12 38 21 13 40 20 16 45 19 20
49 19 26 51 19 31 52 19 36 55 19 42 63 26 55
84 43 80 118 74 119 152 105 157 166 118 175 161 111 172
143 91 157 119 67 135 100 46 117 88 34 105 79 26 96
72 20 87 66 16 79 62 14 75 59 13 73 60 15 74
63 18 77 67 21 80 72 24 82 77 26 85 80 26 86
81 26 86 83 25 85 83 25 84 82 24 83 81 23 82
80 23 81 79 23 81 83 27 86 86 31 90 87 31 92
84 29 92 84 29 94 89 33 99 96 41 107 101 46 112
108 53 120 128 74 141 148 95 160 162 110 174 186 134 197
194 143 205 178 126 188 171 117 179 175 121 182 177 124 182
175 121 177 168 115 167 160 108 157 156 104 151 153 102 148
153 102 147 156 105 150 162 110 156 168 117 161 175 125 167
187 137 178 201 151 191 206 157 197 204 156 197 201 154 194
197 150 191 193 147 187 191 144 183 189 143 181 190 143 179
189 142 175 185 139 169 179 133 162 172 126 153 165 119 147
50 14 66 48 13 65 48 14 65 49 15 65 50 17 63
49 17 62 50 20 62 50 21 62 48 20 59 45 18 55
42 16 52 40 14 49 39 14 49 41 16 51 43 18 55
46 19 58 49 19 62 54 21 66 63 29 76 82 47 94
88 53 101 69 34 83 51 17 65 46 13 60 44 11 56
41 10 52 38 8 48 35 7 44 36 9 42 38 13 43
41 17 44 40 18 42 35 17 38 31 15 35 30 14 33
28 12 32 28 11 31 28 10 32 28 11 33 27 10 32
25 7 30 26 7 31 26 7 31 27 7 32 27 8 34
27 8 34 26 6 33 27 8 35 31 11 40 35 14 46
38 15 51 41 16 53 43 16 55 46 17 57 50 18 60
53 18 61 55 18 61 58 19 60 62 21 58 60 19 49
55 14 35 52 12 22 52 13 15 52 15 12 51 15 13
48 14 12 43 11 9 37 8 6 32 5 5 29 2 7
28 1 12 30 2 21 38 8 36 51 19 57 65 31 79
76 40 96 80 43 105 80 42 108 77 40 107 73 37 101
67 32 90 62 28 81 57 24 73 51 18 64 45 14 55
40 10 47 36 7 41 34 7 38 34 8 37 35 9 36
35 10 34 35 11 33 34 11 31 34 11 29 33 11 27
31 10 23 29 9 19 27 9 16 26 9 15 26 9 14
26 9 15 26 10 15 27 10 15 27 11 15 28 12 15
29 12 15 30 13 15 31 13 16 31 13 16 31 13 15
32 13 15 31 14 14 29 15 12 27 15 11 27 15 11
26 14 10 26 13 10 25 12 9 25 12 8 25 12 9
26 12 9 26 12 9 26 11 8 25 11 8 25 11 8
26 11 8 27 12 9 29 14 11 31 15 12 32 16 13
33 16 14 33 16 14 32 15 13 31 14 12 30 13 11
28 12 10 28 11 9 28 11 9 28 12 9 29 12 10
30 13 11 30 14 11 30 14 11 31 15 12 32 17 14
33 17 15 34 17 14 34 16 13 34 16 13 33 15 12
33 15 12 33 16 11 32 15 10 31 16 9 31 16 9
32 18 9 34 19 10 36 20 11 37 20 13 40 20 16
46 18 22 51 18 29 53 18 35 58 22 45 72 33 63
94 52 90 125 80 126 162 114 167 190 140 199 198 147 210
192 140 205 180 127 195 165 111 181 147 92 164 127 71 144
105 50 122 85 31 102 75 21 90 70 18 86 68 17 84
70 19 85 72 21 88 74 22 89 76 23 90 80 24 91
83 25 92 85 26 93 87 28 94 89 29 94 89 29 94
87 27 93 86 27 92 87 29 92 89 31 95 91 33 98
90 32 98 88 31 98 94 37 104 107 50 118 123 66 133
134 78 144 148 93 159 175 120 186 193 139 203 198 145 208
208 155 216 210 158 218 199 147 206 191 138 196 191 137 194
193 140 195 193 140 192 188 135 184 179 127 174 171 120 165
165 114 157 159 109 151 158 108 150 159 110 151 163 114 154
169 120 159 176 127 165 183 135 172 186 139 176 187 141 180
189 142 183 191 144 185 192 146 186 194 148 188 198 151 191
203 155 194 206 158 195 205 158 192 201 154 187 195 148 180
189 141 173 48 13 65 47 13 64 48 14 64 48 16 63
49 17 60 49 19 58 49 20 56 47 20 54 44 17 50
41 16 47 39 15 45 37 14 44 36 14 44 37 15 46
39 15 49 41 16 53 45 16 58 52 22 66 65 34 78
75 43 86 70 37 80 56 23 65 46 14 55 41 11 49
39 10 45 37 10 43 35 10 40 33 10 37 34 12 36
34 14 35 36 18 36 37 19 36 35 18 35 33 17 33
32 16 32 31 15 31 31 14 31 30 13 31 30 13 31
29 11 30 27 10 28 26 9 28 27 9 28 27 9 28
27 9 29 26 8 29 25 7 28 26 8 31 29 11 38
32 14 44 36 16 48 39 16 50 40 15 50 43 15 50
48 17 52 52 19 53 56 20 53 58 21 50 59 20 45
57 17 36 52 14 25 50 12 16 51 14 11 51 15 10
48 16 10 45 14 9 40 11 6 34 8 3 28 4 2
26 3 6 28 3 14 35 7 29 49 18 50 62 28 72
71 34 88 75 37 97 77 37 103 78 39 107 78 39 108
76 37 105 74 36 101 72 34 97 70 32 91 65 28 83
58 23 73 49 16 61 42 11 51 36 7 43 34 7 39
34 8 37 35 10 37 36 12 36 35 12 35 34 11 33
32 10 31 31 10 28 30 10 24 29 9 22 27 9 20
26 9 19 26 8 19 26 9 19 27 10 19 27 10 19
27 10 18 27 11 18 28 12 18 29 12 19 29 12 19
29 12 18 28 11 17 27 12 16 25 12 13 24 13 11
24 13 11 23 12 10 23 12 10 23 11 9 23 11 9
23 11 9 24 12 10 25 12 11 25 12 11 25 12 10
25 12 10 25 12 10 26 12 11 27 13 12 29 15 13
30 15 14 30 15 14 29 14 13 28 13 12 27 12 11
27 12 11 26 11 10 26 11 10 26 11 10 27 12 11
28 13 12 29 14 13 29 14 13 30 15 14 30 16 15
31 17 16 32 18 17 33 17 16 33 17 15 34 16 15
33 16 14 33 16 13 32 17 12 31 16 11 29 16 9
29 16 8 29 16 8 30 17 8 32 18 9 34 19 11
39 18 15 45 16 23 52 16 32 62 23 47 83 41 73
112 68 107 139 92 140 161 110 166 178 126 188 189 135 201
190 136 203 189 134 202 192 137 206 197 142 211 195 139 209
178 121 192 148 91 163 119 62 135 102 44 118 91 34 107
83 26 99 79 22 95 77 20 93 77 20 93 78 20 93
80 21 93 82 22 94 83 23 95 86 25 97 87 27 98
88 28 98 87 27 98 88 28 98 90 30 99 91 31 101
94 34 103 96 37 106 103 44 113 120 61 130 148 90 157
171 114 180 181 125 189 190 134 197 202 148 209 205 151 211
198 145 203 195 143 200 197 145 201 196 144 198 192 139 191
190 136 186 191 137 186 191 138 184 186 135 179 181 131 173
177 127 168 169 121 159 161 112 150 157 109 146 157 110 145
156 110 144 157 111 144 159 114 146 162 117 148 164 119 151
165 119 154 165 120 156 167 121 158 169 123 160 172 126 163
176 130 167 181 134 170 184 137 172 186 139 173 189 141 175
191 143 176 191 142 176 47 12 66 47 13 65 48 15 64
48 16 62 48 17 59 47 18 55 46 18 51 43 17 47
40 14 43 37 13 40 36 12 39 35 12 39 34 13 40
34 14 43 36 14 46 38 14 50 42 15 55 50 22 64
62 33 75 66 36 76 57 27 65 47 17 54 42 12 47
38 10 42 36 9 38 35 10 36 33 10 34 32 11 32
31 13 30 31 15 30 32 17 30 32 18 30 33 17 30
33 16 30 32 16 29 32 16 29 32 15 29 31 15 29
31 14 30 30 13 29 29 12 28 28 11 27 28 12 27
28 12 28 28 11 28 28 11 28 28 11 29 29 12 33
31 14 38 33 17 43 37 18 46 39 18 47 41 17 46
43 16 46 48 18 47 52 20 47 56 22 47 58 22 43
58 20 36 55 17 27 51 14 19 50 14 13 52 15 10
52 17 11 49 18 10 43 15 7 38 11 3 32 8 1
27 5 2 26 5 7 31 7 18 44 17 38 63 32 65
75 40 85 78 40 94 76 37 97 76 35 99 77 36 102
77 37 104 77 36 104 77 36 103 76 36 102 75 36 99
72 34 93 67 29 84 59 24 73 52 19 63 44 13 53
36 8 43 33 7 39 33 8 37 33 9 36 33 9 35
32 9 34 31 8 33 30 9 30 31 10 28 30 10 26
29 10 24 28 9 23 27 9 22 26 8 21 26 9 21
26 9 21 26 9 20 26 10 20 27 11 21 28 12 21
28 12 21 27 11 20 26 10 19 24 10 17 23 11 14
22 12 12 22 12 11 21 11 11 21 11 10 21 11 10
21 10 10 22 10 10 23 11 11 24 12 12 24 12 12
24 12 12 24 12 12 25 12 12 25 12 12 26 12 12
27 13 13 28 14 13 27 13 13 27 12 12 26 12 12
25 11 11 24 10 10 24 10 10 25 10 10 25 11 11
26 11 11 26 12 12 27 13 13 28 14 14 29 14 14
29 15 15 30 16 16 31 16 16 31 16 16 32 15 15
33 15 15 32 15 14 31 15 13 30 15 11 28 14 8
25 13 6 24 13 5 24 13 4 26 13 4 28 14 5
31 15 8 36 15 13 45 14 22 58 20 38 85 43 70
122 77 113 152 104 149 168 116 171 173 119 182 175 119 186
173 116 186 170 112 184 170 112 184 180 121 193 196 138 209
208 150 221 202 144 216 185 126 199 168 108 183 152 92 168
133 73 150 115 54 131 101 40 117 92 32 109 89 29 105
89 28 105 91 30 106 92 31 107 91 30 106 89 28 103
86 25 100 86 25 100 89 28 103 94 33 107 100 39 113
106 45 118 114 52 125 125 64 136 142 82 152 167 108 176
193 135 201 208 151 215 207 152 213 203 149 208 199 146 203
191 138 194 181 129 183 173 122 175 170 120 171 171 120 168
170 118 163 168 116 158 168 116 156 167 116 155 165 114 152
164 114 151 163 115 150 160 113 146 156 110 141 155 109 139
153 108 137 150 106 133 147 103 129 145 101 126 145 102 126
146 103 128 146 102 130 146 102 131 147 103 133 149 104 134
151 106 137 153 107 139 155 109 140 155 109 140 156 110 141
161 114 145 167 119 150 170 122 153 50 15 70 51 16 69
51 18 68 51 18 65 49 18 60 46 17 54 43 15 49
39 13 44 36 11 39 34 10 36 33 10 36 32 10 36
32 11 38 33 12 40 34 14 43 36 14 47 39 15 52
46 20 59 55 29 67 56 29 66 48 21 56 42 15 48
38 11 42 35 9 38 34 9 35 33 9 33 31 9 30
29 10 28 29 11 27 29 13 26 29 15 26 30 16 26
30 15 26 30 15 26 31 15 26 31 15 27 31 15 27
32 16 28 32 16 29 32 15 29 31 14 28 31 14 28
31 15 29 32 15 30 32 16 31 33 16 32 33 16 33
34 17 36 35 19 40 37 20 43 39 21 45 41 20 45
43 19 45 46 19 45 50 19 44 54 21 44 57 23 43
58 23 39 57 20 31 54 17 22 52 14 15 52 15 11
53 17 10 54 20 12 50 20 11 43 16 7 37 10 2
32 8 1 28 6 2 29 7 9 37 13 23 53 26 45
72 41 71 82 47 87 81 43 92 79 39 93 77 36 95
79 37 98 80 39 101 80 39 101 78 38 100 77 38 99
77 37 97 75 37 93 72 35 89 68 32 82 64 30 76
57 26 68 47 18 56 41 14 49 39 13 45 36 11 41
33 9 37 30 7 35 29 5 32 29 6 30 30 9 28
31 10 26 30 10 25 29 10 24 28 9 23 26 8 22
25 7 20 25 7 20 26 8 20 27 10 21 27 11 21
28 12 22 28 12 22 27 11 21 25 10 19 23 10 17
22 11 15 22 11 13 21 11 12 21 11 12 20 10 11
20 10 11 20 9 11 21 10 11 22 11 12 23 11 13
23 11 13 23 11 13 23 11 13 23 11 13 23 11 13
24 11 13 25 12 12 26 12 12 25 11 11 25 11 11
24 10 10 23 9 9 22 8 8 22 8 8 23 9 9
23 9 9 23 9 9 24 10 10 25 11 11 26 12 12
26 12 12 27 13 13 26 12 12 26 11 12 26 11 11
27 10 11 28 11 11 28 11 10 27 11 9 25 10 7
23 9 4 21 8 2 20 8 1 20 8 1 22 9 1
24 10 2 27 11 4 34 11 10 44 12 20 62 23 40
99 56 82 142 95 131 165 116 161 170 116 172 168 112 175
169 110 179 168 108 181 163 102 177 159 98 174 164 102 178
177 116 192 192 131 207 196 136 212 194 133 210 192 132 209
186 125 203 172 111 188 155 94 172 142 81 158 133 72 150
130 69 147 131 69 147 131 69 147 127 64 142 117 55 133
106 43 121 98 36 114 100 37 116 109 47 125 122 60 137
136 73 150 148 85 161 159 97 172 173 111 184 189 129 199
202 144 212 206 149 215 202 146 208 194 139 198 186 133 189
179 127 181 171 120 172 165 115 165 159 110 158 153 105 151
151 102 144 152 102 140 152 102 136 150 101 133 149 100 131
148 99 129 149 101 130 150 103 131 150 104 131 151 105 130
151 106 129 149 106 126 146 103 123 141 99 118 136 94 112
133 92 109 131 89 107 128 86 106 128 85 107 130 87 109
132 89 112 136 92 116 139 95 119 142 97 122 142 97 122
142 97 123 145 99 125 149 103 129 150 104 130 60 24 80
59 24 79 58 24 75 56 23 70 51 20 64 46 16 56
41 12 48 37 10 42 34 8 38 33 8 35 32 8 35
32 9 35 32 10 37 33 12 39 34 14 41 35 15 44
37 15 48 42 20 54 48 25 59 47 23 56 41 17 48
38 13 43 36 11 39 33 9 34 31 8 32 30 8 30
29 8 27 27 9 25 27 10 24 27 11 23 27 13 23
27 14 24 27 13 23 27 13 23 28 14 24 30 14 25
30 15 26 31 16 27 32 17 28 32 17 29 32 17 29
32 17 29 33 18 30 35 18 31 35 19 32 36 20 34
37 21 35 38 21 37 38 21 39 40 22 41 42 22 42
44 22 43 46 21 43 49 21 42 52 21 42 55 23 41
58 24 39 58 23 34 56 20 26 53 17 18 53 15 12
54 16 9 55 19 9 55 22 12 52 21 12 43 15 7
36 10 2 32 8 1 31 7 4 33 10 11 42 18 26
57 31 46 70 40 64 75 41 74 75 39 78 75 37 82
76 37 86 79 39 90 82 42 94 82 42 95 79 39 92
77 37 90 76 38 90 76 38 90 76 38 89 76 39 88
75 40 86 72 38 82 65 34 75 60 31 69 56 28 63
50 23 56 43 17 49 37 11 42 32 7 36 30 6 31
30 8 26 30 9 24 30 9 24 29 9 23 28 9 23
26 8 21 25 7 20 25 7 19 26 9 20 27 10 21
28 11 22 28 12 22 28 12 22 27 11 21 25 10 19
23 9 17 21 10 15 21 10 14 20 10 14 20 10 13
19 9 13 19 9 12 19 8 12 20 9 13 21 10 14
22 10 14 22 10 14 22 10 14 22 10 14 22 10 14
22 10 14 23 10 13 24 10 12 24 10 11 24 9 10
23 9 9 22 8 9 21 7 8 21 6 7 21 6 7
21 7 7 21 7 8 22 7 8 23 8 9 24 9 10
24 10 11 25 10 11 25 10 11 23 9 9 22 7 8
22 6 7 23 5 6 24 6 7 25 6 6 23 6 5
21 5 3 20 5 2 19 5 1 18 5 0 18 5 0
20 6 0 22 8 0 26 9 2 33 9 6 43 10 16
59 19 34 89 45 68 126 79 112 153 103 146 163 109 161
165 108 169 171 111 178 174 112 185 167 105 181 158 94 173
155 91 171 161 97 176 172 108 188 179 116 196 181 119 198
183 121 200 184 123 201 183 121 200 180 118 196 176 114 192
174 112 190 174 112 191 174 111 190 168 105 184 157 94 173
143 79 159 130 66 146 126 61 142 132 68 149 145 81 162
160 96 177 173 111 190 183 120 198 188 127 203 194 133 208
198 139 211 196 139 208 184 128 194 171 116 178 164 111 169
161 109 163 157 107 158 154 106 154 152 105 150 149 102 146
144 98 140 143 96 133 145 98 128 146 98 124 144 96 120
143 95 118 142 96 118 144 98 119 146 101 120 146 102 121
146 103 119 146 103 117 144 103 115 142 101 112 137 97 107
131 92 101 126 87 96 121 81 91 114 75 86 112 72 85
114 74 87 117 77 91 123 82 97 129 87 103 134 92 109
137 94 112 138 95 113 139 96 115 141 97 117 141 97 117
73 35 93 71 34 91 67 31 85 61 27 77 54 22 68
47 16 58 41 12 50 37 9 43 35 8 39 34 8 37
33 9 36 33 9 36 33 10 37 34 12 39 35 15 41
36 16 43 36 17 45 39 20 49 42 22 51 40 20 48
36 15 43 35 13 39 34 12 36 31 10 32 30 9 29
29 9 28 27 8 25 26 8 22 25 9 21 25 10 21
25 11 21 25 12 21 24 12 21 25 13 21 26 13 22
27 14 23 28 15 24 30 16 25 31 17 26 31 17 28
31 18 28 32 18 29 34 19 30 35 19 31 36 20 32
37 21 33 38 22 34 39 22 35 40 21 36 41 21 36
42 21 37 45 21 38 48 22 38 51 22 39 54 23 38
56 23 37 58 24 34 58 22 29 55 20 22 54 18 16
54 18 11 55 19 8 56 21 8 55 22 10 51 20 10
42 14 6 36 9 2 33 8 2 33 8 5 36 12 13
46 21 27 57 31 42 62 33 51 64 32 56 66 32 61
69 33 67 72 35 72 75 37 76 77 39 80 77 39 82
75 36 80 73 35 79 74 35 80 75 36 82 76 38 84
78 40 86 79 42 88 79 44 88 78 44 87 76 44 85
72 42 80 67 37 73 60 31 64 52 24 55 44 18 47
38 13 38 33 10 29 31 10 24 30 10 23 29 9 22
27 9 21 26 8 21 26 8 20 27 9 20 27 10 21
28 11 21 29 12 22 29 12 22 28 12 22 26 10 20
24 9 19 22 9 17 20 9 16 19 9 15 19 9 15
19 9 14 18 8 14 18 8 13 18 7 13 19 8 14
20 9 15 21 10 16 21 10 16 21 10 16 22 9 16
22 9 16 22 9 16 22 9 14 23 8 12 23 8 11
23 8 10 22 7 9 21 6 8 21 5 7 20 5 7
20 5 7 20 5 7 21 5 7 21 6 8 22 7 9
23 7 10 24 8 10 24 9 11 24 9 11 24 9 11
23 7 9 22 5 7 23 4 5 24 4 5 24 4 5
22 3 3 20 2 1 19 3 1 19 4 0 18 3 0
19 4 0 21 5 0 24 7 0 27 8 2 33 8 5
44 10 14 56 16 28 73 29 48 97 50 79 126 76 114
150 96 144 167 110 166 179 118 182 179 116 186 168 104 178
157 92 169 151 85 164 150 84 164 156 90 171 163 98 180
167 102 183 167 104 183 171 109 186 178 115 193 182 119 198
183 120 199 182 119 198 182 118 198 180 115 196 173 108 189
163 98 179 154 89 170 150 84 166 153 86 169 159 93 177
166 100 183 171 106 189 176 112 194 177 115 195 176 115 193
174 115 190 171 113 186 164 107 178 154 98 165 145 91 153
141 88 146 140 89 142 139 90 140 140 92 138 140 93 136
139 94 134 138 93 131 138 93 125 138 93 117 138 94 111
138 94 109 138 94 109 139 95 109 140 96 109 141 98 109
141 99 109 140 100 107 139 100 105 138 100 104 137 99 101
133 96 97 128 91 91 122 86 86 116 79 79 108 72 73
106 69 71 107 70 74 110 73 77 115 78 83 121 82 90
126 87 95 130 90 99 131 91 102 131 91 103 131 90 103
130 89 103 84 46 104 80 43 101 73 37 93 65 31 82
57 24 71 49 17 61 43 13 53 39 10 47 37 10 43
36 9 40 35 10 38 34 10 37 34 11 37 35 13 38
36 15 40 36 16 41 35 17 43 36 18 44 37 19 44
36 18 42 34 15 39 33 13 35 31 12 32 29 10 29
29 10 27 28 10 26 26 9 23 25 9 20 24 9 19
23 9 19 23 11 19 23 12 19 23 12 19 24 13 19
24 13 20 25 14 21 26 15 22 28 16 23 29 16 24
30 17 25 30 17 26 31 18 27 33 17 27 34 18 28
35 19 29 35 19 30 36 20 30 37 19 30 38 19 30
40 18 29 41 18 30 44 19 32 49 21 33 52 22 34
54 23 34 56 23 32 57 23 29 57 21 24 56 20 19
56 20 14 57 21 11 58 22 9 57 22 7 54 21 7
48 17 6 40 12 3 35 8 2 33 8 3 34 9 6
38 13 13 46 22 25 55 29 36 57 30 41 57 28 43
59 28 48 63 31 53 66 33 58 66 33 60 66 32 61
67 31 63 67 31 64 68 31 66 69 32 68 70 33 71
71 34 74 73 36 77 74 38 80 75 40 81 75 42 83
75 43 83 75 43 81 73 42 78 69 39 72 63 35 66
58 30 59 50 25 49 40 18 36 35 15 27 32 13 25
30 11 23 28 10 21 28 10 21 28 10 22 28 11 22
28 11 22 28 12 22 29 12 22 29 12 22 28 11 21
26 10 20 24 9 18 21 8 17 19 8 16 18 9 16
18 8 16 18 8 15 17 8 15 17 7 15 17 6 14
18 7 15 19 8 16 20 9 17 20 9 17 20 9 17
21 8 17 21 8 17 21 8 16 21 8 15 23 8 13
23 8 11 23 7 10 22 6 9 21 5 8 21 5 8
20 4 7 20 4 7 20 4 7 21 5 8 21 5 8
22 6 9 23 7 10 24 8 11 24 8 11 25 9 12
26 9 13 26 7 11 24 5 8 24 4 7 26 5 7
26 5 7 24 3 5 22 2 3 20 3 1 20 3 0
20 3 0 21 4 0 23 5 0 26 7 1 29 9 3
35 9 6 45 11 13 57 17 25 68 24 39 79 33 56
97 46 79 122 67 109 149 92 142 168 107 165 167 104 168
156 91 160 148 82 155 144 77 152 142 74 152 144 76 155
151 83 162 155 89 166 157 92 168 162 99 173 170 107 182
177 112 188 178 113 190 174 110 187 169 105 182 166 101 179
165 98 177 161 94 174 158 91 171 159 91 173 162 94 176
164 95 178 161 93 177 157 90 174 154 91 173 151 91 170
149 90 167 147 89 164 143 85 159 137 80 151 132 76 143
128 75 136 126 74 131 124 74 127 124 75 124 125 77 122
126 80 122 128 83 122 129 85 121 130 87 115 132 89 107
134 92 103 134 93 102 135 94 102 136 95 102 134 93 99
131 92 96 130 92 94 130 92 92 129 93 90 128 93 89
128 93 88 126 92 85 122 89 81 117 85 76 112 79 71
108 74 67 107 73 67 109 74 69 111 77 72 114 79 76
117 81 80 119 83 84 120 83 86 121 83 88 120 83 89
120 82 90 119 81 90 89 51 110 84 47 105 76 39 96
67 31 84 58 24 74 51 18 65 46 15 57 43 13 51
39 11 46 37 10 42 36 10 39 35 10 38 34 11 37
35 12 37 35 14 37 35 16 38 34 16 39 33 16 38
33 16 37 34 16 37 33 15 35 30 13 31 28 11 27
27 11 25 27 12 25 27 12 24 25 11 21 24 10 19
22 10 18 22 10 17 22 11 17 23 12 17 23 13 18
23 14 18 24 14 18 24 15 19 25 15 20 26 15 20
27 16 21 28 16 22 29 16 23 30 16 24 31 16 24
31 16 24 32 16 25 32 16 25 33 16 25 35 15 24
36 15 23 38 14 22 40 14 23 44 16 25 49 20 28
53 22 30 55 22 30 56 21 27 57 21 24 57 20 20
57 20 17 58 22 14 60 24 13 60 24 10 57 22 7
52 18 5 44 12 3 39 9 2 36 8 2 34 8 3
35 10 6 38 14 12 44 21 21 50 26 29 51 27 32
50 25 31 51 24 34 54 27 39 56 29 43 56 27 43
55 26 44 56 25 46 59 26 50 60 27 52 62 28 55
63 29 59 64 30 62 64 31 64 64 31 66 63 32 67
63 32 68 63 34 69 64 35 69 65 36 68 64 36 67
62 36 64 60 35 60 55 32 53 48 27 42 41 23 34
36 19 29 32 14 25 29 12 23 29 12 22 30 13 23
30 13 23 29 12 22 28 12 22 29 12 22 28 12 22
27 11 21 26 10 20 24 9 18 21 8 17 18 8 17
17 8 16 17 8 16 17 7 16 17 7 16 16 6 15
16 6 15 17 6 15 18 7 16 19 8 17 19 8 17
19 7 17 19 7 17 20 7 17 20 7 17 21 7 15
23 8 13 23 8 11 23 7 10 22 6 9 22 6 9
21 5 8 20 4 7 20 4 7 20 4 7 21 5 8
21 5 8 22 6 9 23 7 10 24 8 11 24 8 11
25 9 12 26 7 11 25 5 10 25 4 8 28 6 10
32 10 13 35 12 15 34 11 14 30 8 9 23 4 3
20 2 0 21 2 0 22 3 0 24 5 0 27 7 1
31 8 4 37 9 6 46 11 12 57 17 21 67 24 34
74 29 45 78 29 54 90 36 70 111 54 96 131 71 120
137 74 129 133 68 128 133 67 130 136 69 136 137 68 137
136 68 138 139 71 141 143 75 145 144 79 148 149 85 154
158 93 163 166 101 171 171 105 176 170 104 175 165 100 171
163 96 169 163 95 169 161 93 168 159 90 166 158 89 166
157 87 165 155 84 164 150 80 160 145 77 157 139 76 154
134 74 151 131 73 148 130 72 145 127 70 141 123 67 134
119 64 128 116 63 122 115 63 119 115 64 116 114 65 113
114 66 110 113 67 108 114 68 107 115 70 105 117 74 101
122 82 97 127 88 95 130 91 95 131 93 96 130 92 94
125 88 88 118 82 80 114 80 76 113 80 73 113 80 71
113 82 71 114 84 71 116 86 72 115 86 71 112 83 68
110 80 65 110 79 64 110 78 65 110 78 66 111 78 68
111 78 70 112 79 72 113 79 74 113 79 76 112 78 77
112 77 78 113 78 80 113 78 82 92 54 113 86 47 106
76 39 95 67 31 85 60 24 75 54 19 68 50 18 62
47 16 57 44 15 52 40 13 46 37 11 41 35 10 38
34 10 36 34 11 35 35 12 34 35 14 35 33 15 35
31 14 33 31 14 33 32 15 33 31 14 31 28 12 27
25 10 23 25 11 22 25 13 22 25 13 22 24 12 20
23 12 18 22 12 17 22 12 16 22 12 15 21 12 14
21 13 15 22 13 15 22 13 15 22 13 15 23 14 16
24 14 16 25 14 18 26 15 19 27 15 19 29 15 20
30 15 21 30 15 21 30 14 21 31 14 21 31 13 20
33 12 19 36 11 18 38 11 18 41 13 20 46 16 23
51 20 26 55 22 28 57 22 28 57 21 25 57 19 21
57 18 17 57 19 15 60 22 14 62 25 14 61 25 11
57 22 7 50 16 4 42 9 1 38 7 1 36 7 3
35 8 5 36 10 8 39 15 13 42 20 19 44 23 22
43 23 21 40 20 19 40 20 20 43 22 24 44 23 27
44 22 28 43 21 29 45 21 32 48 23 37 50 24 40
51 25 43 52 25 45 52 25 47 52 25 49 50 25 50
49 24 51 49 24 52 49 24 52 49 25 52 49 26 52
49 27 51 49 28 50 49 28 48 48 29 45 46 28 41
42 25 35 38 21 30 33 17 26 31 14 23 30 14 23
31 14 24 30 14 24 28 13 22 28 12 22 28 13 22
28 12 22 26 12 21 25 11 20 24 9 18 21 8 17
18 8 16 16 7 16 16 7 16 16 7 16 16 6 16
16 6 16 15 6 15 16 6 16 18 7 17 19 7 17
19 7 17 19 7 18 19 7 18 19 7 18 19 7 17
20 7 16 22 7 13 23 7 11 22 7 10 22 6 10
22 6 9 21 5 9 21 5 8 21 5 8 21 5 9
21 6 9 22 6 10 23 7 11 24 8 12 25 9 13
26 10 13 26 9 13 27 7 12 29 7 13 36 12 19
45 20 26 52 28 33 55 31 35 53 28 31 42 18 21
28 6 7 21 1 1 22 2 0 23 3 0 25 4 0
28 5 2 31 7 3 38 9 6 47 12 11 54 15 15
61 20 25 70 26 36 72 25 43 74 23 48 83 28 60
96 38 76 104 43 86 107 43 91 114 48 100 124 57 111
128 61 117 128 60 117 128 61 117 129 62 119 129 64 122
132 68 126 138 74 133 147 83 142 156 91 151 161 96 156
162 96 158 161 94 157 160 92 156 158 89 155 156 87 153
153 83 151 150 79 149 148 77 147 146 75 147 142 74 146
134 70 142 127 66 136 123 63 132 121 62 129 120 62 127
117 61 122 113 58 116 110 56 111 108 56 108 110 59 107
111 62 106 108 61 102 104 57 96 100 55 91 100 55 89
102 60 85 107 68 81 112 77 81 116 81 83 117 83 83
115 81 80 109 76 73 102 70 65 97 67 59 95 65 54
94 65 52 95 68 52 99 72 54 103 77 57 105 80 59
106 81 60 107 81 60 109 81 62 109 80 62 107 77 61
105 75 61 104 74 61 104 73 62 105 74 65 106 74 67
107 75 70 108 75 73 109 76 75 110 78 77 100 60 120
89 50 108 77 39 95 69 31 86 63 26 79 58 23 74
55 22 69 53 21 64 50 20 59 45 17 52 39 13 45
36 10 39 34 10 36 34 10 34 35 11 33 34 12 33
33 13 32 31 13 31 31 13 30 30 13 29 29 12 28
27 11 24 25 11 22 23 11 20 22 11 19 22 12 18
23 13 18 23 13 17 22 14 16 21 13 14 20 12 12
18 12 11 17 11 10 17 10 9 18 10 10 20 10 10
21 11 11 22 12 12 24 12 14 25 13 15 27 13 15
28 13 16 29 13 17 30 13 17 30 13 17 31 12 17
32 11 17 34 11 17 39 12 17 44 14 19 49 17 23
54 21 27 58 24 29 59 24 28 60 23 27 59 21 23
57 18 19 56 17 15 57 18 13 59 21 13 62 25 14
61 24 11 56 20 7 49 14 3 42 9 1 38 6 2
38 7 3 37 8 6 38 11 9 39 15 13 41 20 17
41 22 18 38 21 15 35 19 13 34 19 12 34 19 13
34 19 15 33 18 16 33 17 17 34 18 21 37 19 25
38 20 29 38 20 30 38 20 32 38 19 33 37 19 34
36 18 35 35 18 35 35 17 35 34 17 35 33 18 35
32 18 35 32 18 34 32 18 33 32 18 32 33 19 30
34 19 29 34 19 27 32 17 25 30 15 23 29 14 22
29 13 21 28 13 21 27 13 21 26 12 20 25 12 19
25 12 19 25 12 19 24 12 19 24 12 19 23 11 19
21 10 18 17 8 17 15 7 17 15 7 17 15 7 17
15 7 17 15 7 17 15 6 17 16 7 17 17 7 18
18 8 19 19 8 19 19 9 19 19 9 19 20 9 20
21 9 20 21 8 17 21 7 13 21 6 11 21 6 11
21 6 11 22 6 11 22 6 11 22 7 11 22 6 11
21 6 10 22 6 11 23 8 13 26 11 15 28 13 18
31 16 20 33 17 22 34 17 22 37 17 23 46 22 30
58 33 41 70 44 51 77 50 57 75 49 54 65 39 44
48 23 26 30 7 9 23 1 1 23 2 1 24 3 1
26 3 1 28 4 2 30 4 2 36 7 4 44 12 8
51 15 12 57 19 19 64 23 27 69 24 34 72 23 39
76 24 45 82 26 52 85 27 58 89 28 63 97 33 71
106 41 81 111 47 87 113 48 88 111 46 86 110 46 87
111 47 90 112 49 93 116 53 97 124 61 106 135 71 117
144 79 126 148 82 130 149 82 132 149 82 133 150 81 134
150 81 135 150 80 135 150 79 135 149 78 135 149 78 136
146 76 136 138 72 132 131 67 127 127 65 124 125 64 122
124 64 120 120 62 115 114 57 107 108 54 101 106 54 97
106 56 97 107 58 97 103 56 93 98 52 87 94 49 82
92 49 78 92 52 74 94 58 70 98 65 69 101 69 71
102 70 70 98 67 66 94 63 60 90 61 54 86 58 48
81 55 42 79 53 38 79 54 37 81 58 38 85 63 40
90 68 44 94 72 47 98 74 50 100 75 53 101 73 53
99 71 53 98 69 52 97 68 53 98 69 55 99 70 58
101 72 62 104 74 66 105 75 69 106 76 72 106 77 73
115 74 133 99 59 117 83 43 100 73 35 89 67 30 83
64 28 79 60 26 75 57 24 70 53 22 64 48 19 57
42 14 48 37 10 41 35 10 37 35 10 35 35 11 33
35 12 32 33 13 31 32 13 30 31 12 28 30 12 27
28 12 25 27 11 23 25 12 21 23 11 19 21 11 16
20 11 15 22 13 15 22 14 15 21 14 14 20 14 12
18 13 10 17 10 7 15 8 5 16 7 5 18 8 6
20 9 8 21 10 9 23 10 9 23 10 10 25 10 11
27 11 12 29 11 14 30 11 14 31 11 15 33 12 16
36 14 18 39 15 20 43 17 22 49 19 24 54 21 27
58 24 29 61 26 31 63 26 30 63 25 28 62 23 26
60 20 22 58 18 18 57 17 15 57 18 13 59 20 13
60 22 13 58 21 10 53 17 5 48 12 2 43 9 1
40 7 2 39 7 4 39 8 6 39 11 9 39 14 12
39 18 14 37 20 14 34 19 11 31 19 9 29 19 8
28 18 8 27 18 8 26 16 9 25 15 10 26 15 13
27 17 18 28 17 20 28 16 21 27 16 22 27 16 22
26 15 22 26 15 23 25 14 22 24 13 22 23 13 22
22 13 22 21 13 22 20 13 21 20 12 20 19 12 19
20 11 18 22 11 17 23 10 16 23 10 16 23 9 16
23 9 15 22 9 15 21 8 14 20 8 14 20 8 15
20 8 15 20 9 15 21 9 16 21 10 16 21 11 17
21 11 18 20 11 18 17 9 18 16 8 18 16 8 18
16 8 18 16 8 18 16 8 18 16 8 18 17 9 19
18 10 20 20 10 20 20 10 21 21 11 21 21 11 21
22 11 22 22 11 22 22 10 19 22 8 15 22 8 13
23 8 13 23 9 13 23 9 14 24 9 14 24 10 14
23 9 14 22 8 13 23 9 14 27 13 17 31 17 22
36 22 27 41 26 31 44 29 34 48 31 37 54 34 41
61 38 47 69 43 52 73 46 55 74 46 54 68 41 47
55 29 34 39 15 18 27 4 6 23 1 2 23 2 1
24 3 2 26 3 2 27 3 2 29 3 1 33 5 2
41 10 6 48 15 11 54 19 16 60 22 21 65 23 26
69 24 31 74 24 36 78 25 40 81 26 44 84 26 48
88 28 52 93 32 57 97 35 60 97 36 59 95 33 57
93 32 56 93 32 58 93 33 60 97 36 64 106 44 73
119 55 85 129 64 96 133 68 100 135 69 103 139 72 107
142 74 110 144 75 113 146 77 115 148 77 117 149 78 118
149 78 119 148 78 121 146 77 122 143 76 122 142 76 122
141 77 122 139 77 119 133 73 114 124 66 105 115 60 96
109 58 91 106 57 88 103 56 86 99 54 82 95 51 78
93 50 76 92 51 74 91 53 70 89 56 66 91 59 65
93 63 66 94 64 65 91 62 61 88 60 57 87 60 53
84 59 48 78 54 41 74 51 35 72 49 31 70 49 28
70 50 27 73 54 28 77 57 31 81 59 34 84 60 37
86 60 39 87 60 41 88 61 43 90 63 46 93 66 50
96 68 54 98 71 59 100 73 62 101 73 65 101 73 66
101 74 67 137 96 153 116 76 132 92 52 108 77 38 93
70 32 86 67 31 83 64 29 79 59 26 73 55 23 68
50 19 60 44 14 51 39 11 43 36 10 39 36 11 36
36 12 34 35 12 33 34 12 31 33 12 30 32 12 28
30 12 26 28 12 25 27 12 23 25 12 21 23 12 18
20 11 15 20 11 14 19 12 13 19 13 12 19 13 10
18 13 9 17 12 7 17 10 5 17 8 4 18 8 4
21 9 6 23 10 8 25 11 9 27 11 10 28 11 10
30 11 11 32 12 13 34 13 15 37 14 17 41 16 20
45 19 23 49 22 26 53 24 29 56 25 30 60 26 32
62 26 32 64 26 32 65 26 31 65 26 30 65 25 28
64 24 26 63 22 24 61 20 20 60 19 17 60 19 15
59 20 14 57 19 11 54 17 8 50 13 4 47 11 2
44 9 2 42 8 3 41 8 5 39 8 6 38 10 8
37 12 10 35 14 10 33 16 9 29 16 7 25 16 5
23 17 4 22 16 4 21 15 4 20 14 5 20 13 6
20 13 8 20 14 12 20 14 14 20 13 14 19 13 14
19 12 13 19 12 13 18 12 13 17 11 12 16 10 11
14 10 11 14 10 12 14 10 12 13 9 11 12 9 11
12 8 11 12 7 11 14 5 9 15 4 8 15 4 8
15 3 8 14 3 7 14 3 7 13 3 7 12 3 7
13 3 8 14 4 9 15 5 10 15 6 11 15 7 12
16 8 13 17 9 14 17 9 16 16 9 17 15 9 17
15 10 17 15 9 17 16 9 17 16 9 17 16 9 17
17 9 18 18 11 19 20 11 20 21 11 20 21 11 21
22 12 21 22 12 22 23 12 22 23 12 20 23 11 18
24 11 16 24 12 16 25 12 16 25 12 17 25 13 17
26 13 17 26 14 18 28 15 19 30 17 21 33 20 24
37 24 28 41 28 33 45 32 37 48 35 39 52 37 42
57 38 45 58 36 45 56 32 40 53 27 35 50 23 31
44 18 24 36 11 15 28 4 7 23 1 2 22 0 1
22 1 2 22 2 2 24 3 2 25 3 2 27 3 1
30 5 2 37 9 5 44 14 9 49 18 13 55 21 16
60 22 19 64 22 23 68 23 26 74 25 30 79 28 36
82 29 39 85 29 41 89 31 43 91 33 44 91 33 43
90 32 41 89 30 40 88 29 40 87 27 40 88 28 41
96 35 49 109 46 61 120 57 72 126 62 78 129 64 82
132 67 85 135 69 88 138 71 90 141 72 93 142 72 95
143 72 95 143 71 96 144 73 99 148 78 107 151 81 112
153 83 114 154 86 116 154 89 117 150 87 114 142 82 108
133 76 100 125 72 94 120 70 91 113 67 87 106 61 80
99 56 73 94 53 69 92 53 68 91 55 67 89 57 65
89 59 64 91 61 65 92 62 64 91 63 63 92 65 62
93 68 61 93 68 59 88 65 52 82 60 45 76 56 37
71 51 30 67 49 25 66 48 23 68 49 24 71 50 26
75 51 29 77 52 32 80 54 34 83 57 38 86 60 43
90 64 48 93 68 52 95 70 56 96 71 58 95 70 58
95 70 59 95 70 59 161 120 176 135 95 150 103 64 118
81 42 96 70 32 86 68 31 84 66 30 82 62 28 77
57 25 71 52 21 63 46 15 54 40 12 46 38 11 41
37 11 38 37 12 36 36 12 34 35 12 32 34 12 30
32 12 28 30 12 26 28 12 25 26 12 23 25 12 21
23 12 18 21 11 15 19 11 12 18 12 10 18 12 9
17 11 7 17 11 5 17 10 4 18 8 3 19 8 3
22 8 4 25 10 6 29 12 10 35 16 14 40 20 18
45 23 22 47 24 24 48 22 23 49 23 25 53 25 28
57 26 31 60 28 33 61 29 33 62 28 33 64 27 33
66 27 34 67 27 34 68 28 33 68 28 32 68 27 31
68 26 29 67 24 27 65 23 24 63 21 21 62 21 19
62 21 18 60 20 15 57 18 12 53 15 8 50 13 5
48 11 4 45 10 3 43 9 4 42 9 5 40 9 6
38 9 7 36 10 7 33 11 7 29 12 6 24 12 4
20 13 3 18 13 2 16 13 1 15 12 1 14 11 2
14 10 3 14 9 5 14 9 7 13 9 8 13 8 8
13 8 7 12 8 6 12 7 5 12 7 5 11 7 5
10 7 4 9 6 4 9 6 5 8 6 5 8 5 4
7 5 5 7 5 5 7 3 5 8 2 4 9 1 3
10 1 3 9 1 2 9 0 2 8 0 2 7 0 2
7 0 2 8 1 4 9 1 5 9 2 6 9 2 7
9 3 7 10 4 8 10 5 9 11 5 10 12 6 12
12 7 13 12 7 13 12 7 13 13 6 13 13 6 13
13 6 13 14 7 14 15 8 16 16 9 16 17 9 17
18 9 17 18 9 17 19 10 18 20 10 18 21 11 18
22 11 17 23 12 17 24 12 17 24 13 17 24 13 17
25 13 18 25 14 18 27 16 20 32 20 25 34 23 28
35 24 29 37 26 30 38 27 31 40 28 33 41 29 34
42 29 34 43 26 33 41 21 30 38 15 24 34 11 19
32 8 15 30 5 12 26 3 8 22 1 4 20 0 1
19 0 1 19 1 1 20 1 1 21 2 1 23 2 1
24 3 1 27 4 1 33 8 4 39 13 7 44 16 9
49 18 11 53 19 13 57 19 15 61 20 17 67 22 21
74 26 27 79 29 31 84 31 34 89 35 38 93 39 40
96 42 42 98 43 42 99 43 42 99 41 41 96 37 37
94 34 34 98 37 38 108 46 47 119 56 58 125 62 65
129 64 68 131 66 71 134 68 73 137 70 75 140 71 78
141 72 79 141 71 80 141 70 80 144 72 84 151 79 94
157 84 101 159 87 104 161 90 106 162 94 109 161 97 111
157 96 110 151 93 105 146 91 103 142 91 102 136 88 99
124 80 89 110 67 76 99 57 66 92 53 61 90 54 60
89 57 61 89 59 63 90 61 63 91 62 63 93 65 64
97 71 67 103 78 71 106 82 72 103 80 68 97 75 61
90 70 53 83 64 44 78 59 38 75 57 34 75 56 33
77 57 34 80 58 37 83 59 39 85 60 40 87 62 42
88 64 45 90 66 48 92 69 51 92 70 53 92 69 53
91 69 53 91 68 53 90 68 53 180 140 193 154 114 167
119 79 132 90 51 105 75 36 91 71 33 88 69 33 86
65 30 81 60 27 74 54 22 66 48 17 57 42 13 49
39 11 44 38 12 41 38 12 38 37 12 35 35 12 32
34 12 30 32 12 29 30 12 27 28 12 25 26 12 23
24 12 21 23 12 18 21 12 15 20 12 12 19 11 9
18 11 7 18 11 5 19 11 4 19 10 3 21 9 3
24 8 3 28 10 6 34 14 10 41 19 17 50 26 24
58 33 32 66 38 38 69 39 39 67 36 37 66 33 36
66 31 35 66 29 34 66 28 33 67 27 33 67 27 33
70 29 35 74 32 39 76 34 40 75 32 38 73 31 35
71 28 32 69 25 28 67 23 25 66 22 23 65 22 22
65 22 21 64 23 20 63 22 18 60 21 16 57 19 13
55 18 11 52 16 10 49 13 7 46 12 6 45 11 8
42 11 8 39 10 7 36 9 6 31 9 6 26 9 4
20 9 2 16 9 1 14 9 0 12 9 0 11 8 0
11 7 1 11 6 2 10 5 3 9 5 4 9 5 5
8 4 4 8 4 3 8 4 2 7 3 1 7 3 1
7 3 1 7 4 1 7 4 1 7 4 2 6 3 2
6 3 2 5 3 2 4 2 3 5 2 3 6 1 2
7 1 1 7 0 1 7 0 1 7 0 0 6 0 1
5 0 1 5 0 1 5 0 2 6 0 3 6 0 4
5 0 4 4 1 4 4 1 4 5 1 4 5 2 5
6 2 6 7 3 7 7 3 7 7 2 7 7 2 7
7 2 7 7 2 7 8 3 8 10 4 9 11 4 10
11 4 10 12 5 10 12 5 11 13 5 11 13 6 11
15 7 12 18 9 14 20 10 15 20 10 15 20 10 15
21 11 16 21 11 16 21 11 16 23 13 18 27 17 22
29 19 24 29 19 24 29 19 24 30 19 24 30 20 25
30 20 25 30 18 24 29 15 21 28 10 18 26 7 15
25 5 13 24 4 10 23 3 8 21 2 5 19 1 3
16 0 1 15 0 0 16 0 0 17 1 0 18 1 0
20 2 0 21 2 0 24 4 1 28 7 2 34 11 5
39 14 7 43 16 7 47 16 7 50 16 8 55 16 9
60 19 13 68 23 18 75 27 24 82 32 29 89 38 36
96 45 41 102 50 45 106 54 48 110 56 49 111 54 46
108 50 41 105 46 37 107 46 38 113 51 43 120 57 50
124 61 54 127 63 57 130 64 59 131 65 60 133 66 61
136 67 63 138 69 66 141 71 68 143 72 71 148 76 76
156 83 85 162 88 92 164 91 95 165 93 97 167 98 101
169 103 106 166 104 107 162 102 105 159 102 105 157 104 107
154 104 106 145 98 100 130 85 87 114 70 72 100 58 60
91 53 55 88 55 56 89 58 59 90 61 61 92 63 62
95 67 64 100 74 69 108 82 75 112 88 78 111 88 76
107 85 71 102 81 66 97 76 59 93 72 54 90 70 51
89 69 49 90 69 49 92 70 50 93 70 51 94 71 51
94 71 50 93 71 50 92 70 50 92 70 50 91 70 49
90 70 49 89 69 48 88 69 48 88 68 47 190 150 202
170 130 182 141 101 153 112 72 126 92 53 107 82 44 99
77 40 94 70 34 86 63 29 78 56 23 70 49 18 60
43 14 52 40 12 46 39 12 42 39 13 40 37 12 36
35 12 33 33 12 31 32 12 30 30 12 28 28 12 25
26 12 23 24 12 21 23 12 18 22 12 15 21 12 12
21 12 10 22 13 8 23 14 7 25 15 7 27 16 8
31 16 9 38 17 12 44 20 16 49 25 21 56 30 27
63 35 33 69 39 38 74 41 42 76 41 42 75 38 40
72 33 36 69 28 33 67 25 30 68 24 31 72 27 34
77 31 38 83 37 44 88 44 50 87 43 49 82 37 42
76 31 35 71 27 29 68 23 26 67 22 24 68 22 23
68 23 23 67 23 22 66 24 21 66 25 21 66 27 22
66 27 22 65 27 21 61 25 19 57 21 15 53 19 13
51 18 13 47 16 12 43 13 10 37 10 8 31 9 6
25 7 3 19 6 1 14 6 0 12 6 0 10 6 1
9 5 1 9 3 1 9 3 1 8 2 2 7 2 3
6 2 3 5 2 3 5 1 1 5 1 0 4 1 0
4 1 0 4 1 0 5 2 1 5 3 1 5 2 1
5 2 2 4 2 2 3 1 2 3 1 2 3 1 2
5 1 1 7 1 1 6 1 1 6 1 0 5 1 0
5 1 0 4 1 1 4 0 1 4 0 1 4 0 2
3 0 2 2 0 2 1 0 2 1 0 2 2 0 3
2 0 3 3 0 2 4 0 2 4 0 2 4 0 2
4 0 2 4 0 2 4 0 2 5 0 2 6 1 3
6 1 4 7 1 4 7 1 4 8 2 5 8 2 5
8 2 5 10 3 7 13 5 9 15 6 11 15 6 11
15 7 12 16 7 12 16 7 12 16 8 12 17 8 13
18 9 14 19 10 15 19 10 15 19 11 15 19 11 16
20 11 16 20 12 17 21 11 16 20 8 14 20 5 12
20 4 12 21 4 11 20 3 9 17 1 5 15 1 3
14 1 1 13 0 0 12 0 0 12 0 0 13 1 0
15 1 0 16 2 0 18 2 0 20 3 0 24 5 2
30 9 3 34 12 5 38 13 4 41 13 3 44 13 3
49 13 4 54 15 7 62 19 13 70 25 19 78 31 26
87 38 33 93 44 39 98 49 42 103 52 44 107 54 44
109 53 41 110 52 39 112 52 39 113 52 39 115 54 41
118 55 43 120 56 44 121 57 45 123 57 45 123 56 44
123 55 44 125 56 46 129 60 50 135 65 55 140 69 61
147 75 67 154 81 74 161 88 82 164 92 86 165 94 88
168 99 94 172 106 101 173 109 104 168 108 103 164 106 102
161 106 102 159 106 102 155 104 101 148 99 96 135 88 85
120 75 73 106 65 63 96 61 59 91 60 58 91 61 58
92 63 59 95 67 62 100 72 66 105 78 70 107 82 72
107 83 71 106 82 70 104 81 68 102 79 65 100 78 62
98 76 60 96 75 57 96 75 56 97 75 56 98 76 56
98 76 55 97 76 55 96 75 53 94 74 52 93 73 49
91 72 47 89 71 46 88 70 45 88 70 45 87 70 44
192 152 202 183 143 193 165 125 177 141 101 154 117 78 132
100 61 116 88 51 105 77 40 93 66 31 82 58 24 72
50 18 63 45 14 55 42 12 49 41 12 45 40 12 42
38 12 38 35 11 35 33 11 33 32 12 31 30 12 29
28 12 26 26 12 23 24 12 21 24 12 18 23 12 15
24 13 13 25 14 11 27 15 11 31 18 12 35 21 14
39 24 17 46 27 21 55 31 26 62 33 30 64 34 32
67 36 34 70 37 36 73 37 37 74 37 37 75 36 37
74 33 35 73 30 33 73 28 32 74 27 33 78 30 36
85 34 41 91 40 47 95 45 52 94 47 53 90 44 49
83 37 41 76 30 33 71 25 28 69 24 25 70 24 25
71 25 25 70 25 24 68 24 23 67 25 22 69 28 24
73 33 28 75 37 31 75 38 32 72 35 29 68 32 26
64 29 24 60 26 22 55 23 19 48 17 14 41 12 10
33 9 6 25 6 3 18 4 1 14 3 0 11 4 0
9 4 1 8 3 1 8 1 2 8 1 2 7 1 3
5 1 3 4 1 4 3 1 3 3 0 2 3 0 1
2 0 0 2 0 0 2 0 1 3 1 2 3 2 2
2 1 2 2 1 1 2 1 2 1 1 2 1 0 2
2 0 2 4 1 1 5 1 0 4 1 0 4 1 0
3 1 0 3 1 0 2 1 0 2 0 0 2 0 0
2 0 1 1 0 2 1 0 2 1 0 2 1 1 3
1 1 3 2 1 3 2 1 2 3 1 1 4 1 1
4 1 1 4 1 1 4 1 1 4 1 1 4 0 1
4 0 1 5 0 1 5 0 1 6 0 1 6 0 2
7 1 2 7 1 3 8 2 4 9 3 6 10 3 8
10 4 8 11 4 8 11 4 9 11 5 9 11 5 9
12 5 9 12 6 10 12 6 10 12 6 10 12 6 9
12 5 9 12 5 9 12 5 9 13 5 9 14 4 9
14 3 9 15 3 9 17 3 9 16 2 7 14 1 4
12 0 2 12 1 2 11 0 1 10 0 0 10 0 0
11 1 0 12 1 0 14 2 0 15 2 0 17 2 0
21 4 1 26 7 3 30 10 4 34 11 3 36 11 2
39 10 1 43 10 1 49 12 4 57 17 9 65 23 17
74 29 24 81 35 29 85 38 32 88 40 33 91 41 33
94 42 31 97 42 29 103 44 31 109 49 35 112 52 37
113 52 37 114 52 37 116 53 39 118 53 40 119 52 38
119 51 37 119 51 37 122 52 39 126 56 43 132 60 48
136 65 53 141 69 57 147 76 63 153 82 69 156 86 73
157 88 76 163 95 83 171 105 94 175 111 101 173 111 102
167 108 99 159 101 93 152 95 88 149 94 88 149 96 91
148 96 91 143 92 88 131 86 81 115 77 72 101 69 63
94 62 57 91 61 55 94 64 57 98 69 61 100 72 63
99 72 62 99 73 61 100 74 62 100 76 63 100 77 63
99 77 63 98 75 60 95 73 57 94 72 55 94 73 54
96 74 54 97 75 55 97 76 55 96 76 54 95 75 51
92 74 49 90 72 46 88 71 44 87 71 43 87 71 42
87 72 42 191 151 202 189 149 200 182 142 194 167 127 180
144 105 159 121 82 136 101 62 115 83 45 98 70 33 85
61 25 76 54 19 68 48 14 60 45 12 54 43 11 50
42 11 46 39 11 43 36 10 40 34 11 37 32 11 34
31 11 31 29 11 28 27 12 24 26 12 21 26 12 19
27 12 16 29 13 15 33 16 16 38 19 18 43 24 21
48 28 23 52 31 26 58 34 29 66 36 34 71 37 36
72 36 36 73 36 36 73 35 35 74 35 35 76 35 35
76 34 35 77 33 33 78 32 34 81 34 37 85 36 40
89 38 42 92 40 45 94 41 47 93 41 46 89 40 44
85 38 40 81 34 36 77 31 32 74 28 29 72 26 26
71 25 25 71 25 25 70 25 25 67 24 23 67 25 23
70 30 27 76 37 33 80 42 37 80 43 38 78 41 36
76 38 34 74 36 32 70 33 30 65 29 26 57 23 20
47 16 13 37 9 7 28 5 2 20 2 1 15 2 0
12 3 0 9 3 1 7 1 2 6 0 3 6 0 3
5 0 4 4 0 4 3 1 4 3 1 4 2 0 3
2 0 1 2 0 1 2 0 1 2 0 1 1 1 2
1 1 2 1 0 1 1 0 1 1 0 1 1 0 2
1 0 2 1 0 1 2 0 1 2 0 0 2 1 0
2 0 0 1 0 0 1 0 0 1 0 0 1 0 0
1 0 0 1 0 1 0 0 2 0 0 2 1 1 3
1 1 3 2 2 4 2 2 3 3 2 2 4 2 2
5 2 1 6 2 1 6 2 2 6 2 2 6 2 2
6 2 2 6 2 2 6 1 1 6 1 2 7 1 2
7 1 2 7 1 2 7 2 3 7 2 4 7 1 5
6 1 5 7 2 6 7 2 6 7 2 6 7 3 6
7 3 7 8 3 7 8 4 7 8 4 7 8 4 7
7 3 5 6 3 5 6 2 4 5 2 3 6 2 4
8 2 5 9 2 5 10 1 5 11 1 5 11 1 4
10 1 2 10 1 2 10 2 3 8 1 1 7 0 0
8 0 0 8 1 0 9 1 0 10 2 0 12 2 0
13 2 0 17 4 1 20 6 2 24 8 2 28 9 2
30 9 1 33 9 0 37 9 0 43 11 2 51 15 8
59 21 14 67 26 19 72 29 23 75 30 23 76 30 23
78 31 22 81 31 21 85 32 19 93 37 23 101 43 29
105 46 32 106 47 32 108 48 33 113 52 37 118 55 40
120 55 41 123 57 42 127 60 45 132 63 48 135 66 51
137 66 52 137 66 52 136 66 51 137 67 52 139 70 54
140 72 55 141 73 57 147 81 65 159 94 79 169 105 91
172 110 96 167 107 94 156 97 85 144 86 75 139 82 71
141 85 75 147 92 83 152 98 89 148 98 89 134 91 83
117 79 71 102 66 57 94 59 50 93 60 50 96 64 54
97 67 56 95 67 56 93 67 54 94 68 55 95 71 57
96 73 59 96 74 59 95 72 57 92 70 55 91 69 53
93 71 53 94 73 53 95 73 54 96 74 54 96 75 54
94 75 51 92 73 49 89 72 46 88 71 44 88 71 43
88 72 43 88 73 43 192 152 203 190 150 203 188 148 201
183 143 197 169 129 182 144 104 158 117 77 130 94 55 107
79 40 93 71 32 86 64 26 80 58 20 73 54 17 67
52 15 62 51 15 59 47 15 55 42 14 51 39 14 47
36 13 42 34 13 37 32 12 32 30 12 27 30 12 23
31 12 20 34 13 20 39 16 21 45 20 24 52 24 27
56 28 30 59 31 31 61 32 31 64 32 32 70 33 34
74 33 35 76 34 36 76 34 35 76 33 34 76 33 32
78 34 33 79 35 33 80 34 32 82 35 33 85 37 36
88 38 39 89 38 39 89 37 39 88 35 38 86 34 36
84 34 34 83 34 33 81 33 31 79 31 29 75 28 27
72 26 25 69 24 24 67 22 23 65 22 22 64 22 22
66 25 24 70 30 28 75 36 33 78 40 37 79 41 37
78 40 37 79 39 36 78 38 36 77 36 34 74 33 31
68 29 26 58 21 19 46 13 10 33 6 3 22 2 1
17 2 0 13 2 1 9 2 1 6 1 2 4 0 3
3 0 4 3 0 4 3 0 4 3 1 4 3 1 4
3 1 3 2 1 2 2 1 1 2 1 1 2 0 1
1 0 1 1 0 1 1 0 0 1 0 0 1 0 0
1 0 1 1 0 1 1 0 1 1 0 1 1 1 1
1 1 1 0 0 0 0 0 0 0 0 0 0 0 0
0 0 0 0 0 0 0 0 1 0 0 2 0 0 2
0 0 2 1 1 3 1 1 3 1 1 3 3 1 2
5 2 2 6 2 2 6 2 2 6 2 3 7 3 3
7 3 3 7 3 4 7 3 4 7 3 4 7 3 4
7 3 4 7 2 3 7 2 3 7 2 3 6 2 3
4 1 4 3 0 4 4 0 5 4 1 5 4 1 4
4 2 5 4 2 5 4 2 4 4 3 4 4 3 3
3 3 3 3 2 2 2 2 2 2 2 1 1 1 1
2 1 1 5 1 2 6 1 3 7 1 3 7 1 3
7 1 3 7 1 2 7 1 2 7 1 2 6 1 1
5 0 0 5 0 0 6 0 0 6 1 0 7 1 1
8 1 1 9 2 1 12 4 1 15 5 1 17 5 1
20 6 1 23 6 1 27 7 1 31 8 1 37 10 3
44 14 6 51 18 9 56 20 12 60 22 14 63 22 14
65 22 14 68 24 14 72 25 14 77 27 14 84 32 18
91 38 24 94 40 26 96 40 26 100 43 29 108 49 34
115 55 40 121 59 44 127 64 48 135 69 53 142 75 59
146 78 62 146 77 61 144 74 58 139 70 53 134 65 48
131 63 45 128 60 42 125 58 40 128 62 44 137 73 55
149 86 69 157 96 79 157 97 80 150 91 74 141 83 67
136 79 63 138 81 65 144 88 72 150 94 79 151 98 84
145 96 84 130 85 74 112 70 59 100 60 48 94 57 45
94 60 47 94 63 50 93 65 51 91 65 50 90 67 51
90 69 52 91 70 54 92 71 54 92 70 54 92 69 54
93 70 54 94 71 55 95 72 55 95 72 55 95 73 55
95 74 55 94 73 52 91 71 50 90 70 48 89 71 47
89 72 47 89 72 47 89 73 47 190 150 203 190 149 204
190 149 204 189 148 203 181 141 195 164 124 177 141 101 153
119 80 132 103 63 116 91 51 107 83 43 100 76 36 94
72 31 87 69 29 82 68 29 78 64 29 74 56 25 67
49 22 60 45 19 53 40 16 45 37 15 37 35 13 30
34 13 25 37 13 24 42 16 25 49 20 27 55 23 30
60 27 33 64 29 34 65 29 33 65 29 32 66 28 31
70 29 31 73 30 32 75 31 32 76 31 32 76 31 31
77 32 30 78 33 30 79 34 30 81 34 30 82 35 31
84 36 32 85 36 33 85 35 33 85 33 32 84 31 31
83 31 30 83 32 30 82 32 29 79 31 27 76 28 25
72 26 24 68 23 22 64 21 21 61 19 20 58 17 18
59 18 19 62 22 22 67 27 26 71 33 31 75 36 34
76 37 35 78 38 36 79 38 37 80 37 36 79 36 34
79 35 34 76 34 32 68 28 25 55 19 16 40 10 7
26 3 2 18 1 0 14 1 0 10 2 1 7 2 2
4 2 4 2 1 5 2 0 5 2 0 4 2 0 3
2 0 3 2 0 2 2 0 1 2 0 1 2 1 1
2 0 1 2 0 0 1 0 0 1 0 0 1 0 0
1 0 0 1 0 0 1 0 0 1 0 0 1 1 1
1 1 1 1 1 1 0 0 0 0 0 0 0 0 0
0 0 0 0 0 0 0 0 0 0 0 0 0 0 1
0 0 2 0 0 2 0 0 2 0 0 2 1 0 2
2 1 2 4 1 2 5 1 2 5 1 2 5 2 3
6 2 3 6 2 3 6 3 4 7 3 4 7 3 4
6 3 4 6 3 4 6 2 3 5 2 3 5 2 3
4 1 3 2 0 3 1 0 4 2 0 4 2 0 3
1 1 3 2 1 3 2 1 3 2 2 2 2 2 2
2 3 1 1 3 0 1 3 0 0 3 0 0 2 0
0 2 0 1 1 0 3 1 1 5 1 2 5 1 2
5 1 2 5 1 2 5 1 2 5 1 2 5 1 1
4 0 0 3 0 0 3 0 0 4 0 0 4 0 1
5 0 1 5 1 1 6 2 1 9 4 1 11 4 1
12 4 0 15 4 0 18 5 1 22 7 1 27 8 2
32 10 3 37 12 5 43 14 6 47 15 6 50 16 6
52 15 6 54 16 6 57 17 7 62 20 8 68 23 10
75 28 14 82 33 19 85 35 21 87 36 22 93 39 25
101 46 31 110 53 37 117 58 42 122 62 45 129 66 49
138 73 56 146 80 62 150 83 66 150 82 65 147 79 61
141 73 55 136 68 49 129 62 43 121 55 36 114 49 31
115 50 32 122 59 41 132 71 52 139 78 59 138 78 60
134 75 56 132 74 55 134 76 57 141 83 65 151 93 75
157 101 85 154 101 87 139 90 78 120 73 61 105 61 48
97 58 43 94 59 44 92 61 45 91 63 47 90 65 48
89 67 49 87 68 50 88 68 51 90 69 52 92 70 53
94 71 55 95 73 57 97 75 59 99 76 60 99 76 60
98 76 60 96 74 57 93 72 54 91 70 52 90 70 51
90 71 51 89 72 50 89 72 50 88 72 50 177 136 192
183 142 198 189 148 205 190 149 206 186 145 201 178 138 192
167 127 180 153 113 166 136 96 150 119 78 135 105 64 124
96 55 115 89 48 106 82 41 97 77 38 89 72 35 83
64 30 75 56 25 67 50 21 58 45 17 49 41 15 40
39 15 34 40 15 30 44 17 29 50 20 31 55 23 32
59 25 33 64 26 34 66 27 35 66 27 33 66 27 32
66 26 30 68 26 28 70 26 26 71 26 25 73 28 26
75 30 27 77 32 27 78 33 27 78 33 27 80 34 27
82 34 28 82 35 29 83 35 29 82 33 28 82 32 28
81 31 27 81 30 27 81 31 27 78 30 26 74 27 23
69 24 20 65 21 19 61 19 18 58 18 17 54 15 15
50 12 12 52 14 14 57 19 19 62 25 24 67 29 28
71 33 31 75 35 33 78 38 36 80 39 37 80 37 36
80 36 34 81 37 35 81 39 36 76 36 32 65 29 24
50 19 14 34 9 5 22 3 1 14 1 0 10 1 1
8 3 3 7 4 5 4 2 6 2 1 4 2 0 3
2 0 2 2 0 1 2 0 1 2 0 1 2 1 0
2 1 0 2 1 0 2 1 0 2 1 0 2 1 0
2 1 0 2 1 0 2 1 0 2 1 0 2 1 0
1 1 1 1 1 1 1 1 1 1 1 1 0 0 0
0 0 0 0 0 0 0 0 0 0 0 0 0 0 0
0 0 0 0 0 1 0 0 1 0 0 1 0 0 1
0 0 1 1 0 1 2 0 1 3 0 1 3 0 1
3 1 2 4 1 2 4 1 2 4 2 3 5 2 3
5 2 3 4 2 3 4 1 2 3 1 2 3 1 1
3 0 1 2 0 2 1 0 3 1 0 3 1 0 3
1 0 2 1 0 2 1 1 1 1 1 1 2 2 1
2 3 1 3 4 1 2 4 0 2 4 0 1 3 0
1 3 0 1 2 0 1 1 0 2 1 0 4 0 0
4 0 1 4 0 1 4 0 1 4 0 1 4 0 1
4 0 0 3 0 0 3 0 0 3 0 0 3 0 0
3 0 0 4 0 0 4 0 0 5 1 0 7 3 1
9 4 0 10 4 0 12 4 0 15 5 1 18 6 1
23 8 1 27 9 2 31 10 3 35 11 3 38 11 3
41 11 2 43 11 2 44 11 2 46 12 2 51 14 3
58 19 5 65 24 8 72 28 13 76 31 15 79 32 17
85 36 20 94 43 26 102 49 31 107 52 33 110 52 33
115 55 36 125 62 44 138 73 54 147 82 62 151 85 66
151 85 65 149 83 63 145 79 60 138 72 53 126 61 41
111 46 28 100 36 18 100 37 19 108 46 28 117 55 37
120 59 41 118 58 40 117 57 39 120 60 42 130 71 53
145 86 68 157 100 84 159 106 92 149 99 86 131 84 70
113 70 55 100 62 46 93 59 43 91 61 43 90 64 46
90 67 48 88 67 49 86 68 48 87 68 49 89 69 50
92 71 53 95 74 56 99 77 60 103 80 65 106 83 69
106 84 69 104 82 68 100 79 63 96 76 60 94 74 58
93 74 57 93 74 56 92 74 55 91 74 54 90 73 53
151 110 168 165 124 182 182 141 199 190 149 207 189 148 205
186 145 201 184 143 197 178 138 192 162 122 177 139 98 156
118 76 137 104 63 124 94 53 113 83 42 99 73 33 86
66 27 78 60 23 71 55 20 64 50 17 56 46 15 48
44 15 42 45 16 38 48 19 37 52 22 36 56 24 37
60 25 36 63 25 36 65 25 35 67 26 35 67 26 34
67 26 32 67 25 30 67 24 25 66 23 21 67 22 19
69 24 20 72 28 23 76 31 25 77 33 25 78 33 25
80 34 25 81 34 26 81 34 26 81 34 26 81 33 25
80 32 25 79 31 25 78 30 25 77 29 25 73 26 22
67 23 19 61 19 15 56 16 13 52 14 12 50 14 12
46 11 10 42 8 7 45 10 9 51 16 15 58 22 21
63 26 25 68 30 29 73 34 32 77 37 35 79 39 36
80 38 35 81 39 35 84 41 37 84 43 38 81 42 36
75 39 32 63 31 24 47 20 14 31 11 6 19 4 2
11 2 1 9 3 2 8 4 4 4 3 4 2 1 3
2 0 1 2 1 1 2 1 1 2 1 0 2 1 0
2 1 0 2 1 0 2 1 0 3 2 0 3 2 0
3 2 0 3 2 0 3 2 0 3 2 0 3 2 0
3 2 0 2 2 1 2 2 2 1 1 1 1 1 1
1 1 1 0 0 0 0 0 0 0 0 0 0 0 0
0 0 0 0 0 0 0 0 0 0 0 0 0 0 0
0 0 0 0 0 0 1 0 0 1 0 0 1 0 0
1 0 0 2 0 1 2 1 1 2 1 1 3 1 1
3 1 2 3 1 2 2 1 1 2 1 1 2 0 1
1 0 0 1 0 0 1 0 1 1 0 2 1 0 2
1 0 2 1 0 1 1 1 0 1 1 0 2 1 0
2 2 0 4 4 0 4 5 0 3 5 0 3 5 0
2 4 0 2 4 1 2 3 1 2 2 0 2 1 0
3 0 0 4 0 0 4 0 0 4 0 0 4 0 0
4 0 0 3 0 0 3 0 0 3 0 0 3 0 0
3 0 0 3 0 0 3 0 0 4 0 0 4 1 0
6 2 0 7 3 0 7 3 0 9 4 0 11 5 0
15 6 1 18 7 1 22 7 1 25 8 1 28 8 1
31 8 1 33 9 0 35 9 1 37 9 1 38 10 1
41 11 1 47 14 1 54 19 3 60 23 6 64 25 8
69 27 10 75 32 14 84 38 20 91 43 23 94 43 23
96 42 21 101 43 23 112 52 32 127 65 45 140 76 55
146 81 60 147 82 61 148 83 63 148 83 63 144 80 60
133 69 49 114 50 32 96 33 15 88 26 8 91 29 12
97 36 19 101 40 23 101 41 24 101 42 24 103 44 27
111 53 36 124 66 50 136 80 65 144 93 78 145 98 83
139 94 79 125 83 67 107 70 53 94 61 44 89 61 42
89 64 45 89 66 47 86 66 46 84 66 45 84 65 45
86 67 47 90 70 50 93 73 54 97 76 59 101 79 65
104 82 68 105 84 70 105 84 70 104 83 69 102 83 68
101 82 67 100 81 66 97 79 63 95 77 60 94 77 59
93 76 58 122 81 141 140 99 159 165 124 184 183 141 202
188 147 207 187 146 204 188 147 204 187 146 202 172 131 187
144 103 162 117 75 137 99 58 121 89 47 109 77 36 96
66 25 81 59 19 72 55 16 66 53 14 61 51 14 56
51 15 52 51 18 48 54 22 46 58 25 46 62 28 45
65 29 44 66 28 42 67 26 40 67 24 37 66 23 34
66 22 32 65 22 30 65 22 27 65 21 22 63 19 17
63 19 15 65 21 16 70 26 19 74 30 22 76 33 23
78 34 24 81 35 24 82 36 25 83 36 25 83 36 26
82 35 25 80 33 24 78 32 24 75 30 24 72 27 23
67 23 20 59 18 15 52 14 10 46 10 7 42 9 6
40 9 7 38 7 6 35 5 4 38 8 7 46 14 13
53 19 18 60 24 22 66 28 27 72 32 31 76 35 33
77 37 34 79 38 34 81 40 35 83 42 37 84 43 37
83 44 36 80 44 36 74 41 32 61 32 24 44 22 14
28 11 6 16 4 1 9 2 0 6 2 1 4 1 1
2 1 1 2 1 0 3 1 0 3 1 0 3 1 0
3 2 0 3 2 0 3 2 0 3 2 0 3 2 0
3 2 0 3 2 0 3 2 0 3 2 0 3 2 0
3 2 0 3 2 0 2 2 1 2 2 2 2 2 2
1 1 1 1 1 1 1 1 1 0 0 0 0 0 0
0 0 0 0 0 0 0 0 0 0 0 0 0 0 0
0 0 0 0 0 0 0 0 0 0 0 0 0 0 0
1 0 0 1 0 0 1 1 0 2 1 0 2 1 0
2 1 0 2 1 1 2 1 0 1 1 0 1 1 0
1 0 0 0 0 0 0 0 0 1 0 1 1 0 2
2 0 2 2 1 1 2 1 0 2 1 0 3 2 0
3 2 0 4 4 0 5 6 0 6 7 0 5 6 0
5 6 0 4 5 1 4 5 1 4 4 1 4 3 1
4 2 0 4 1 0 5 1 0 5 1 0 5 1 0
5 1 0 5 1 0 5 1 0 4 1 0 4 1 0
4 1 0 4 0 0 4 0 0 4 0 0 4 0 0
4 1 0 4 2 0 4 3 0 4 2 0 6 3 0
8 4 0 11 5 0 14 6 1 17 7 1 20 7 1
22 7 0 24 7 0 27 8 1 30 9 1 32 10 2
33 10 2 35 10 1 37 10 0 42 13 0 47 17 1
52 20 2 57 22 4 64 26 8 72 32 12 80 37 16
84 38 16 86 35 14 90 36 14 100 44 21 115 56 34
128 68 45 135 73 50 137 75 53 139 77 56 143 80 60
144 82 61 138 76 56 121 60 40 101 39 21 85 25 7
80 20 4 82 22 6 86 27 10 89 31 14 91 34 17
93 37 20 96 40 24 101 45 30 105 52 37 111 63 48
120 76 60 126 84 68 124 85 68 112 77 59 98 68 48
89 62 41 85 62 40 83 62 41 81 61 40 79 60 39
78 60 38 80 61 40 83 64 43 86 68 47 89 70 51
91 70 55 93 71 57 94 73 60 97 77 63 99 80 66
101 82 67 100 82 67 97 80 64 92 75 59 90 73 56
89 72 55 88 71 54 100 59 120 115 73 135 139 98 160
164 122 185 179 137 199 184 143 203 187 146 203 186 145 202
173 132 190 146 105 165 116 75 137 96 54 117 84 42 105
74 32 94 65 24 82 59 17 73 56 14 67 57 15 64
60 19 64 62 24 63 65 28 61 68 32 59 70 34 58
72 36 56 74 35 53 73 33 49 70 28 44 67 23 38
65 19 32 63 17 29 62 17 27 62 17 24 62 18 19
61 17 15 61 17 14 63 20 14 67 24 17 73 29 21
77 33 23 80 35 25 82 37 26 84 38 26 85 40 28
86 40 29 85 39 29 81 37 27 77 34 25 73 31 23
67 26 22 60 21 18 52 14 12 43 8 6 36 5 3
32 4 2 31 5 3 30 4 3 29 3 2 33 5 4
40 11 10 48 16 15 56 21 20 64 25 25 69 29 28
72 31 29 73 33 29 75 35 30 78 38 31 79 39 32
80 39 32 80 40 32 81 42 33 78 43 33 70 39 29
56 31 22 39 19 12 24 8 4 12 2 1 6 1 0
5 1 0 4 2 0 4 3 0 4 3 0 4 3 0
4 3 0 4 3 0 4 3 0 4 3 0 4 3 0
4 3 0 4 3 0 4 3 0 4 3 0 4 3 0
4 3 0 4 3 0 4 3 0 3 3 1 2 2 2
2 2 2 2 2 1 1 1 1 1 1 1 1 1 0
1 1 0 0 0 0 0 0 0 0 0 0 0 0 0
0 0 0 0 0 0 0 0 0 0 0 0 1 1 0
1 1 0 1 1 0 1 2 0 2 2 0 2 2 0
2 2 0 2 3 0 2 2 0 2 2 0 1 2 0
1 1 0 1 1 0 0 1 0 0 1 0 1 1 0
2 1 1 3 1 1 4 2 0 4 2 0 4 3 0
5 3 0 5 4 0 6 5 0 7 7 0 7 8 0
7 7 0 6 7 1 6 6 1 5 6 2 5 5 3
6 5 2 6 4 1 7 3 1 7 3 1 7 3 1
7 3 1 7 3 1 7 3 1 7 3 1 7 3 1
6 2 0 6 2 0 6 2 0 5 1 0 5 1 0
5 1 0 4 2 0 3 2 0 2 2 0 2 1 0
3 1 0 5 2 0 7 3 0 10 5 0 13 6 0
15 6 1 16 5 0 18 5 0 20 6 0 23 8 1
26 10 2 27 10 2 27 9 1 28 8 0 31 9 0
36 12 0 40 14 0 46 17 1 52 21 3 60 25 6
68 30 10 75 33 13 78 32 11 81 31 9 88 36 14
101 47 23 113 57 33 121 62 39 125 65 42 127 68 46
135 75 54 143 83 62 144 85 64 135 75 55 115 56 36
92 34 16 77 20 4 73 17 1 76 20 4 79 25 8
82 29 13 84 33 16 85 34 18 85 35 19 84 37 21
85 42 25 90 50 33 98 60 42 104 69 50 104 73 53
99 71 49 89 65 42 82 60 37 77 58 34 75 57 33
74 56 33 73 56 32 74 56 33 76 58 35 78 60 37
80 62 41 81 62 44 81 62 46 82 63 48 85 66 51
87 69 54 89 71 55 87 70 54 85 68 51 81 65 47
79 63 45 78 63 45 77 63 44 84 42 105 94 52 115
114 72 135 138 96 160 160 119 181 176 134 195 183 142 201
184 143 201 175 134 193 155 114 174 128 87 149 105 63 127
88 46 110 76 34 98 68 26 87 64 21 79 64 20 75
67 23 75 73 30 77 77 36 78 80 41 76 81 42 72
80 42 68 79 41 64 78 39 59 76 35 53 71 28 47
66 22 39 62 17 32 60 14 28 60 13 25 60 14 22
60 15 17 60 16 15 61 17 14 63 20 14 66 23 16
72 28 20 77 34 24 81 37 27 83 39 28 85 41 29
88 44 32 89 45 34 88 44 34 83 40 30 77 36 27
71 32 24 63 26 21 55 20 17 45 12 10 35 5 3
27 2 1 24 1 0 23 2 1 23 2 1 23 1 1
27 3 2 33 7 6 42 13 11 52 18 18 60 22 23
65 25 25 67 27 25 68 29 24 69 30 24 71 31 24
73 32 24 75 32 24 76 34 25 77 36 26 76 38 27
72 38 27 63 34 24 50 26 18 33 15 8 18 5 2
9 1 0 8 3 1 9 6 2 7 6 1 6 5 0
6 5 0 6 5 0 6 5 0 6 5 0 6 5 0
6 5 0 5 4 0 5 4 0 5 4 0 5 4 0
5 4 0 5 4 0 5 4 0 4 4 1 4 3 1
3 3 1 2 2 1 2 2 1 2 2 0 1 1 0
1 1 0 1 1 0 0 0 0 0 0 0 0 0 0
0 0 0 0 1 0 0 1 0 0 1 0 0 1 0
1 2 0 2 3 0 2 3 0 2 3 0 3 4 0
3 4 0 3 4 0 3 4 0 3 4 0 3 3 0
2 3 0 2 3 0 2 2 0 1 2 0 1 2 0
2 2 0 4 2 1 6 3 1 6 3 0 7 4 0
7 5 0 7 5 0 7 5 0 8 7 0 8 8 0
9 9 0 8 8 0 8 7 1 7 7 1 7 6 2
7 6 3 8 6 4 9 6 3 10 6 3 10 6 3
10 6 3 10 6 3 10 6 3 10 6 3 10 6 3
9 5 2 8 5 2 8 4 1 8 4 1 7 3 0
7 3 0 6 2 0 4 2 0 3 2 0 1 1 0
1 1 0 1 1 0 3 1 0 5 2 0 7 3 0
9 4 0 11 5 0 11 4 0 12 3 0 14 4 0
16 6 0 18 7 1 18 7 1 18 5 0 20 5 0
23 7 0 27 9 0 31 11 0 36 13 0 42 16 1
49 20 3 57 24 6 64 26 8 68 26 7 71 27 6
78 31 9 88 38 16 97 45 23 104 49 27 108 51 29
113 56 34 125 68 46 140 83 61 151 93 72 151 94 73
136 79 59 108 53 34 82 28 11 69 17 2 67 16 1
68 19 3 69 22 6 70 25 9 71 28 11 72 30 13
73 33 15 73 35 16 72 36 17 73 39 19 78 47 26
85 56 35 89 63 40 87 65 41 82 63 38 77 59 34
74 57 32 73 57 32 73 56 31 73 56 31 73 56 31
74 57 32 73 56 33 72 55 34 72 55 36 73 56 37
74 57 38 75 58 39 75 58 39 73 57 38 72 57 38
71 57 37 71 57 37 70 57 37 70 58 36 73 31 94
80 38 102 94 52 117 113 71 135 137 95 158 161 120 182
178 137 197 183 142 200 179 138 196 167 126 186 149 107 170
128 86 150 108 66 131 92 50 114 81 38 101 76 32 93
77 32 89 80 35 89 84 40 90 85 43 87 84 44 81
81 41 74 77 38 66 74 36 61 73 34 56 71 30 50
67 25 45 63 20 38 60 16 33 59 14 29 59 12 27
59 13 23 59 14 17 60 16 15 62 19 15 64 21 16
67 24 18 72 29 21 78 35 26 82 39 29 84 40 30
87 43 32 90 46 35 91 48 37 87 46 36 80 41 30
72 35 24 65 29 20 56 23 18 47 16 13 38 9 7
28 3 2 21 1 0 18 1 0 18 2 0 18 2 0
18 1 0 21 1 1 26 4 3 36 9 8 47 15 14
56 19 20 62 22 22 64 23 21 64 25 20 64 26 18
65 25 17 67 25 17 71 27 18 74 30 20 75 31 21
74 32 22 71 33 23 67 33 24 59 30 22 45 22 14
27 10 5 15 3 1 12 4 1 12 7 2 10 7 1
8 7 0 8 7 0 8 7 0 8 7 1 8 7 2
9 7 2 8 7 2 7 5 1 7 5 1 6 5 1
6 4 1 6 4 1 5 3 0 5 3 0 4 3 1
4 3 1 4 3 1 3 3 1 3 2 0 2 2 0
2 2 0 2 1 0 1 1 0 1 1 0 1 1 0
1 1 0 1 1 0 1 1 0 1 1 0 1 1 0
1 2 0 2 3 0 3 4 0 3 4 0 3 4 0
4 5 0 4 5 0 4 5 0 5 6 1 5 6 1
5 6 2 5 6 1 4 5 1 4 5 1 3 4 1
3 4 0 4 4 1 7 5 1 9 5 1 9 6 0
9 6 0 9 6 0 9 7 0 10 7 0 10 9 0
12 10 1 12 11 2 12 10 2 11 9 2 11 8 3
11 8 5 11 7 6 11 8 6 13 10 6 15 11 7
15 11 7 15 11 7 15 11 7 15 11 7 15 11 7
14 11 6 13 9 5 12 9 4 12 8 4 11 7 3
10 7 2 10 6 2 9 5 2 7 5 2 5 4 1
3 3 1 3 2 1 3 2 1 4 2 1 5 2 0
7 3 0 8 4 0 8 3 0 8 2 0 8 1 0
9 2 0 11 3 0 12 4 0 12 3 0 12 3 0
14 4 0 17 6 0 20 7 0 24 9 0 29 11 0
35 13 1 40 15 2 46 17 3 50 17 3 55 18 2
62 21 3 69 26 7 77 31 12 83 35 15 87 36 17
90 37 17 96 41 20 110 54 32 129 72 51 147 90 70
158 101 81 153 98 78 129 76 56 95 44 27 67 18 6
57 10 0 57 13 0 57 16 1 56 18 2 56 21 4
57 24 6 59 27 8 61 28 9 60 28 8 58 28 7
59 31 9 65 39 16 73 50 25 80 59 34 82 64 38
80 63 37 78 62 35 77 61 35 76 60 34 75 59 33
74 59 32 74 58 32 71 55 29 66 50 25 64 49 26
66 50 27 66 50 27 65 49 27 63 49 26 63 49 25
63 50 26 63 51 27 63 52 27 63 52 27 63 52 28
67 25 88 72 30 95 82 40 105 94 52 118 115 73 138
147 105 168 173 131 192 181 140 199 180 139 198 176 135 195
167 126 188 152 110 174 133 91 156 114 72 137 99 57 121
91 48 110 88 44 103 87 42 98 85 41 93 81 38 85
76 35 74 70 30 64 65 25 56 62 24 50 61 23 47
60 21 43 58 18 39 57 16 36 57 16 34 58 15 32
58 14 29 58 13 24 60 15 20 62 19 18 64 22 19
66 25 20 69 27 21 73 31 23 78 35 27 82 38 29
85 41 30 87 44 32 89 47 35 88 47 36 83 44 32
73 36 25 63 28 17 54 21 12 45 15 10 36 10 7
28 5 3 21 2 1 17 1 0 15 1 0 14 2 0
13 2 0 14 1 0 15 1 0 20 1 1 29 5 4
40 11 11 51 16 17 58 20 20 61 22 20 62 24 18
61 23 14 61 21 13 65 22 13 70 26 16 75 29 19
77 31 20 76 31 21 73 30 20 69 31 22 66 33 24
56 29 21 37 17 10 20 5 2 14 4 0 13 7 1
12 8 1 11 9 0 11 9 0 12 9 1 12 10 3
12 10 4 13 10 5 12 10 5 12 9 5 11 8 5
11 8 5 10 7 5 9 5 4 7 4 3 6 3 2
5 3 2 5 4 2 5 4 2 4 3 1 4 3 1
4 3 1 3 2 0 3 2 0 3 2 0 2 2 0
2 2 0 2 2 0 2 2 0 2 2 0 2 2 0
2 2 0 3 3 0 3 4 0 4 5 0 5 6 0
5 6 0 5 6 0 6 7 1 6 7 1 7 8 2
9 10 4 10 11 5 9 10 5 9 10 4 7 8 3
7 8 2 6 7 2 7 7 2 10 8 3 12 9 2
11 8 1 11 8 1 12 9 1 12 10 2 13 11 2
15 12 3 16 14 5 18 14 7 18 14 8 17 13 7
17 13 8 17 13 10 16 11 10 16 12 10 18 15 11
20 17 11 20 17 11 20 17 11 20 17 11 20 17 11
20 17 11 20 16 11 19 15 10 18 15 9 17 14 8
16 13 7 15 12 6 14 11 5 13 10 5 12 9 4
9 8 4 8 7 4 8 6 3 8 5 3 8 5 2
8 5 1 8 5 1 8 4 0 7 3 0 6 2 0
7 2 0 8 2 0 9 3 0 10 4 0 10 4 0
10 4 0 11 5 0 13 6 0 16 7 0 19 8 0
23 9 0 27 10 0 32 11 1 35 11 1 39 11 0
45 13 0 52 17 2 60 22 6 67 26 9 71 28 11
74 29 12 77 28 10 83 29 10 92 36 16 107 51 32
127 71 52 146 90 71 156 102 84 147 96 78 116 67 50
75 30 17 53 11 2 50 11 0 50 15 0 47 16 0
44 16 1 45 19 1 46 20 2 48 21 2 49 22 2
49 23 1 50 25 2 52 30 5 59 39 13 69 50 23
77 60 32 81 65 37 81 65 37 79 64 35 77 63 34
76 62 33 75 61 32 75 61 32 72 58 29 66 52 24
63 49 22 63 49 22 62 48 21 61 47 20 59 46 19
58 46 18 57 46 18 56 46 18 56 46 17 55 46 17
54 46 17 64 22 86 67 25 90 74 31 98 83 40 108
103 61 127 138 96 159 169 128 188 181 140 198 181 140 198
179 138 197 172 130 192 156 114 179 136 94 159 115 73 139
101 58 124 91 49 112 85 41 102 81 37 94 77 33 86
71 28 76 64 23 65 58 18 55 53 15 47 51 14 42
50 14 39 49 13 36 48 11 33 49 11 32 53 14 33
56 16 34 59 16 33 61 17 29 64 20 25 67 24 24
69 27 25 70 30 25 72 31 25 74 33 25 77 34 26
79 36 27 82 38 29 84 41 30 85 43 31 82 42 31
75 38 27 65 31 19 54 22 10 44 16 6 35 10 5
28 6 3 21 3 1 16 1 0 13 1 0 11 1 0
9 2 0 9 2 0 10 2 0 12 1 0 16 1 0
25 3 3 36 9 9 46 15 15 54 19 19 59 22 20
60 23 16 59 22 13 59 20 11 63 21 12 69 25 15
76 29 19 80 32 21 80 32 21 76 30 20 72 30 21
70 34 25 61 32 23 42 19 13 24 7 3 15 4 0
14 7 0 14 9 1 13 10 1 13 10 1 14 11 2
14 11 4 15 12 5 15 12 7 15 12 8 16 12 9
16 12 10 16 12 11 15 11 10 14 9 9 12 8 8
10 6 7 8 5 5 7 5 4 6 5 3 5 4 2
5 4 2 5 4 2 4 3 1 4 3 0 4 3 0
4 3 0 4 3 0 4 3 0 4 3 0 4 3 0
4 3 0 4 3 0 4 4 0 5 5 0 6 6 0
6 7 0 6 7 1 7 8 1 7 8 2 8 8 2
9 10 3 12 13 7 14 14 8 13 14 7 12 13 6
11 12 5 10 11 5 10 10 4 11 10 4 13 10 4
14 10 3 13 10 2 14 10 2 15 11 4 17 13 5
18 15 7 19 16 8 21 16 10 22 17 12 23 17 13
22 17 14 21 15 14 21 15 14 20 14 14 20 15 13
22 18 14 23 20 13 23 20 13 23 20 13 23 20 13
23 20 13 23 20 13 22 19 13 22 19 12 21 18 11
20 17 10 18 15 9 17 14 8 16 13 7 15 12 6
14 12 5 13 11 5 12 10 5 12 10 5 12 9 4
12 8 4 11 7 3 11 7 2 10 7 2 9 6 1
9 5 1 9 5 1 10 5 1 10 5 0 11 6 0
11 6 0 10 5 0 9 5 0 10 6 1 12 6 1
14 6 1 17 7 0 21 7 0 24 7 0 27 7 0
32 8 0 38 11 0 44 15 2 52 19 5 58 23 8
62 25 10 65 26 10 69 25 9 74 24 6 79 25 7
88 33 15 102 47 30 119 66 49 139 88 70 149 100 83
134 87 70 95 52 36 63 24 10 52 17 2 51 20 2
49 22 3 45 22 3 43 22 2 43 22 1 44 22 1
46 23 1 47 25 1 47 26 1 49 30 2 54 36 8
62 45 16 70 54 25 75 61 31 76 62 32 75 62 31
74 61 30 74 61 30 75 62 31 76 63 32 75 63 31
72 59 28 69 57 25 68 55 24 66 54 22 64 52 21
61 51 19 59 50 17 57 48 16 54 46 13 52 45 12
51 45 12 51 45 12 61 19 83 63 21 86 67 25 92
75 33 101 96 54 120 132 91 154 166 125 185 180 139 197
181 140 197 177 136 194 166 124 186 144 102 166 118 76 141
95 53 119 83 41 107 77 34 100 72 29 91 68 25 84
65 22 77 60 18 68 54 14 58 49 10 48 45 8 41
42 7 37 41 7 33 40 6 30 39 5 28 41 6 28
46 10 30 53 15 34 59 20 38 65 23 36 70 27 33
74 30 31 76 34 32 76 35 32 75 35 30 74 34 27
75 33 26 76 33 25 78 34 25 79 35 26 79 36 27
75 36 26 68 32 22 57 25 14 46 18 7 37 12 3
29 8 2 23 4 2 17 2 1 12 0 0 9 0 0
7 1 0 5 1 0 5 1 0 7 2 0 9 1 0
14 1 0 21 3 3 31 8 8 41 13 13 49 17 17
54 20 18 57 22 15 57 21 12 58 20 9 61 21 10
68 24 13 75 28 17 80 31 20 81 32 21 78 31 21
74 30 21 72 33 25 63 31 23 44 20 13 26 8 3
17 6 0 16 8 1 15 11 2 15 12 3 15 12 3
15 12 4 16 13 5 16 13 7 16 13 8 17 13 9
17 13 11 17 13 12 17 13 14 17 13 14 16 12 13
15 10 13 13 8 11 11 7 9 9 7 6 8 6 5
7 6 4 7 6 4 7 6 2 6 5 2 6 5 1
6 5 1 6 5 1 6 5 1 6 5 1 6 5 1
6 5 1 6 5 1 6 6 1 6 6 1 7 7 1
8 8 1 9 8 1 9 9 1 9 9 2 10 10 2
10 10 3 12 12 4 15 15 7 16 16 8 15 15 8
15 15 7 14 14 6 13 13 6 13 13 5 14 12 5
15 12 5 16 11 5 15 11 4 15 11 4 16 12 6
18 13 9 20 15 11 22 16 13 24 17 15 24 17 16
25 17 17 26 17 19 25 17 20 25 16 20 24 16 19
24 18 18 24 19 15 23 20 14 23 20 13 23 20 13
23 20 13 23 20 13 23 20 13 23 20 13 22 19 12
22 19 12 21 18 11 19 16 9 18 15 8 17 14 7
16 13 6 16 13 6 15 12 5 15 12 5 15 12 5
15 11 5 15 11 5 14 10 4 14 10 3 14 10 3
14 10 4 14 10 4 14 9 3 14 9 3 14 9 2
13 9 1 13 9 1 12 8 1 9 6 1 8 5 0
9 5 0 10 5 0 13 5 0 15 5 0 18 4 0
21 5 0 26 7 0 31 9 0 37 12 1 43 15 3
48 19 6 53 21 8 57 23 9 61 23 8 66 22 5
71 22 5 75 25 8 81 31 14 90 42 25 107 59 42
124 78 61 130 86 69 111 71 53 80 44 25 60 29 9
57 30 8 57 33 11 54 34 11 50 33 9 49 32 7
50 33 6 51 33 5 50 33 4 51 34 5 53 36 7
56 41 10 61 46 15 65 51 20 68 55 23 69 56 24
69 56 23 68 57 24 69 58 25 71 60 27 73 62 29
75 64 30 75 64 30 74 63 28 72 61 27 70 60 25
67 58 23 64 56 21 62 55 19 59 53 17 56 50 14
55 49 13 54 49 14 53 49 13 59 17 81 59 17 82
62 20 87 70 28 96 91 49 115 128 86 149 163 122 181
179 138 195 180 139 195 176 135 191 161 120 180 135 93 156
103 61 126 79 37 103 68 26 93 65 23 89 61 19 83
58 16 77 56 14 70 52 11 62 48 8 53 43 6 45
40 4 38 37 3 34 35 3 30 33 2 26 31 1 23
33 2 24 40 7 27 49 14 34 59 21 40 68 28 43
75 33 42 80 36 41 82 39 41 81 39 40 78 37 35
74 34 30 73 31 27 73 30 25 75 30 25 75 31 25
74 31 25 69 30 23 61 26 19 51 20 12 41 15 5
32 10 2 24 6 1 18 2 1 13 1 0 9 0 0
6 0 0 4 0 0 2 0 0 2 1 0 4 2 0
7 1 0 11 1 0 17 3 2 26 6 5 35 11 10
43 15 14 48 18 15 52 20 13 53 19 10 54 18 8
57 19 8 64 22 11 72 26 15 79 30 20 82 32 22
80 31 22 76 30 22 72 32 24 64 30 23 45 20 13
27 10 3 19 7 1 17 10 2 17 12 3 16 13 4
16 13 4 16 13 5 17 14 6 17 14 8 17 14 9
18 14 11 18 14 12 18 14 13 18 13 15 17 13 16
17 12 16 16 11 15 15 10 15 13 9 12 11 9 9
10 9 7 9 8 6 9 8 6 9 8 4 8 7 3
8 7 3 8 7 3 9 8 4 10 9 4 10 9 3
10 9 3 10 10 2 10 10 2 10 10 2 10 10 2
11 10 2 11 10 2 12 10 2 12 11 3 13 11 3
13 11 3 13 12 4 15 13 5 17 15 7 18 16 8
17 16 8 17 15 7 16 15 7 16 14 6 16 14 6
17 13 7 18 14 8 18 13 9 17 12 8 17 12 9
18 12 11 21 14 15 24 17 18 25 18 21 26 18 22
29 19 24 34 24 30 38 28 35 39 28 36 36 25 33
32 22 28 28 20 23 26 20 17 24 21 14 24 21 14
24 21 14 24 21 14 24 21 14 24 21 14 24 21 13
23 20 13 23 20 12 22 19 11 21 18 10 19 16 9
18 15 8 17 14 7 17 14 6 17 14 5 17 14 5
17 14 5 17 14 5 17 14 5 18 14 5 18 14 5
18 14 5 19 15 6 20 15 7 19 15 7 19 14 6
18 14 5 17 13 4 17 13 4 15 11 3 11 8 2
9 7 1 9 6 0 10 6 0 12 5 0 13 5 0
15 4 0 18 4 0 22 7 0 27 9 0 30 10 0
35 13 1 39 16 2 44 18 4 47 20 5 53 21 5
59 22 5 64 24 6 67 25 7 68 26 8 71 29 12
77 36 19 89 49 31 105 66 48 108 72 52 87 55 34
67 39 17 62 38 14 62 41 17 61 43 18 58 43 17
56 42 15 57 43 14 57 44 13 57 43 12 57 44 12
58 45 13 60 47 15 61 48 16 62 50 16 63 51 17
63 51 17 62 51 17 62 52 17 64 53 19 66 55 21
68 58 23 69 59 24 70 61 25 70 60 24 69 60 24
68 59 23 66 59 22 65 58 21 63 57 20 62 56 19
59 54 18 58 53 17 58 53 17 57 53 17 58 16 79
58 16 80 62 20 86 71 29 96 92 50 115 127 85 148
160 119 178 177 136 192 179 139 193 176 135 190 162 121 179
134 93 154 100 59 122 75 33 99 65 22 90 62 19 87
57 16 81 54 13 75 53 12 69 50 9 61 46 7 53
42 5 46 39 4 39 36 3 34 32 1 30 29 0 25
27 0 22 29 1 22 36 4 26 46 12 34 58 22 42
69 30 47 79 36 49 84 40 49 85 42 48 83 41 46
78 38 40 74 33 34 71 29 30 72 28 28 73 28 28
73 28 28 71 28 27 65 26 24 57 22 19 47 17 13
37 13 8 29 9 4 22 4 2 16 2 1 11 1 0
7 0 0 5 1 0 3 1 0 1 1 0 1 1 0
2 1 0 5 1 0 9 1 0 14 2 1 21 4 3
29 8 7 36 12 10 42 15 11 45 17 9 47 17 7
49 16 5 52 16 5 59 19 8 68 24 13 77 29 19
82 32 23 80 31 23 76 30 22 71 31 23 62 29 22
45 20 13 28 10 3 19 8 1 17 11 3 17 13 4
16 13 4 16 13 5 17 14 6 17 14 7 18 14 9
18 14 11 18 14 12 18 14 13 18 14 15 19 14 17
19 14 19 19 14 19 18 13 19 17 12 19 16 11 16
13 11 12 12 11 10 12 11 9 11 10 8 11 10 7
11 10 6 10 9 5 11 10 5 13 12 7 14 13 7
14 13 6 14 14 6 14 14 5 14 14 5 14 14 4
14 13 4 14 12 4 15 12 3 15 12 4 16 13 4
16 13 4 17 13 5 17 14 5 17 14 6 18 15 6
18 15 7 18 15 7 18 15 6 18 15 6 17 14 6
18 14 6 18 14 8 20 15 10 20 15 12 20 15 14
22 16 18 27 19 23 32 23 30 37 28 36 40 30 40
42 32 43 50 39 50 59 48 60 62 50 63 56 45 57
46 35 47 37 26 37 31 22 27 27 21 19 25 22 14
25 22 14 25 22 14 25 22 14 25 22 14 25 22 14
25 22 13 24 21 13 24 21 12 23 20 12 22 19 10
21 18 9 19 16 8 18 16 7 18 15 6 17 15 4
18 15 4 18 16 4 19 16 4 19 17 5 20 17 6
21 17 6 22 18 7 23 19 9 24 20 9 23 19 10
23 19 9 22 18 7 21 17 7 21 17 7 19 16 6
16 13 4 14 11 3 14 11 2 14 10 1 15 10 1
16 9 1 17 8 1 19 8 0 22 10 0 25 11 0
28 12 0 31 14 0 34 15 0 36 17 1 39 18 2
43 19 3 48 21 3 52 24 5 55 24 6 58 26 7
60 28 9 61 28 8 65 32 12 78 46 26 88 58 37
80 53 31 68 43 20 62 41 16 61 43 17 61 45 19
60 47 20 59 47 19 59 48 18 60 49 17 60 49 17
61 50 17 61 50 16 60 49 15 59 48 14 58 47 13
58 48 12 58 48 12 58 48 12 58 48 12 60 50 14
62 52 16 64 54 18 64 55 18 63 54 17 62 54 17
63 55 18 64 56 19 64 57 20 64 58 22 64 59 22
63 59 22 61 57 21 60 56 21 59 56 20 59 55 20
58 16 79 59 17 81 66 24 90 78 36 102 98 56 121
129 88 150 159 118 176 174 133 188 177 137 189 175 135 189
164 123 180 138 97 157 104 62 126 77 35 101 65 23 91
61 19 87 57 16 82 54 14 76 53 12 70 50 10 63
47 8 55 43 6 48 40 5 42 36 4 36 32 1 31
29 0 27 27 0 23 28 0 22 35 4 26 45 12 35
58 23 44 70 31 50 80 37 54 85 40 54 84 41 53
82 39 50 77 36 44 73 31 38 71 28 34 71 27 33
73 27 32 72 26 32 69 25 30 63 22 26 54 19 21
44 15 16 36 11 12 28 8 8 20 4 5 14 2 2
10 2 1 7 2 1 6 2 2 3 3 2 1 2 1
0 1 0 1 1 0 3 1 0 6 1 0 11 1 0
16 2 1 23 5 3 30 9 7 36 13 8 39 14 6
41 14 4 43 13 2 47 13 2 54 16 5 64 21 10
74 28 17 81 32 23 80 31 23 74 28 21 69 29 22
60 27 20 44 19 12 27 11 3 18 9 1 16 11 3
16 12 4 16 13 4 16 13 5 16 13 6 17 14 8
17 14 9 18 14 11 17 13 12 17 12 13 18 14 16
22 17 21 24 19 25 25 19 26 23 17 25 20 14 22
17 13 18 15 12 14 14 13 12 14 13 11 14 13 10
13 12 9 13 12 8 13 12 7 13 12 7 15 14 8
16 16 9 16 16 8 16 16 7 16 16 7 16 16 6
16 16 6 17 15 5 18 14 5 18 14 5 19 14 5
19 15 6 20 15 6 20 15 7 20 16 7 20 16 7
20 15 7 20 15 7 20 15 7 20 15 7 20 15 7
20 15 7 20 15 7 20 15 9 21 15 12 21 16 15
23 17 20 28 21 27 36 26 36 45 34 47 52 41 56
60 49 65 70 59 76 81 69 87 85 72 90 76 62 80
59 46 63 45 31 48 36 24 38 31 21 29 28 22 20
26 23 15 26 23 13 26 23 13 26 23 13 26 23 13
26 23 13 26 23 13 25 22 13 25 22 12 24 21 12
23 20 11 22 19 9 21 18 8 20 17 7 19 16 5
17 16 3 17 16 2 18 17 2 19 17 3 20 19 5
22 19 6 23 20 7 24 20 8 25 21 9 25 22 10
26 22 11 25 21 10 25 21 10 25 21 10 25 21 10
24 20 9 22 19 8 21 19 7 21 19 6 22 18 5
23 17 5 23 17 4 24 17 3 25 17 3 26 16 2
27 16 1 29 17 1 31 18 1 32 18 1 33 18 0
33 18 0 34 18 1 35 19 1 37 20 2 38 20 2
43 22 3 47 25 5 48 24 4 50 25 4 58 33 12
66 42 20 67 44 21 63 43 19 60 43 17 59 43 17
59 46 18 60 48 20 58 49 19 57 48 16 58 49 16
60 51 18 61 52 18 60 51 16 58 49 13 56 46 11
55 46 10 56 47 11 57 47 11 57 47 11 57 48 11
59 49 12 61 51 14 62 53 16 62 53 16 58 50 14
57 49 14 59 51 16 60 53 18 62 55 20 63 57 22
64 59 24 64 59 25 62 58 24 61 57 23 60 57 23
60 57 22 58 17 79 62 20 84 73 31 96 87 45 110
106 64 128 134 92 154 159 118 176 171 131 185 174 134 187
175 135 188 167 127 183 144 103 163 112 70 134 84 42 108
69 27 94 63 21 88 58 17 82 55 14 77 53 13 72
50 11 65 47 8 57 44 7 50 41 6 44 37 4 39
32 1 33 29 0 29 28 0 26 30 1 25 36 5 29
46 13 37 58 24 47 71 32 54 80 37 58 83 39 59
82 38 57 79 36 53 75 33 47 71 29 43 70 27 40
71 27 39 72 26 38 70 25 36 66 22 34 60 19 29
51 16 24 42 12 20 34 10 16 27 8 12 20 5 8
14 4 5 11 3 4 9 4 4 7 5 5 5 5 4
3 4 3 1 2 1 0 1 0 2 1 0 5 1 0
8 0 0 12 1 0 17 3 2 24 7 4 30 11 6
33 12 4 35 11 2 38 10 1 42 10 1 48 13 3
59 19 8 70 26 16 78 31 22 78 30 23 72 27 20
67 27 20 58 26 19 41 18 11 25 11 3 17 9 1
15 11 2 15 12 3 15 12 3 15 12 4 16 13 6
16 13 8 16 13 9 17 13 11 16 12 11 16 11 13
20 15 19 28 22 28 34 28 35 34 29 37 30 24 33
23 17 26 18 13 19 16 13 15 16 14 13 16 14 13
15 14 12 15 14 11 15 13 10 15 13 9 15 13 8
16 15 8 17 16 8 17 16 8 17 16 7 17 16 6
17 16 6 17 16 5 18 16 5 20 15 6 21 15 7
22 15 8 22 16 8 22 16 8 23 16 9 23 17 9
23 17 9 23 16 9 23 16 9 23 17 9 23 17 9
23 17 9 23 17 9 23 17 9 23 17 11 23 17 15
23 17 18 24 18 23 29 21 29 37 27 39 46 35 51
54 42 61 64 52 73 80 67 90 90 77 99 84 71 94
66 52 74 47 33 53 37 23 42 33 20 37 30 19 29
28 22 20 27 23 14 27 24 13 27 24 13 26 24 13
26 24 13 26 24 13 26 24 13 26 24 13 26 23 12
25 23 11 24 22 10 23 20 9 22 19 8 21 19 7
19 17 5 17 16 2 16 16 1 17 17 1 19 18 2
21 19 4 23 21 6 24 22 7 24 22 7 25 23 8
26 23 10 27 23 10 27 23 11 27 23 11 27 24 11
28 24 11 28 25 12 29 26 11 29 26 11 29 26 11
30 26 10 31 26 10 32 26 9 32 27 8 33 26 7
33 26 7 35 26 6 36 27 6 37 27 6 37 26 5
35 24 3 33 22 1 31 21 1 29 22 1 29 23 2
31 23 3 34 24 3 36 24 2 38 22 1 40 23 1
46 27 4 51 33 8 54 37 12 57 40 14 58 44 16
58 45 17 56 46 16 57 48 17 56 49 17 55 49 15
58 51 16 63 56 21 64 57 22 63 55 19 60 51 15
57 49 12 58 49 13 60 51 15 61 52 15 60 51 14
59 51 13 60 51 13 60 52 14 62 53 15 60 53 15
57 49 14 55 49 14 57 50 16 58 52 18 60 53 20
61 55 22 61 56 24 61 57 25 60 57 24 60 56 24
59 56 24 59 56 23 59 18 77 65 24 84 77 36 98
91 50 113 108 67 130 131 90 152 154 113 172 166 126 183
172 132 186 174 134 189 171 131 187 155 114 173 127 86 147
99 57 121 80 38 103 69 27 93 61 20 85 55 15 79
52 12 73 49 9 66 46 7 60 43 6 54 41 5 49
38 4 44 34 2 38 31 0 34 30 0 32 32 1 32
37 5 35 47 14 43 60 25 53 71 32 60 78 36 64
81 37 65 80 36 64 76 34 59 73 31 54 71 29 51
71 28 49 71 28 48 70 26 45 67 24 42 63 21 38
55 17 33 47 13 27 39 10 22 33 8 19 27 7 15
20 6 12 15 6 9 13 6 8 11 7 8 10 7 8
8 6 7 6 5 5 3 3 3 1 1 1 1 1 0
3 1 0 6 1 0 9 1 0 13 3 1 19 6 3
24 9 4 27 10 3 29 10 2 31 9 1 35 9 1
42 11 3 52 17 9 64 25 18 74 32 25 75 32 26
70 28 22 63 26 19 54 24 17 39 17 9 24 10 2
17 8 0 15 10 1 15 11 2 16 11 3 16 11 5
16 12 6 16 12 8 16 12 9 17 12 11 17 11 12
17 11 14 24 17 23 37 30 37 49 42 50 49 42 52
40 32 43 28 22 32 22 17 24 21 16 20 20 17 17
19 17 16 18 16 14 18 15 13 18 14 11 18 14 10
17 14 10 17 14 9 17 14 8 17 15 7 18 15 7
18 15 6 18 15 6 19 15 6 20 15 6 21 15 8
22 15 9 22 15 9 23 16 10 23 16 11 24 17 11
24 17 12 25 17 12 25 17 12 25 18 12 26 19 13
26 19 13 26 19 12 26 19 12 27 19 12 27 19 14
27 19 17 26 19 21 26 19 23 28 20 28 32 23 34
37 27 42 43 32 49 50 39 58 60 49 70 66 54 76
61 48 71 48 35 56 37 24 44 34 20 40 33 19 36
30 19 29 29 21 20 28 23 15 28 24 13 28 24 13
28 24 14 27 24 15 27 24 15 27 24 15 27 24 15
27 24 14 26 24 12 25 23 11 24 22 10 23 21 9
22 20 8 21 19 5 18 17 2 17 17 0 18 18 0
20 19 1 21 20 2 23 21 4 24 22 4 25 23 6
26 23 8 27 24 9 28 24 9 28 24 10 29 25 10
30 26 11 31 27 12 32 28 12 33 30 13 33 31 12
33 31 11 35 31 12 37 33 12 39 34 13 39 34 12
40 35 12 42 37 13 45 38 14 47 40 15 48 41 15
47 40 13 45 37 11 43 35 9 40 35 8 38 35 8
39 37 10 41 38 11 41 36 10 40 33 7 40 30 5
42 29 4 44 31 4 47 33 6 49 35 8 52 39 11
56 44 15 58 47 16 56 46 15 55 46 15 57 49 16
58 53 17 62 56 19 66 60 23 68 61 24 66 58 22
64 55 19 62 53 17 63 54 17 65 55 19 65 56 19
63 55 18 62 54 17 61 53 16 60 52 15 60 52 16
59 51 16 56 49 16 54 48 16 54 48 17 55 48 17
55 49 18 56 50 19 56 51 21 56 52 21 55 52 21
54 51 21 54 51 21 54 50 20 58 19 73 65 26 81
75 36 94 84 45 106 96 56 119 115 74 137 136 96 158
154 114 175 165 125 184 170 130 188 171 131 188 165 125 182
146 107 164 120 80 139 97 56 116 79 38 101 66 26 90
58 18 83 52 13 76 48 9 70 46 7 65 44 7 61
43 6 57 41 5 54 38 3 49 34 1 44 33 0 41
35 1 41 40 6 44 50 16 53 62 27 63 70 32 68
74 34 71 77 36 73 77 35 71 75 33 68 75 33 66
74 33 64 72 31 61 70 29 57 66 26 52 62 23 47
57 19 42 50 15 36 43 11 30 37 8 25 33 7 22
27 7 20 21 7 17 17 8 15 16 9 14 16 10 14
14 9 14 13 8 12 10 7 9 7 4 5 4 2 2
3 1 1 4 1 0 6 2 0 7 2 0 10 3 0
13 5 1 16 7 2 21 10 4 23 9 4 24 8 3
28 8 3 34 9 5 44 15 11 57 24 21 68 33 29
71 34 30 66 29 25 57 24 19 48 20 14 36 15 8
24 9 2 18 8 0 16 9 1 17 10 3 17 10 4
17 10 5 16 11 7 17 12 8 17 12 10 18 12 12
19 11 14 20 11 16 26 17 25 45 35 44 63 53 63
62 52 64 47 37 50 34 25 38 29 22 32 27 21 27
26 21 24 24 20 21 23 18 18 21 16 16 21 15 14
21 15 13 20 15 12 19 14 10 19 13 8 19 14 8
20 14 8 21 14 8 21 15 7 21 15 7 21 14 7
20 13 7 20 13 8 21 13 9 22 14 11 23 15 12
24 16 13 24 16 14 25 17 15 25 17 15 26 18 16
27 19 16 28 20 16 28 20 15 29 20 15 29 21 15
30 21 17 30 21 19 30 21 22 29 21 23 29 21 25
29 21 29 30 23 32 32 24 35 34 26 40 38 30 45
41 32 48 39 29 46 36 25 42 33 22 38 33 21 37
33 20 35 31 20 28 30 21 20 29 22 15 29 22 14
29 22 15 29 22 15 28 22 16 28 22 16 28 23 16
29 24 17 29 25 16 28 24 14 27 24 13 26 24 11
25 23 10 25 23 9 24 22 7 22 21 4 22 21 2
23 21 2 23 21 2 24 21 3 24 22 3 25 22 3
26 23 5 28 25 7 30 25 8 30 25 8 30 25 9
31 26 9 32 27 10 33 29 12 34 30 12 34 32 11
34 31 9 34 31 9 36 33 10 40 36 12 43 39 14
44 40 14 45 41 14 47 43 15 50 46 17 54 49 20
56 51 21 57 51 21 56 51 20 56 51 19 56 52 20
55 52 20 55 52 20 56 52 20 55 50 18 53 47 16
52 44 13 52 42 12 52 41 12 53 42 12 54 43 13
56 45 14 59 47 16 60 49 18 60 49 18 60 50 18
62 53 19 64 58 21 65 60 21 65 59 21 66 58 21
66 57 20 65 56 20 65 55 19 65 54 18 64 53 18
64 53 18 63 53 18 62 53 17 61 52 17 59 51 16
57 50 15 55 49 15 53 46 16 52 45 16 51 44 15
50 43 15 49 43 15 50 44 16 50 45 16 51 46 17
50 46 17 49 45 16 48 44 16 47 43 14 55 18 68
60 23 74 65 28 83 70 32 91 78 39 101 93 54 118
114 74 138 135 95 158 153 113 174 162 123 182 166 127 184
167 128 183 159 120 176 143 103 160 120 80 138 97 56 117
77 38 101 65 26 90 57 18 82 52 14 76 51 13 73
50 12 70 47 10 65 45 8 61 42 5 57 38 2 52
37 2 50 40 4 51 45 10 55 55 20 64 65 29 72
70 33 76 72 33 77 74 33 78 74 33 77 76 35 78
82 40 81 82 41 80 76 35 72 68 28 63 62 24 56
57 21 51 53 17 45 47 13 39 41 10 34 37 7 29
33 6 27 29 7 25 24 9 22 20 11 20 20 12 20
20 12 20 19 11 19 17 10 16 15 8 13 12 6 9
9 4 6 7 3 4 7 3 3 8 3 2 8 3 1
8 4 0 9 4 0 12 6 2 17 8 5 19 8 6
20 7 5 23 7 5 28 8 7 37 12 12 50 21 21
62 30 31 66 32 32 60 26 26 50 20 18 41 15 12
32 10 6 23 7 2 19 8 2 19 9 3 19 10 4
18 9 5 18 10 7 18 11 8 17 11 9 18 11 11
19 11 13 20 11 16 22 12 19 30 19 27 48 36 47
64 52 64 61 49 63 46 34 49 34 24 38 31 22 34
30 23 31 29 23 27 27 22 24 25 19 21 24 17 19
23 16 16 23 15 15 22 15 13 21 14 11 21 13 10
21 13 10 21 14 9 22 14 9 22 14 8 22 14 8
21 13 8 19 11 7 19 11 8 20 12 9 20 12 10
21 12 12 23 14 15 26 17 17 27 19 19 28 19 19
27 18 18 26 18 16 27 18 16 29 20 17 31 21 17
32 23 18 32 23 19 31 22 19 31 21 20 30 21 21
30 22 23 29 22 24 28 22 26 27 22 28 28 22 30
30 24 34 31 24 35 31 23 34 31 22 33 31 22 32
31 21 32 31 20 30 31 20 25 31 21 19 30 22 16
30 22 15 30 22 15 29 22 15 28 22 16 28 21 16
28 22 16 29 24 17 29 25 16 29 25 15 28 24 13
27 24 11 26 24 10 26 24 9 26 24 7 27 25 7
28 25 6 28 25 6 28 25 6 28 25 6 28 25 6
28 25 6 29 26 7 31 27 8 32 27 8 31 26 8
31 26 8 31 26 8 33 27 9 34 29 10 35 31 11
34 31 9 33 31 7 34 31 7 37 34 9 42 38 12
46 42 15 48 44 16 49 45 16 49 46 16 52 48 18
56 52 20 59 54 22 60 55 22 61 56 22 62 58 23
63 59 25 64 60 26 64 60 26 63 58 24 62 56 23
60 54 21 59 52 19 59 51 18 59 50 17 59 50 18
60 50 18 62 51 19 63 52 20 64 53 21 65 54 22
66 55 22 67 57 23 67 60 23 66 59 20 64 57 18
64 55 17 65 55 18 66 55 19 66 54 19 65 52 17
62 50 15 61 49 15 60 50 15 59 49 15 57 48 14
54 46 12 51 45 11 49 43 11 47 41 12 46 39 12
46 39 12 45 39 12 45 39 12 45 39 13 46 40 13
47 41 14 47 42 15 46 42 14 44 40 13 43 39 12
51 14 63 52 16 67 54 17 72 58 20 78 66 27 89
81 42 107 101 62 126 121 82 145 142 102 164 156 116 176
162 123 180 163 124 180 162 123 178 157 118 173 142 103 160
120 81 140 97 58 119 80 42 103 69 31 92 62 24 84
60 22 81 58 20 78 53 15 72 48 11 66 45 8 62
43 6 58 43 6 57 46 10 60 52 16 65 60 24 72
67 31 78 70 32 80 71 31 80 71 30 79 72 30 79
79 37 85 92 49 96 94 51 96 82 40 83 68 28 68
60 22 60 56 19 54 51 16 49 46 13 44 42 10 39
38 8 35 34 7 32 30 8 29 27 11 27 24 13 26
23 13 25 23 13 24 21 12 22 20 10 19 18 9 16
16 8 13 15 7 11 14 7 9 12 6 8 11 5 6
11 5 4 10 4 3 9 4 2 12 5 4 16 7 7
17 6 8 18 5 8 21 5 8 25 5 8 32 9 12
43 16 21 55 24 30 58 26 31 53 21 25 44 14 17
36 9 11 28 6 6 23 6 4 22 8 5 22 10 7
21 10 7 19 10 7 19 10 8 19 11 9 18 11 11
18 11 12 20 11 14 21 12 17 26 15 22 35 23 33
49 36 48 57 44 57 51 39 53 40 27 43 32 21 36
30 20 33 29 21 30 28 22 28 28 21 26 27 20 23
26 18 21 24 16 19 23 15 17 23 14 15 24 15 14
24 15 14 24 15 13 24 14 12 24 14 11 23 14 10
23 14 10 22 13 10 21 13 10 21 13 10 20 12 10
19 11 10 21 12 12 25 16 18 32 23 25 37 28 30
37 28 30 33 24 25 29 20 19 27 19 17 30 20 18
33 23 20 34 25 21 34 25 20 31 22 18 30 21 17
29 21 18 29 21 19 28 21 21 27 21 22 26 22 24
26 22 25 27 22 27 28 22 28 28 21 28 28 21 27
29 20 26 30 20 26 30 20 24 30 20 21 31 21 17
31 22 15 31 22 14 30 21 14 29 22 14 28 21 14
28 21 15 28 21 15 28 23 15 28 24 15 28 24 14
27 23 12 26 24 10 26 24 9 25 24 7 27 25 8
31 29 10 33 30 11 33 30 11 33 30 11 33 30 11
33 30 11 33 30 11 33 30 11 34 29 10 33 28 9
32 27 8 31 26 7 32 27 8 33 28 9 34 29 10
34 30 10 34 31 8 33 31 6 35 32 7 38 34 9
43 39 13 48 44 16 50 46 18 51 47 17 51 47 17
53 49 18 56 51 20 58 53 21 59 54 20 59 55 20
61 57 22 63 59 24 64 60 25 64 60 25 64 58 24
63 57 23 61 55 21 60 54 20 60 52 19 60 51 18
61 52 19 62 52 19 62 52 20 63 52 20 64 53 21
65 54 22 67 55 22 67 57 22 66 58 21 64 58 19
63 55 16 63 55 16 65 55 18 66 55 20 67 54 19
65 52 17 62 49 15 60 48 13 58 47 13 56 46 11
53 43 10 49 40 7 45 38 5 42 36 5 41 34 6
41 34 7 42 35 9 42 36 10 43 36 10 43 37 11
43 37 11 43 38 11 44 39 13 43 39 12 42 38 11
40 36 9 46 11 59 47 11 61 48 12 65 53 16 74
65 27 89 82 43 108 100 61 126 116 77 140 133 94 155
149 110 169 160 121 177 163 124 179 163 124 179 163 124 179
157 117 174 142 103 161 122 84 142 104 66 124 89 52 109
81 43 100 77 39 96 72 34 91 63 26 81 56 19 73
53 16 70 52 15 68 52 15 67 54 17 69 58 21 73
63 26 77 66 29 80 68 30 82 69 28 82 68 26 80
69 26 80 81 38 92 100 56 109 103 59 110 86 43 92
68 27 73 61 21 65 56 19 60 51 15 54 47 13 49
44 11 45 41 9 42 37 9 39 34 10 36 30 13 33
28 14 31 26 14 30 25 13 28 24 12 26 22 10 23
21 9 20 20 9 19 20 10 18 19 10 16 18 10 14
17 9 12 16 8 11 15 7 9 15 7 8 16 6 10
17 7 12 18 5 13 20 5 13 21 4 13 23 4 12
29 5 14 38 12 22 48 18 29 51 20 30 47 16 25
40 11 19 33 7 14 28 5 10 25 6 9 24 9 10
24 11 12 23 11 11 22 11 10 21 12 10 21 12 11
20 12 12 20 12 14 21 12 16 23 13 19 30 19 27
41 29 39 50 37 49 50 37 51 43 30 45 35 23 39
31 20 35 30 19 33 28 20 30 28 20 28 28 20 27
28 20 25 27 18 23 26 17 21 25 16 19 24 15 18
26 17 17 26 17 17 26 16 16 26 16 15 26 16 14
25 15 13 25 15 12 24 15 12 23 14 12 22 14 12
22 13 12 22 13 13 27 18 19 37 28 30 50 40 43
57 47 50 52 43 45 43 34 35 34 26 26 30 22 20
31 22 20 34 24 21 35 26 21 33 25 19 30 22 16
29 20 15 28 20 15 28 21 17 26 21 18 26 21 19
25 21 20 25 21 20 24 20 21 24 20 21 25 20 21
26 19 20 27 19 20 28 19 20 29 19 19 30 20 17
31 22 15 31 23 14 31 22 13 30 22 13 29 22 13
28 21 13 28 21 13 27 21 13 27 22 13 27 23 13
27 23 12 26 23 11 26 23 9 25 24 7 25 24 6
28 26 7 33 31 11 36 33 14 36 33 14 36 33 14
36 33 14 36 33 14 36 33 14 36 32 13 35 30 11
34 29 10 33 28 9 32 27 8 32 27 8 33 28 9
34 29 10 35 30 10 35 31 9 34 32 7 36 32 7
38 34 9 42 38 12 46 42 15 49 45 16 49 45 16
50 46 16 52 48 17 54 50 18 55 51 18 56 51 17
56 52 17 58 54 19 60 56 21 61 57 22 61 57 22
61 55 21 60 54 20 59 53 19 59 52 18 59 51 18
59 50 17 58 49 16 58 48 16 58 47 15 58 47 15
58 47 15 60 48 16 61 49 16 62 52 17 63 55 18
62 56 17 61 54 15 63 54 16 65 55 18 66 55 20
67 54 19 65 52 17 63 50 15 60 48 14 58 47 12
54 45 10 50 41 8 46 37 4 41 34 2 38 31 1
36 30 2 37 30 4 39 32 6 41 34 8 41 35 9
41 35 9 41 35 9 40 35 9 40 36 9 40 36 9
38 34 7 37 33 6 44 10 56 43 9 58 46 11 63
54 18 75 67 31 92 84 46 110 98 59 124 107 68 131
117 78 139 132 94 152 149 111 167 158 120 175 162 124 177
164 125 179 163 124 179 157 119 174 144 106 161 130 92 147
118 81 135 111 74 128 107 70 124 99 62 116 86 48 103
74 37 91 69 32 86 67 30 84 65 28 82 64 27 80
63 26 80 64 27 81 65 28 82 69 30 86 72 31 90
73 30 90 74 31 90 88 44 103 109 65 123 113 68 125
94 50 105 75 33 85 67 27 76 62 23 70 56 19 62
51 16 57 49 15 54 47 15 52 44 15 50 41 16 47
37 18 43 34 18 40 32 17 37 30 16 34 28 14 32
27 13 29 26 12 27 25 12 26 24 13 24 24 13 23
24 12 21 23 12 20 22 12 19 22 12 18 22 12 18
22 11 19 21 9 20 22 7 20 23 7 21 24 6 20
25 5 19 27 5 19 35 9 24 43 14 30 47 16 32
45 15 30 40 11 25 34 8 21 30 7 18 28 8 17
27 10 17 26 12 16 26 13 15 25 14 13 24 14 13
23 14 14 23 14 15 23 14 17 23 14 18 25 15 22
34 23 31 46 33 44 52 38 50 46 33 47 39 25 41
34 21 38 32 20 36 31 20 34 30 20 31 29 20 29
29 20 28 29 20 27 29 19 26 29 20 25 29 20 25
29 19 23 29 19 22 29 19 21 29 19 19 28 18 18
28 18 17 27 17 16 27 17 15 26 16 15 26 16 15
27 17 16 28 19 19 33 23 24 42 32 34 55 45 48
70 59 63 73 63 66 60 51 54 47 38 39 38 29 29
32 24 23 32 23 21 33 25 21 33 25 21 31 24 18
28 21 14 27 20 12 27 20 13 26 20 14 25 20 14
24 21 15 24 21 16 23 20 15 22 19 14 22 18 14
22 18 14 24 18 14 25 19 14 27 20 15 28 20 14
29 21 13 31 23 13 32 24 13 31 23 12 30 22 12
29 22 12 28 21 11 27 20 10 26 20 10 26 21 10
25 21 10 25 21 10 25 22 9 25 23 7 25 24 6
25 24 5 27 26 6 32 30 10 35 32 12 35 32 12
35 32 12 35 32 12 35 32 12 35 32 12 35 32 11
34 30 10 34 29 9 33 28 8 32 27 8 33 28 8
34 29 9 35 30 10 36 32 11 37 33 11 37 33 9
37 33 8 38 34 8 40 36 10 43 39 12 44 40 12
45 41 12 48 43 13 50 45 15 52 47 15 52 47 14
52 47 13 52 48 13 54 50 15 56 52 17 58 54 19
58 54 19 59 53 19 58 52 18 58 52 18 58 51 17
59 50 17 58 49 16 56 47 14 54 44 12 53 42 10
52 41 9 52 41 9 53 42 10 55 43 10 57 46 12
59 52 14 60 54 15 60 53 14 62 54 16 65 55 18
66 55 20 67 54 19 66 53 18 64 51 17 62 50 16
59 49 14 56 46 11 51 42 9 46 38 5 42 35 2
38 32 1 36 29 1 37 30 3 38 31 5 40 33 7
41 35 9 41 35 9 40 34 8 39 34 7 38 34 7
37 33 6 35 31 4 33 29 2 42 9 55 42 9 56
45 11 63 55 20 76 69 33 94 80 43 107 86 48 112
87 49 112 91 53 113 103 66 123 121 84 139 138 100 154
150 112 165 158 119 173 163 124 179 163 125 179 157 120 173
150 113 165 144 107 160 143 106 158 140 103 156 131 94 148
115 78 132 100 63 117 93 56 110 91 54 108 86 49 103
79 41 96 73 35 91 70 32 89 71 33 91 79 39 99
89 47 110 93 49 114 95 50 114 108 63 126 127 82 144
130 84 145 112 68 127 96 53 109 86 45 99 78 39 89
68 31 79 61 25 71 58 23 66 56 23 64 53 23 62
50 24 58 46 25 53 42 25 49 39 23 46 37 21 43
35 19 40 33 17 38 32 17 36 32 17 34 30 16 32
29 16 30 29 16 29 29 16 28 30 17 27 30 17 27
30 17 28 29 16 28 28 13 29 27 11 29 28 11 30
28 10 29 27 8 27 28 6 26 33 8 29 41 14 35
47 18 39 47 18 38 43 14 34 37 10 29 33 9 26
32 10 25 31 12 24 30 13 21 29 15 19 29 17 18
28 17 17 27 17 18 26 17 19 25 16 20 25 16 21
28 17 24 36 24 33 48 35 45 51 37 50 45 31 45
38 25 41 36 23 40 34 22 38 32 21 36 32 22 34
32 22 32 32 22 31 32 22 31 33 23 31 35 25 33
37 27 34 38 28 34 38 27 32 37 26 30 36 25 28
35 24 26 34 23 24 32 22 22 31 21 21 31 21 20
32 22 21 34 24 24 38 28 28 44 34 36 53 42 46
63 52 56 71 60 64 69 58 62 55 45 49 43 34 36
37 28 29 33 24 24 32 24 22 32 24 21 32 25 20
30 23 17 27 20 12 26 19 10 25 19 10 24 20 11
24 20 11 23 20 12 23 20 12 22 19 11 20 18 10
20 17 9 21 18 9 22 19 9 24 20 10 26 21 10
28 21 10 29 23 10 32 24 11 33 25 12 32 24 11
30 23 11 29 22 10 27 21 9 26 20 8 26 20 8
25 20 8 24 20 8 24 21 8 25 22 7 24 23 6
24 23 4 25 24 4 27 25 5 30 28 7 31 29 8
31 29 8 31 29 8 31 29 8 31 29 8 31 29 8
32 29 8 33 28 8 33 28 8 32 27 7 32 27 7
33 28 8 35 30 10 37 32 11 39 34 13 40 36 13
40 35 11 38 34 9 38 34 8 39 35 9 41 37 9
41 37 8 43 38 9 47 42 12 49 44 14 50 45 13
49 44 11 48 44 10 49 45 10 51 47 12 54 50 15
57 53 18 58 54 19 59 53 19 59 53 19 59 53 19
59 52 19 60 52 19 59 50 17 57 48 15 54 45 12
52 42 10 51 40 8 50 39 7 52 40 8 53 41 9
55 45 10 57 49 12 58 52 13 59 52 13 62 53 15
65 55 19 66 56 20 67 54 19 66 53 18 65 52 18
64 51 17 61 50 16 58 48 14 54 45 11 50 41 8
45 39 6 42 35 4 39 32 4 38 31 5 39 32 6
40 33 7 40 34 8 40 34 8 40 34 8 39 34 8
38 33 6 36 32 5 34 30 3 32 28 1 40 8 53
40 8 55 45 11 63 57 22 78 69 33 94 75 39 102
74 37 100 69 32 95 70 33 93 79 42 99 96 58 113
115 78 131 134 97 149 149 111 164 159 121 175 163 126 179
162 125 177 159 122 173 158 121 172 160 123 175 160 123 175
151 114 167 135 98 152 121 84 138 115 78 132 113 75 130
105 68 123 94 56 113 84 46 104 79 41 99 82 43 102
93 53 114 107 65 129 114 70 136 116 71 137 126 81 146
143 98 162 145 100 163 130 86 146 116 73 131 106 65 120
95 55 108 82 44 94 71 34 82 65 30 75 62 29 72
59 28 69 56 28 65 52 29 60 48 28 56 45 26 53
42 24 49 40 21 46 38 20 44 38 20 43 37 20 40
35 19 37 33 18 36 34 19 35 34 19 34 35 20 34
35 21 33 35 21 34 34 20 35 33 17 35 32 15 35
33 15 36 33 14 36 30 10 34 30 8 32 34 9 34
41 15 39 49 21 45 50 22 46 46 18 40 39 12 34
35 10 30 35 12 30 34 14 29 33 15 26 32 17 23
31 19 21 30 20 21 29 19 21 28 19 22 28 18 23
28 17 24 29 18 26 37 24 34 47 34 45 50 36 49
44 30 45 39 25 42 38 24 41 35 23 39 34 22 37
35 24 37 36 25 37 34 24 35 35 24 34 38 27 36
42 31 39 46 35 42 48 37 43 47 37 42 46 35 40
45 34 37 43 31 35 41 29 32 38 27 28 36 25 26
36 25 26 37 26 27 38 28 29 42 32 32 47 37 39
54 43 46 57 46 51 58 47 52 53 43 48 45 35 39
39 29 32 36 26 28 34 25 25 33 25 23 33 25 22
33 25 21 30 23 17 27 20 11 25 19 8 24 19 8
23 19 9 23 20 9 22 20 9 21 20 10 20 19 9
18 17 7 18 17 6 20 18 6 22 19 7 24 20 7
26 21 7 28 22 7 30 24 8 32 25 10 33 26 10
32 25 10 31 23 10 29 22 9 27 21 8 26 20 7
25 19 6 24 19 7 23 20 6 24 20 6 24 21 5
24 23 4 24 23 4 24 23 3 26 25 4 28 26 5
29 27 6 29 27 6 29 27 6 29 27 6 29 27 6
29 27 6 29 27 6 31 27 6 31 26 6 32 27 7
32 27 7 34 29 9 36 31 11 38 33 13 40 35 14
42 38 15 41 37 13 39 35 10 39 35 9 40 36 9
41 36 9 41 36 8 42 38 8 47 42 12 49 44 14
49 44 12 48 43 10 48 42 8 48 43 9 50 45 11
54 48 14 57 52 18 58 54 19 59 53 19 60 54 20
60 54 20 60 54 20 61 53 20 61 52 19 59 50 17
57 48 15 55 44 12 53 42 10 52 41 9 53 41 9
54 43 10 56 45 11 56 49 11 57 50 11 58 51 12
62 53 15 65 55 19 67 56 20 67 54 19 66 53 18
65 52 18 64 52 18 62 52 17 60 50 16 57 47 14
53 44 11 49 42 9 45 39 8 42 35 6 40 33 6
40 33 7 39 32 6 39 33 7 39 33 7 40 34 8
40 34 8 39 34 7 37 33 6 35 31 4 33 29 2
