P3
# Generado por NetPBM Image Processor - Diseno 1
236 295
255
0 0 0 0 0 0 4 0 0 0 0 0 0 0 0
0 1 0 5 0 0 0 0 0 0 0 0 0 0 0
3 0 0 0 0 0 0 0 0 2 2 0 6 0 3
0 0 0 10 13 10 1 7 4 0 0 0 0 7 0
8 0 0 0 2 8 0 0 0 0 0 0 16 8 7
0 4 0 5 7 2 0 3 0 7 0 0 1 0 0
0 10 0 4 0 0 0 0 0 0 0 0 0 0 0
0 0 0 2 0 0 0 0 0 0 0 0 0 0 0
0 0 0 0 0 0 0 0 0 0 0 0 0 0 0
0 0 0 0 0 0 0 0 0 0 0 0 0 0 0
36 45 53 0 0 0 0 0 0 0 1 9 0 0 0
12 18 9 0 0 0 0 6 0 0 0 0 0 3 0
0 0 0 0 3 0 0 0 10 0 0 0 2 9 9
0 0 0 0 0 0 0 0 0 11 2 11 14 14 5
14 11 14 0 3 0 10 1 0 0 3 0 12 3 5
17 20 11 0 0 2 0 0 0 0 0 0 9 18 6
25 22 10 0 0 0 0 0 0 32 46 34 104 96 122
0 6 11 3 0 7 0 0 2 0 0 0 0 0 0
0 0 0 0 0 0 0 0 0 0 0 0 0 0 0
4 7 0 0 0 0 2 2 7 20 29 34 0 0 0
0 0 0 0 0 0 0 0 0 0 0 0 1 0 4
0 0 0 0 0 0 0 0 0 0 0 8 8 5 4
0 11 7 0 0 0 0 0 0 0 0 0 0 0 0
0 0 0 0 0 0 0 0 0 0 0 0 0 0 0
0 1 6 0 0 0 0 1 12 0 0 0 0 0 7
0 0 0 0 4 8 0 1 0 6 0 15 0 0 2
0 0 0 0 0 0 0 0 0 0 0 0 0 0 0
0 0 0 6 9 0 0 0 0 0 0 0 0 0 3
0 0 0 0 0 0 0 0 0 0 0 0 0 1 10
0 0 0 0 2 0 0 0 0 0 0 3 0 2 0
4 0 4 0 0 0 2 1 16 0 0 0 0 0 0
3 2 12 0 0 0 0 0 0 0 0 0 0 0 0
81 65 76 5 0 0 13 12 14 9 14 19 17 10 11
1 7 12 14 5 13 21 33 23 0 0 0 0 1 0
3 0 0 0 0 3 0 0 0 0 0 0 1 0 0
0 0 0 3 9 0 0 0 0 0 0 0 0 0 0
0 0 0 0 0 0 0 0 0 0 0 0 0 0 0
0 0 0 1 1 1 0 0 0 2 2 2 0 0 0
0 0 0 0 1 0 16 2 7 8 6 2 4 4 9
16 7 8 0 8 0 7 8 4 1 5 3 8 6 0
0 0 4 0 1 17 42 29 50 124 122 146 145 144 154
16 21 15 0 0 0 9 9 0 0 0 0 7 7 0
50 38 44 65 62 62 25 31 28 0 0 0 0 0 0
19 28 19 0 0 0 0 7 0 5 1 0 0 0 0
0 0 0 0 0 0 0 0 0 0 0 0 15 26 31
42 50 61 21 30 18 0 0 0 0 3 3 26 29 22
34 22 42 0 0 0 0 0 0 0 0 0 0 0 0
14 17 8 0 0 0 0 7 0 0 0 0 0 0 0
1 4 0 0 6 0 2 0 0 0 0 0 0 0 0
0 0 0 5 1 0 0 4 0 2 0 0 0 0 0
3 0 0 0 0 0 11 14 13 0 1 0 0 2 1
0 0 0 7 0 0 0 1 5 1 4 0 3 0 0
6 3 0 0 1 3 0 0 0 4 0 0 6 3 0
1 4 1 0 8 0 0 4 0 0 0 0 18 27 36
28 23 20 0 0 0 0 0 0 0 0 0 0 0 0
0 8 0 0 0 0 0 0 0 0 0 0 1 8 0
0 0 0 19 22 22 24 10 0 0 0 0 0 0 0
0 0 0 16 8 16 0 0 0 0 0 0 10 19 25
0 0 0 16 26 16 0 0 0 0 0 0 0 5 2
1 0 0 0 0 0 1 2 3 0 0 0 0 0 0
6 6 8 0 0 0 0 0 0 0 0 0 8 0 8
20 20 11 11 8 11 0 1 0 6 0 0 2 0 0
15 11 11 13 18 8 0 0 0 0 0 0 0 0 0
12 22 7 26 27 9 0 0 0 0 0 0 52 50 38
97 93 118 0 0 7 6 1 11 0 0 3 0 6 0
0 0 0 0 5 0 0 5 0 4 0 0 3 3 3
6 0 0 10 13 2 0 0 0 0 6 14 45 35 53
10 18 18 0 0 0 0 0 0 0 0 0 0 0 0
0 0 0 0 2 0 0 0 5 0 0 0 0 0 2
0 0 0 0 1 3 0 0 0 12 10 6 0 8 0
13 0 2 0 2 0 0 1 0 0 3 1 6 4 3
0 0 0 0 0 0 0 0 0 0 0 11 0 7 0
5 0 10 0 0 0 0 0 0 0 0 0 4 0 1
0 0 7 1 1 0 0 0 0 0 0 0 0 0 2
0 0 1 0 0 0 8 10 4 0 0 0 0 0 0
0 0 4 0 0 0 0 0 0 0 0 0 0 0 0
5 0 8 0 2 0 1 0 0 0 0 0 0 1 0
3 0 0 0 0 0 0 0 0 12 23 19 0 0 4
9 14 16 29 25 26 0 0 8 0 0 0 0 0 0
0 0 0 77 64 60 1 0 0 12 14 20 4 22 11
9 4 8 0 4 0 3 0 4 3 15 7 0 0 0
0 2 3 3 0 0 0 0 0 0 0 0 0 0 0
6 3 1 0 0 0 5 13 0 0 0 0 0 0 0
0 3 0 0 0 0 0 0 0 0 0 0 0 0 0
0 0 0 2 2 0 8 8 2 1 1 0 0 0 0
0 0 0 0 0 0 0 4 0 0 0 0 13 5 2
11 5 1 13 1 0 4 13 1 0 4 0 0 0 8
0 1 0 0 0 3 30 38 57 74 71 91 72 70 86
29 37 30 0 0 0 0 0 0 46 47 44 0 0 0
29 25 18 43 25 32 44 36 37 3 7 4 0 0 0
0 0 0 9 18 9 0 0 0 1 0 0 2 2 0
0 0 0 0 0 0 0 0 0 0 4 0 0 0 0
25 23 35 37 52 60 30 44 30 0 0 0 0 0 0
27 30 25 45 33 37 0 0 0 0 0 1 8 6 0
14 5 17 30 33 24 1 0 0 0 0 0 0 0 0
0 0 0 1 4 0 0 0 0 4 0 0 0 0 0
7 0 0 5 1 0 0 0 0 0 4 0 3 0 0
0 0 0 5 0 3 0 0 0 1 4 8 0 4 0
3 0 3 0 0 0 2 0 0 0 0 0 0 1 0
0 0 0 2 0 0 0 0 0 0 3 0 1 0 1
4 0 0 0 0 0 7 0 0 0 0 0 0 0 0
52 41 64 72 62 63 5 5 2 0 0 0 0 0 0
0 0 0 0 0 0 0 0 0 0 0 0 21 19 13
36 53 48 33 34 36 39 49 48 40 41 29 37 36 33
0 0 9 0 0 0 0 0 0 0 0 11 36 29 33
21 26 37 0 0 0 18 23 18 0 1 0 6 0 0
0 0 0 0 0 0 0 0 0 4 0 0 4 6 0
0 3 0 7 11 14 0 0 0 0 0 0 0 0 0
11 2 11 14 14 5 12 11 14 0 5 2 0 0 0
5 0 2 7 8 6 23 12 10 0 0 0 0 0 0
0 0 0 9 20 2 21 17 20 0 0 0 0 0 0
45 53 36 91 96 116 0 0 7 2 3 11 0 0 0
1 11 3 0 0 0 6 0 2 7 1 3 5 2 3
6 6 6 7 3 0 9 16 5 0 0 0 8 5 8
46 38 43 46 48 37 0 4 6 11 11 14 6 17 18
1 4 9 0 0 0 0 0 0 0 0 0 0 0 0
0 0 2 0 0 0 0 0 0 0 0 0 1 0 8
0 0 9 1 0 0 0 7 3 3 0 0 0 12 4
8 0 0 0 7 0 0 0 0 0 0 0 0 0 11
0 12 4 10 4 20 0 17 7 0 0 3 0 0 0
0 0 4 0 0 0 0 0 0 0 1 1 0 0 0
0 2 7 0 6 0 0 0 0 0 4 0 0 0 0
0 0 0 0 0 0 0 0 0 0 0 0 0 0 0
0 0 0 0 0 0 0 3 9 1 0 1 1 0 0
0 3 7 4 0 4 0 0 0 5 0 0 6 5 15
0 0 0 0 0 0 7 5 6 0 0 0 0 0 0
0 0 0 0 0 0 61 51 53 7 12 6 21 8 13
9 4 8 0 0 10 0 0 0 0 0 0 0 0 0
5 0 0 1 4 7 4 1 0 0 0 0 1 1 5
0 0 10 0 0 0 0 0 0 4 5 11 1 0 7
0 0 4 1 0 7 4 0 14 2 6 0 4 6 6
0 0 0 4 4 10 2 2 8 11 11 17 8 8 14
0 0 5 0 0 4 0 0 3 0 0 0 2 0 3
0 0 0 0 2 10 0 1 0 0 0 2 0 0 0
6 0 0 2 0 0 27 19 28 58 59 59 52 39 60
0 0 0 0 0 0 0 0 0 0 0 0 60 68 45
42 30 32 33 30 29 12 13 13 1 4 7 0 0 0
0 0 0 0 0 0 0 7 0 0 0 0 0 0 0
0 0 0 0 0 0 1 0 0 2 0 0 13 6 0
0 0 0 7 16 26 49 47 62 38 38 35 2 2 12
0 0 0 19 25 23 59 47 53 0 0 0 0 0 0
15 6 0 18 4 18 28 29 21 0 0 0 3 2 0
0 0 0 0 0 7 0 5 0 0 9 4 2 0 3
0 0 6 2 0 0 1 1 0 1 1 0 0 4 0
3 0 0 0 0 1 4 0 4 7 3 5 0 2 0
0 8 0 0 0 4 0 11 4 3 2 0 0 5 0
7 0 0 0 1 0 0 0 0 0 1 0 3 0 0
0 3 0 0 0 0 0 9 0 0 0 0 0 0 0
0 0 0 47 56 52 60 63 61 0 0 0 0 0 0
0 0 0 0 0 0 0 0 0 28 31 20 11 14 0
55 43 47 55 53 48 47 28 39 44 50 45 44 32 22
59 47 38 30 29 48 0 0 0 0 0 0 8 16 32
58 60 63 10 23 26 0 0 0 2 1 0 0 9 0
3 3 0 0 3 0 0 0 0 3 0 2 0 0 1
7 4 5 0 1 0 0 7 10 0 0 0 0 0 0
0 0 0 12 4 13 15 15 6 11 12 15 9 7 4
0 0 0 0 0 0 8 11 8 22 13 10 0 0 5
0 0 0 0 0 0 13 25 4 26 23 23 0 0 0
0 0 0 45 43 48 110 93 118 0 3 10 4 0 6
0 0 0 2 0 6 0 4 0 0 0 0 0 1 0
0 2 0 0 5 0 0 1 0 13 10 0 0 0 3
0 0 5 27 23 21 36 36 43 26 30 18 40 49 44
36 38 30 34 48 32 0 0 0 0 0 0 0 0 0
0 0 0 6 16 10 9 2 10 0 20 21 33 35 35
0 0 0 7 0 0 0 0 0 0 0 0 0 0 0
0 0 0 0 0 0 0 0 0 0 0 0 0 0 0
0 0 0 2 4 2 12 12 7 18 10 19 11 5 3
20 18 19 0 0 4 0 0 2 11 3 8 0 1 5
4 0 1 0 2 11 7 0 0 0 0 0 19 6 10
0 10 3 12 0 3 0 10 3 12 0 3 0 10 3
9 1 3 3 1 0 5 10 9 3 0 9 2 0 5
0 0 0 0 0 3 7 0 3 3 2 10 3 0 1
0 2 16 0 0 0 0 0 0 1 0 0 0 0 0
0 0 0 0 0 0 5 20 18 20 17 15 0 9 0
4 0 16 4 8 3 0 0 4 0 2 0 0 0 0
0 0 0 8 2 0 0 0 0 4 1 0 0 0 0
0 0 0 0 4 7 1 0 0 1 0 0 4 8 1
0 0 0 1 1 0 1 1 0 4 3 0 4 2 2
2 0 6 0 0 0 11 14 5 8 11 2 10 13 4
9 12 3 2 5 0 0 0 0 0 0 0 0 4 0
4 0 7 4 1 7 2 0 9 4 2 0 0 0 0
0 0 0 4 0 7 0 0 0 64 62 79 32 38 47
0 0 0 0 0 0 0 0 0 0 17 0 29 25 14
17 24 7 39 38 33 22 8 12 0 0 0 0 0 0
0 0 0 0 0 0 0 0 0 0 5 0 0 0 0
4 4 3 0 5 0 0 0 0 0 0 0 0 0 0
4 6 0 0 0 0 13 4 24 50 56 54 43 48 47
0 9 3 0 0 0 18 27 26 68 56 62 22 22 18
0 0 0 0 0 0 0 0 0 10 7 0 2 2 0
0 0 2 0 1 0 0 3 0 5 0 0 4 0 6
0 0 0 0 5 0 0 0 0 0 0 3 0 0 0
0 3 0 2 0 0 0 0 1 1 3 0 6 4 11
0 0 0 0 1 0 8 0 3 4 2 0 0 0 1
0 1 5 0 1 0 4 4 0 2 0 0 0 6 0
0 0 0 0 0 6 8 0 0 2 0 12 0 0 0
0 0 0 0 0 0 45 47 59 22 10 17 0 0 0
0 0 0 0 0 0 0 0 0 0 0 0 55 43 51
29 36 35 43 46 43 15 28 24 19 14 18 0 19 14
5 3 14 22 28 24 60 69 71 0 0 0 0 0 0
38 34 51 77 59 71 0 0 0 0 0 0 0 0 0
0 9 0 10 4 0 3 3 2 2 0 0 3 0 4
0 5 3 1 0 0 0 0 0 11 4 13 0 0 0
0 0 0 0 0 0 13 6 15 17 17 8 11 14 17
10 10 7 0 0 0 0 0 0 7 13 9 19 13 9
0 0 2 0 0 0 0 0 0 13 29 7 16 19 15
0 0 0 0 0 0 44 50 48 110 100 120 0 10 13
4 0 16 0 0 0 0 0 0 0 0 0 0 0 0
0 0 0 0 0 0 0 0 0 6 0 0 0 4 0
3 0 0 0 0 0 18 1 0 10 20 17 11 0 11
48 44 52 47 36 41 63 56 60 0 0 0 28 29 31
4 4 10 30 22 30 21 19 28 11 0 0 0 14 9
46 42 40 0 0 0 0 0 0 0 0 0 0 0 0
0 0 0 0 0 0 0 0 0 0 0 0 0 0 0
0 0 0 0 0 0 0 0 0 0 0 0 0 0 0
0 2 11 20 24 21 0 0 1 0 7 0 8 0 0
2 10 0 10 0 0 0 3 0 13 0 2 0 0 0
14 0 5 0 1 0 6 0 0 0 1 0 6 0 0
0 1 0 1 0 0 0 0 0 0 4 0 3 0 0
3 2 10 5 5 7 3 9 8 1 0 0 0 2 9
2 2 2 8 16 16 4 0 4 0 0 0 0 0 0
0 0 0 0 0 1 36 25 22 66 69 73 0 0 0
0 2 0 0 0 8 1 0 0 0 0 0 0 0 0
4 0 0 5 0 0 4 1 0 0 0 0 4 1 3
0 0 4 1 1 0 0 0 0 2 0 3 4 0 7
0 5 9 3 3 8 0 0 5 6 6 11 10 10 16
5 5 11 7 6 17 0 0 0 11 8 13 8 5 12
10 7 16 9 6 15 2 0 8 0 0 1 0 0 3
0 0 3 0 0 2 0 0 0 0 0 0 0 0 0
0 0 0 0 0 5 0 0 1 0 0 5 102 94 103
16 23 24 0 0 0 0 0 0 0 0 0 72 75 61
52 39 21 0 0 0 3 0 0 0 0 0 0 0 0
0 0 0 1 12 6 0 0 0 0 0 0 0 8 0
0 0 5 1 1 1 0 1 0 1 1 0 0 0 0
2 6 3 6 0 0 0 0 0 6 15 18 50 55 55
42 53 55 0 12 8 0 0 0 19 29 30 68 54 61
44 42 40 0 0 0 0 0 0 0 0 0 0 0 0
0 0 6 0 0 8 5 7 0 0 2 0 3 0 0
2 2 8 5 5 0 0 3 5 7 1 5 0 0 8
0 2 0 0 4 1 1 0 1 6 4 13 0 2 0
14 9 14 0 0 0 0 6 0 0 0 1 0 4 0
0 0 5 9 7 3 3 0 0 4 0 3 0 9 9
2 0 0 0 0 0 0 2 5 2 0 4 0 2 11
0 0 0 0 0 0 48 46 49 45 36 49 0 0 0
0 0 0 0 0 0 0 0 0 0 0 0 17 24 20
40 46 53 33 39 35 28 19 30 0 0 1 0 0 2
0 0 0 0 0 0 0 5 0 56 61 68 3 1 0
0 0 0 60 64 81 58 57 60 0 0 0 0 0 0
0 0 0 13 10 0 0 0 0 0 0 0 0 0 0
0 0 0 0 4 8 0 0 5 1 0 0 4 10 17
0 0 0 0 0 0 0 0 0 4 0 9 16 21 11
2 9 11 3 6 2 0 0 0 11 2 3 16 7 11
18 15 10 1 0 1 0 0 0 0 0 0 21 17 2
26 26 18 0 0 0 0 0 0 39 45 41 105 97 114
0 0 6 0 0 6 0 0 10 8 4 0 0 0 0
0 0 0 0 1 0 0 0 0 0 0 0 0 0 0
0 0 0 7 0 14 0 0 0 5 0 0 0 1 0
0 0 0 21 24 25 26 34 29 61 66 50 0 0 0
0 0 0 0 0 0 0 0 0 0 0 0 0 0 0
0 0 0 0 0 0 0 0 0 0 0 0 0 0 0
0 0 0 0 0 0 5 0 2 9 17 21 34 39 38
0 0 0 0 0 0 0 0 0 0 0 0 0 0 0
0 0 0 0 0 0 8 0 0 3 0 0 0 0 10
0 0 3 0 2 9 0 0 5 0 4 11 0 0 8
0 0 0 9 13 15 1 8 6 2 7 6 1 8 4
2 7 2 1 8 0 0 9 2 11 0 4 0 0 2
8 6 2 0 0 6 0 0 2 0 1 2 6 5 7
0 4 11 19 5 21 0 0 0 0 0 0 0 0 0
0 0 0 0 0 0 0 0 0 6 12 21 33 43 44
0 0 0 0 0 0 0 0 0 0 3 0 0 0 0
0 0 0 7 0 6 20 19 24 0 0 1 0 0 0
2 0 1 0 0 0 0 0 0 0 4 0 3 0 0
10 4 4 0 0 0 0 0 0 6 7 9 9 10 3
4 4 1 3 3 0 0 0 0 0 0 0 4 4 12
2 2 0 11 11 5 8 8 4 0 0 0 0 0 0
0 0 0 0 0 0 7 3 9 5 1 7 3 1 2
0 0 5 0 0 11 4 0 3 0 4 0 14 15 28
78 87 96 21 16 19 0 0 0 0 0 0 0 2 0
28 37 21 14 5 0 0 0 0 0 0 0 0 0 0
0 0 0 6 0 0 24 22 21 11 8 10 7 0 0
2 8 0 0 0 5 0 0 0 0 0 0 0 0 0
0 0 0 0 9 3 0 0 0 0 0 0 21 20 34
46 60 63 47 43 43 1 4 7 0 0 0 27 35 37
55 55 55 17 8 9 0 0 0 2 0 8 15 0 4
8 0 0 3 6 0 1 3 0 0 0 0 0 2 0
4 0 1 3 3 9 0 0 0 0 4 8 9 3 0
0 2 0 7 0 0 3 0 3 0 3 0 0 3 0
12 0 0 11 17 17 0 0 0 0 0 6 1 0 0
0 3 0 4 0 1 0 4 0 0 5 10 0 0 0
11 13 8 2 0 0 0 12 3 2 0 0 6 0 4
2 2 9 7 10 0 0 0 0 68 55 80 21 9 29
0 0 0 0 0 0 112 116 127 74 60 67 0 0 0
40 33 40 3 0 6 38 32 34 20 9 6 0 0 0
0 0 0 0 7 4 0 0 0 4 2 12 34 21 24
17 25 35 0 0 1 91 89 106 54 44 48 0 0 0
0 0 0 8 22 13 2 2 0 0 8 0 0 4 0
12 0 3 3 0 1 2 0 5 4 7 0 6 3 0
10 7 22 0 0 0 0 0 0 0 0 0 16 5 14
18 19 8 22 8 17 3 14 7 0 0 0 2 0 0
7 4 6 16 19 12 0 0 2 0 0 0 1 0 0
21 29 8 16 29 12 0 0 0 0 0 0 44 58 45
99 102 109 0 2 20 2 9 11 0 0 0 13 19 5
4 0 0 0 3 7 0 0 0 16 2 19 7 0 7
13 4 11 15 7 3 17 6 6 0 0 0 18 5 0
6 13 13 0 0 0 16 19 12 30 13 33 56 55 55
0 0 0 0 0 0 0 0 0 0 0 0 0 0 0
0 0 0 0 0 0 0 0 0 0 0 0 0 0 0
0 0 0 8 17 23 32 41 32 53 59 55 81 84 85
114 115 115 25 25 37 40 39 30 6 12 24 0 0 0
0 0 0 0 0 0 0 0 0 0 0 1 3 0 2
3 6 6 5 1 0 10 8 0 7 3 0 3 1 0
10 6 0 0 0 0 12 2 11 4 0 0 5 0 0
4 0 0 5 0 10 4 0 6 2 0 8 0 0 0
3 7 0 12 4 0 4 0 0 4 3 5 1 6 5
7 0 3 5 8 1 3 0 0 0 0 0 0 0 0
0 0 0 0 0 0 0 0 0 0 0 8 0 0 26
0 0 19 0 0 0 14 2 1 8 2 11 9 3 12
7 1 8 0 0 0 0 0 0 16 23 17 0 0 0
1 0 0 1 0 2 0 0 0 7 0 4 5 1 6
5 3 5 9 4 5 0 0 0 0 0 0 0 0 11
9 13 3 5 7 4 6 7 7 0 0 1 0 0 0
0 0 0 2 2 6 8 8 14 1 1 11 0 0 0
0 0 0 0 0 0 3 0 5 3 13 0 2 12 0
1 0 2 0 0 0 0 0 12 0 0 7 0 0 16
50 41 45 52 50 60 0 0 0 0 0 0 16 8 17
0 0 0 0 0 0 0 0 0 17 9 11 0 0 0
0 0 0 0 0 0 9 0 1 12 8 11 0 5 0
0 0 0 0 0 0 9 4 7 0 0 0 4 0 2
3 0 0 3 0 0 5 5 5 5 0 0 0 0 0
29 30 25 36 47 49 38 42 38 0 0 6 7 5 0
30 36 37 53 49 47 0 0 0 0 0 0 1 5 6
3 9 0 2 12 10 0 0 0 0 0 0 0 3 1
0 8 5 6 2 8 0 0 8 0 2 0 0 3 7
4 4 0 0 5 1 4 0 4 8 6 15 5 13 7
0 14 9 16 7 10 20 10 13 0 0 0 0 1 0
0 0 0 1 0 0 1 8 7 1 1 0 0 0 0
0 0 0 7 3 2 3 0 0 0 0 0 0 0 0
0 0 0 0 0 0 0 0 0 0 0 0 0 0 0
0 0 0 0 0 0 19 35 23 217 208 225 118 118 117
0 0 0 0 0 0 0 0 0 0 0 0 0 0 0
0 0 0 31 19 32 29 38 32 14 13 11 18 22 16
9 4 12 0 4 5 0 0 0 75 90 93 49 44 63
0 0 0 0 0 0 30 44 38 0 0 0 0 0 0
0 0 0 0 0 0 0 0 0 2 2 14 0 0 0
0 1 0 0 0 12 0 0 0 0 0 0 0 0 0
0 0 4 0 12 0 3 0 5 0 0 0 4 0 0
1 1 0 17 17 18 29 11 11 0 0 0 0 0 0
0 0 0 22 22 4 40 33 38 0 0 0 0 0 0
18 4 11 66 60 83 0 0 0 0 0 0 0 0 0
9 0 11 0 0 0 0 0 0 0 3 0 0 0 3
1 7 4 0 6 3 2 8 0 0 0 0 0 0 0
30 32 33 31 35 23 8 0 0 1 16 0 0 0 0
5 2 7 0 0 0 0 0 0 0 0 0 0 0 0
0 0 0 0 0 0 0 0 1 24 26 39 61 64 52
36 24 33 35 37 41 42 37 46 52 45 48 56 47 54
62 53 55 75 66 44 94 83 65 65 71 59 25 19 33
0 0 0 0 0 0 0 0 0 0 0 0 0 0 0
0 0 0 0 0 0 0 0 0 0 0 0 0 0 0
0 0 0 0 0 0 0 0 0 1 0 3 0 0 0
0 0 0 0 0 0 0 0 0 0 0 0 0 0 0
0 0 0 0 0 0 0 0 0 0 0 0 0 0 0
5 0 0 0 0 0 0 0 0 0 0 0 0 0 0
0 0 0 0 0 0 0 0 0 0 0 0 0 7 8
0 0 0 0 0 0 0 0 0 0 0 0 0 0 0
0 0 0 0 0 0 0 0 0 0 0 0 0 7 11
0 0 0 0 0 0 0 0 0 0 0 0 0 0 0
0 0 0 6 7 0 21 18 22 0 0 0 0 0 0
0 0 0 0 0 1 4 0 12 0 0 0 0 0 0
0 0 0 0 0 0 0 0 0 7 7 6 6 6 12
4 4 0 0 0 0 0 0 0 0 0 0 6 14 5
0 3 0 0 0 0 0 0 0 0 0 0 2 0 6
17 6 15 108 109 117 77 73 80 17 20 25 3 12 0
67 70 54 22 23 26 0 0 0 0 0 0 70 58 60
0 0 0 8 11 11 0 0 0 8 7 6 5 13 12
0 0 0 0 0 0 0 0 0 6 14 10 0 0 0
0 0 0 0 0 0 0 0 0 0 7 1 5 7 1
0 0 0 21 37 30 42 40 50 27 17 19 0 0 2
0 4 0 23 33 28 52 48 60 0 0 0 0 0 0
14 6 3 13 0 10 1 0 0 0 0 0 2 6 4
3 0 0 2 0 4 2 0 0 0 4 0 9 0 0
13 13 15 0 0 0 0 0 0 0 0 0 0 0 0
4 0 0 0 0 0 0 0 0 5 2 3 9 3 5
6 0 1 1 1 0 0 0 0 0 2 3 4 2 2
0 15 2 4 9 4 6 16 10 0 5 0 3 3 6
18 11 13 21 26 19 43 31 35 35 38 29 0 0 0
0 0 0 7 0 3 0 0 0 0 0 0 122 113 133
89 90 90 0 0 0 0 0 0 79 59 81 14 21 32
0 0 0 2 10 13 9 6 7 0 0 0 0 0 0
0 0 0 4 2 8 0 0 0 191 175 204 151 145 151
0 0 0 0 0 0 42 42 27 0 4 0 28 25 7
19 12 6 13 12 5 2 2 0 0 5 4 6 0 0
3 0 0 0 0 0 0 6 19 11 23 11 27 16 29
6 0 0 3 0 4 32 23 16 32 28 31 6 18 14
0 0 0 0 1 0 0 0 0 4 0 0 10 0 7
3 3 0 9 0 4 0 0 0 0 0 0 0 0 0
0 0 0 87 88 79 138 148 155 35 37 57 28 38 46
23 33 28 31 32 30 15 11 16 17 8 20 15 7 16
12 5 11 12 6 9 4 0 1 6 2 0 16 14 21
7 5 4 3 0 0 0 0 0 9 0 7 12 16 10
29 16 23 117 125 123 0 0 0 6 4 0 20 11 7
7 16 9 22 28 26 45 41 43 45 58 66 30 29 37
91 78 77 60 61 48 49 48 40 35 30 24 12 19 15
0 2 0 0 0 0 0 0 0 45 48 29 35 39 35
48 37 51 46 56 37 21 20 34 0 0 0 0 0 0
0 0 0 7 7 12 0 18 11 19 9 12 14 17 14
42 33 30 30 35 24 22 7 19 0 3 0 22 9 21
5 14 5 15 4 18 3 5 11 13 4 8 3 8 3
3 0 10 0 0 0 16 19 9 20 29 28 38 24 38
8 6 2 0 0 0 0 0 0 0 0 0 0 0 0
41 38 30 0 2 7 34 30 38 48 57 63 49 41 77
31 27 50 0 0 42 0 0 24 55 40 51 32 21 20
11 6 12 0 0 0 0 0 0 0 0 0 0 0 0
0 0 0 11 8 18 0 0 0 8 0 6 23 19 17
20 18 29 0 0 0 0 0 0 14 5 21 0 0 0
0 0 1 10 10 18 9 9 3 15 14 15 6 2 14
8 10 4 0 0 0 8 8 11 2 2 8 0 0 0
2 2 10 3 3 0 4 4 4 12 12 12 4 1 7
41 45 30 0 0 0 19 17 19 34 47 42 0 0 15
0 0 9 26 21 43 118 113 127 0 0 0 0 0 0
0 0 0 0 0 0 0 0 0 7 5 0 15 12 5
56 36 42 0 0 0 0 0 0 1 6 3 4 0 0
0 3 0 5 0 0 4 10 0 1 9 0 0 3 1
0 0 0 3 3 3 0 0 0 2 0 0 0 0 0
7 0 0 0 0 0 0 2 0 91 97 101 40 43 41
0 0 0 30 22 33 54 51 44 6 3 3 0 0 0
0 0 0 0 0 0 0 0 0 0 0 0 0 0 0
0 8 5 0 0 1 0 0 10 0 0 0 0 3 5
1 0 1 8 14 19 0 0 0 0 0 0 0 3 0
0 2 0 4 0 0 0 0 0 0 0 0 1 3 4
0 3 0 0 8 1 0 0 0 0 4 0 0 0 0
8 0 0 1 2 0 0 0 0 2 0 0 4 0 0
0 0 0 0 0 0 0 0 0 0 0 0 0 0 0
0 0 0 38 38 62 29 23 46 0 0 0 27 28 29
114 128 117 16 12 8 0 0 0 0 0 0 0 0 0
0 0 0 0 0 2 0 0 2 0 0 0 0 0 0
27 32 26 22 24 20 0 0 0 0 0 0 231 217 233
120 114 136 0 0 0 0 0 0 34 23 10 0 0 0
7 14 0 0 0 0 0 1 0 0 2 0 0 0 0
1 0 2 1 6 4 0 0 0 4 4 15 0 4 0
0 0 7 0 0 0 0 0 0 14 11 2 12 15 16
6 0 0 3 0 0 2 0 1 11 0 3 0 0 0
0 0 0 0 0 0 0 0 0 0 0 0 3 1 0
0 0 0 0 0 0 56 46 55 113 103 128 1 0 11
6 0 2 0 0 0 5 0 9 0 2 0 0 1 0
0 1 0 0 2 0 0 5 0 0 0 0 0 0 0
1 0 1 4 0 0 0 5 0 0 2 0 0 0 5
0 0 0 3 0 0 42 40 38 0 0 0 1 13 13
6 0 4 0 0 0 9 0 10 11 10 8 24 22 37
15 18 23 3 2 0 0 4 0 7 0 0 0 5 0
0 0 0 0 2 1 9 1 0 0 0 0 6 0 0
0 0 0 23 10 30 17 34 26 36 22 38 0 0 0
0 0 0 0 0 0 0 0 0 0 0 9 0 0 0
0 0 0 0 5 9 0 7 0 0 0 6 0 0 0
1 5 11 0 0 0 0 0 1 0 5 0 0 2 0
0 4 0 0 0 4 5 8 19 0 0 0 5 0 5
3 3 2 0 0 0 0 0 0 0 0 0 0 5 3
0 0 0 85 93 93 40 41 51 47 52 55 54 54 24
53 57 7 51 57 1 45 57 6 34 46 11 52 49 21
35 39 32 33 42 45 20 22 40 15 18 22 3 7 8
0 4 0 0 0 0 11 14 10 0 0 0 1 0 2
8 8 2 10 11 14 0 0 0 0 0 0 15 8 10
0 0 0 0 0 0 4 4 6 4 4 12 10 10 6
1 0 7 1 4 0 0 0 0 0 0 0 0 0 0
0 0 0 0 0 0 0 0 0 0 0 0 0 0 0
0 0 0 0 0 0 0 0 0 0 0 6 0 0 0
0 0 0 52 47 61 51 53 64 107 107 117 0 0 0
14 16 14 0 0 0 0 0 0 0 0 0 15 14 18
13 0 12 26 21 30 0 0 0 0 10 2 0 0 1
0 4 4 3 0 0 0 3 2 2 2 0 0 0 0
0 0 0 1 3 2 0 0 0 0 5 0 0 2 1
8 0 3 0 0 0 0 0 0 0 0 0 93 86 90
39 34 35 0 0 0 10 11 11 46 46 45 23 10 25
0 0 0 0 0 0 0 0 0 0 0 0 0 0 0
0 0 0 5 1 7 0 0 0 0 0 0 10 0 0
7 3 7 0 0 0 7 13 5 0 0 0 0 0 0
0 0 0 0 0 0 10 1 4 3 3 7 5 5 0
0 2 6 4 0 0 0 0 5 7 0 4 0 0 0
5 0 0 0 0 0 0 4 0 16 12 8 0 0 0
0 4 0 0 1 4 0 0 0 0 0 0 0 0 0
26 19 11 18 22 10 54 40 52 72 60 83 56 62 60
126 117 123 205 201 203 97 86 103 0 0 0 0 0 0
0 0 0 0 0 0 22 15 17 12 15 8 0 0 0
0 1 0 11 12 6 0 0 0 0 0 0 53 51 61
255 255 255 85 89 106 0 0 0 0 0 0 16 17 0
0 0 0 7 19 0 0 0 0 10 0 0 3 0 0
0 0 0 0 0 5 1 0 0 0 0 0 3 8 19
0 2 0 2 0 5 0 0 0 0 0 0 19 16 7
17 23 23 0 0 0 2 8 0 0 0 0 0 0 0
0 0 0 0 0 1 0 1 0 0 0 0 8 5 0
0 2 0 0 0 0 0 0 0 51 54 50 111 114 130
0 0 6 0 4 16 0 0 0 0 3 3 0 0 7
0 1 0 0 0 0 1 0 6 0 0 2 0 0 3
1 0 3 3 1 4 0 0 0 6 2 12 1 0 0
4 0 6 0 0 0 0 0 0 15 13 19 30 23 18
39 38 42 42 32 27 23 42 33 42 21 30 22 30 19
23 29 37 40 23 29 1 0 1 0 0 0 6 0 0
1 0 7 10 0 0 0 1 0 17 0 11 0 0 0
0 0 0 0 0 0 22 15 18 54 66 24 87 67 84
46 53 49 2 0 0 0 0 0 0 0 0 0 0 0
0 0 0 0 0 0 7 0 4 13 8 2 7 2 0
0 0 0 4 0 7 5 0 0 3 0 4 9 4 1
7 0 12 14 10 14 12 9 10 18 17 17 0 0 0
3 0 13 0 0 10 0 0 0 0 0 0 0 0 0
41 45 59 67 60 79 65 72 39 20 17 11 2 14 7
12 8 4 11 11 5 4 4 4 10 16 5 1 7 6
32 22 8 25 21 9 32 23 11 41 35 20 50 46 48
30 28 37 0 0 0 0 0 0 20 18 21 0 0 0
0 0 0 13 14 3 14 17 12 0 0 0 0 0 3
23 17 30 0 0 0 0 0 0 3 3 5 6 6 14
3 2 1 1 0 9 0 0 0 0 0 0 0 0 0
0 0 0 0 0 0 0 0 0 0 0 0 0 0 0
0 0 0 0 0 0 0 0 0 10 15 22 0 0 0
0 0 0 7 3 24 90 85 95 25 23 32 37 21 31
0 0 0 0 0 0 0 0 0 0 0 0 4 1 0
4 7 0 6 0 0 0 0 0 0 0 0 0 6 4
7 0 0 0 4 0 3 0 0 0 0 0 2 0 0
0 0 0 1 4 4 0 0 0 3 0 0 0 0 0
9 0 1 0 0 0 0 5 0 0 0 0 0 0 0
90 97 98 39 46 46 0 0 0 0 6 5 28 20 23
15 28 27 0 0 0 36 19 35 33 46 32 43 48 44
40 52 45 0 0 1 3 3 12 0 0 0 0 0 0
6 0 0 3 3 9 0 0 0 5 10 9 0 0 0
0 0 6 0 7 1 0 7 4 5 0 5 0 0 10
2 2 0 0 0 0 7 2 7 0 0 2 0 0 1
0 0 0 0 0 0 0 0 0 14 3 0 7 15 0
0 0 0 0 0 0 0 0 0 0 0 0 0 0 0
0 0 0 37 39 32 33 46 39 0 0 0 19 26 30
11 9 6 14 18 20 157 154 164 182 191 182 53 51 65
9 14 19 0 0 0 0 0 0 0 0 0 13 12 21
12 0 11 20 20 23 0 0 0 0 0 0 0 0 0
131 128 131 209 212 217 45 27 50 0 0 0 0 0 0
5 10 0 0 0 0 0 10 0 0 0 0 13 1 0
1 0 0 0 0 8 0 0 8 2 0 0 0 0 0
3 14 23 0 1 0 0 0 1 0 0 0 0 0 3
23 28 16 16 27 25 0 0 0 11 20 9 9 0 0
0 0 0 0 0 0 7 0 5 0 9 0 0 2 0
2 2 0 0 4 0 0 0 0 0 0 0 60 60 52
115 106 128 8 0 6 8 3 16 0 0 2 22 14 8
0 0 0 0 0 0 0 7 0 0 0 2 3 5 5
0 4 4 0 0 0 0 1 0 0 0 0 1 1 5
2 2 0 3 2 8 1 0 0 0 0 0 0 0 0
1 5 10 10 14 13 17 14 7 1 5 9 4 3 1
2 2 0 0 0 3 0 0 0 0 0 0 0 0 0
0 0 0 0 0 0 3 0 0 0 9 0 4 8 0
0 0 0 17 14 8 3 2 4 14 5 6 16 34 4
56 61 27 60 71 73 23 16 17 25 17 0 0 0 0
0 0 11 0 0 3 0 6 0 9 5 16 0 6 2
6 0 4 0 0 0 9 5 16 0 2 0 2 0 5
0 6 0 3 0 6 0 8 0 2 0 1 3 6 5
0 0 1 0 0 11 0 0 0 0 0 0 0 0 0
0 0 0 31 38 37 60 56 27 27 37 3 14 4 3
0 6 0 0 0 0 0 0 0 0 0 0 0 0 4
0 1 0 0 0 0 0 0 0 0 0 0 4 16 3
21 26 11 13 21 29 0 0 0 0 0 0 2 7 0
0 0 5 0 0 0 7 9 11 7 3 15 0 0 0
0 0 0 15 9 17 0 0 0 0 0 0 0 0 5
0 0 0 1 0 3 0 0 0 0 0 0 0 0 0
11 11 14 6 6 0 0 0 0 7 12 0 3 5 1
2 3 4 4 7 7 8 22 6 0 0 0 18 20 32
0 0 14 6 4 12 87 83 100 67 68 69 0 0 0
0 0 0 0 0 0 0 0 0 0 0 0 4 10 2
11 15 10 0 10 0 0 0 0 0 0 0 0 0 0
0 1 6 0 0 0 5 2 1 0 0 0 0 0 0
0 3 0 0 0 0 3 5 6 0 6 3 1 0 0
0 3 0 5 0 1 4 6 4 8 0 0 0 0 0
0 0 0 89 89 83 54 53 64 0 0 0 0 0 6
17 9 0 33 37 48 0 0 0 72 71 71 62 60 56
64 50 67 67 59 64 0 0 0 3 3 0 0 0 0
0 0 0 6 0 0 3 3 9 0 0 0 4 8 9
1 0 0 0 2 0 10 0 0 3 0 3 0 0 0
0 0 0 0 0 0 0 6 0 1 0 7 2 6 1
6 0 0 3 4 0 4 0 2 0 7 0 4 5 5
0 2 0 0 0 0 0 0 0 0 0 0 0 0 0
12 0 0 16 18 12 34 22 33 11 17 16 0 0 0
23 16 22 0 0 0 0 0 0 0 0 0 93 95 92
126 109 122 168 159 162 32 20 24 0 0 0 0 0 0
0 0 0 15 11 15 19 33 23 0 0 0 0 0 0
150 138 143 107 113 112 75 78 97 0 0 0 0 0 0
0 0 0 0 0 0 5 0 0 0 7 0 0 0 0
0 2 0 0 8 7 6 0 0 1 7 0 2 6 0
0 0 0 13 10 27 0 0 0 0 0 0 0 0 0
11 0 8 28 23 17 34 23 28 0 0 0 17 31 18
5 0 0 0 0 0 0 0 0 5 0 8 11 6 0
10 4 5 11 18 2 0 1 0 0 0 0 0 0 0
52 65 47 102 106 119 0 0 12 0 0 5 0 0 0
17 17 8 0 0 3 0 0 3 5 2 8 0 0 0
0 2 2 9 0 0 12 2 0 0 0 8 2 2 6
6 6 8 5 5 0 2 2 8 6 5 4 2 0 0
6 5 0 0 0 0 0 0 0 0 0 0 0 0 0
0 0 0 0 0 0 0 0 0 0 0 0 1 0 0
2 0 0 3 0 0 1 0 0 10 4 2 3 2 1
9 5 1 0 0 0 30 27 18 11 10 6 0 0 0
0 0 12 44 34 14 68 60 65 26 11 3 10 12 0
0 0 0 0 0 5 4 0 0 0 0 0 12 0 0
0 11 8 14 0 7 0 0 0 22 3 22 0 10 0
10 0 4 0 0 0 8 0 2 0 0 0 0 0 0
0 0 0 0 0 7 0 0 0 0 0 0 0 0 0
0 0 0 17 13 21 24 34 49 34 24 13 6 11 12
12 8 9 2 16 7 15 4 2 16 18 1 11 13 0
0 6 0 0 0 0 18 15 18 4 0 1 0 0 0
23 12 3 38 30 4 40 36 32 14 4 20 13 2 2
0 0 0 0 0 0 0 0 0 0 2 0 0 0 0
0 0 0 0 0 0 0 0 0 0 3 0 0 0 0
0 0 0 0 0 0 4 0 12 4 6 1 0 0 4
0 0 0 0 0 8 0 0 0 0 0 12 6 8 6
10 10 18 16 16 8 18 22 14 14 14 28 23 17 27
7 4 29 32 24 43 118 117 120 144 146 155 8 2 7
0 0 0 0 0 0 0 0 0 8 8 0 11 14 7
20 19 17 26 20 14 0 0 0 0 0 0 0 0 0
0 0 0 0 0 2 0 0 0 2 0 0 0 0 0
0 0 0 0 0 0 0 0 0 11 12 14 0 3 0
0 0 0 0 3 0 0 0 0 0 7 2 0 0 0
0 0 0 0 0 0 93 88 92 53 64 75 0 0 0
0 0 12 0 0 0 30 35 49 16 11 8 7 0 6
0 1 0 0 0 6 0 0 0 0 0 0 3 3 0
0 0 0 0 0 0 6 0 0 2 4 9 0 0 0
1 8 9 0 0 0 0 0 0 3 0 0 0 0 2
4 4 0 2 3 3 1 4 4 0 2 0 1 0 4
0 4 0 5 0 1 0 0 0 0 0 0 3 0 0
5 0 0 0 0 0 0 0 0 0 0 0 0 0 0
3 15 0 33 24 38 26 35 36 8 11 13 0 0 0
31 32 32 13 13 21 0 0 0 0 0 0 0 0 0
0 0 0 0 0 0 115 121 114 150 151 148 4 0 7
0 0 0 0 0 0 0 0 0 0 0 0 0 0 0
0 0 0 240 239 237 37 24 28 10 9 25 0 0 0
0 0 0 0 0 0 0 0 0 15 10 8 0 0 0
0 0 0 0 3 0 0 4 7 13 1 7 0 2 0
5 5 2 0 0 0 16 16 31 0 0 0 0 0 0
0 0 0 4 0 4 25 28 19 26 20 23 0 0 0
36 34 29 6 0 2 0 0 0 2 0 0 0 0 4
14 14 5 7 8 6 24 20 9 0 0 0 0 0 0
0 0 0 63 56 59 109 102 126 10 0 16 4 0 3
0 0 0 19 22 13 4 0 0 0 3 3 0 0 0
0 1 0 0 4 0 10 9 0 15 11 0 0 0 0
1 0 0 4 3 0 1 1 0 5 5 9 5 5 5
0 0 0 0 0 0 0 0 4 2 0 5 11 5 14
10 9 0 10 14 17 10 13 4 13 16 16 13 21 16
0 0 0 0 0 0 3 9 0 0 2 0 5 5 3
4 1 1 0 0 0 0 0 0 5 6 6 0 1 0
0 0 0 0 0 0 23 26 16 56 60 62 4 0 0
0 0 0 0 0 0 2 3 16 4 0 2 0 0 0
9 1 9 10 7 0 6 1 9 0 0 0 13 5 21
5 2 0 8 3 10 0 0 0 0 0 1 0 0 0
0 0 0 0 0 0 0 0 0 0 0 0 0 0 0
0 0 0 14 25 34 61 51 60 38 43 16 14 9 11
0 0 0 0 0 0 0 0 0 2 0 8 0 2 5
0 0 1 0 0 0 0 0 0 32 39 15 20 16 7
2 3 6 4 8 2 8 6 2 11 14 6 0 0 0
22 19 20 0 0 0 0 0 1 0 0 0 0 0 0
7 4 21 0 0 0 0 0 0 0 0 0 3 9 2
0 0 1 1 1 0 0 0 0 0 3 0 0 0 0
0 0 0 0 0 0 0 0 0 0 0 0 0 0 0
0 0 0 0 0 0 0 0 1 6 11 17 0 3 5
52 45 4 17 4 24 57 54 66 145 136 156 114 107 98
0 0 0 0 0 0 0 3 0 0 0 0 26 20 13
24 30 23 26 27 13 20 8 6 0 4 0 0 0 0
0 0 0 0 0 0 0 8 6 0 0 0 0 2 0
1 0 0 0 10 3 0 0 0 0 0 0 10 10 13
0 2 0 4 4 5 5 0 0 2 1 0 9 0 2
11 0 0 0 0 0 0 0 0 78 82 89 67 59 61
0 0 0 3 0 0 0 0 0 18 23 20 9 13 11
25 13 23 11 16 2 11 3 20 8 6 2 0 0 0
0 2 0 0 0 0 0 0 0 4 0 0 1 5 9
2 0 0 8 2 8 0 0 0 0 6 0 9 0 2
2 2 5 1 1 0 0 1 0 5 2 0 3 9 0
3 3 14 5 0 1 1 0 0 0 0 0 0 5 0
6 6 0 8 8 0 0 0 0 17 32 0 0 0 0
22 16 5 26 39 12 29 21 37 24 15 31 3 4 9
0 0 0 20 0 7 17 1 24 21 3 11 17 12 14
0 0 0 0 0 0 0 0 0 0 0 0 135 125 128
81 87 90 88 84 81 0 0 0 0 0 0 0 0 0
0 0 0 38 32 41 187 189 179 0 0 0 21 21 30
16 8 16 0 0 0 0 0 0 0 0 0 17 17 15
0 0 0 0 0 0 0 10 0 0 8 5 11 3 3
0 4 0 0 0 0 0 0 0 16 20 33 0 0 0
0 0 0 0 0 0 9 5 15 27 36 29 27 29 33
0 0 0 35 42 36 0 0 0 0 0 0 0 0 0
0 0 3 14 21 7 3 13 2 24 33 14 0 0 0
0 0 0 0 0 0 56 64 53 97 102 112 0 0 0
3 0 0 0 0 0 24 31 16 0 1 0 6 5 0
9 7 0 9 0 7 7 0 3 9 4 7 7 0 0
0 2 6 0 6 6 7 9 9 3 6 4 6 9 5
4 6 2 5 6 4 0 0 0 15 17 13 17 20 16
12 14 16 12 12 0 18 16 25 22 19 7 19 16 22
29 29 27 0 0 3 7 3 11 0 0 5 4 0 11
0 0 0 5 4 4 0 0 0 0 0 0 0 0 0
6 8 0 0 0 14 0 0 0 24 22 27 60 58 58
16 0 5 0 0 0 0 0 0 0 2 5 0 0 1
0 0 0 3 1 12 6 5 0 6 6 16 0 2 0
7 4 21 1 1 0 3 3 11 3 6 0 2 1 8
1 5 9 1 8 15 0 0 0 17 19 23 0 0 0
0 0 0 10 12 11 39 48 57 58 56 18 20 29 7
0 0 0 8 13 3 21 13 12 16 16 12 33 27 9
32 27 4 22 23 5 28 16 13 19 13 8 11 6 13
1 0 0 0 0 0 0 0 1 0 0 2 0 0 0
0 0 8 42 33 46 0 0 0 9 0 6 0 0 0
0 0 0 12 9 26 0 0 0 0 0 0 2 0 3
6 12 5 0 0 0 0 1 0 0 0 3 0 6 0
2 8 8 0 5 2 0 0 0 9 8 17 0 0 0
0 0 9 0 0 0 0 0 7 0 2 10 0 6 5
0 3 4 25 22 18 24 14 44 43 51 66 41 52 54
0 0 0 0 0 0 0 0 0 19 6 0 0 0 0
24 18 13 16 10 4 3 1 0 0 0 0 0 0 0
0 0 0 12 0 6 0 0 3 0 6 3 0 0 0
0 4 1 5 0 0 0 7 1 4 4 3 0 0 0
8 12 13 0 7 1 0 0 0 0 0 0 0 5 1
4 4 3 0 0 0 0 0 0 0 0 0 67 81 84
58 63 76 2 10 18 12 11 19 0 0 0 5 10 14
0 0 0 30 14 27 8 8 0 3 0 10 0 0 0
4 0 0 0 12 0 4 0 0 1 2 3 0 3 5
0 7 10 0 0 0 5 7 2 0 0 0 0 8 0
0 0 0 0 0 0 0 0 0 0 0 1 1 0 3
0 3 0 0 0 0 3 0 0 0 0 0 0 0 0
0 0 0 0 0 0 0 0 0 0 0 0 0 0 0
0 0 0 28 27 21 37 54 29 47 33 33 11 11 14
2 6 15 0 0 4 0 0 0 3 0 12 27 13 23
18 19 9 35 30 29 18 21 30 8 1 7 0 0 0
66 53 59 167 155 167 169 168 165 0 0 0 0 0 0
0 0 0 0 0 0 151 147 140 123 119 108 0 0 0
74 71 87 75 59 83 0 0 0 0 0 0 0 0 0
18 23 9 0 0 0 0 0 0 6 0 3 9 10 6
1 3 8 0 2 3 0 3 0 0 0 0 13 28 34
3 8 2 0 0 0 0 0 0 0 0 0 17 16 22
6 13 10 0 0 0 25 28 30 0 0 0 0 0 0
0 0 0 0 0 0 0 0 0 0 0 0 0 14 2
0 0 0 0 0 0 0 0 0 70 74 77 141 126 147
22 17 27 0 3 6 0 0 0 38 29 30 13 2 6
5 0 0 14 6 0 15 8 10 14 11 5 14 14 5
16 14 0 0 0 0 0 5 0 4 9 0 0 5 0
0 5 0 0 0 0 0 0 0 0 0 0 0 6 5
0 0 0 0 0 0 0 0 0 0 0 0 0 0 0
0 0 0 6 15 5 0 5 12 11 20 26 8 17 23
10 16 24 0 3 11 0 0 6 0 0 0 0 0 0
2 9 10 19 26 14 0 7 0 0 0 0 0 0 4
47 48 52 12 8 0 1 0 0 0 0 0 0 0 0
0 0 0 0 0 0 0 0 0 0 0 0 0 0 0
0 0 0 0 0 0 0 0 0 0 0 0 0 0 0
0 0 8 0 0 5 0 0 0 0 0 0 0 0 0
0 0 0 0 0 0 0 0 1 41 28 35 42 38 8
11 15 9 0 0 0 0 0 0 0 0 0 0 0 0
0 0 0 0 0 5 0 0 0 1 0 3 0 0 1
0 0 0 0 0 0 16 12 11 27 23 1 28 13 1
16 28 2 21 23 3 74 81 25 0 0 0 0 0 0
0 0 0 0 0 0 17 15 23 2 5 15 0 0 1
0 0 1 0 4 0 0 0 0 0 3 0 0 3 5
0 1 0 0 0 0 0 0 0 0 0 0 27 26 30
0 7 4 0 0 1 0 0 6 1 4 8 15 19 23
17 25 22 19 24 27 14 1 31 87 81 97 149 142 164
49 41 44 0 0 0 0 0 0 21 21 2 29 21 9
14 6 0 41 47 35 50 42 40 15 17 10 0 0 0
0 0 0 0 0 0 9 7 15 0 0 0 0 0 0
10 0 3 3 6 0 0 4 0 7 3 0 0 10 1
0 6 0 3 1 5 0 0 0 0 0 0 0 1 0
11 2 7 0 3 4 2 1 1 0 0 0 0 0 0
73 71 77 58 55 68 21 8 12 12 14 21 0 0 0
0 0 0 0 0 0 33 21 22 8 8 8 17 5 8
0 0 0 2 0 0 0 0 0 3 0 0 2 0 0
3 0 0 3 0 0 5 3 12 2 8 12 0 0 0
0 0 0 6 0 16 3 7 0 0 2 0 0 0 0
0 7 8 10 8 19 3 7 0 25 25 0 7 11 0
0 0 0 0 0 0 0 0 0 31 21 40 14 25 40
121 103 137 42 44 63 29 19 48 0 11 26 1 0 4
0 0 0 0 0 0 0 0 0 32 18 22 0 0 0
0 0 0 0 0 0 0 0 0 0 0 0 0 0 0
0 0 0 0 0 0 0 0 0 100 102 111 184 181 163
13 2 17 0 0 0 55 53 61 95 80 92 0 0 0
0 0 0 61 60 78 54 54 62 0 0 0 0 0 0
3 6 0 10 11 0 0 0 0 4 9 0 4 0 0
2 0 0 3 0 2 9 3 9 5 0 5 0 10 0
8 0 7 0 0 0 0 0 0 0 0 0 49 42 30
51 46 55 20 11 0 19 1 0 31 27 17 25 15 21
0 0 0 0 0 0 0 0 0 34 30 35 56 43 53
87 74 79 0 0 0 0 0 0 0 0 0 37 35 34
95 91 104 18 22 44 0 0 0 29 40 47 17 28 22
0 11 5 7 10 16 7 14 6 1 9 8 0 4 13
12 4 1 26 22 29 14 9 25 14 8 17 17 11 24
11 4 5 16 8 19 23 12 18 23 18 12 35 27 24
9 0 6 17 8 3 21 12 13 21 12 15 28 19 22
24 15 18 21 12 15 32 21 28 0 0 0 1 0 0
0 0 0 3 0 0 0 0 0 0 0 0 2 2 0
2 3 2 26 19 27 0 0 0 0 0 0 6 0 7
26 28 23 28 28 34 0 0 0 45 41 37 0 0 0
0 0 0 0 0 0 0 0 0 0 0 0 0 0 0
0 0 0 0 0 0 50 45 63 34 31 38 28 27 27
27 33 40 1 0 5 0 0 0 0 0 25 16 14 34
132 117 91 64 62 24 48 43 33 23 29 20 7 0 6
0 0 0 10 5 7 23 16 11 10 11 9 0 1 0
4 7 8 0 0 0 0 2 5 0 6 1 14 14 2
7 13 9 15 4 1 13 4 1 0 0 11 0 0 1
0 0 0 0 0 0 0 0 0 38 33 11 14 13 32
27 22 39 0 0 5 0 0 0 0 0 0 20 5 19
12 4 6 0 0 2 35 34 48 6 15 29 0 0 6
0 0 0 0 0 0 12 2 10 28 15 23 17 6 11
18 10 9 1 13 10 45 36 34 50 45 25 14 10 5
0 0 0 0 0 0 0 0 0 92 87 84 81 88 76
0 0 0 0 0 0 0 0 0 22 25 16 36 35 35
3 4 6 0 0 0 0 0 0 0 0 0 0 0 0
0 0 0 0 15 0 14 7 5 0 1 0 0 5 3
0 11 0 4 0 17 0 0 0 2 1 4 0 0 0
6 0 2 0 0 0 8 0 0 7 3 5 15 14 13
17 5 11 0 0 0 0 0 0 3 0 0 0 0 0
0 0 0 31 33 30 87 78 70 4 6 0 0 0 0
22 15 14 31 36 41 27 24 31 0 0 0 0 0 0
0 0 0 0 0 0 1 0 0 0 0 0 2 2 0
0 0 0 0 0 0 0 0 0 0 0 10 0 4 5
0 0 0 0 0 4 5 5 15 4 5 17 0 0 12
0 0 15 0 11 5 0 0 0 10 17 0 1 0 0
0 0 0 0 0 0 0 0 0 0 0 0 6 3 9
0 0 1 30 10 44 0 0 15 1 0 28 5 0 14
2 0 0 0 0 0 0 5 0 0 0 0 9 10 4
0 6 0 0 0 0 0 7 3 7 0 6 0 8 3
3 5 9 0 0 0 0 0 0 0 0 0 0 0 1
132 131 143 72 66 77 53 44 70 130 129 108 135 133 140
0 0 0 0 5 19 57 62 77 43 44 62 0 0 0
0 0 0 3 6 0 3 6 0 0 0 0 1 5 0
0 0 8 0 0 5 0 0 11 2 4 4 0 0 4
0 0 0 0 0 0 4 0 0 0 0 0 0 0 0
32 34 16 31 29 32 9 0 0 0 0 0 24 17 7
14 5 10 0 0 0 0 0 0 0 0 0 0 7 10
28 16 24 49 29 44 0 0 0 0 0 0 0 0 0
8 0 6 79 76 97 16 26 35 0 0 0 0 7 4
18 15 3 0 15 0 14 13 9 13 20 17 0 1 14
0 6 12 15 13 16 17 21 15 2 0 18 7 4 16
5 2 20 3 0 8 4 6 14 8 7 14 6 2 11
9 11 9 0 0 2 6 6 0 6 6 0 5 5 0
4 4 0 3 3 0 4 4 0 15 12 19 0 0 0
0 0 0 0 0 0 0 0 0 0 2 0 2 2 0
1 1 0 1 4 2 3 0 6 0 0 0 0 0 0
0 0 0 15 16 26 16 13 18 0 0 0 23 16 8
0 0 0 0 0 0 0 0 0 0 0 0 0 0 0
0 0 0 0 0 0 0 0 0 0 0 0 0 0 0
0 0 4 0 0 0 0 0 0 0 0 0 7 2 51
25 20 44 58 60 29 15 21 0 13 18 9 8 14 9
1 7 0 5 11 8 0 0 0 0 0 8 0 1 0
0 3 8 0 2 0 0 5 9 2 8 3 0 1 0
4 6 0 0 10 5 0 0 3 0 5 0 3 0 1
0 3 4 4 3 2 0 5 1 3 7 0 18 22 2
0 0 11 0 0 0 0 0 0 0 0 0 0 0 0
0 0 0 0 0 0 0 0 0 1 0 14 0 0 0
0 0 0 0 0 0 0 0 0 0 0 0 15 0 2
0 0 0 26 24 28 5 5 0 0 0 0 0 0 0
30 25 24 0 0 0 0 0 0 43 34 44 150 159 129
37 45 27 0 0 0 0 0 0 0 0 0 11 0 0
6 2 0 21 14 23 0 7 0 21 19 14 0 0 0
0 0 0 1 0 0 0 7 5 0 3 13 0 0 0
9 2 16 0 0 4 0 4 6 0 0 4 4 0 0
9 0 3 5 0 0 2 0 0 1 0 0 0 0 0
3 9 6 8 1 7 3 0 0 0 1 0 0 0 0
0 0 0 0 0 0 46 38 31 86 82 83 1 5 0
0 0 0 0 9 9 9 9 12 4 10 5 0 0 0
0 2 0 0 0 4 0 7 0 0 0 0 0 0 0
0 0 0 0 4 0 15 2 6 4 0 0 9 3 0
5 4 0 0 0 0 3 5 9 19 14 4 11 8 2
8 5 0 0 0 0 0 0 0 0 0 0 9 18 8
0 0 0 0 0 0 0 0 0 0 0 0 22 28 22
35 28 32 11 25 25 16 9 10 0 3 0 0 6 2
0 0 2 0 0 0 0 0 4 0 0 0 3 0 8
3 4 0 0 0 0 0 0 0 0 3 0 5 0 4
0 7 2 3 6 7 0 0 0 30 25 26 0 0 0
0 0 0 37 36 41 87 91 107 153 144 34 140 138 103
0 0 0 0 0 0 0 0 9 57 50 75 44 43 51
0 0 0 0 0 0 3 7 0 10 14 3 0 0 0
0 3 0 2 0 10 0 0 0 0 0 4 0 3 0
1 4 7 0 0 0 0 4 11 2 0 3 0 0 0
0 0 0 33 28 21 38 32 36 0 0 0 0 0 0
10 2 5 7 6 0 0 0 0 0 0 0 0 0 0
11 9 3 27 15 14 15 14 9 50 59 40 0 0 0
0 0 0 0 0 0 56 55 69 14 7 28 0 0 0
0 0 0 13 18 14 1 3 0 6 0 12 0 0 1
6 0 0 1 0 0 5 0 0 10 8 0 0 0 0
0 0 0 4 4 4 5 3 0 3 7 1 0 0 0
0 0 0 0 0 0 0 0 0 0 0 2 0 0 6
0 0 6 0 0 6 1 1 7 3 3 11 0 0 0
3 8 0 5 8 3 2 6 0 1 0 3 0 1 1
0 0 0 2 2 10 4 7 3 0 0 0 0 0 0
0 0 0 0 0 0 7 15 10 13 16 7 5 9 0
32 25 25 4 0 6 16 25 44 25 25 51 32 45 59
51 42 74 35 44 64 8 16 32 35 40 49 0 0 0
0 0 0 0 0 0 0 0 0 0 0 0 0 0 0
56 57 62 69 71 8 63 57 4 41 33 6 26 20 7
22 16 6 17 11 4 4 0 5 0 0 0 0 0 0
3 0 0 0 0 1 0 0 0 1 0 1 5 0 2
4 0 0 0 0 1 5 8 7 0 0 0 0 0 0
0 0 5 0 2 0 0 0 0 0 0 2 1 0 0
0 12 1 1 5 13 0 2 4 0 0 0 0 0 0
0 0 0 0 0 0 0 0 0 0 0 0 0 0 0
0 0 0 0 0 0 0 0 0 0 0 0 0 0 0
8 0 12 0 0 1 20 25 17 15 16 21 0 0 0
0 0 0 28 24 17 3 5 11 0 0 8 125 115 139
126 134 130 0 0 0 0 0 0 0 0 0 0 0 0
0 0 0 0 0 0 65 62 52 0 0 0 19 6 4
0 0 0 0 0 0 0 0 0 5 1 0 8 2 9
0 0 0 0 1 11 0 2 0 0 1 0 7 1 9
0 2 0 0 3 0 0 6 3 0 0 0 0 0 0
0 0 0 2 5 3 6 0 3 0 0 0 0 0 0
0 0 0 0 0 0 0 0 0 40 35 25 84 84 79
6 2 8 0 0 0 6 6 11 9 8 0 0 0 7
5 1 14 6 15 6 6 0 0 5 3 8 0 0 0
0 6 0 0 3 0 0 2 0 3 1 5 0 0 0
0 5 5 0 6 0 0 0 6 0 0 7 11 13 3
4 10 1 0 0 0 0 0 0 0 0 0 0 0 0
0 0 0 0 0 0 0 0 0 0 0 0 30 27 22
43 50 46 37 38 43 20 20 26 10 4 9 0 1 5
9 0 1 0 0 0 0 0 0 0 0 0 5 0 1
10 12 11 0 0 0 0 0 0 0 1 3 0 0 0
2 0 5 0 0 0 4 0 0 0 0 0 25 14 23
0 0 0 0 0 0 0 0 0 0 0 0 116 100 107
103 106 106 0 0 0 0 0 0 0 6 15 54 53 71
36 41 47 0 0 0 0 0 0 0 2 0 4 15 0
0 0 0 0 10 0 0 0 1 0 3 0 1 4 4
0 3 0 0 4 0 0 0 0 8 0 1 0 4 6
0 0 0 0 0 0 31 29 27 35 32 40 4 0 0
0 5 0 0 1 1 4 13 5 0 0 0 0 0 0
0 0 0 1 14 14 15 15 20 20 12 8 84 75 59
0 0 0 0 0 0 0 0 0 68 58 82 42 46 67
0 0 0 0 0 0 2 7 4 0 0 0 0 3 5
0 2 0 0 0 1 0 0 0 0 0 0 2 4 0
0 0 0 0 0 0 0 0 4 0 0 2 1 0 3
0 0 2 0 0 1 0 0 0 0 3 0 0 0 0
0 0 0 0 0 0 0 0 0 0 0 0 0 0 0
0 0 0 12 10 7 4 1 4 0 0 0 3 0 0
0 2 3 0 3 1 3 6 2 1 6 0 0 0 0
0 0 4 10 10 18 7 1 7 0 4 14 0 0 5
11 12 19 32 32 25 21 27 29 40 43 31 46 33 26
46 57 20 54 44 16 52 52 19 21 27 29 44 47 69
6 8 25 4 8 23 0 0 0 0 0 0 0 0 0
37 40 65 51 60 26 0 7 3 2 3 7 0 0 1
0 0 11 0 0 9 0 0 0 0 0 3 2 7 2
0 0 7 0 0 0 0 0 0 0 0 0 2 0 4
0 0 6 2 0 3 0 0 3 4 3 0 0 0 0
2 2 4 3 0 3 1 0 0 0 0 0 4 4 3
0 2 0 0 3 0 16 24 4 13 22 16 6 18 17
0 16 5 15 18 25 13 25 19 0 4 10 2 1 0
0 0 0 0 0 0 0 0 0 0 0 0 0 0 0
11 4 0 11 7 12 18 15 11 0 0 0 5 0 7
29 19 14 7 9 13 1 0 11 24 17 27 39 45 53
168 162 183 9 10 0 0 0 0 0 0 0 17 3 20
0 0 0 0 0 0 35 15 26 85 79 86 0 0 0
0 3 0 0 0 0 0 0 0 0 0 0 0 0 3
0 0 0 0 0 0 8 8 16 1 7 4 0 0 0
6 0 6 0 6 0 0 0 0 0 0 0 0 3 0
0 0 0 1 4 4 9 9 8 0 8 7 0 0 0
0 2 0 0 3 0 0 0 0 0 0 0 37 25 31
84 87 86 9 9 1 0 0 0 8 14 23 6 1 4
0 0 0 5 4 3 3 4 10 13 6 5 5 0 0
8 1 1 7 0 2 5 0 3 0 0 3 3 0 0
6 0 0 4 0 0 4 0 0 0 0 0 0 0 0
10 0 10 4 0 1 0 0 0 0 0 0 0 0 0
0 0 0 0 0 0 0 0 0 9 10 6 32 44 34
50 48 60 36 33 34 19 11 31 0 0 11 8 7 5
0 0 0 6 0 1 0 1 5 0 0 0 0 0 1
3 4 0 8 19 20 0 0 0 0 0 0 0 0 0
0 0 0 0 3 4 0 0 0 7 1 10 0 0 0
8 0 8 23 24 24 0 0 8 0 0 0 0 0 0
45 50 42 142 142 115 0 0 0 0 0 0 0 0 15
58 53 66 39 31 55 0 0 0 0 0 0 4 0 0
17 18 0 0 0 0 2 2 0 6 6 0 0 0 0
2 0 5 5 3 3 0 0 0 0 0 0 4 7 11
1 0 13 0 0 0 0 0 0 36 18 25 29 39 43
6 0 0 8 11 8 13 0 6 16 8 9 5 2 0
0 0 0 0 0 0 5 7 2 30 13 11 26 31 25
39 43 18 0 0 0 0 0 0 0 0 0 64 54 74
52 54 75 0 0 0 0 0 0 0 0 3 0 0 0
7 0 11 0 0 0 0 0 0 0 0 0 0 0 6
0 0 0 0 0 0 0 0 0 0 0 0 0 0 0
0 0 0 0 0 0 0 0 0 0 0 0 0 0 0
0 0 0 0 0 0 0 0 0 0 0 0 0 0 0
0 0 0 0 0 0 20 22 16 0 0 0 0 0 0
4 0 0 0 0 0 3 0 4 4 1 7 0 0 0
4 3 8 14 14 17 23 23 6 19 13 3 0 0 0
0 0 0 5 5 6 24 22 1 14 10 3 22 17 6
16 9 6 16 17 4 27 19 1 18 31 0 29 21 0
38 43 11 67 67 38 48 49 48 0 0 0 0 0 0
0 0 0 41 40 59 26 38 15 0 0 0 0 0 0
0 0 0 0 0 0 0 0 0 4 0 0 10 0 3
0 2 1 3 3 4 0 0 0 0 0 3 0 0 0
0 0 2 0 0 0 0 0 0 0 0 7 6 0 3
1 0 2 0 3 0 0 0 0 0 6 0 0 0 1
2 0 3 0 0 0 3 0 3 18 12 6 12 6 12
15 9 8 19 19 12 30 18 16 30 27 12 21 14 14
15 13 13 0 0 9 8 8 14 0 0 0 0 0 0
0 3 0 3 1 0 4 8 8 5 16 14 0 0 0
0 0 0 20 43 8 7 33 7 0 0 0 54 84 77
95 102 119 89 95 113 0 0 0 0 0 0 0 0 0
23 18 14 0 0 0 44 33 29 60 60 46 1 17 2
0 0 0 0 3 0 0 0 0 0 0 0 0 0 0
0 6 0 5 0 0 0 0 0 8 4 10 0 2 0
3 3 3 3 0 3 0 3 0 3 3 3 0 0 0
0 0 0 3 0 0 0 1 1 7 4 4 1 10 10
0 0 0 0 0 0 0 0 0 0 0 0 0 0 0
43 34 31 84 80 89 3 7 1 0 0 0 9 3 4
2 0 5 0 0 0 5 5 9 3 4 0 0 0 0
0 6 0 0 1 7 0 8 0 0 8 1 4 1 6
0 2 1 0 1 5 0 0 4 0 0 0 0 0 0
0 2 0 0 2 0 0 0 0 0 0 0 0 0 0
0 0 0 0 0 0 0 0 0 0 0 0 32 40 48
66 64 62 46 38 55 4 12 20 0 0 2 0 0 0
17 11 17 0 11 18 12 13 14 5 3 2 2 0 2
0 0 0 0 4 10 6 1 0 4 0 1 0 6 0
2 0 8 0 2 0 6 4 3 0 10 9 2 4 0
0 0 0 15 16 7 4 3 9 16 21 9 0 0 2
0 0 0 0 0 0 153 146 123 171 162 142 0 0 0
0 5 22 47 55 62 37 43 57 0 0 0 0 0 0
0 6 0 7 16 2 0 0 0 0 0 0 0 1 9
0 4 7 0 6 12 0 0 3 0 9 0 0 0 0
16 6 14 0 6 6 0 0 0 0 0 0 33 28 41
44 38 37 10 0 6 4 11 11 0 0 0 8 15 10
0 4 10 0 0 0 0 0 0 0 5 0 26 24 9
39 30 23 0 0 0 0 0 0 0 0 0 0 0 0
52 51 70 29 34 58 0 0 0 0 0 0 3 0 0
0 2 0 4 0 0 0 0 0 0 0 0 0 0 0
0 0 0 0 0 0 2 2 5 0 0 0 0 0 0
0 0 1 0 0 3 1 0 3 1 3 9 9 9 9
0 0 0 0 0 0 0 0 8 0 0 0 0 0 0
0 2 0 0 0 0 0 0 0 13 9 19 0 0 0
1 0 8 6 3 0 0 2 10 0 0 0 5 5 0
0 0 0 3 3 2 11 11 7 18 18 0 14 8 1
0 0 7 0 0 0 0 0 7 10 10 2 0 3 0
0 0 0 0 0 0 0 0 0 0 0 3 0 5 1
18 5 0 21 31 0 14 17 6 38 42 32 21 28 27
0 14 0 3 0 6 15 14 9 11 13 17 0 1 0
16 13 12 19 7 5 10 2 8 13 4 7 8 0 5
0 6 11 0 0 13 0 0 2 11 0 13 0 0 2
8 0 14 2 1 5 2 0 6 0 7 0 9 0 3
0 0 5 5 0 0 0 2 1 0 0 1 0 0 2
7 0 1 9 0 3 4 0 0 16 7 4 0 0 0
0 0 0 0 0 0 0 3 0 2 6 0 4 15 2
2 6 12 2 5 2 20 15 17 20 25 21 14 17 14
20 16 10 6 6 0 5 10 1 10 3 0 17 21 9
17 4 12 0 0 0 8 3 16 7 7 24 25 24 32
141 133 133 83 81 101 0 0 0 0 0 0 0 0 0
0 0 0 0 0 0 12 5 0 72 73 79 44 33 42
0 0 0 0 0 0 0 0 0 2 0 0 0 0 0
0 0 0 0 0 0 0 0 4 0 0 0 8 18 12
0 0 0 0 0 0 9 0 9 0 0 0 0 0 0
2 2 2 0 5 2 1 0 0 0 0 0 4 1 1
0 4 4 0 0 0 0 0 0 0 0 0 0 0 0
0 0 0 35 35 36 82 85 97 6 18 14 0 0 3
12 11 18 8 8 20 0 0 0 0 0 8 0 0 0
0 0 7 0 0 0 0 0 10 0 2 0 0 2 0
5 0 1 4 3 2 5 2 0 6 3 0 0 0 0
12 10 10 0 0 0 7 0 0 0 0 0 0 0 0
6 0 0 19 21 2 0 3 0 26 29 43 23 11 26
42 36 35 34 35 48 4 5 2 0 0 4 3 0 0
0 0 16 0 8 6 6 0 8 14 7 12 1 10 8
0 4 4 5 0 0 6 2 0 0 0 0 12 20 27
5 6 0 5 0 0 1 3 4 4 0 9 0 4 0
12 0 2 0 0 0 37 22 35 0 0 4 0 0 10
11 0 16 0 0 0 0 0 0 103 111 92 175 181 118
0 0 0 13 10 28 71 60 74 43 32 46 0 0 0
0 0 0 8 5 0 11 7 1 0 0 0 10 6 0
4 0 0 6 0 0 7 0 1 10 0 11 2 3 0
0 0 0 20 7 14 0 5 5 0 0 0 0 0 0
34 22 37 34 40 30 0 0 0 14 15 6 0 0 0
16 17 8 1 12 1 0 0 0 0 0 0 3 5 0
29 12 26 24 16 17 26 23 16 0 0 0 0 0 0
0 0 0 45 47 61 28 28 46 0 0 1 0 0 2
0 0 0 1 0 0 7 1 3 0 0 0 0 0 0
0 0 2 5 0 3 0 0 0 18 22 20 0 0 0
0 0 1 0 0 0 0 0 0 0 0 0 4 8 4
31 32 22 0 0 0 0 0 0 4 3 4 1 0 5
0 0 5 0 0 4 0 0 0 0 0 0 10 9 16
2 2 2 0 0 2 0 0 0 0 2 14 2 2 0
8 8 10 4 4 8 0 0 0 1 1 8 13 13 0
11 5 0 0 6 3 0 0 0 0 0 0 0 0 2
8 6 5 0 0 0 0 0 0 0 0 0 0 0 0
0 8 1 4 0 0 6 12 0 0 0 0 16 15 6
32 29 18 35 37 25 13 2 5 0 0 0 2 0 0
27 26 26 20 16 21 12 15 22 6 11 22 9 14 12
5 5 12 1 0 0 8 0 5 0 0 0 17 6 14
0 9 0 15 1 3 0 4 0 11 3 7 0 4 5
12 0 14 3 0 0 9 0 8 6 0 0 12 2 0
16 3 0 0 3 0 2 5 2 0 0 0 5 8 4
0 0 0 8 0 4 0 0 0 5 0 1 1 0 0
7 0 3 4 0 0 16 0 1 24 17 5 7 14 7
1 7 9 15 9 4 5 6 0 1 9 2 6 1 6
10 19 9 2 1 9 14 2 6 0 0 7 0 0 0
71 71 71 79 83 77 0 0 0 0 0 0 0 0 0
0 0 0 0 0 0 0 0 0 18 10 6 28 24 16
0 0 0 0 0 0 0 0 0 0 9 0 7 0 6
0 7 0 0 0 0 0 0 0 5 4 0 0 0 4
7 13 6 3 3 3 0 0 0 4 0 6 0 8 0
0 0 0 0 0 0 0 3 0 0 0 0 0 0 0
9 9 8 0 10 9 0 0 0 0 2 0 0 0 0
0 0 0 0 0 0 36 26 26 88 79 90 9 8 3
0 0 0 7 7 7 5 6 10 0 0 0 2 3 5
0 0 0 1 1 1 0 0 0 0 2 0 0 3 9
2 7 10 5 9 9 6 18 13 0 5 0 0 4 0
0 0 0 38 29 19 16 19 14 0 1 0 0 0 0
0 0 0 0 0 0 0 0 0 0 0 0 78 68 79
34 34 39 15 19 26 0 0 1 0 0 0 0 0 0
2 3 12 26 29 35 13 0 7 1 4 1 14 19 9
18 18 15 25 12 15 1 0 2 0 0 0 0 0 0
8 3 7 0 0 0 0 0 0 0 0 0 0 3 0
4 0 2 0 1 0 0 0 0 20 18 25 2 0 6
0 0 0 0 0 0 0 0 0 19 11 17 121 126 92
81 84 70 0 0 0 0 2 3 73 76 85 53 58 74
0 0 0 0 0 0 0 8 0 0 7 0 0 0 0
0 2 0 0 0 0 0 0 1 0 2 0 0 0 0
0 0 0 0 0 0 3 6 2 1 1 3 0 0 0
0 0 0 27 28 39 35 34 30 7 0 0 9 8 0
0 0 0 0 0 0 0 0 0 0 0 0 0 0 0
0 0 0 8 7 11 0 0 0 64 73 47 0 10 0
0 0 0 0 0 0 62 46 72 25 29 55 2 2 12
33 29 39 0 6 0 5 10 13 10 17 21 8 22 24
10 11 24 0 2 9 4 12 12 0 0 0 47 53 61
17 17 17 0 0 4 0 0 0 0 0 12 5 4 0
16 12 22 35 37 41 0 0 0 0 0 0 0 0 0
10 10 8 13 13 9 12 12 6 3 3 0 0 0 0
11 12 22 3 5 7 3 5 11 3 0 0 0 6 2
4 5 6 10 10 18 16 16 9 0 0 0 0 0 6
11 11 0 23 17 0 12 18 1 2 2 2 3 3 2
0 0 1 34 15 2 27 23 4 12 23 5 8 17 4
0 7 2 0 3 1 0 0 0 0 9 0 31 20 0
0 0 1 0 0 0 29 32 21 28 31 28 0 0 0
0 0 0 0 0 0 0 0 0 0 0 0 0 0 0
0 0 0 0 0 0 0 0 0 0 0 0 0 0 0
11 3 6 0 0 0 0 0 0 0 0 0 0 0 0
0 0 0 0 0 0 0 0 0 0 0 0 0 0 0
0 0 0 0 0 0 0 0 4 4 0 1 4 0 0
7 0 7 39 25 15 35 33 18 26 16 16 20 0 0
5 0 0 11 0 0 25 15 14 30 17 19 0 4 7
5 2 11 3 14 11 0 0 0 4 0 0 3 7 0
11 13 3 11 23 17 0 0 0 13 53 23 12 1 7
34 30 43 169 177 168 107 101 108 0 0 0 0 0 0
2 0 0 6 14 0 17 14 12 61 63 54 50 49 56
0 0 0 0 0 0 44 52 33 0 0 1 12 3 7
7 12 3 3 20 19 5 0 3 0 5 4 0 0 0
0 0 0 0 5 0 0 1 0 0 0 0 0 0 0
0 0 0 0 0 0 0 0 0 0 0 0 0 0 0
0 0 0 0 4 1 3 0 2 0 0 0 0 0 0
0 4 0 0 0 0 0 0 0 34 31 28 80 77 85
7 10 12 0 0 0 13 13 13 0 0 3 0 0 0
13 14 14 5 5 13 8 8 6 10 10 14 11 0 13
8 2 0 0 0 0 0 0 0 0 0 0 0 0 0
0 0 0 0 0 0 4 0 0 0 0 0 0 0 0
0 0 0 21 16 23 64 61 78 67 78 74 36 28 25
21 23 37 0 0 0 0 0 0 0 9 4 0 0 0
0 0 0 10 2 0 0 13 9 0 0 0 0 0 0
14 11 15 0 1 2 0 0 0 0 0 0 10 12 0
6 27 0 0 0 0 21 14 27 21 29 17 18 6 8
0 0 2 17 6 5 31 28 28 18 13 23 2 0 6
0 0 0 0 0 23 25 13 36 0 0 0 0 0 0
49 50 60 193 210 64 35 41 82 0 0 0 0 0 1
45 39 49 0 0 0 0 0 0 20 15 11 0 0 0
2 2 0 4 5 0 1 0 0 0 0 0 0 0 0
12 10 11 10 10 5 13 9 6 0 0 0 0 0 0
0 0 0 0 0 0 25 24 24 18 26 11 0 0 0
0 0 0 3 3 0 14 4 0 19 17 21 11 6 7
0 0 0 0 0 0 24 16 14 37 34 29 77 60 48
61 55 34 8 6 13 41 56 61 52 37 63 0 0 15
18 16 24 0 2 17 0 0 0 0 0 0 0 0 0
0 0 0 0 0 0 0 0 0 0 0 0 0 0 0
0 0 0 0 0 0 1 0 4 4 7 0 0 0 0
0 0 0 0 0 1 15 18 20 52 52 48 2 2 10
0 0 0 0 0 0 0 0 0 0 0 0 0 0 0
34 35 29 0 0 0 0 0 0 0 0 0 7 3 2
0 0 4 1 5 0 0 2 0 0 0 0 10 10 10
6 6 4 0 0 0 0 0 0 0 0 1 0 0 1
5 5 1 0 0 0 17 2 0 5 0 0 3 0 0
5 0 0 5 0 0 13 2 0 13 5 0 0 0 0
15 1 0 6 8 2 15 11 10 2 0 0 0 0 0
0 0 0 3 3 0 9 6 13 8 0 5 0 7 0
5 0 0 0 4 0 0 0 0 0 0 0 0 0 0
0 0 0 26 21 16 5 10 7 8 3 0 13 6 7
14 8 2 0 1 3 4 7 9 0 6 3 44 35 23
19 15 16 15 12 12 14 22 9 0 10 6 0 0 2
12 16 1 28 37 7 0 0 0 0 0 0 0 0 2
0 4 1 0 4 0 0 0 0 0 0 0 0 0 0
0 13 6 0 0 0 0 0 0 0 0 0 12 16 16
5 23 12 0 0 0 0 0 0 14 47 20 0 0 0
27 16 32 133 147 147 73 62 59 0 0 0 0 0 0
0 0 1 0 0 0 0 5 0 46 39 37 37 28 23
0 0 0 0 0 0 0 0 0 6 6 0 0 0 0
1 0 0 0 0 0 0 0 0 0 0 0 0 6 0
20 10 21 27 36 40 0 0 0 0 0 0 7 1 5
7 16 19 9 9 3 10 6 8 3 0 0 0 0 0
25 21 21 0 7 4 8 0 2 0 2 4 0 5 0
7 7 8 13 3 3 0 0 0 0 0 0 23 20 24
96 92 107 43 44 45 0 0 0 0 0 3 37 38 46
36 37 41 1 2 6 0 0 9 0 0 4 0 0 0
6 8 11 4 4 17 0 3 3 0 0 0 0 0 0
0 0 0 5 9 0 6 11 0 0 0 0 0 0 0
0 0 0 0 0 0 0 3 5 17 7 24 7 2 8
0 0 0 6 0 19 1 4 12 0 6 0 2 3 5
2 0 0 0 0 0 0 2 10 11 9 8 0 0 0
0 0 0 8 10 18 12 10 0 1 0 0 0 0 0
0 7 0 4 14 0 14 11 22 25 12 27 10 10 19
0 0 0 0 0 0 0 4 0 0 8 0 0 0 0
15 15 34 0 0 0 0 0 27 5 0 24 0 0 0
0 0 0 17 22 43 133 128 41 54 49 90 0 0 0
18 20 38 60 69 81 0 0 0 0 0 0 30 38 37
0 6 0 0 0 0 0 9 0 0 2 4 0 3 3
0 0 0 0 6 6 0 9 0 2 15 7 1 13 0
0 8 0 0 0 0 0 0 0 39 28 36 44 42 33
15 1 0 0 0 0 0 0 0 0 0 0 0 2 10
0 0 0 0 0 0 0 0 0 5 3 9 23 24 29
18 12 1 15 19 0 0 0 0 21 16 24 30 23 41
0 0 0 22 28 32 0 0 16 0 0 1 0 10 1
10 12 16 0 10 18 7 4 2 7 6 12 27 14 25
19 28 28 6 0 4 12 16 11 22 19 25 13 16 7
6 6 18 2 2 0 18 15 21 9 12 19 54 54 37
0 0 9 0 0 0 0 0 0 0 0 8 1 1 7
0 0 4 2 4 0 0 0 4 0 0 0 0 0 0
3 0 0 0 4 2 2 0 5 5 1 13 0 1 0
11 13 10 0 0 3 2 2 3 6 1 1 3 10 2
0 1 0 6 6 2 0 0 0 9 9 0 7 1 0
8 6 0 2 2 0 6 6 0 1 0 1 0 3 1
8 10 5 3 1 8 13 4 13 4 6 15 7 0 10
0 0 0 0 0 0 0 0 5 0 0 0 9 17 6
0 0 0 0 0 0 0 2 1 0 0 4 0 0 0
0 0 1 0 0 0 11 0 8 0 0 0 0 0 8
0 0 0 0 0 0 0 4 0 0 0 0 0 0 5
0 0 0 0 0 4 0 0 9 0 0 0 0 0 0
0 1 4 5 6 10 0 0 7 49 55 23 30 36 19
19 32 18 8 13 13 13 15 4 0 11 0 2 5 0
7 12 4 0 0 0 0 7 9 30 26 20 10 19 16
8 2 0 0 0 0 11 2 5 13 24 26 7 0 5
27 33 35 79 87 81 69 80 73 13 12 5 0 0 0
0 0 0 16 2 3 0 0 0 12 9 0 40 40 41
24 23 21 0 0 0 0 0 0 1 2 0 0 0 0
0 0 0 0 0 0 1 9 9 0 0 0 0 0 0
0 0 0 0 0 0 0 10 11 0 0 0 0 2 0
12 2 2 0 0 5 3 6 0 0 0 0 0 0 0
0 0 0 1 12 8 5 0 0 0 3 1 1 0 4
1 0 0 0 1 0 0 1 0 0 0 0 0 0 0
0 0 0 70 78 78 33 35 31 0 0 0 0 0 0
0 0 0 0 0 0 3 2 5 0 0 5 0 0 0
0 0 0 11 8 8 5 1 6 8 3 0 8 2 7
3 0 0 0 0 1 17 3 0 21 19 0 0 0 0
0 0 0 14 10 3 38 29 38 30 30 34 25 12 24
6 4 8 0 0 0 12 2 21 1 0 0 0 2 0
0 0 3 0 2 0 0 0 0 13 0 4 1 11 0
0 0 0 1 1 1 18 5 20 2 6 15 0 0 0
0 0 0 1 3 0 2 1 0 0 0 0 0 0 0
0 0 0 0 0 0 0 0 0 2 0 0 0 0 0
0 0 0 0 0 3 0 0 0 0 0 7 0 0 2
0 0 0 0 0 0 12 19 34 104 103 36 45 45 79
0 0 0 8 0 16 40 31 43 0 0 0 0 0 0
21 10 18 0 0 0 0 0 0 6 0 0 4 0 0
7 0 3 1 0 0 9 0 14 3 1 1 1 0 5
6 3 0 0 0 0 0 0 0 0 0 0 31 17 18
33 39 32 0 0 0 0 0 0 17 8 6 7 6 8
5 0 1 0 0 0 1 0 0 0 0 0 10 0 0
25 24 16 0 0 0 0 0 0 0 0 0 0 4 0
16 20 40 0 0 4 28 26 40 0 0 1 0 0 0
0 0 0 6 0 0 0 0 1 0 0 0 0 0 5
10 0 10 12 26 26 0 0 0 0 0 0 1 0 5
2 5 0 0 0 3 0 0 0 2 0 8 0 0 0
77 77 37 19 19 34 0 0 0 0 0 0 0 0 0
18 18 12 7 7 0 0 0 0 4 1 9 2 2 16
0 0 0 9 0 4 0 6 6 5 5 2 2 1 3
0 0 0 11 7 19 0 3 0 2 4 1 6 3 8
2 2 8 0 3 0 4 6 6 0 0 4 6 2 4
0 6 2 3 0 1 0 1 0 1 1 1 2 3 4
3 0 0 13 3 15 0 0 0 4 0 0 1 12 1
1 0 0 0 0 0 0 0 0 0 0 0 0 0 0
30 27 23 0 9 1 0 2 7 5 12 0 12 9 9
12 20 14 18 12 14 8 21 12 3 4 5 0 8 0
0 0 0 0 13 2 5 0 5 0 2 0 5 6 0
11 18 11 0 0 0 10 13 4 0 0 0 0 0 0
8 29 14 31 51 12 0 0 5 0 0 0 0 0 10
0 0 0 0 0 0 0 0 0 0 13 10 0 16 9
0 15 22 0 17 16 0 0 0 0 4 0 17 19 15
5 7 0 0 0 0 0 0 0 0 0 0 7 11 9
0 0 0 58 91 98 112 112 116 0 0 0 0 0 0
0 0 0 2 0 0 7 0 0 10 20 0 14 16 0
35 34 36 0 0 0 0 0 0 0 0 0 22 15 21
0 0 0 11 7 9 3 7 6 3 5 7 13 2 9
0 0 0 0 0 0 0 0 0 1 4 11 0 0 0
0 4 0 11 0 2 0 2 5 10 2 0 0 10 3
4 0 0 0 0 0 10 8 8 0 4 1 0 0 0
1 2 4 0 4 0 3 0 0 5 5 0 0 0 0
0 0 0 5 0 0 83 75 84 58 51 48 11 14 20
18 21 13 18 14 21 0 0 0 12 8 15 0 0 0
0 0 0 0 0 0 0 0 0 0 0 0 0 0 0
0 0 0 0 1 0 0 3 0 0 0 0 0 0 0
0 0 0 0 0 0 30 34 30 34 42 42 29 25 30
4 2 13 1 7 16 0 0 0 16 9 25 0 0 3
0 0 0 0 0 0 3 0 0 0 3 0 11 8 7
2 3 0 0 0 0 0 2 0 7 7 4 2 0 0
0 0 0 0 0 0 0 2 0 0 12 0 0 0 0
0 0 0 0 0 0 0 0 0 0 0 0 5 11 2
13 19 17 25 21 30 0 0 0 0 0 0 0 0 3
0 0 6 0 0 0 0 0 0 33 34 37 112 108 36
55 65 79 0 0 0 0 0 2 5 10 15 0 0 0
0 0 0 1 3 9 0 0 0 0 0 0 0 1 0
0 3 0 0 0 0 0 0 0 0 0 5 0 4 0
0 0 0 7 15 10 0 0 0 0 0 0 0 0 0
29 32 24 38 40 35 9 0 0 0 0 0 22 22 21
2 9 0 4 14 7 0 4 0 0 0 3 0 2 3
5 0 5 18 18 22 0 0 0 0 0 0 0 0 0
3 0 0 24 19 54 0 0 11 18 28 29 0 0 0
29 20 27 0 4 0 2 0 0 0 0 2 0 0 0
0 0 0 0 3 0 12 2 3 0 0 0 0 0 0
0 0 4 1 4 0 0 0 0 0 0 0 0 0 0
0 0 0 49 49 56 21 21 18 7 6 7 0 0 0
0 0 0 7 5 11 15 14 11 0 0 0 5 1 11
0 0 10 0 0 0 7 0 1 0 0 0 3 3 6
3 3 0 0 0 0 6 5 6 4 2 7 0 0 6
3 3 0 0 1 0 4 2 3 0 0 3 0 8 0
9 1 5 0 0 3 8 0 11 8 5 8 3 1 9
0 0 3 3 0 0 11 7 1 0 0 0 3 0 2
0 6 9 1 0 4 0 0 0 0 0 0 1 0 9
0 0 0 33 34 18 0 13 0 5 13 9 9 12 10
16 5 4 9 21 1 8 10 0 11 22 1 0 1 4
3 1 8 4 12 1 3 7 2 1 3 3 11 7 14
0 10 0 7 22 14 0 0 0 27 39 33 17 35 30
2 2 0 0 0 0 4 4 3 52 71 64 68 166 76
69 104 77 72 101 80 50 74 71 38 53 54 38 69 58
23 43 37 0 0 10 0 0 0 27 33 30 12 14 0
0 1 1 2 0 0 8 11 16 5 31 28 4 22 13
6 18 13 30 25 30 109 94 96 57 56 60 0 0 0
0 0 0 0 0 0 4 0 0 11 0 1 35 37 21
35 27 26 34 27 26 0 0 0 0 0 0 0 0 0
15 21 23 0 0 0 0 1 0 14 9 18 13 17 16
12 6 17 0 8 1 3 2 5 14 5 13 16 23 29
0 0 0 0 0 0 0 0 0 3 4 10 2 0 0
0 3 0 7 0 1 0 0 0 9 3 7 0 0 1
0 4 1 8 0 4 0 0 0 1 1 0 0 8 0
0 0 0 0 0 0 16 11 14 84 86 90 39 34 32
0 0 1 9 12 16 21 24 26 2 5 1 27 29 29
25 24 24 19 15 27 21 15 15 0 0 0 0 0 0
0 0 0 0 0 0 0 0 0 0 0 0 0 0 0
0 0 0 0 0 0 0 0 0 26 20 35 31 29 31
22 14 24 0 0 7 0 0 0 0 0 6 13 11 9
0 0 0 2 0 0 0 4 5 0 0 5 0 0 0
8 8 9 0 0 0 0 0 0 8 4 12 18 9 9
4 12 17 3 0 2 0 0 0 4 0 0 0 0 0
26 15 34 40 28 36 49 52 47 31 22 26 20 15 21
32 26 37 48 41 32 90 99 94 0 0 0 0 0 0
0 0 0 0 0 0 0 0 0 0 0 0 12 12 17
49 57 54 110 109 73 15 12 15 38 34 35 41 34 43
0 0 0 0 0 0 27 24 25 33 26 31 0 0 0
0 0 0 0 0 0 0 0 0 0 0 0 0 0 1
0 0 0 0 0 0 29 23 28 5 0 0 0 0 0
0 0 0 61 46 47 57 66 68 24 18 19 0 0 0
46 33 24 22 16 22 14 10 5 3 0 3 9 0 0
8 4 0 7 0 0 10 0 0 0 0 0 3 3 0
0 0 0 6 3 0 20 21 51 0 0 0 17 17 29
0 0 0 57 58 59 33 30 31 28 24 22 12 12 23
5 0 4 0 0 0 0 0 0 0 0 0 0 0 5
6 10 9 22 18 32 16 18 22 3 2 8 0 0 2
8 10 16 0 0 0 0 0 7 15 14 13 20 17 26
0 0 0 0 0 0 0 0 0 5 3 3 2 3 1
2 6 2 0 0 0 0 0 0 7 0 1 0 4 1
3 3 4 0 0 0 0 0 0 3 3 7 1 1 0
0 0 0 2 0 3 0 2 6 2 2 8 0 0 6
1 1 0 0 0 4 0 10 0 0 0 2 0 1 0
6 1 7 0 0 0 5 0 8 9 5 8 0 0 0
5 0 0 0 3 0 2 0 0 0 0 0 0 0 0
0 6 0 0 0 0 24 24 15 6 0 0 5 0 0
2 11 5 3 5 0 0 12 0 0 10 0 2 20 0
4 6 0 7 4 1 0 7 2 8 10 5 6 6 0
9 0 0 3 12 7 13 20 21 0 0 0 6 0 0
2 0 0 25 57 45 67 138 109 138 134 134 126 112 123
184 165 186 172 166 185 199 204 213 145 164 167 142 142 151
186 187 196 151 174 183 118 138 150 71 137 143 31 42 36
7 0 0 0 0 0 0 0 0 5 0 0 2 11 4
2 1 3 4 0 8 72 111 98 49 39 50 0 0 0
0 0 0 0 0 0 0 0 0 0 0 0 17 14 19
54 43 40 20 28 8 7 14 11 0 0 0 0 0 0
0 0 0 20 24 33 0 1 8 0 0 0 0 0 0
0 5 0 0 0 0 4 0 0 0 0 0 0 3 0
9 9 7 0 0 0 0 0 0 0 0 1 8 2 13
7 3 0 0 2 3 3 0 0 0 0 0 7 4 4
0 3 0 4 0 0 4 0 3 0 4 0 7 0 0
0 1 0 0 0 0 0 0 0 10 12 0 92 90 92
47 49 43 0 0 0 0 0 0 0 0 0 0 0 0
0 0 0 0 0 0 0 0 0 0 0 0 0 0 0
0 0 0 0 0 0 0 0 0 0 0 0 0 0 0
0 0 0 0 0 0 0 0 0 0 0 6 14 18 28
13 17 26 0 0 0 0 0 10 0 0 0 0 0 0
19 24 25 0 5 2 0 0 0 0 0 0 5 5 0
13 7 0 16 9 19 0 0 0 8 0 0 0 0 7
10 12 3 0 7 9 0 0 6 0 0 0 0 0 0
0 0 0 15 12 20 31 28 34 54 45 60 21 15 23
0 0 0 0 0 0 9 7 6 51 44 47 0 0 0
0 0 0 0 0 0 0 0 0 0 0 0 0 0 0
0 0 0 0 0 0 104 100 48 17 15 23 54 53 61
37 36 47 0 0 0 0 0 0 8 8 19 33 29 37
0 0 0 0 2 0 0 0 0 0 0 0 0 0 0
0 0 0 0 7 0 0 0 0 0 0 10 0 0 0
0 0 0 0 0 0 33 27 28 53 42 50 0 0 0
0 0 0 40 36 40 5 8 13 0 0 0 0 1 0
2 0 5 3 7 11 0 0 6 0 0 0 8 10 0
10 14 0 0 0 0 11 9 8 28 30 46 0 0 7
19 23 36 0 0 0 7 12 12 0 0 0 0 0 0
0 0 0 0 0 0 0 0 0 0 0 0 0 0 0
0 0 0 0 0 0 0 0 0 0 0 0 0 0 0
0 0 0 0 0 0 0 0 0 0 0 0 0 0 7
34 37 37 12 13 19 0 0 0 0 0 0 0 0 0
11 10 15 0 2 4 0 0 1 4 4 4 6 0 0
0 0 0 0 0 0 0 0 0 0 0 0 6 6 7
0 0 0 1 1 0 0 0 0 0 0 0 0 0 0
1 1 1 0 0 7 0 0 0 0 0 0 0 0 0
0 0 0 8 0 12 0 7 0 6 0 0 6 9 0
0 0 0 2 1 0 0 2 6 8 0 8 0 0 0
0 0 0 0 0 10 0 0 8 7 12 5 0 1 0
0 0 0 7 0 5 2 0 0 0 4 0 0 0 0
1 3 0 3 3 0 5 6 1 6 0 2 0 2 6
4 6 0 6 0 2 0 5 0 3 14 11 9 0 5
29 51 45 77 77 77 159 157 141 234 224 220 119 119 116
0 0 0 0 0 0 0 0 0 0 0 0 0 0 0
0 0 0 0 0 0 0 0 0 17 0 9 24 11 25
148 138 124 63 79 73 34 81 76 11 53 61 4 11 21
0 0 0 0 0 0 27 27 31 125 126 134 0 0 0
0 0 0 0 0 0 34 35 39 0 0 0 0 0 0
54 43 39 34 37 22 14 6 0 0 0 4 0 0 0
0 0 0 0 0 3 30 23 26 0 0 0 0 0 0
0 0 0 0 0 0 0 0 0 0 0 0 0 0 0
0 0 0 0 0 0 10 4 3 8 4 3 13 5 5
0 0 8 1 11 0 0 1 0 0 4 1 0 0 0
4 15 11 2 0 0 4 0 0 0 0 3 3 1 0
5 12 8 0 0 0 0 0 0 0 0 0 46 45 39
142 144 145 117 116 107 74 69 82 88 82 89 91 100 86
81 77 85 41 37 47 51 49 46 46 55 41 50 53 48
0 1 0 0 3 0 7 2 0 10 13 4 11 10 0
10 12 0 7 11 10 25 25 40 0 0 0 0 0 0
11 9 7 17 12 10 5 5 0 2 5 2 0 2 0
0 0 0 37 22 18 0 0 0 0 0 0 0 0 0
0 0 9 8 5 12 5 0 18 0 2 0 2 0 0
0 2 4 2 8 0 5 4 0 0 0 0 0 0 0
0 8 6 0 3 5 0 0 0 0 0 0 2 1 24
0 0 3 0 0 0 0 0 0 0 0 10 0 0 18
38 27 59 22 23 44 0 0 14 0 0 0 0 0 12
0 0 0 0 0 0 0 0 4 75 66 29 27 22 31
62 56 82 38 35 52 0 0 0 0 0 0 0 0 0
28 37 36 0 0 0 5 14 1 0 0 0 0 4 0
1 7 0 0 5 0 2 16 0 0 2 0 1 0 0
0 0 0 0 0 0 0 0 0 26 26 24 43 41 41
0 1 0 0 3 0 27 23 12 9 12 7 0 0 0
0 0 0 0 0 0 0 7 2 19 3 12 0 0 0
3 11 0 4 13 0 0 0 0 8 7 12 26 26 50
0 0 2 17 18 28 0 0 0 0 0 0 0 0 0
0 0 0 0 0 0 0 0 0 0 0 0 0 0 0
0 0 0 0 0 0 0 0 0 0 0 0 0 0 0
0 0 0 0 0 0 0 0 0 0 0 0 0 0 4
0 0 0 28 29 17 40 40 25 11 11 30 0 0 0
0 0 0 8 5 4 2 3 18 0 0 10 0 0 3
5 0 0 0 0 0 3 1 3 2 0 0 0 0 0
7 1 4 0 0 0 3 0 0 0 0 0 0 0 0
0 0 1 1 1 6 1 2 6 0 0 0 0 0 7
0 0 5 0 3 0 2 0 0 0 8 0 7 0 3
4 2 0 0 5 1 6 0 0 0 7 0 2 0 0
0 0 0 0 0 0 8 7 21 9 7 6 1 9 8
0 0 0 1 0 0 0 0 3 2 0 0 1 0 0
2 0 0 4 0 1 0 0 2 0 0 3 4 0 0
3 0 0 3 5 0 3 0 0 3 0 0 0 0 5
15 37 8 107 165 104 138 122 150 0 0 0 0 0 0
0 0 0 0 0 0 0 0 0 0 0 0 0 0 0
0 0 0 0 0 0 0 0 0 0 0 0 0 0 0
0 0 0 108 135 135 64 95 104 126 117 130 72 128 132
20 98 91 6 67 43 17 44 36 83 107 103 41 42 64
0 0 0 0 0 0 0 0 5 69 57 62 0 5 0
0 0 0 49 59 60 0 0 0 0 0 0 0 0 0
9 0 0 0 0 0 0 0 0 0 3 3 0 0 0
2 0 13 0 0 2 3 0 0 0 0 0 0 0 0
0 0 0 0 0 0 0 0 0 7 0 0 0 5 2
6 6 7 6 1 10 12 4 2 12 3 6 5 0 0
0 0 0 13 10 13 0 3 2 0 0 5 5 0 6
6 0 0 0 0 3 6 0 6 6 0 12 0 0 0
27 32 13 81 80 81 50 55 41 36 37 47 87 78 90
91 97 107 66 68 74 88 90 98 96 92 93 92 99 104
88 89 84 0 0 0 0 3 0 3 3 0 5 25 0
16 12 4 11 29 12 5 5 5 35 41 42 0 0 0
0 0 0 0 2 2 5 16 13 5 10 16 0 0 0
0 0 0 0 0 0 23 24 25 0 0 0 0 0 0
0 0 0 4 0 9 5 8 6 0 0 2 0 0 0
0 0 0 0 0 2 23 20 14 9 15 5 0 0 4
0 0 0 0 0 0 0 0 0 0 0 0 0 0 0
0 0 0 0 0 0 0 0 0 0 0 0 0 0 0
0 0 0 19 0 35 0 0 6 0 0 0 0 0 0
0 0 0 0 0 0 0 0 0 34 39 38 53 75 12
46 35 24 42 37 75 0 0 0 0 0 0 0 0 0
0 0 0 28 33 43 0 0 0 0 0 0 0 0 0
0 0 0 0 0 0 0 16 0 0 9 0 0 0 0
21 23 23 0 0 0 0 0 0 0 0 0 4 12 0
51 60 57 46 45 39 82 90 88 17 16 7 7 9 0
0 0 0 0 0 0 11 8 12 27 27 24 15 12 4
0 0 0 0 5 0 2 0 0 0 0 0 0 0 0
12 5 19 0 0 0 21 11 29 0 5 5 0 0 0
3 0 0 28 29 20 54 61 52 68 59 66 61 61 53
60 48 56 47 47 42 0 0 0 0 0 6 11 5 36
4 18 36 0 0 15 0 0 0 0 0 3 0 0 0
0 0 0 0 0 5 8 10 7 43 43 5 22 22 35
0 0 0 0 0 0 0 0 0 0 0 0 0 0 0
0 0 1 0 0 0 0 0 0 0 0 0 0 0 0
0 0 0 4 7 0 0 3 0 4 0 12 0 0 0
4 3 0 8 6 2 4 5 5 9 16 19 0 0 0
0 3 2 0 4 0 11 4 6 1 0 0 0 1 0
1 0 0 0 0 0 3 6 0 18 8 1 5 12 9
11 7 0 0 1 3 0 0 1 8 10 19 13 24 6
8 2 0 1 0 0 9 0 9 8 10 7 10 8 6
2 8 8 15 8 10 12 8 14 12 16 6 6 14 5
14 12 14 1 10 0 1 0 2 9 4 0 7 2 4
0 0 5 52 63 36 159 125 175 0 0 0 0 0 0
0 0 0 0 0 0 9 0 0 0 0 0 42 0 12
93 50 79 65 24 40 28 0 1 37 9 20 0 0 0
0 0 0 0 0 0 0 0 0 0 0 0 0 0 2
88 106 120 124 125 138 38 75 78 4 1 18 64 80 84
0 5 11 0 0 0 0 0 0 0 0 0 18 23 9
0 0 0 0 0 0 89 98 93 27 18 2 0 0 0
0 0 0 10 9 9 22 24 20 0 0 0 0 0 0
0 0 0 15 18 22 0 4 0 16 12 14 21 15 23
21 15 19 4 7 14 13 9 17 21 29 20 4 0 2
0 0 0 0 0 1 0 0 0 0 0 0 0 0 0
0 0 5 0 0 0 1 0 10 0 0 0 0 0 0
0 3 2 1 0 8 1 2 0 14 8 9 13 11 11
0 0 0 0 0 0 0 0 0 0 0 0 0 0 0
0 0 0 0 0 0 0 0 0 0 0 0 0 0 0
0 0 0 0 0 0 5 0 5 0 0 0 12 0 3
0 0 0 3 0 0 0 0 4 11 0 7 60 52 50
0 0 0 0 0 0 19 15 11 26 18 12 13 8 5
1 0 5 12 10 12 7 14 0 16 5 22 8 0 17
5 6 11 13 8 0 1 0 1 0 6 0 7 14 9
10 20 11 5 12 15 0 0 0 0 0 2 2 9 12
9 0 13 15 4 12 30 21 39 13 9 31 11 0 16
21 0 15 0 0 0 0 0 0 40 55 32 141 146 122
154 231 124 143 142 128 134 197 114 120 141 81 88 83 67
46 29 33 57 49 56 87 81 42 81 85 40 40 38 51
31 51 39 72 79 51 160 171 77 146 151 159 0 0 0
0 0 0 0 0 0 14 13 4 0 0 0 0 0 0
14 0 43 5 0 41 0 0 0 0 0 0 0 0 0
0 0 0 0 0 0 0 0 0 0 0 0 35 35 35
166 163 158 182 163 168 77 64 83 37 32 37 0 0 0
24 18 27 15 20 24 0 0 0 0 0 0 0 0 0
6 0 0 20 10 0 7 10 0 0 0 0 0 0 0
19 19 26 33 38 46 5 23 38 5 2 13 0 0 0
0 0 0 0 0 0 29 26 25 36 42 35 42 34 44
50 51 48 66 74 75 71 75 66 128 118 73 96 109 58
113 93 50 90 99 50 111 94 62 92 97 69 102 98 69
103 102 61 129 125 53 107 97 41 82 86 29 61 61 16
52 52 20 35 35 41 15 15 26 7 10 21 0 0 0
0 0 0 10 7 0 19 25 22 34 32 33 25 26 33
14 16 22 12 7 27 0 0 0 0 0 0 3 0 26
0 0 3 1 1 14 0 0 7 0 0 0 0 0 0
6 0 0 0 0 0 0 0 0 0 0 0 0 0 0
7 12 4 6 8 17 0 0 3 0 0 0 0 0 0
0 0 0 0 0 0 7 0 0 3 7 0 0 0 0
0 0 0 13 10 8 8 12 0 0 0 0 0 0 0
4 0 0 0 0 0 0 0 0 0 0 0 0 0 0
0 0 0 0 0 2 0 7 0 1 3 2 0 12 0
0 0 1 0 0 0 108 189 82 118 115 133 0 0 0
0 0 0 0 0 0 0 0 0 0 0 0 0 0 0
0 0 0 0 4 0 31 40 21 16 14 0 15 15 0
32 18 1 41 2 0 0 0 0 13 0 0 0 0 0
0 0 0 0 0 0 0 0 0 123 184 191 103 181 190
10 13 20 0 0 0 0 0 0 27 19 23 37 19 17
0 0 0 89 72 71 28 34 38 24 22 26 0 0 0
0 0 0 0 0 0 0 16 11 0 0 0 0 0 0
0 5 15 64 67 79 112 103 102 72 64 75 47 47 56
34 29 29 13 26 15 9 13 14 0 0 0 0 1 0
0 0 0 0 0 0 11 7 5 28 21 24 19 10 19
0 0 0 0 0 0 3 14 0 10 0 10 4 0 0
8 9 7 10 1 7 11 5 14 0 4 0 0 0 0
0 4 0 0 0 0 0 0 0 0 0 0 0 0 0
0 0 0 0 0 0 0 0 0 0 0 0 0 0 0
0 0 0 0 0 0 0 0 0 7 5 18 8 7 11
6 5 9 17 14 24 27 27 40 38 38 37 32 29 46
55 61 59 0 0 0 0 0 0 3 10 12 1 7 16
5 0 8 0 0 0 0 0 0 2 9 0 0 2 12
0 0 0 0 0 0 0 0 0 0 2 0 0 3 0
0 0 0 8 8 8 0 0 0 0 0 0 0 0 0
0 0 0 0 0 0 0 0 0 0 0 11 0 0 0
0 0 0 0 0 0 0 0 0 80 84 80 131 138 121
90 91 77 92 97 77 0 0 0 0 0 0 62 77 66
79 111 118 33 62 41 15 24 12 27 34 12 19 20 46
0 0 0 0 0 0 0 0 0 27 24 42 90 99 94
77 74 84 0 0 0 0 0 0 0 0 0 0 0 0
0 0 0 0 0 0 0 0 0 0 0 7 27 32 45
43 36 53 58 51 60 73 69 75 112 111 115 114 111 120
89 90 100 98 79 80 20 2 17 0 0 0 0 0 0
12 0 7 34 20 28 6 8 6 0 0 0 0 0 0
0 0 5 14 8 7 20 18 9 6 0 0 0 0 0
0 0 0 1 2 6 23 24 44 0 9 17 1 0 13
0 0 3 10 14 8 15 23 1 32 28 17 13 21 10
0 0 0 0 0 0 0 0 0 0 0 0 10 10 22
0 0 0 0 0 2 0 0 0 0 0 0 0 0 0
0 0 0 0 0 0 0 0 0 0 0 0 0 0 6
0 0 11 19 21 32 28 29 22 44 44 19 59 62 41
0 0 0 0 0 0 0 0 0 0 0 0 0 0 0
0 0 0 0 1 17 0 17 20 0 0 17 0 0 10
0 0 8 0 0 5 3 0 8 0 0 13 0 0 5
0 1 4 4 0 3 0 0 0 0 0 0 1 0 0
0 0 3 10 11 2 4 0 6 3 0 0 0 3 0
0 0 0 0 0 4 0 2 0 2 0 7 0 0 0
0 4 0 0 0 2 8 7 0 6 0 0 3 10 0
4 1 0 0 9 0 3 5 3 0 11 0 9 9 3
0 0 0 0 11 5 0 2 4 1 0 10 1 9 3
0 2 3 1 9 6 12 8 6 188 196 152 82 89 103
0 0 0 0 0 0 3 0 9 0 0 8 3 2 0
0 3 0 0 0 0 0 27 0 21 32 3 1 22 0
17 11 0 34 12 0 46 21 16 7 0 0 54 26 19
27 3 0 13 0 0 0 0 0 0 0 0 106 72 64
96 85 80 36 36 49 0 0 0 0 0 0 16 6 17
29 15 18 0 0 0 65 55 50 55 53 58 0 5 0
0 0 0 0 0 3 0 0 11 0 11 8 0 0 5
0 0 0 0 0 0 31 40 35 14 13 15 3 3 4
2 8 10 0 0 0 3 0 0 0 0 0 0 0 0
1 10 2 0 0 0 0 0 0 0 0 0 13 20 21
8 21 10 0 0 0 0 0 0 7 3 0 2 3 0
0 4 4 3 2 0 0 2 0 2 8 0 0 2 0
0 0 0 0 4 0 0 0 3 11 13 7 2 0 12
0 0 0 0 0 0 2 0 0 11 11 9 4 6 0
0 0 0 3 6 3 4 5 3 5 4 3 22 23 9
2 0 0 0 0 0 0 0 0 0 0 0 0 0 0
0 0 0 0 0 0 0 0 0 0 0 0 12 14 6
4 16 7 17 4 10 0 1 0 12 0 10 8 3 4
5 3 1 0 0 0 0 0 0 0 0 0 0 0 0
0 1 0 0 0 0 5 14 10 0 0 0 0 0 0
0 0 2 0 0 0 0 0 0 0 0 0 0 0 0
0 0 0 0 0 0 0 0 0 74 78 100 186 195 169
90 95 92 0 0 0 0 0 0 0 0 0 0 0 0
0 0 0 86 67 78 95 91 98 30 73 74 37 59 44
0 0 2 0 0 0 0 0 0 0 0 0 0 0 0
55 52 70 159 160 119 92 98 117 0 0 0 0 0 0
47 41 43 69 61 59 123 117 124 182 179 197 178 164 180
116 122 118 109 95 96 117 119 103 71 73 82 51 53 53
0 0 0 0 0 0 0 0 0 0 0 0 0 0 0
0 0 0 23 11 19 31 25 27 8 17 11 0 0 0
0 0 0 0 0 1 5 0 0 11 11 2 5 0 0
0 0 0 0 0 0 0 3 7 26 20 56 6 18 29
5 4 20 0 3 8 0 0 0 0 8 0 5 0 9
0 0 0 0 0 0 0 0 0 0 0 0 0 0 0
0 0 0 0 0 0 0 0 0 0 0 0 0 0 0
0 0 0 0 0 0 0 0 0 0 0 0 0 0 0
0 0 0 0 0 0 0 0 0 11 15 9 32 34 33
44 49 24 68 67 26 44 43 37 8 6 20 0 0 0
0 0 0 0 0 0 0 0 0 0 0 0 0 0 0
0 0 0 0 0 0 0 0 0 0 0 0 0 0 0
0 0 0 0 0 2 0 0 0 0 0 0 0 0 6
0 0 0 8 0 17 17 11 11 0 0 9 0 0 0
0 0 0 0 0 2 0 0 0 2 6 0 0 0 0
7 1 12 1 7 0 0 0 0 5 7 4 0 0 3
0 0 4 10 0 7 0 0 0 5 0 0 2 6 3
0 0 0 15 4 9 0 4 4 0 0 0 0 0 0
0 0 0 0 2 10 2 9 2 41 42 15 171 173 187
0 0 0 0 0 0 0 0 0 0 0 0 0 0 4
0 0 0 6 0 0 0 0 0 0 0 0 0 0 0
0 0 0 0 0 0 13 13 9 35 33 20 19 11 2
38 18 27 51 48 38 35 12 5 0 0 0 0 0 0
0 0 0 0 0 0 27 40 51 12 27 29 0 0 6
0 0 0 25 22 31 19 13 7 18 16 21 32 27 20
0 0 0 0 0 0 0 12 9 5 10 0 0 0 0
0 0 0 0 0 0 1 8 0 42 40 52 0 0 0
0 0 0 1 0 0 0 0 0 0 0 0 0 3 7
0 0 3 0 6 1 0 0 0 0 0 0 8 0 0
19 7 16 15 9 6 0 0 0 0 0 0 0 4 12
4 0 0 1 0 5 0 0 0 4 8 6 7 0 2
8 2 7 5 0 4 0 0 0 0 0 7 10 11 12
10 12 8 0 0 0 0 0 0 10 15 0 10 8 12
8 8 2 0 0 0 0 0 0 0 0 0 0 0 0
0 5 0 0 0 0 0 0 0 0 0 0 0 0 0
0 0 0 0 0 0 0 0 0 1 0 0 0 0 0
11 4 9 11 13 12 8 0 0 0 0 0 1 0 0
0 5 1 7 1 10 0 0 8 0 2 7 0 0 3
0 0 0 0 9 0 0 6 0 3 2 0 0 0 0
18 28 16 33 25 26 0 0 0 0 0 0 0 0 0
3 0 17 0 0 0 0 0 0 22 14 42 147 154 86
141 132 171 0 0 0 0 0 0 0 0 0 0 0 0
0 0 0 0 0 0 0 0 0 0 0 0 85 59 75
59 74 90 3 0 0 0 0 0 28 32 30 0 0 0
0 0 0 0 4 12 105 95 73 150 152 150 41 34 32
0 0 0 0 0 0 43 42 51 106 110 122 134 144 145
70 71 84 0 0 0 0 0 0 0 0 0 0 0 0
0 0 0 0 0 0 0 0 0 16 10 3 57 55 53
5 11 0 0 0 0 22 12 24 36 29 19 7 15 16
0 0 0 0 0 0 0 0 0 6 0 6 3 1 0
3 0 0 0 0 0 0 0 0 0 5 0 22 18 42
10 13 34 7 4 20 10 7 19 0 0 0 0 0 0
0 0 0 0 0 0 0 0 0 0 0 0 1 6 0
0 0 0 28 31 22 12 13 2 11 11 8 9 5 8
12 13 0 15 7 0 2 4 6 11 14 14 24 24 25
6 1 0 0 0 1 0 0 0 0 0 0 0 0 0
0 0 0 0 0 0 54 47 34 42 34 22 40 42 22
42 28 30 19 18 53 0 0 2 0 0 0 0 0 0
0 0 0 0 0 0 0 0 0 0 0 0 0 0 0
0 0 0 0 0 0 0 0 0 0 0 0 0 0 0
7 0 1 0 9 1 22 8 15 9 18 6 6 6 6
0 0 1 7 1 3 7 3 12 0 0 1 6 3 9
4 7 5 8 5 3 0 5 2 9 15 2 0 0 1
7 0 0 0 2 1 11 4 5 0 7 11 1 0 7
0 1 15 0 0 0 5 0 20 0 2 0 0 0 2
0 0 0 0 0 6 2 3 6 8 12 4 57 73 25
160 172 173 0 0 0 0 0 0 0 0 0 0 0 0
0 0 0 0 0 0 0 0 0 0 0 0 0 0 0
0 0 0 0 0 0 0 0 0 0 0 0 23 24 19
13 5 16 4 1 0 54 33 39 38 19 27 0 0 0
0 0 0 0 0 0 0 0 0 10 15 22 98 95 105
62 79 67 0 0 0 0 0 0 46 45 37 0 0 0
0 0 0 40 32 38 0 0 0 10 11 13 0 0 0
0 0 0 0 0 0 0 0 0 23 14 20 22 31 35
0 0 0 0 0 0 0 0 0 0 0 0 0 0 0
0 0 0 2 0 0 3 3 9 0 0 0 0 0 0
0 0 1 13 14 19 11 19 11 0 0 0 0 0 0
3 14 15 0 0 0 0 0 0 0 8 0 0 8 0
1 0 0 2 2 2 0 0 0 0 0 0 0 0 0
7 7 1 7 7 17 0 0 0 0 0 0 7 9 7
7 2 19 9 6 14 0 0 0 0 0 3 0 0 0
0 0 0 9 1 9 30 24 21 42 32 37 31 25 27
25 25 21 13 12 18 34 20 27 23 27 36 7 0 12
0 0 12 5 8 5 0 0 13 0 0 0 0 0 6
0 0 5 0 2 5 4 3 5 0 1 3 0 1 0
1 0 2 0 0 0 6 0 4 4 4 18 2 0 0
0 0 0 55 49 44 56 52 45 12 4 11 0 2 0
5 0 0 15 2 26 1 0 1 0 0 9 68 52 58
136 208 120 73 65 106 0 0 0 0 0 0 27 9 0
60 53 40 0 0 0 0 0 0 0 0 0 0 0 0
0 0 0 93 107 106 69 82 67 0 0 0 13 12 10
0 0 0 29 27 32 0 0 10 0 0 0 122 125 132
130 131 129 0 0 0 0 0 0 0 0 0 0 0 0
0 0 0 0 0 0 0 0 0 0 0 0 0 0 0
4 0 12 7 9 12 0 0 0 0 0 8 37 28 38
26 19 24 0 0 0 7 0 1 16 17 11 29 20 22
11 17 22 0 0 0 0 0 0 0 0 0 2 4 2
7 0 0 5 0 0 0 0 0 0 0 0 0 3 0
21 18 52 12 14 30 0 5 19 5 17 17 2 8 6
6 11 5 14 2 16 0 0 0 0 0 0 0 0 10
4 3 1 0 0 0 5 4 11 0 0 0 5 2 8
4 0 5 0 1 6 0 0 2 0 0 14 0 0 2
9 8 12 0 0 0 0 0 4 6 0 4 0 0 2
0 0 0 0 0 4 0 0 0 0 0 0 0 0 0
9 17 23 55 46 5 55 67 8 65 64 21 46 58 37
40 33 41 52 33 40 46 19 40 31 10 30 17 7 9
6 7 0 0 0 0 0 0 0 0 0 0 0 0 0
0 0 0 4 0 7 0 13 2 15 12 14 0 2 1
2 1 1 0 3 2 0 5 2 0 10 2 2 0 1
5 4 1 0 0 0 6 8 0 4 3 0 15 10 1
0 0 1 5 4 1 0 0 2 1 2 0 0 0 0
0 0 0 0 4 6 0 0 0 17 4 21 0 0 0
0 0 0 0 0 0 0 0 0 1 4 0 16 0 10
66 66 26 155 154 169 0 0 0 0 0 0 0 0 0
0 0 0 0 0 14 0 0 0 0 0 0 0 0 0
0 0 0 0 0 0 0 0 0 0 0 0 0 0 0
0 9 0 6 8 7 1 0 0 22 2 1 35 8 20
40 17 12 48 34 26 0 0 0 0 0 0 0 0 0
84 84 100 155 170 163 15 1 30 0 0 0 23 9 33
0 0 0 0 0 0 64 67 49 0 0 0 0 4 0
0 0 0 0 0 0 0 0 0 0 2 0 3 7 0
12 7 11 0 0 0 2 6 9 3 0 0 0 3 0
0 0 0 0 7 0 0 0 0 0 0 0 5 0 0
0 0 0 2 1 0 18 18 20 9 6 4 0 0 0
0 0 0 4 6 12 7 2 0 4 0 3 2 0 3
1 0 9 6 4 1 0 0 0 0 0 0 1 1 3
0 0 6 13 13 1 4 4 8 0 0 0 0 0 0
4 5 0 13 15 13 17 20 11 0 0 0 0 0 4
0 0 0 0 0 0 0 5 3 0 0 7 3 9 18
0 0 7 0 0 0 0 0 0 0 0 0 0 0 0
11 11 14 0 0 9 9 10 22 0 0 4 0 0 0
0 0 0 5 0 0 6 1 0 7 2 0 5 3 5
0 5 0 0 2 0 1 1 0 0 5 0 15 4 11
0 0 0 0 0 0 57 50 61 54 49 58 0 0 0
0 0 0 0 0 0 0 0 0 0 0 0 4 9 14
82 81 30 164 205 179 4 4 28 0 0 0 0 0 0
46 34 26 15 9 0 17 20 4 94 89 81 45 42 30
0 0 0 0 0 0 119 100 104 64 141 131 0 10 0
0 0 0 0 0 0 38 35 33 0 0 0 0 0 0
42 34 55 195 182 153 21 16 50 62 62 87 40 43 61
8 2 14 0 0 0 0 0 0 0 0 0 0 0 0
0 0 0 28 31 43 0 0 7 0 0 0 0 0 0
5 4 0 26 26 23 0 0 0 4 0 0 8 9 1
29 17 30 10 21 22 0 0 0 0 0 0 0 0 0
8 12 1 0 3 0 8 10 0 0 0 0 0 0 0
3 7 1 20 17 46 8 8 33 0 1 21 4 4 24
0 3 0 0 0 0 9 0 7 0 0 0 0 0 1
0 0 0 1 0 0 0 0 0 0 0 0 0 0 0
0 0 0 0 0 0 0 0 0 0 0 0 0 0 1
0 0 0 0 0 0 0 0 0 0 0 1 8 0 10
13 26 13 14 20 11 11 15 4 14 19 21 0 0 0
0 0 0 0 0 8 32 25 31 36 42 25 66 59 26
61 68 28 52 60 20 38 90 10 25 76 2 29 61 8
46 48 19 30 23 37 7 3 1 0 0 0 0 0 0
2 0 11 0 0 0 11 3 14 13 15 2 11 1 14
6 5 4 5 1 2 4 1 0 7 5 0 2 6 0
8 0 0 5 1 0 3 0 0 2 0 0 2 0 0
15 9 1 0 0 0 0 0 2 2 0 6 0 0 5
8 0 6 0 0 9 1 0 0 0 0 0 8 3 8
0 0 0 0 0 0 0 0 0 0 0 0 0 1 5
8 3 7 45 42 25 152 153 168 0 0 0 0 0 0
0 0 0 2 0 6 2 0 7 0 0 0 0 0 0
18 33 14 0 7 2 0 0 0 0 0 0 0 0 0
0 0 0 0 0 0 0 0 0 11 0 3 9 0 0
25 0 0 40 16 22 62 36 36 30 3 6 0 0 0
0 0 0 0 0 0 183 193 183 106 108 118 0 0 0
0 0 0 0 0 0 0 0 0 28 22 28 0 0 0
0 0 0 0 0 0 0 0 0 0 0 4 0 0 0
0 0 0 0 0 0 12 5 11 10 10 4 4 6 0
0 4 0 7 0 10 0 0 0 2 0 0 0 0 0
3 1 0 0 0 0 3 0 0 10 26 21 14 7 6
0 0 0 0 0 0 0 0 10 0 4 0 0 1 0
0 8 5 0 7 10 0 4 0 0 7 4 0 5 2
0 0 2 0 0 0 10 8 8 9 6 8 0 0 0
0 0 0 9 9 9 10 10 22 14 14 20 0 0 0
0 0 0 0 0 7 0 0 3 0 0 4 0 0 0
0 0 0 0 0 0 0 0 0 0 0 0 0 0 0
0 0 0 18 2 15 18 10 7 25 20 26 13 15 13
0 0 0 0 0 0 0 0 1 12 15 19 1 4 0
0 3 4 0 0 6 0 0 0 4 1 4 2 6 9
11 5 16 4 0 3 0 0 0 60 48 63 63 56 76
0 0 0 0 0 0 0 0 0 0 0 14 0 0 5
9 11 22 79 106 25 193 198 232 0 0 0 0 0 0
0 0 0 0 0 0 0 0 0 3 0 0 135 106 106
124 121 115 0 0 0 0 0 0 22 13 15 93 105 84
56 73 58 38 35 42 0 0 0 16 25 17 0 5 12
0 0 0 0 0 0 114 98 132 156 173 84 181 174 115
218 221 216 237 231 245 182 192 195 50 47 54 0 0 0
0 0 0 0 0 0 0 0 0 0 0 0 0 0 0
0 0 0 78 73 66 92 79 87 0 1 0 0 0 0
0 0 0 31 24 14 1 8 0 0 0 0 0 0 0
0 0 0 9 7 4 0 0 0 15 9 0 0 0 0
0 0 0 6 7 4 17 14 41 10 10 31 0 0 11
0 1 10 0 0 0 0 0 0 0 0 0 0 0 0
1 1 0 10 3 0 0 10 10 0 2 0 0 8 6
0 6 6 2 11 12 0 4 8 0 0 0 0 0 0
1 0 10 5 1 7 5 6 13 0 0 3 7 9 13
6 3 10 9 2 10 7 4 13 2 0 4 0 0 0
6 1 9 2 0 0 0 0 7 0 0 0 0 0 1
0 0 8 0 3 0 0 0 0 60 39 60 48 23 29
32 39 14 20 39 4 40 36 20 20 14 18 0 9 0
0 0 0 0 14 18 12 7 12 10 9 13 7 9 4
0 0 3 0 0 0 1 7 4 6 16 0 0 0 0
0 2 0 1 5 0 0 2 0 1 0 0 1 1 0
0 0 0 6 4 1 0 0 2 0 2 3 1 0 0
0 0 0 0 0 0 0 3 0 0 0 0 0 0 0
1 4 2 0 2 0 0 6 0 0 3 0 0 0 0
3 0 3 0 0 0 9 4 2 135 134 119 65 67 92
0 0 0 0 0 0 24 23 46 9 8 28 0 0 0
0 0 0 21 30 19 0 5 1 0 1 0 1 12 0
0 0 0 0 0 0 0 0 0 0 0 0 8 4 0
0 0 0 0 0 0 0 0 0 7 0 0 49 28 26
18 23 5 0 0 0 0 0 0 63 74 65 183 180 203
43 45 56 0 0 0 0 0 0 0 0 0 6 15 19
0 0 9 0 0 0 0 0 0 25 17 15 32 36 39
3 14 17 0 0 0 0 0 0 8 1 5 4 5 2
5 0 7 5 2 0 9 4 0 1 8 0 3 6 5
1 10 5 0 0 0 0 0 3 13 0 0 12 25 22
18 0 8 0 0 0 0 0 0 8 1 6 4 0 0
1 0 0 8 0 2 7 0 7 13 4 1 7 0 1
5 0 1 3 0 3 0 0 0 5 12 2 6 9 3
0 0 0 0 0 0 6 6 0 7 7 7 10 10 4
0 0 0 0 1 0 0 2 0 0 3 0 22 28 31
0 0 0 0 0 0 0 0 0 8 13 18 17 29 31
0 0 0 0 0 0 0 0 0 0 0 0 0 0 0
0 0 0 0 0 0 0 0 0 0 0 0 24 20 13
0 0 0 0 0 0 0 0 0 1 0 0 0 0 6
0 0 3 0 0 0 0 0 0 0 0 0 20 11 31
32 35 36 0 0 0 0 0 0 0 0 0 0 0 0
0 0 0 0 0 0 59 94 20 210 223 245 0 0 0
0 0 0 0 0 0 30 25 14 90 68 65 5 0 0
57 47 30 80 64 57 0 0 0 0 0 0 0 0 0
43 58 48 48 142 99 57 35 49 0 0 0 33 30 29
144 133 149 0 0 0 0 0 0 0 0 0 162 211 99
0 0 14 0 0 0 0 0 0 27 40 39 255 243 255
255 255 255 147 144 136 0 0 0 0 0 0 0 0 0
0 0 0 0 0 0 18 22 13 13 7 16 25 15 9
85 88 79 0 0 0 24 25 3 7 11 14 0 0 0
0 0 0 0 0 0 8 4 0 0 10 0 21 12 0
0 0 0 0 0 0 11 5 4 26 17 46 16 12 34
1 12 24 3 6 12 28 25 31 13 25 12 16 17 25
30 25 20 22 20 30 20 11 19 0 0 0 0 0 0
0 0 0 0 0 0 0 0 5 4 1 7 4 0 17
8 10 14 15 15 17 18 15 15 25 28 28 17 14 17
3 6 3 0 0 0 0 0 0 0 0 0 0 0 0
0 0 0 0 0 4 0 0 0 0 0 0 0 0 0
0 0 0 0 0 0 0 0 0 0 0 0 0 0 0
0 0 0 16 16 28 49 38 38 48 39 30 0 9 6
0 0 0 0 0 0 0 0 0 0 0 0 0 0 0
0 0 0 0 0 0 0 0 2 11 2 11 26 24 5
12 0 4 14 10 4 9 7 6 14 19 8 18 10 10
22 20 13 26 26 14 19 23 10 6 10 6 4 8 0
9 0 11 4 4 0 3 0 5 0 1 0 4 0 0
0 0 0 16 7 18 9 18 0 20 10 25 15 13 4
20 6 5 1 2 0 0 0 0 0 0 0 123 119 72
130 134 166 0 0 0 0 0 0 54 52 68 7 11 29
0 0 0 0 0 0 1 0 3 0 0 0 0 0 0
1 10 12 7 3 0 0 0 0 9 3 9 0 0 0
27 27 17 0 0 0 24 10 17 0 0 0 0 0 0
52 33 30 82 75 53 0 5 0 0 0 0 0 0 0
251 233 254 206 207 225 0 0 0 0 0 0 0 0 0
9 10 16 20 20 26 0 0 0 0 0 0 0 0 0
0 5 0 0 0 0 0 0 0 0 0 0 0 0 0
0 0 0 0 0 0 0 0 0 0 0 0 0 0 0
0 0 0 0 0 0 2 0 4 0 0 0 2 2 0
16 18 13 13 11 10 0 0 0 0 0 0 0 0 0
0 2 5 0 0 0 0 1 0 0 2 3 2 8 0
0 0 0 0 0 0 0 1 0 2 0 0 7 20 12
3 12 9 0 0 0 0 0 0 0 0 0 3 9 19
4 11 14 0 0 0 0 0 0 0 0 0 0 0 0
0 0 0 0 0 0 0 0 0 23 26 27 180 165 170
255 252 255 255 255 255 255 255 255 187 176 191 195 197 197
78 61 63 0 0 0 0 0 0 9 7 5 0 0 0
36 30 38 0 0 0 56 57 51 0 0 0 0 0 0
0 0 0 0 0 0 2 0 12 0 0 0 0 0 0
122 116 126 22 18 24 0 0 0 0 0 0 0 0 0
11 13 51 13 15 55 74 92 39 42 49 26 255 255 255
0 0 0 0 0 0 3 0 0 0 0 0 5 0 0
0 0 0 109 94 88 109 90 94 0 0 0 0 0 0
0 0 0 28 41 29 66 114 107 33 16 27 12 19 19
3 6 7 1 0 13 0 0 0 0 0 0 0 0 0
192 192 141 102 89 121 0 0 0 0 0 0 0 0 0
0 0 2 48 42 55 121 118 118 208 197 199 255 255 255
221 224 210 137 125 126 63 64 71 83 66 64 35 45 34
0 0 0 40 31 27 0 0 0 10 15 0 0 6 2
0 1 0 0 0 0 0 0 0 0 0 0 5 15 0
10 0 0 0 0 0 0 0 0 6 12 0 15 28 47
0 0 25 0 0 5 0 0 0 1 0 7 0 0 0
0 0 0 0 0 0 0 0 0 8 0 0 0 3 0
2 3 0 17 19 22 9 12 9 10 12 15 0 1 0
0 0 0 0 0 0 0 0 0 0 0 0 0 0 0
0 0 0 0 0 0 5 5 1 11 11 15 13 12 6
10 7 13 3 8 0 0 0 1 0 0 0 0 0 0
0 0 0 0 0 0 0 0 0 0 0 0 0 0 0
0 0 12 0 0 0 0 0 0 0 0 0 0 0 0
48 50 38 57 59 44 28 35 20 36 33 41 28 25 26
14 14 16 0 7 4 1 0 0 0 0 0 0 0 0
0 0 0 0 0 0 0 1 0 0 0 0 0 0 0
0 0 0 0 0 0 0 0 0 0 0 0 24 11 12
0 8 0 3 4 13 7 20 0 12 16 24 0 2 0
0 0 0 0 7 0 0 0 0 0 0 0 0 0 0
0 0 0 13 9 10 3 10 7 0 0 0 0 0 0
90 88 47 115 118 142 0 0 6 0 0 0 0 0 0
44 51 69 0 0 0 0 3 0 9 8 4 3 13 0
7 16 8 0 5 0 0 0 0 0 0 0 0 0 0
0 0 4 57 51 58 0 0 0 0 0 0 0 0 0
0 0 0 66 54 45 102 114 84 120 123 107 13 12 5
0 0 0 0 0 0 255 255 255 0 0 0 0 0 0
0 0 0 0 0 0 0 0 0 0 0 0 0 0 0
152 152 163 135 132 136 0 0 0 15 27 16 0 0 0
15 12 12 14 16 17 22 7 4 12 18 9 15 11 11
15 7 6 15 14 5 9 13 0 0 0 0 5 0 5
11 7 14 2 0 13 0 1 0 0 0 0 0 0 0
0 0 0 19 13 17 8 2 13 4 0 0 0 0 0
6 0 7 6 0 13 9 5 5 5 12 0 0 0 0
27 21 20 0 0 0 0 0 0 18 11 15 36 30 28
8 2 0 8 4 0 18 7 16 16 7 4 18 9 18
18 9 12 0 0 0 67 63 65 88 88 87 27 31 38
0 0 0 0 0 0 0 0 0 15 31 20 138 136 136
196 208 214 236 227 238 68 68 76 0 0 0 0 0 0
0 0 0 0 0 0 0 0 0 48 41 47 0 0 3
0 0 0 10 4 26 0 0 12 18 19 41 11 0 15
0 0 0 34 29 65 0 0 2 2 5 23 5 14 36
0 0 0 0 0 0 0 0 0 21 23 33 31 43 37
255 255 255 0 0 0 0 0 0 5 12 0 0 0 0
36 21 11 0 0 0 84 71 62 74 63 54 22 6 3
0 0 0 0 0 0 35 44 30 84 124 128 2 0 0
1 11 0 32 32 38 47 36 42 0 0 0 0 0 0
0 0 0 214 214 147 76 74 92 0 0 0 0 0 0
0 0 0 0 0 0 0 0 0 0 0 0 0 0 0
0 0 0 0 0 0 0 0 0 0 0 0 32 23 9
32 31 23 2 0 0 49 47 38 0 0 0 10 15 7
13 1 1 0 0 0 0 0 0 0 0 0 0 0 0
16 20 0 0 0 0 0 0 0 0 0 0 9 3 8
20 29 42 6 2 28 0 2 4 0 0 0 17 15 6
0 4 5 0 0 0 0 3 1 8 0 0 15 2 15
2 9 6 0 0 0 11 2 21 5 0 8 8 0 17
8 7 11 0 0 0 0 0 0 0 0 4 0 4 0
0 0 0 0 4 0 0 0 0 5 7 7 0 1 7
0 4 16 0 1 1 0 0 0 16 14 22 16 19 15
19 17 32 21 14 11 10 15 26 2 2 11 17 19 28
24 13 17 0 0 3 0 0 0 0 0 5 0 0 0
0 0 0 19 17 11 9 13 7 0 0 0 3 7 8
0 0 4 0 0 0 5 0 0 5 0 0 0 0 0
3 0 0 10 12 11 3 0 0 8 6 3 4 0 0
5 5 0 0 0 0 0 5 0 0 0 0 0 2 8
0 0 0 0 0 3 0 0 0 0 0 0 0 0 0
0 0 0 13 18 18 39 46 37 1 8 11 15 27 25
21 9 20 0 0 0 0 0 0 0 0 0 13 21 9
37 41 42 63 63 49 114 115 139 0 0 0 0 0 0
21 24 41 101 104 127 0 0 0 0 0 0 0 13 7
0 3 0 4 2 0 0 2 0 0 0 0 0 0 0
0 0 11 0 0 0 45 52 42 0 0 0 0 0 6
0 0 0 0 0 0 19 13 9 44 55 27 73 85 59
0 0 0 0 0 0 0 0 0 221 213 237 12 12 31
0 0 0 0 0 0 0 0 0 46 34 45 0 0 0
0 2 6 128 130 134 48 45 51 0 0 0 0 0 0
0 4 0 0 0 0 0 0 1 0 0 0 0 4 0
0 0 0 0 0 0 0 0 0 6 6 0 0 0 0
0 0 0 16 8 7 0 5 10 7 0 0 0 0 0
4 0 0 0 0 0 0 6 1 0 0 0 0 7 0
0 4 0 0 2 0 0 0 4 0 3 0 4 0 8
0 0 0 23 23 20 0 0 0 0 0 0 3 3 6
18 19 16 0 0 0 0 1 0 3 1 7 0 0 0
0 0 6 0 0 0 6 12 1 53 63 63 44 41 39
0 0 0 0 0 0 0 0 0 0 0 0 0 0 0
0 0 0 0 0 0 83 83 75 219 227 216 162 157 153
109 113 105 123 114 106 79 79 66 0 0 0 0 0 0
0 0 2 0 0 0 0 0 0 0 0 0 0 0 0
0 9 15 80 77 68 69 72 31 40 27 24 68 61 48
81 65 61 0 0 0 0 0 0 34 31 41 0 0 0
63 71 65 239 245 251 0 0 0 0 0 0 0 0 0
0 0 0 40 30 25 4 0 0 67 37 39 36 19 12
24 11 14 0 0 0 0 0 0 0 0 2 99 146 149
12 10 7 14 28 22 46 43 62 21 32 40 0 0 0
0 0 0 0 0 10 227 239 157 64 74 87 0 0 0
0 0 0 0 0 0 26 25 30 0 0 0 0 0 0
0 0 0 0 0 0 0 0 0 0 0 0 0 0 0
30 19 22 40 38 24 8 9 0 46 41 38 0 0 0
7 13 0 10 0 0 0 0 0 0 0 0 0 0 0
4 0 0 16 25 4 0 0 0 0 0 0 0 0 0
4 1 5 17 19 48 12 7 32 0 6 7 0 0 16
0 6 2 0 0 0 6 0 0 0 1 1 0 0 0
2 4 10 0 4 0 0 0 0 0 8 5 0 1 0
5 10 12 1 7 6 2 0 3 0 2 0 0 0 0
1 4 2 0 0 0 0 2 0 0 0 0 0 0 3
5 0 0 6 0 0 0 0 0 0 0 0 0 0 0
0 0 0 0 0 11 0 0 0 0 0 1 0 0 0
0 0 0 0 0 0 0 0 3 0 0 0 0 0 9
0 0 0 0 0 0 0 0 0 18 12 14 8 12 10
10 19 5 4 2 5 3 8 4 1 0 8 0 0 0
0 10 5 12 7 12 12 22 15 0 0 1 0 13 3
0 0 0 0 5 5 0 0 9 0 6 3 0 0 2
0 9 0 0 0 0 4 0 2 12 1 5 0 2 0
0 0 0 0 0 0 0 0 0 0 0 1 0 0 0
0 0 0 0 0 0 0 0 0 0 0 0 0 0 0
0 0 0 0 0 0 24 32 44 127 142 129 0 0 0
0 0 0 56 46 62 0 0 0 0 0 0 0 0 0
7 16 16 0 0 0 0 0 0 12 3 0 0 9 1
0 0 0 0 2 2 0 0 0 32 20 29 12 14 0
15 4 7 0 0 0 0 0 0 0 0 0 14 15 0
95 89 79 0 8 0 0 0 0 0 0 0 102 87 106
100 100 115 0 0 0 0 0 0 0 0 0 0 0 0
0 0 0 95 100 98 55 40 62 0 0 0 0 0 0
0 0 0 19 13 14 3 0 0 6 6 5 0 0 0
3 0 0 2 0 0 0 0 1 0 0 7 0 2 7
0 0 0 0 4 0 21 7 12 0 6 7 12 0 0
0 0 0 2 0 0 1 2 4 2 0 0 2 0 0
3 0 1 3 0 7 3 0 0 4 0 0 9 0 7
0 1 3 0 4 0 19 21 17 0 0 0 0 0 0
9 9 12 24 26 20 1 0 11 0 0 0 2 1 4
0 0 0 0 0 6 0 0 0 0 0 0 0 0 0
0 0 0 0 0 0 19 4 0 22 25 10 0 0 0
0 0 0 0 0 0 0 0 0 0 0 0 38 46 35
111 106 102 111 117 108 163 157 158 147 147 151 0 0 0
0 0 0 0 0 1 1 0 18 11 0 25 0 0 0
0 0 0 60 59 82 73 74 66 98 99 100 102 106 125
101 145 138 116 139 150 81 89 80 36 47 39 0 0 0
0 0 0 77 131 132 229 220 231 0 0 0 0 0 0
0 0 0 0 0 0 52 31 40 25 7 0 38 24 14
0 0 0 37 18 21 0 0 0 0 0 0 0 0 0
115 172 173 10 0 0 27 38 31 73 60 62 36 34 42
0 0 0 0 0 0 0 0 0 144 137 153 72 75 77
0 0 0 0 0 0 0 0 0 42 37 45 25 28 39
0 0 0 0 0 6 0 1 0 0 0 0 0 0 0
0 0 0 49 40 47 53 51 45 8 8 2 24 19 12
0 0 0 0 7 2 2 0 0 0 0 0 0 0 0
0 0 0 0 0 0 12 18 0 0 0 0 0 0 0
0 0 0 6 7 5 10 14 36 11 5 23 0 6 10
8 18 16 0 1 0 0 1 0 6 0 1 0 0 0
0 0 0 1 0 0 6 0 2 2 0 0 3 6 15
0 0 8 5 5 7 0 0 0 3 0 0 0 0 0
1 0 0 9 13 9 0 0 0 0 0 0 0 0 0
0 0 4 0 0 0 0 0 0 0 0 0 0 0 0
0 0 0 0 0 0 0 0 0 0 0 0 0 0 0
0 0 0 0 0 0 0 0 0 9 0 17 9 3 20
14 5 23 6 0 12 0 0 0 0 0 0 31 15 25
10 45 5 11 0 1 9 13 8 3 11 0 5 0 5
1 4 0 0 0 0 0 5 0 12 12 6 0 0 0
0 11 3 3 0 8 0 5 0 0 0 1 0 6 0
0 0 0 0 9 9 4 1 6 13 7 6 0 1 11
0 0 0 0 0 2 19 19 18 28 28 28 17 24 21
43 52 49 19 32 28 40 35 41 68 81 70 68 79 72
66 77 74 31 39 39 0 0 0 51 52 57 137 142 125
9 2 39 0 0 0 37 35 68 0 0 0 0 0 0
13 25 14 1 14 1 0 0 0 0 0 0 5 9 13
16 16 11 1 0 0 0 0 6 0 0 0 0 0 0
43 26 30 24 25 39 0 0 0 0 0 0 0 0 0
0 0 0 88 86 67 21 27 19 0 0 0 0 0 0
0 0 0 149 153 171 0 2 17 0 0 0 0 0 0
0 0 0 13 13 24 160 147 165 0 0 0 0 0 0
46 46 54 1 0 1 0 0 0 0 0 0 5 3 6
0 0 0 7 0 12 9 1 4 0 2 0 8 5 0
0 0 0 10 3 3 3 5 4 9 11 10 8 12 14
0 2 0 0 0 0 0 0 0 9 5 11 3 1 0
0 4 4 0 0 0 0 0 5 0 4 0 3 3 3
2 0 2 0 0 0 1 0 0 24 28 21 0 0 0
0 0 0 6 8 4 21 26 11 0 0 2 1 1 0
1 1 0 0 0 0 0 0 0 0 0 0 0 0 0
1 3 0 0 0 0 0 0 0 2 7 0 0 0 0
0 0 0 6 21 2 81 78 88 25 37 29 0 0 0
0 0 0 0 0 0 0 0 0 8 1 21 201 195 148
0 0 0 0 0 0 0 0 0 0 0 0 0 0 0
0 0 0 0 0 0 134 144 115 82 86 87 45 32 26
33 24 4 71 56 34 65 54 51 52 41 24 46 40 40
56 43 38 11 0 0 102 200 201 205 184 195 0 0 0
0 0 0 0 0 0 0 0 0 36 41 34 37 22 11
33 41 28 10 0 0 45 29 22 0 0 0 0 0 0
0 0 0 121 184 184 0 0 0 10 34 26 77 82 41
63 71 88 0 0 0 0 0 0 0 0 0 0 0 0
182 184 147 0 0 4 0 0 0 0 0 0 19 3 17
5 0 7 0 0 0 0 0 0 28 32 26 14 12 6
0 0 0 0 0 0 52 39 34 46 49 50 8 13 0
25 24 21 0 0 0 0 0 0 0 0 0 0 0 0
0 0 0 0 0 0 1 0 0 6 2 0 0 0 0
0 0 0 0 0 0 13 10 16 9 16 37 3 0 22
0 0 0 10 20 20 0 0 0 0 6 0 8 0 0
1 0 0 1 1 5 6 3 4 0 7 3 0 0 0
0 0 0 0 0 5 4 4 2 3 3 0 0 4 0
0 0 6 3 0 0 5 1 5 0 0 0 0 3 0
3 0 0 1 0 1 0 0 0 0 0 0 0 0 0
0 0 0 10 1 5 11 5 2 18 8 13 14 9 6
6 0 1 10 0 0 21 5 15 3 4 5 2 1 5
0 5 19 9 10 8 8 3 14 0 0 0 0 0 0
34 12 26 16 51 11 9 2 3 0 5 2 0 3 0
2 0 0 0 0 0 0 0 1 0 0 0 6 0 0
1 0 0 1 12 2 3 0 4 0 6 0 0 0 0
0 6 6 0 0 4 1 11 6 4 2 4 10 7 5
0 0 2 0 0 7 40 40 46 95 96 82 120 116 120
104 93 101 182 176 183 154 153 159 183 163 172 172 169 179
122 114 126 118 105 120 129 124 128 66 73 76 22 34 28
123 133 106 83 76 104 0 0 0 0 0 0 0 0 1
13 7 0 18 23 16 11 16 7 0 1 0 0 0 0
4 3 8 20 16 10 0 12 0 0 0 0 0 0 0
0 0 0 34 29 21 51 33 39 0 0 0 0 0 0
0 0 0 0 0 0 56 51 51 47 39 30 0 0 0
0 0 0 0 0 0 152 137 151 53 45 59 0 0 0
0 0 0 0 0 0 164 159 176 142 142 144 0 0 0
0 0 0 26 40 33 0 5 1 0 0 0 0 2 0
8 0 6 3 0 0 0 0 0 0 2 0 0 0 0
0 0 8 0 0 0 10 0 0 6 3 3 6 3 5
10 4 9 0 0 0 0 0 4 2 0 0 12 15 18
0 0 0 2 0 0 7 4 4 4 0 5 1 6 0
0 0 0 5 0 5 0 8 0 0 0 0 18 24 21
0 0 0 0 0 0 3 0 14 18 16 22 0 0 0
0 0 0 0 0 9 0 0 0 0 0 12 0 0 6
6 0 3 42 38 34 26 24 25 0 2 0 14 2 17
0 0 0 0 0 0 0 6 3 0 0 0 6 15 14
0 0 0 0 0 0 0 0 0 0 0 0 0 0 0
194 198 163 69 69 85 0 0 0 0 0 0 0 0 0
0 0 0 0 0 0 0 2 0 172 180 181 79 70 75
0 0 0 0 0 0 0 0 0 0 0 0 0 0 0
0 0 0 117 116 98 22 0 12 160 231 242 149 138 142
0 0 0 0 0 0 0 0 0 0 0 0 22 21 20
42 24 13 51 49 34 9 0 0 35 21 20 3 0 5
0 0 0 0 0 0 120 167 169 4 9 6 11 43 26
51 39 33 7 14 13 0 0 0 0 0 0 0 0 0
0 0 0 156 197 99 93 91 109 42 54 56 0 0 0
0 0 0 0 0 0 0 0 0 0 0 0 0 0 0
0 0 0 0 0 0 0 0 0 26 18 20 49 39 38
10 4 14 18 14 21 0 0 0 0 0 0 0 0 0
0 0 0 0 0 0 0 0 0 1 0 0 7 3 0
0 0 0 0 0 0 0 0 0 14 5 9 8 6 32
0 0 21 0 0 8 10 22 14 0 0 0 0 1 0
0 0 0 2 0 1 3 2 13 1 0 2 0 0 3
0 0 0 0 0 0 0 0 7 1 1 0 0 0 8
0 0 3 0 0 0 5 3 0 0 0 1 0 3 0
0 0 0 6 0 0 0 0 0 0 3 0 1 1 0
1 1 4 0 0 0 2 5 1 4 2 9 10 12 14
4 1 2 3 4 2 0 0 0 7 3 0 3 7 8
5 0 0 0 0 0 2 0 0 2 4 4 0 0 0
0 0 0 0 0 0 21 12 14 12 13 8 5 2 2
0 0 0 0 0 0 0 0 0 0 0 0 0 0 0
0 4 3 0 0 0 2 3 10 3 0 2 0 6 2
0 0 2 0 8 1 0 0 0 2 5 5 0 0 0
19 19 19 66 58 59 88 95 87 123 110 116 129 123 132
69 66 72 2 0 0 0 0 0 0 0 0 0 0 0
0 0 0 0 0 0 12 5 12 165 161 170 162 161 162
91 88 72 255 255 255 255 255 255 0 0 0 0 0 0
0 0 0 4 5 0 0 0 0 4 0 0 0 0 0
0 0 0 0 9 7 14 4 1 5 0 0 0 0 4
0 0 0 0 0 0 0 2 8 34 32 31 18 13 27
16 1 6 7 0 0 9 5 0 14 17 11 61 64 51
0 0 0 0 0 0 0 0 0 71 64 64 81 74 79
0 0 4 0 0 0 47 47 51 122 131 149 0 0 0
0 0 0 27 23 32 0 0 0 0 0 0 11 17 10
0 0 0 2 3 4 0 4 0 2 0 0 9 0 9
2 8 0 4 4 0 0 0 0 0 0 4 16 0 0
0 11 5 0 5 2 0 0 0 0 1 5 5 6 0
23 15 22 0 6 0 0 2 0 2 5 2 1 0 5
0 2 0 0 6 3 0 0 0 8 0 11 0 0 1
24 32 19 0 0 0 0 0 0 9 7 13 24 24 22
0 0 0 5 5 0 0 0 0 0 0 0 0 0 4
0 0 0 9 15 6 12 22 7 0 0 0 0 0 0
20 25 27 10 15 14 0 0 0 0 6 0 8 0 12
41 50 57 36 28 27 0 0 2 27 22 27 0 0 0
0 0 0 8 11 36 211 217 83 98 110 87 50 67 41
57 75 62 43 55 65 46 57 64 89 91 77 241 235 223
0 0 0 0 0 0 0 0 0 0 0 0 0 0 0
0 0 0 0 0 0 0 0 0 0 0 31 213 231 254
62 87 107 0 0 0 0 0 0 0 0 0 0 0 0
0 0 0 16 20 9 75 69 53 24 0 0 3 2 0
0 0 0 0 0 0 0 0 0 110 139 150 0 70 56
7 51 44 8 14 40 0 0 0 0 0 0 0 0 0
11 22 12 0 0 0 59 49 77 69 50 27 79 64 113
0 0 20 0 0 0 0 0 0 0 0 0 0 0 2
0 0 0 0 0 0 0 0 0 0 0 0 39 11 28
51 23 35 17 0 9 22 0 0 48 29 42 24 12 20
14 0 0 0 0 0 6 0 0 15 13 6 21 7 12
27 19 14 18 11 0 3 8 0 13 0 8 22 9 17
1 14 35 0 0 28 0 0 0 1 4 23 0 0 7
0 5 0 6 0 9 0 3 0 4 4 3 3 0 4
0 1 6 0 0 4 0 0 0 0 0 0 4 4 2
0 0 4 0 0 0 0 2 0 6 0 5 0 0 0
12 10 17 0 7 3 12 0 15 6 5 3 10 13 10
13 12 17 8 6 24 8 2 23 0 0 0 0 0 0
0 0 0 0 0 0 0 0 0 0 0 0 5 0 0
2 8 0 18 0 3 0 0 0 1 0 0 9 0 14
0 0 4 0 0 0 0 0 1 0 0 0 14 38 14
14 12 7 1 6 4 1 1 5 5 0 2 0 0 4
0 0 0 3 5 8 0 0 0 4 2 9 4 0 0
0 6 0 0 0 0 0 0 2 0 0 4 0 0 9
0 0 3 43 47 48 68 68 69 32 35 23 18 14 2
0 0 0 0 0 0 0 0 0 0 0 0 0 0 0
0 0 0 0 0 0 0 0 0 0 0 0 0 0 0
0 0 0 39 45 52 254 255 255 255 255 255 134 121 157
0 0 0 0 0 10 51 43 45 12 20 7 14 13 14
0 0 0 0 0 0 0 0 0 0 12 8 0 0 0
0 0 0 1 18 27 0 0 0 0 0 0 9 6 1
20 13 20 0 0 0 20 4 19 35 36 25 0 0 0
81 71 65 10 0 0 0 0 0 0 0 0 0 0 0
107 74 97 21 0 43 0 0 0 176 177 206 0 12 30
0 0 0 0 0 0 15 10 23 0 0 0 0 0 0
11 24 5 0 1 0 0 12 1 17 5 1 0 4 0
0 1 2 0 7 5 0 3 7 0 0 5 0 3 0
12 3 8 6 0 0 3 0 0 0 0 0 0 0 0
0 3 0 11 10 13 0 0 0 3 0 4 2 10 3
3 3 7 4 0 0 4 0 0 2 0 0 4 0 6
0 0 0 21 22 28 0 0 0 0 0 0 6 5 8
21 21 17 0 0 7 3 3 5 0 0 13 0 0 5
0 0 6 0 0 4 0 0 0 3 8 7 3 0 0
0 0 0 0 0 0 0 0 0 0 0 0 28 37 30
0 0 0 0 0 0 0 0 0 0 0 0 11 15 0
0 0 0 0 0 0 0 0 0 136 149 123 77 95 61
91 96 89 134 144 107 100 101 60 64 53 23 94 88 118
238 237 228 0 0 0 0 0 0 0 0 0 112 102 95
58 69 56 4 0 0 0 0 0 0 0 0 55 70 96
255 255 255 87 103 128 0 0 0 0 0 0 0 0 0
0 0 0 20 12 7 43 34 35 121 120 102 39 35 34
0 0 0 0 0 0 0 0 0 23 2 3 181 250 245
119 151 146 134 174 162 122 145 154 85 94 98 44 43 64
23 6 31 0 0 0 0 0 0 0 0 19 43 75 11
97 94 50 0 0 9 0 0 0 0 0 0 0 0 0
0 0 0 0 0 0 0 0 0 0 0 0 5 0 10
62 35 57 35 21 26 0 0 0 0 0 0 54 27 39
2 0 0 0 0 0 0 0 0 0 0 0 7 0 4
8 0 0 13 0 0 6 0 0 0 0 0 6 0 3
23 5 30 7 3 39 0 0 7 0 0 0 0 0 1
0 0 0 0 0 0 0 0 0 0 0 2 0 0 0
0 0 0 0 0 0 0 0 0 0 0 0 0 0 0
11 2 5 15 6 13 9 0 0 4 0 9 15 3 10
0 0 4 31 30 41 10 11 16 21 4 19 18 11 16
21 20 19 12 9 14 3 6 7 0 0 5 0 0 0
0 0 0 3 0 6 0 0 0 0 0 0 0 0 0
0 0 0 10 0 0 0 0 0 0 0 0 0 0 0
0 0 7 1 0 7 0 0 0 0 0 0 0 0 0
16 55 19 8 15 3 6 0 5 0 1 0 0 0 0
0 0 0 0 0 0 0 0 7 0 0 0 0 0 6
0 0 1 0 4 2 0 0 5 0 2 7 0 0 0
0 0 0 53 54 13 62 69 74 40 40 22 0 0 0
0 0 0 0 0 0 0 0 0 0 0 0 24 0 15
0 0 0 25 8 34 71 59 84 0 0 16 0 0 0
0 0 0 0 0 0 0 0 0 0 0 0 0 0 25
150 138 177 0 0 25 0 0 10 19 6 16 0 0 0
33 23 21 9 10 0 0 0 0 0 8 4 0 0 0
0 0 0 0 1 0 5 9 23 0 0 0 0 0 0
0 0 0 44 46 53 42 32 28 88 73 85 103 102 93
7 9 0 105 96 82 34 38 16 45 26 3 17 1 0
0 0 0 92 62 84 0 0 19 0 0 0 255 255 255
11 14 43 0 0 0 0 0 0 0 0 0 22 29 24
25 22 22 0 0 0 0 0 0 0 0 0 0 0 0
0 0 0 0 0 0 0 0 0 0 0 0 0 0 0
0 0 0 0 0 0 0 4 0 0 0 0 0 0 0
0 0 0 11 8 0 13 21 21 0 0 0 0 0 3
1 0 0 0 3 0 0 2 5 0 2 0 0 0 0
3 1 4 0 2 0 19 23 16 0 0 0 0 0 0
7 7 1 27 27 17 5 5 9 9 6 5 2 0 0
0 0 0 0 0 8 0 0 0 0 0 5 0 2 0
0 0 0 4 0 6 0 0 0 0 0 0 6 0 0
0 7 3 0 0 0 10 6 16 13 4 2 9 6 26
24 10 22 0 0 0 0 0 0 0 0 0 43 23 31
0 0 0 0 0 0 0 0 0 0 0 0 60 123 39
159 255 203 0 0 0 0 0 0 0 0 0 0 0 0
0 0 0 56 38 29 63 38 32 32 16 0 53 25 22
0 0 0 255 248 243 0 0 0 0 0 0 34 35 23
0 0 0 0 0 0 0 0 0 0 0 0 25 15 1
0 0 0 10 2 7 15 9 6 0 0 0 59 16 34
71 40 58 0 0 0 0 0 0 0 0 0 63 36 33
79 141 142 70 53 40 24 39 18 0 23 2 112 123 82
17 35 30 124 123 110 147 214 121 182 176 153 128 120 100
36 67 26 0 0 0 15 0 0 0 0 0 0 0 0
0 0 0 10 15 13 0 0 0 0 0 0 0 0 0
22 24 44 0 0 1 0 0 0 0 0 0 0 0 0
0 0 0 0 0 0 0 0 0 0 0 0 0 0 0
0 0 0 0 0 0 0 0 0 0 0 0 0 0 9
2 0 0 0 0 0 0 0 0 0 0 2 0 0 0
0 0 1 0 0 5 0 0 14 0 0 2 1 13 5
0 3 0 0 0 0 0 0 0 0 0 0 0 2 0
0 0 0 0 0 0 3 2 4 0 0 0 0 13 0
0 12 0 1 0 0 7 11 4 22 21 4 24 26 4
46 52 10 38 34 13 25 39 17 39 50 20 39 43 27
32 53 30 26 52 28 21 48 24 22 40 23 25 41 24
25 47 21 28 38 20 9 18 2 9 15 0 0 18 0
0 3 0 6 11 21 8 23 7 7 15 13 0 0 0
3 3 1 21 15 8 25 11 23 0 0 0 33 18 14
11 15 3 13 0 5 0 0 2 0 0 10 0 0 0
27 8 13 12 8 14 72 68 27 112 126 127 0 0 4
0 0 0 0 0 0 2 0 13 0 0 0 0 0 0
7 0 0 0 0 0 0 3 0 0 0 0 0 0 0
13 11 0 25 27 17 43 44 24 0 0 0 0 0 0
0 0 0 0 0 0 0 0 0 0 0 0 0 0 0
0 0 0 0 0 0 0 0 0 0 0 0 0 0 0
3 0 4 2 6 0 0 0 0 0 0 0 71 68 58
24 31 15 0 0 0 0 0 0 0 0 0 0 0 0
35 28 31 74 74 73 35 38 47 3 4 1 0 0 0
4 2 0 0 0 0 0 0 0 97 108 102 136 144 141
117 125 137 0 0 0 0 0 0 30 17 18 16 13 22
22 29 24 7 0 7 25 15 18 26 23 20 22 15 19
30 19 15 12 18 24 21 25 10 24 30 30 31 43 26
41 40 33 0 0 0 0 0 4 6 8 5 0 0 6
0 0 0 0 0 0 0 0 0 3 1 0 8 0 0
3 10 12 6 5 12 10 11 7 5 0 3 7 0 11
0 2 0 7 10 8 3 4 11 15 22 25 11 13 18
0 0 2 0 0 0 3 3 7 0 0 1 0 0 0
0 16 16 3 15 0 6 15 20 6 15 2 0 0 0
3 0 5 1 4 0 0 0 0 0 0 0 0 0 0
6 0 2 0 8 0 0 0 0 9 14 15 3 0 6
0 0 0 3 5 11 0 0 0 0 0 4 0 0 16
60 35 62 0 0 0 0 0 0 0 0 0 0 0 0
88 93 64 238 240 255 0 0 0 0 0 0 0 0 0
0 0 0 0 0 0 61 41 26 51 27 12 17 0 0
85 69 53 0 0 0 214 204 185 0 0 0 0 0 0
11 26 1 0 0 0 0 0 0 0 0 0 28 33 18
81 66 54 27 30 32 24 4 5 0 0 0 0 0 0
25 0 1 74 39 51 0 0 0 0 0 0 0 0 0
0 0 0 42 11 13 42 19 18 34 39 44 2 16 10
69 96 85 0 0 0 0 0 0 33 43 18 93 87 64
109 111 87 97 118 107 91 92 90 8 0 0 0 0 0
0 0 0 0 0 0 0 0 0 0 0 0 0 0 0
0 0 0 0 0 0 0 0 0 0 0 0 0 0 0
0 0 0 0 0 0 0 0 0 0 0 0 0 0 0
0 0 0 0 0 0 0 0 0 0 0 0 0 0 0
0 0 0 0 0 0 15 19 23 2 11 5 6 0 16
0 0 10 0 0 6 0 0 2 0 0 9 0 0 4
0 3 5 0 3 0 0 0 0 0 0 0 0 0 0
0 6 8 7 0 4 0 5 0 0 0 0 0 0 0
6 7 0 2 10 0 17 5 3 14 11 1 18 9 5
17 14 0 24 27 1 9 3 0 1 11 1 10 4 0
8 6 1 4 9 1 12 14 2 12 12 2 20 28 2
25 32 1 20 35 1 21 43 7 15 38 20 17 28 5
21 39 22 20 41 18 0 0 0 3 20 6 10 14 6
0 0 0 0 0 0 0 10 5 0 0 11 0 0 0
10 13 28 0 0 15 0 0 24 0 0 0 0 0 2
0 0 6 0 2 0 0 0 0 65 62 45 103 96 103
0 0 0 0 0 0 0 0 0 2 0 25 0 0 0
0 6 0 0 0 0 7 6 0 7 14 0 17 10 0
5 16 0 12 11 0 5 0 0 26 21 4 0 0 0
0 12 0 0 0 0 0 3 0 0 2 0 0 7 0
0 0 0 0 6 0 0 0 0 0 0 3 3 0 8
0 6 5 6 6 12 5 0 0 0 3 4 0 0 0
31 25 16 3 4 0 5 8 5 0 0 0 0 0 0
0 2 0 37 32 36 53 48 44 36 38 47 20 20 8
1 0 0 17 8 0 0 0 0 0 0 0 58 56 66
156 186 176 0 0 0 0 0 0 0 0 0 0 0 0
0 0 0 3 0 0 0 0 0 0 0 0 2 0 2
0 0 0 0 0 0 0 0 0 0 0 0 0 0 0
0 0 0 0 0 0 12 6 13 11 5 30 12 7 3
0 0 0 0 0 0 0 0 0 7 0 0 14 22 18
0 0 0 0 0 0 0 0 0 0 0 0 0 0 0
0 0 0 0 0 0 0 0 0 0 0 0 0 0 0
0 0 0 0 0 0 0 0 0 0 0 0 0 0 0
0 0 0 0 0 0 0 0 0 0 0 0 0 0 0
0 0 0 0 0 0 7 0 7 0 0 0 0 0 0
0 0 0 9 0 1 0 12 3 7 0 0 3 15 9
0 0 0 0 0 0 1 0 0 0 0 0 0 0 0
0 1 7 35 4 13 0 0 0 0 0 0 0 0 0
0 0 0 85 96 64 207 225 236 0 0 0 0 0 0
2 15 10 0 0 0 0 0 0 35 15 10 44 51 39
25 14 17 86 78 79 0 0 0 53 52 58 0 0 0
0 0 0 16 18 18 0 0 0 6 0 6 0 0 0
11 16 11 47 39 28 0 0 4 9 0 0 0 0 0
0 0 0 0 0 0 0 0 0 0 0 0 27 45 46
21 0 0 0 0 0 0 0 0 44 25 25 35 105 95
46 44 39 62 70 64 0 0 0 0 0 0 0 0 0
18 6 11 4 0 0 79 83 96 101 179 76 90 107 100
78 107 100 63 69 81 43 60 74 40 47 53 32 41 50
22 30 31 12 27 30 0 15 11 17 42 20 61 69 64
87 99 81 102 110 118 102 139 113 101 132 123 82 113 106
147 159 151 106 117 121 59 87 88 48 68 72 42 58 84
6 24 35 0 0 0 0 0 0 0 0 0 0 0 0
0 0 0 0 0 0 0 0 0 0 0 0 0 0 0
0 0 0 0 0 0 0 0 0 3 0 8 0 0 1
8 0 10 7 1 0 10 6 12 4 5 8 0 0 0
0 0 0 0 0 0 2 4 6 2 8 2 2 14 9
17 23 11 6 21 3 21 18 3 14 5 5 0 7 8
11 12 9 10 18 11 13 7 1 2 6 10 6 9 4
0 0 8 0 5 20 12 5 22 15 8 19 2 15 12
14 8 2 21 23 18 30 22 10 0 0 3 8 19 8
11 21 16 8 9 0 3 0 0 12 16 4 3 0 0
0 0 0 13 9 10 9 0 0 0 5 0 0 1 0
0 0 0 0 0 0 0 9 0 0 0 0 86 88 58
76 71 74 0 0 0 0 0 0 0 0 16 19 10 33
0 0 0 4 1 8 0 0 0 0 0 0 0 0 0
0 0 0 0 0 0 0 0 0 0 0 0 0 0 0
0 0 0 0 2 0 2 0 7 0 0 0 0 0 0
0 0 0 0 0 0 1 0 7 0 1 0 0 12 18
12 9 9 5 4 8 0 5 0 7 8 2 0 18 18
0 0 0 13 5 0 2 5 2 4 7 15 0 0 0
0 0 0 0 0 0 2 0 0 0 0 0 35 18 14
8 6 3 3 0 0 19 18 0 0 0 0 0 0 0
43 46 57 255 255 255 0 0 0 0 0 0 0 0 0
0 0 0 0 0 0 0 0 0 0 0 0 0 0 0
0 0 0 0 0 0 0 0 0 0 0 0 0 0 0
0 0 0 0 0 0 0 0 0 0 0 0 0 0 0
0 0 0 0 0 0 0 0 0 0 0 0 0 0 0
0 0 0 0 0 0 0 0 0 0 0 0 0 0 0
0 0 0 0 0 0 0 0 0 0 0 0 0 0 0
0 0 0 0 0 0 0 0 0 0 0 0 1 0 10
3 7 0 0 0 0 0 0 0 0 0 0 0 0 0
0 0 0 0 0 0 0 5 1 8 0 0 0 6 0
0 0 0 0 0 0 7 0 6 1 6 0 3 0 5
2 0 0 0 0 0 0 0 0 0 0 0 0 0 0
0 0 12 0 0 0 29 10 24 0 0 0 0 1 0
2 0 1 5 5 28 72 116 58 228 235 255 0 0 0
0 0 0 9 14 14 0 0 0 0 0 0 10 10 0
50 44 30 38 24 27 86 74 72 0 0 0 17 25 37
0 0 0 0 0 0 31 54 58 0 0 0 16 16 9
1 0 0 33 29 27 53 44 36 0 2 0 2 0 0
8 9 28 0 0 0 0 0 2 0 0 0 0 0 0
121 143 140 110 105 114 0 0 0 0 0 0 12 7 4
69 103 107 60 81 67 63 81 72 0 0 0 0 0 0
29 26 34 0 0 0 0 0 0 0 0 0 61 63 71
9 13 23 36 66 50 63 93 70 77 135 93 99 162 122
126 198 160 155 207 207 173 195 188 176 243 244 162 240 235
144 225 220 125 211 206 113 179 174 113 136 135 68 109 90
41 72 64 82 96 112 79 87 101 80 96 108 94 124 109
112 133 70 97 117 57 59 62 76 29 45 62 0 0 0
0 0 0 0 0 0 0 0 0 5 0 13 21 10 17
5 17 6 30 54 30 0 0 0 0 6 1 3 0 6
0 0 0 0 1 0 0 0 0 2 8 9 4 12 5
0 0 0 0 0 0 0 2 0 0 0 0 5 2 0
9 7 9 13 7 4 0 7 20 29 23 18 6 0 0
2 12 5 4 9 0 3 0 0 3 8 0 8 1 6
5 11 3 0 0 0 0 0 0 0 0 0 0 0 0
0 0 0 0 0 0 0 0 0 0 0 0 0 0 0
12 9 2 22 16 0 14 7 0 7 12 1 8 12 3
12 12 5 0 0 0 4 3 0 8 0 0 0 0 0
0 0 0 0 0 0 0 8 0 0 8 0 0 0 0
78 90 47 95 85 97 0 0 0 0 0 0 25 3 42
55 50 83 0 0 0 0 0 0 0 0 0 0 0 0
4 0 0 0 0 0 0 0 0 0 0 0 6 0 0
3 2 0 7 0 6 11 3 3 12 19 16 7 0 4
0 0 0 0 0 0 0 0 0 0 10 0 1 0 5
2 5 0 0 0 0 0 7 0 0 1 4 0 11 0
0 9 17 0 0 0 6 0 0 2 0 0 1 7 5
0 0 8 0 0 0 0 0 0 0 0 0 0 0 0
30 33 25 27 18 21 25 2 0 27 24 10 0 0 0
0 0 0 10 14 18 255 255 255 0 0 2 0 0 0
0 0 0 22 30 40 0 0 7 0 1 0 0 0 0
6 19 1 0 0 0 0 0 0 0 0 0 0 0 0
7 3 0 31 22 24 39 52 47 50 55 46 19 28 32
6 10 19 10 9 19 10 11 7 14 11 4 11 16 13
23 15 17 9 23 12 4 11 7 8 12 13 9 6 12
4 14 7 11 13 15 14 11 9 19 13 4 9 16 12
17 14 19 22 31 23 29 14 35 8 12 1 23 21 34
43 40 38 48 39 46 27 44 45 21 6 17 20 31 33
24 30 33 24 30 33 0 0 0 0 2 0 5 0 2
0 3 0 1 0 0 0 5 0 12 8 14 1 2 0
0 0 0 0 0 0 0 0 0 0 0 0 0 0 0
8 0 5 19 21 15 0 0 0 26 12 25 0 0 0
19 15 27 32 22 39 32 27 20 59 121 55 248 237 255
0 0 0 0 0 0 13 19 9 0 0 0 0 0 0
21 3 3 47 34 39 29 9 17 66 53 66 4 0 0
82 79 81 0 0 0 0 0 0 60 61 70 0 0 0
6 0 4 0 0 0 87 87 71 93 87 86 12 18 20
2 0 0 18 22 15 7 0 0 0 0 3 0 0 0
0 0 0 99 110 109 130 107 108 0 0 0 0 0 0
0 0 0 70 62 79 95 116 108 59 63 77 0 0 0
0 0 0 43 48 62 3 0 10 0 0 0 0 0 0
18 29 38 0 0 0 0 9 0 67 55 75 105 108 118
127 114 137 112 105 112 58 59 70 3 6 0 22 13 6
0 0 0 4 0 0 0 0 0 0 0 0 0 0 0
0 0 0 0 0 0 0 0 0 0 0 0 0 0 0
0 0 0 0 0 16 27 43 50 77 69 47 95 99 50
78 75 60 89 96 70 92 87 71 92 89 68 83 82 67
70 69 62 48 46 37 50 64 42 0 0 0 0 0 2
13 0 7 0 3 0 0 0 3 0 0 3 6 3 8
8 6 17 0 0 0 0 0 1 4 5 13 6 0 13
0 4 0 0 0 0 0 3 12 0 0 0 29 25 16
0 0 5 11 0 11 0 0 3 0 1 2 4 0 6
4 0 12 5 4 10 0 0 0 0 0 9 13 6 14
2 1 0 4 0 5 0 0 0 14 0 0 0 0 0
0 0 0 0 0 0 0 18 4 0 7 9 4 10 9
5 17 7 9 12 13 8 11 19 0 0 0 10 10 12
0 2 2 0 2 1 2 0 3 4 0 0 9 0 5
3 0 8 52 68 24 112 107 113 0 1 8 0 0 0
0 0 23 59 62 95 0 0 13 0 0 0 34 35 29
14 22 14 27 20 19 9 16 2 15 13 3 9 22 11
19 19 10 3 10 0 13 18 28 19 12 22 10 19 26
13 10 6 0 0 0 0 0 0 0 0 0 8 12 19
0 0 0 2 0 0 0 0 6 0 0 0 0 0 0
0 0 0 0 0 0 0 0 0 0 0 0 0 0 0
6 10 11 5 19 12 0 0 0 0 0 0 0 0 0
0 0 0 54 48 48 58 51 56 26 17 7 43 29 12
0 0 0 0 0 0 0 0 0 255 255 255 24 21 38
0 0 0 13 5 7 60 49 54 27 22 16 19 9 10
8 0 0 44 52 52 24 11 10 29 37 31 32 40 30
32 38 34 17 22 13 0 0 0 0 0 0 0 0 0
8 19 10 24 22 26 35 35 26 39 33 39 50 44 37
39 42 48 41 32 26 23 23 26 40 33 29 42 31 36
42 34 29 29 30 34 35 28 44 28 25 31 40 30 36
45 40 34 15 19 14 39 52 38 40 29 44 14 22 4
23 18 33 39 43 30 40 37 31 18 22 16 0 0 0
3 1 0 6 0 0 6 0 0 0 0 0 0 1 0
13 4 3 0 1 2 0 0 0 0 0 0 9 2 3
8 13 14 0 0 0 0 0 0 0 0 0 0 0 0
0 0 0 27 25 28 35 41 53 0 0 0 2 0 0
0 0 0 19 17 24 23 24 23 29 24 2 62 120 69
230 213 252 0 0 0 0 0 0 1 3 14 0 0 0
0 0 0 23 11 0 45 28 26 10 1 0 37 27 30
0 0 0 111 110 112 0 0 0 0 0 0 30 50 44
0 0 0 0 0 0 0 0 0 85 67 68 75 80 66
9 0 0 0 0 0 23 30 27 39 23 28 27 39 26
0 0 0 0 0 0 66 81 81 124 99 107 29 28 24
0 0 0 0 0 0 8 16 22 129 155 138 0 0 0
0 0 0 0 0 0 39 43 47 0 0 0 0 0 0
16 27 36 92 98 109 117 152 152 130 123 122 63 62 74
15 17 11 0 0 0 0 0 0 0 0 0 0 0 0
0 0 0 0 0 0 0 0 0 0 0 0 0 0 0
0 0 0 0 0 0 0 0 0 68 55 78 27 17 44
4 12 16 0 3 0 0 0 0 0 0 0 0 0 0
0 0 0 26 25 35 31 33 30 28 21 17 27 33 28
38 35 32 33 25 18 3 1 0 0 8 0 0 0 0
6 11 18 0 0 5 1 0 0 5 0 3 0 0 7
0 0 2 0 1 4 0 0 8 6 8 17 7 5 1
0 0 0 0 0 0 0 0 0 0 0 7 0 0 0
13 2 10 0 0 0 0 0 0 0 0 0 0 2 7
0 0 0 0 0 0 0 0 4 0 0 0 0 0 0
0 0 0 0 0 0 0 0 0 0 0 0 0 0 0
0 0 0 0 0 0 0 2 0 2 7 5 5 0 2
0 11 3 9 27 0 7 22 2 15 22 15 0 0 0
5 4 0 4 0 0 0 0 0 0 0 6 0 0 7
9 0 0 1 6 9 11 12 8 93 84 74 61 56 74
0 0 0 0 0 0 18 8 40 0 0 21 0 0 0
9 0 0 0 0 0 0 0 0 0 0 0 0 0 0
0 0 0 0 0 0 0 0 0 25 34 21 18 18 10
18 10 9 3 13 14 0 0 1 0 0 5 7 0 3
14 23 20 0 0 0 0 2 4 0 0 0 0 0 0
0 0 0 0 0 0 0 3 0 0 1 0 0 0 0
1 0 0 0 6 1 16 8 16 4 10 11 0 0 0
3 0 0 0 0 0 50 35 40 60 55 48 14 1 0
26 20 0 0 0 0 0 0 0 0 0 0 255 255 255
0 0 10 0 0 0 0 0 0 43 44 54 15 23 17
11 15 12 0 0 0 19 26 9 15 12 16 20 23 17
25 11 16 1 6 10 0 0 0 0 0 0 0 0 0
0 0 0 0 0 0 0 0 0 0 0 0 0 3 6
8 6 5 9 3 1 0 0 0 0 0 0 10 17 22
18 18 19 19 21 15 24 17 22 11 25 15 15 22 13
17 17 9 35 21 32 0 0 0 0 4 6 0 0 0
0 0 0 0 0 0 0 0 0 0 0 2 0 0 0
0 0 0 0 0 0 0 0 0 0 0 0 0 0 0
0 4 0 15 8 17 0 6 0 0 5 0 0 0 1
6 12 7 0 0 2 0 6 1 0 0 0 7 3 11
11 16 21 0 0 0 37 37 31 47 51 57 0 0 0
0 0 0 0 0 0 17 12 24 15 23 15 26 13 0
74 99 86 207 208 230 0 0 0 0 0 0 0 0 0
0 0 0 0 0 0 51 33 32 26 22 6 0 0 0
0 0 0 27 28 17 91 77 77 0 0 0 0 0 0
24 39 33 0 0 0 2 0 0 0 0 0 6 0 0
30 42 24 0 0 0 0 0 0 22 17 20 48 31 47
43 53 40 0 0 0 0 0 0 79 76 80 122 103 110
67 65 46 0 0 0 0 0 0 0 0 0 136 147 141
0 0 0 0 0 0 0 0 0 12 1 16 0 0 0
0 0 0 39 46 64 86 98 111 131 96 100 77 45 43
0 0 0 0 0 0 0 0 0 0 0 0 0 0 0
21 0 0 133 102 106 105 81 85 100 67 70 67 33 33
42 5 4 11 0 0 0 0 0 0 0 0 66 39 48
34 21 24 55 45 49 79 76 72 77 67 71 54 49 51
4 4 20 0 0 0 0 0 0 0 0 0 0 0 0
0 0 0 0 0 0 0 0 0 0 0 0 0 0 0
0 0 0 4 0 4 5 0 4 5 3 6 3 0 5
0 0 1 2 0 0 8 0 12 0 0 5 0 0 5
1 2 13 4 0 11 0 0 0 0 0 0 0 0 0
0 0 0 0 0 0 0 0 0 0 0 0 0 0 0
0 0 0 0 0 0 4 0 0 0 0 0 0 0 0
0 0 0 0 0 0 0 0 0 0 0 0 0 0 0
0 0 0 0 0 0 0 0 14 0 5 6 4 0 8
0 0 0 1 0 2 9 10 0 12 19 1 0 16 3
0 3 0 0 7 0 0 9 15 0 0 4 0 2 0
0 1 8 0 6 0 3 10 0 16 11 5 63 64 29
102 111 124 9 26 29 0 0 0 0 0 0 9 8 23
0 0 0 0 0 0 0 0 0 0 0 0 0 0 0
0 0 0 0 0 0 0 0 0 0 0 0 16 23 19
0 7 18 0 2 0 0 0 3 13 5 0 0 8 6
2 4 0 0 5 4 5 0 4 0 8 0 3 0 0
0 0 0 4 0 0 0 2 0 0 0 8 0 1 0
6 0 3 6 0 0 0 0 7 0 4 2 0 0 0
5 0 0 0 1 0 0 0 0 6 0 0 50 36 41
0 0 0 14 0 0 6 0 0 0 0 0 0 0 0
245 255 255 21 7 28 0 0 0 0 0 0 17 13 22
5 0 0 9 2 3 0 0 0 8 10 0 0 0 0
0 0 0 0 0 0 0 0 0 0 0 0 14 14 10
97 92 93 172 166 170 19 20 29 33 28 39 25 15 11
30 8 30 16 17 22 24 20 16 17 22 29 16 14 3
0 0 0 0 0 0 0 0 0 0 0 0 0 0 0
6 0 0 0 0 0 9 7 4 0 0 0 0 0 0
0 0 0 0 0 0 0 0 0 0 0 0 0 0 0
0 0 0 10 6 8 12 6 6 12 6 6 12 6 6
0 0 0 0 0 0 0 0 0 2 2 1 1 2 0
0 0 0 0 0 0 0 0 0 10 7 21 0 0 2
24 23 24 32 40 36 36 18 26 69 66 77 61 52 70
0 0 0 0 0 0 0 0 0 22 29 45 43 23 25
18 4 0 116 141 132 255 255 255 0 0 0 0 0 0
0 0 4 0 0 0 0 0 0 44 42 43 15 4 1
0 0 0 0 0 0 73 72 72 41 43 32 0 0 0
0 0 0 34 38 38 0 0 0 45 42 32 0 0 0
1 0 0 49 55 36 0 0 0 0 0 0 19 9 11
29 24 11 19 14 25 0 0 0 0 0 0 27 29 33
84 61 60 45 33 36 0 0 0 0 0 0 0 0 0
125 123 127 95 110 112 0 0 0 0 0 0 0 0 0
13 3 12 161 151 160 176 188 201 135 155 156 0 0 0
0 0 0 0 0 0 16 0 0 78 45 62 53 27 38
26 0 0 6 0 0 0 0 0 0 0 0 79 35 35
107 86 91 141 90 104 91 59 71 47 2 11 0 0 0
0 0 0 0 0 0 0 0 0 34 28 22 78 74 90
58 63 73 0 0 0 0 0 0 13 17 6 5 9 6
0 0 0 0 0 0 3 0 0 14 21 7 3 6 0
13 15 11 0 0 0 0 0 0 0 0 2 0 0 1
0 0 3 0 0 5 0 3 6 4 6 0 0 0 3
0 0 0 0 4 5 3 0 0 0 0 0 0 0 0
0 0 2 0 0 3 0 0 0 0 0 0 0 0 0
0 0 0 0 0 0 0 0 3 3 0 6 0 0 0
15 15 28 19 18 34 23 14 22 37 27 36 21 19 24
25 25 29 33 18 37 39 31 22 7 13 23 13 32 13
25 19 13 0 7 12 0 14 12 14 18 8 1 18 5
0 3 8 0 0 0 0 0 0 0 0 0 0 0 0
0 0 0 0 0 0 0 0 0 3 5 7 7 42 15
28 44 15 126 128 135 28 37 49 0 0 0 0 0 0
0 0 0 0 0 0 0 0 0 0 0 0 0 0 0
0 0 0 0 0 0 0 12 13 19 21 24 41 41 51
0 0 0 0 0 0 0 0 0 0 0 0 0 0 0
1 4 13 3 0 0 0 0 0 6 0 0 0 0 0
0 0 0 0 0 0 0 0 0 0 0 0 0 4 3
0 8 6 22 18 22 8 6 6 0 0 0 0 0 0
0 0 0 0 0 0 0 2 0 0 0 0 0 0 0
5 20 0 0 0 0 0 0 0 25 17 3 0 0 0
0 0 0 242 255 255 122 101 129 0 0 0 0 0 0
9 11 12 0 0 0 0 0 0 0 0 0 7 13 6
0 0 0 0 0 0 0 0 0 52 49 46 119 115 119
126 129 133 116 89 107 99 88 88 86 94 90 78 76 71
29 21 21 0 0 0 0 0 0 0 0 0 0 0 0
0 0 0 0 0 0 0 0 0 0 0 0 0 0 0
0 0 0 0 0 0 0 0 0 0 0 0 4 9 3
23 23 11 10 10 18 0 0 0 9 9 9 37 37 31
43 41 33 26 18 3 0 0 0 0 0 0 0 0 0
2 2 0 18 15 9 30 32 18 18 12 6 0 0 0
0 0 0 0 4 0 20 26 31 26 30 21 0 0 0
0 0 0 0 0 0 0 0 0 0 0 0 0 0 0
0 0 4 9 1 12 9 10 16 0 0 0 0 0 0
72 50 37 26 76 18 194 231 221 68 59 82 0 0 0
0 0 0 0 0 0 0 0 0 24 17 7 41 24 23
0 0 0 5 0 0 24 5 20 39 41 39 75 60 61
0 0 0 0 0 0 41 47 41 0 0 0 0 0 0
0 0 0 39 21 27 0 0 0 31 25 20 0 0 0
38 28 35 62 65 64 0 0 0 0 0 0 0 0 0
67 71 74 123 112 101 44 24 23 0 0 0 0 0 0
0 0 0 119 170 164 37 79 91 10 11 20 0 0 0
15 17 29 108 85 103 158 146 154 5 14 32 0 0 0
0 0 0 0 0 0 4 16 18 0 0 0 0 0 0
0 0 0 0 0 0 0 0 0 19 1 0 0 0 0
0 0 0 0 0 0 0 0 0 25 9 6 96 71 72
85 72 85 78 54 32 0 0 0 0 0 0 0 0 0
0 0 0 60 72 65 143 160 170 76 86 99 5 24 34
0 0 2 0 0 0 0 0 0 0 0 0 9 8 16
34 14 33 31 36 45 11 9 19 9 9 8 0 0 0
0 0 0 0 0 0 0 0 0 0 0 13 0 0 0
23 23 31 11 4 6 0 0 0 1 2 2 15 10 25
23 14 26 6 7 12 0 0 0 0 0 0 0 0 0
0 0 0 6 0 13 11 8 10 15 8 7 2 7 15
0 0 0 0 0 0 14 19 15 27 39 37 13 15 12
6 8 6 36 40 26 40 34 31 13 18 19 6 4 14
0 0 0 0 3 3 11 7 3 17 11 17 20 29 17
22 33 14 21 39 8 9 7 7 25 41 13 30 62 17
34 32 22 34 32 24 30 48 32 27 72 19 49 75 39
98 112 115 150 147 171 251 252 255 251 252 255 64 66 71
0 0 0 42 46 58 120 122 125 31 37 39 33 42 47
5 5 15 0 0 0 0 0 9 0 17 16 11 25 20
35 34 41 13 23 9 2 1 5 0 0 0 0 0 0
0 0 0 0 0 0 0 0 0 0 2 0 0 0 0
31 29 26 27 33 35 0 0 0 0 0 0 9 13 3
1 5 1 0 0 0 0 0 0 0 0 0 7 26 13
0 4 9 0 0 0 0 0 0 0 0 0 0 0 0
2 10 2 7 8 0 3 0 0 0 0 0 33 26 17
0 0 0 0 0 0 250 255 255 81 53 82 0 0 0
0 0 0 0 0 0 0 0 0 10 9 16 33 33 26
0 0 0 0 0 0 164 164 151 244 241 233 88 84 90
0 0 0 0 0 0 0 0 0 0 0 0 0 0 0
0 0 0 0 0 0 0 0 0 11 3 13 3 3 2
9 0 7 15 21 9 0 0 0 16 10 13 19 4 4
0 2 1 6 10 2 2 2 0 4 0 3 0 3 3
0 0 0 0 0 0 0 0 0 0 0 0 0 0 0
0 0 0 0 0 0 0 0 0 0 0 0 0 1 0
0 0 0 0 0 0 0 0 0 9 11 6 13 23 18
0 0 0 0 0 0 14 13 13 29 17 18 16 10 11
0 0 0 0 0 0 5 0 0 0 0 2 14 6 24
34 30 49 25 12 23 4 0 19 0 0 0 0 0 0
0 0 0 41 24 48 62 81 75 231 206 229 0 0 0
0 0 0 5 11 21 0 0 0 0 0 0 65 71 56
96 86 78 6 7 0 14 0 17 17 5 14 33 35 27
59 55 41 0 0 0 0 0 0 28 39 22 0 0 0
0 0 0 0 0 0 38 40 21 6 0 0 24 29 24
0 0 0 44 35 38 77 75 72 0 0 0 0 0 0
0 0 0 71 75 62 93 89 84 10 0 0 0 0 0
0 0 0 0 0 0 138 124 129 23 40 58 1 0 1
59 55 68 137 137 157 96 95 103 1 1 18 0 0 0
0 0 0 0 0 0 21 20 9 24 3 18 6 4 11
4 0 3 4 0 0 0 0 0 0 0 0 8 0 0
0 0 0 0 0 0 0 0 0 0 0 0 0 0 0
25 15 24 0 0 0 109 81 56 48 20 0 34 29 6
0 0 0 0 0 0 0 0 0 64 72 95 53 76 91
16 33 49 7 11 12 0 3 11 0 4 0 0 0 0
0 0 0 0 0 0 20 3 4 8 11 23 7 3 9
0 0 0 0 0 0 0 0 2 0 1 0 0 0 1
0 0 0 2 5 13 0 0 0 0 0 0 0 0 0
0 0 8 0 2 2 0 0 0 0 0 0 0 0 0
0 0 0 0 0 0 0 6 0 0 3 4 1 1 0
0 0 0 0 0 0 8 0 11 1 6 10 0 0 12
0 0 0 0 0 0 0 0 0 6 11 1 6 4 4
0 0 0 11 9 21 24 18 22 0 0 0 0 0 0
0 0 0 0 0 0 11 25 5 6 69 3 12 79 9
14 68 15 11 58 19 13 89 29 37 117 72 87 130 82
140 173 144 0 0 0 0 0 0 0 0 9 20 32 43
0 0 0 0 0 0 13 24 28 41 41 42 34 40 44
26 37 27 8 3 13 0 0 0 0 0 0 0 0 0
0 0 0 0 0 0 0 14 3 0 1 0 0 0 0
0 8 5 0 0 0 0 0 0 0 0 0 0 0 0
0 0 0 0 1 1 0 0 0 0 0 0 0 0 0
25 34 30 14 21 21 0 0 0 21 14 15 0 0 0
0 6 7 0 0 0 0 0 0 3 22 10 16 11 1
0 0 0 0 0 0 0 15 0 13 0 0 0 0 0
31 13 5 0 0 0 0 0 0 255 255 255 31 19 41
0 0 0 0 0 0 67 61 63 8 7 7 0 0 0
34 28 23 0 0 0 41 42 39 116 117 111 57 45 56
0 0 0 13 6 5 7 4 10 0 0 0 64 43 56
0 0 0 1 15 9 1 0 12 0 2 0 6 0 6
0 0 0 3 0 0 0 4 10 0 0 0 0 0 0
0 0 4 0 1 0 2 0 4 0 0 0 0 0 4
4 0 0 16 12 7 17 11 0 12 6 0 15 10 0
16 13 6 19 9 7 17 4 0 18 26 18 2 5 0
15 8 13 12 6 6 9 3 3 0 0 0 0 0 0
3 13 0 1 0 1 0 0 0 0 2 13 7 7 12
0 0 5 0 0 0 0 0 0 0 0 0 1 9 17
52 41 44 38 45 47 6 2 12 0 0 0 0 0 0
0 0 0 4 0 0 21 0 13 120 119 125 144 137 136
0 0 0 0 0 0 0 3 0 0 0 0 0 0 0
67 64 65 106 97 84 11 8 0 10 2 21 19 7 14
43 44 49 46 39 37 0 0 0 0 0 0 19 51 31
0 0 0 0 1 0 0 0 0 24 26 25 0 0 0
7 1 0 0 0 0 45 45 41 74 78 75 0 0 0
0 0 0 0 0 0 73 86 72 76 60 52 0 0 0
0 0 0 0 0 0 0 0 0 84 78 80 25 24 32
22 50 50 107 149 159 159 144 158 7 0 0 0 0 0
0 0 0 0 0 0 0 0 0 0 2 0 0 0 0
0 0 0 0 0 0 0 0 0 0 0 0 0 0 0
0 0 0 0 0 0 0 0 0 0 0 0 0 0 0
0 0 0 0 0 0 0 0 0 149 112 106 96 54 41
75 57 36 14 9 0 0 0 0 0 0 0 0 0 0
39 46 62 99 112 119 34 33 64 23 26 48 4 8 26
0 0 0 0 0 0 0 0 0 0 0 0 5 8 6
5 2 5 0 0 2 7 4 4 2 7 12 0 0 0
0 0 1 0 0 0 0 0 0 0 0 0 0 0 0
0 0 0 0 0 2 5 2 9 0 0 0 0 0 0
0 0 0 2 8 3 0 2 12 7 3 5 6 0 14
0 0 0 0 0 8 0 0 0 0 0 0 3 8 0
6 0 0 0 0 0 0 0 0 0 0 0 0 0 0
0 0 0 0 0 0 0 0 0 0 0 0 0 0 0
4 7 14 52 62 44 49 78 37 64 85 56 87 62 96
101 89 115 106 94 122 132 122 147 167 150 165 144 125 152
40 44 53 28 53 48 0 0 0 0 0 0 0 0 0
0 0 0 0 0 0 0 0 0 25 28 40 9 0 0
39 33 42 27 29 31 22 12 23 0 6 4 10 2 10
7 8 3 12 5 7 17 0 11 18 22 14 8 16 14
29 15 17 38 39 42 42 29 31 0 11 0 0 0 0
2 1 0 0 0 0 0 0 0 0 0 0 0 0 0
3 15 25 42 68 52 18 38 23 0 0 0 29 35 33
0 0 0 0 0 0 0 0 0 0 0 2 34 28 35
20 38 27 0 0 0 0 0 0 10 26 7 15 6 0
0 2 0 0 0 0 0 0 0 24 24 44 255 255 255
0 0 0 0 2 17 15 21 30 32 34 29 9 16 13
0 0 2 17 19 20 0 0 0 193 189 192 75 78 77
0 0 0 0 0 0 14 4 11 31 21 24 7 0 12
33 25 45 22 40 27 33 41 21 37 28 29 38 35 26
45 32 41 22 28 22 37 36 32 44 51 49 22 17 16
40 31 25 42 25 33 27 32 22 31 28 34 32 35 34
31 30 29 27 34 17 18 24 17 25 33 27 20 28 22
23 32 19 24 24 28 27 30 20 25 24 21 38 43 41
7 8 0 22 25 23 19 22 13 15 18 9 0 0 0
7 4 4 8 13 3 4 2 0 0 2 0 1 0 0
4 0 3 0 0 0 0 0 0 0 0 0 0 0 0
37 39 37 60 47 55 0 0 0 0 0 0 0 0 0
0 0 0 0 0 0 41 6 9 32 50 52 184 207 203
60 55 54 0 0 0 0 0 2 0 0 0 0 0 0
0 0 0 3 10 0 49 43 40 0 0 0 0 0 0
10 0 0 49 57 45 29 17 21 0 0 0 0 0 0
22 47 27 0 0 0 1 0 0 3 0 0 26 18 9
0 0 0 0 0 0 0 0 0 58 57 56 69 69 59
0 0 0 0 0 0 0 0 0 97 103 99 62 46 43
0 0 0 17 1 10 0 0 0 0 0 0 91 61 69
48 102 113 106 124 133 136 116 132 0 0 0 0 0 0
0 0 0 52 34 40 0 0 0 0 0 0 0 1 0
0 0 0 0 0 0 0 0 0 0 2 0 0 0 0
0 0 0 0 0 0 0 8 0 6 6 0 0 0 0
0 0 0 0 0 0 0 0 0 0 0 0 118 79 78
64 25 16 69 48 42 63 51 33 16 4 0 0 0 0
0 0 0 0 0 0 127 118 140 61 59 78 41 49 70
0 0 17 0 0 0 6 12 16 9 0 1 0 0 0
0 0 0 0 0 0 0 0 0 4 0 0 9 14 18
11 8 10 0 0 1 0 0 2 0 0 0 0 0 0
0 0 6 0 0 0 0 0 0 0 0 0 0 0 0
7 13 12 0 0 3 18 1 5 0 5 10 1 7 1
4 7 13 10 19 4 15 15 10 3 6 5 0 0 0
0 0 0 0 0 0 13 2 20 18 26 14 41 41 43
45 54 43 44 56 44 13 10 18 25 32 22 39 58 46
58 77 79 128 126 123 157 179 135 119 123 139 76 76 86
0 0 0 0 0 0 0 0 0 0 0 0 0 0 0
0 0 0 0 0 0 0 0 0 0 0 0 0 0 0
0 0 0 0 0 0 0 0 0 0 0 0 12 2 1
0 0 0 0 0 0 6 0 0 10 0 3 14 5 12
28 14 20 37 34 34 54 29 42 55 40 36 14 21 10
14 6 0 25 14 22 47 32 33 31 33 41 7 0 5
0 0 0 14 8 7 0 0 0 0 9 0 0 0 0
0 0 0 0 0 0 43 57 59 11 27 27 0 0 0
22 30 35 0 0 0 0 0 0 0 0 0 0 0 0
11 18 4 21 28 24 0 0 0 0 9 2 13 34 29
19 13 0 1 6 0 0 0 0 0 0 0 75 87 95
252 255 255 0 0 0 15 10 31 13 3 13 0 0 0
24 14 28 0 0 0 0 0 0 0 0 0 177 155 173
0 0 0 0 0 0 17 21 24 0 3 0 2 5 5
42 40 44 0 0 0 23 29 19 18 33 20 25 25 31
20 26 22 29 26 37 27 25 20 35 18 22 36 36 41
17 16 8 23 37 28 25 31 33 28 28 22 31 21 33
29 33 31 27 28 28 28 25 21 15 9 12 16 19 9
19 5 0 13 18 11 15 17 1 18 22 12 16 7 12
26 36 30 3 0 0 7 7 7 14 11 5 9 6 0
5 8 14 2 5 10 0 8 4 1 0 0 0 0 0
0 0 0 0 0 3 0 0 0 40 33 50 0 9 8
29 26 25 21 26 29 0 0 0 0 0 0 0 0 0
29 15 37 45 42 52 91 103 89 36 51 46 23 136 124
255 255 255 0 0 0 0 0 0 7 11 11 0 0 0
0 0 0 0 0 0 17 2 0 73 62 65 0 0 0
0 0 0 5 0 0 65 71 68 16 17 18 0 0 0
0 0 0 25 38 41 0 0 0 0 2 0 10 8 8
3 6 6 0 0 0 0 0 0 0 0 0 56 64 62
49 47 40 0 0 0 0 0 0 0 0 0 100 109 96
67 60 52 0 0 0 28 16 32 0 0 0 0 0 0
119 84 84 124 254 249 129 109 111 0 0 0 0 0 0
0 0 0 71 60 55 122 96 94 12 5 0 0 0 0
0 0 0 0 0 0 0 0 0 0 0 0 1 14 11
4 8 10 0 4 0 0 0 0 0 0 0 0 0 0
0 0 0 0 0 0 0 0 0 0 0 0 0 0 0
40 3 7 0 0 0 8 0 0 88 68 61 119 98 85
5 0 0 0 0 0 0 0 0 12 0 0 53 40 38
83 93 109 41 30 44 0 0 0 7 25 28 8 20 0
0 0 0 0 0 0 0 0 0 0 0 0 0 0 0
12 17 9 25 23 14 7 10 12 16 16 25 0 0 0
0 1 0 0 0 0 0 0 0 8 0 12 0 7 4
11 4 18 35 38 34 0 0 0 0 0 0 0 0 0
3 0 0 1 0 0 8 0 4 10 0 3 0 0 0
28 36 32 0 1 1 0 0 0 0 0 0 0 0 0
0 0 0 0 0 0 2 0 0 47 48 58 81 96 91
100 94 104 49 53 63 14 18 34 0 0 6 0 0 0
0 0 0 0 0 0 0 0 0 0 0 0 0 0 0
0 0 0 0 0 0 0 0 4 26 4 41 17 0 6
18 2 1 35 26 20 24 19 24 0 0 0 0 0 0
34 21 25 23 18 0 15 9 6 22 11 11 15 8 8
16 10 7 9 10 2 0 0 0 6 0 0 7 0 3
3 10 10 0 0 0 0 0 0 16 14 4 21 16 19
10 1 0 9 0 0 37 37 18 25 13 6 29 20 20
6 0 0 0 0 0 0 0 0 14 12 12 0 1 0
0 0 0 50 35 46 27 8 14 2 5 5 0 0 0
0 0 0 0 0 0 0 0 0 0 0 0 0 0 0
1 0 0 11 0 0 0 10 0 0 0 0 0 0 0
125 130 152 255 255 255 0 0 0 0 0 0 0 0 0
0 0 0 0 0 0 0 0 0 9 5 15 91 111 101
0 0 6 0 0 0 0 0 0 44 34 39 0 0 0
0 0 0 15 18 36 0 0 0 0 0 0 0 0 0
0 0 0 0 0 0 0 0 0 0 0 0 0 0 0
0 0 0 0 0 0 0 0 0 0 0 0 0 0 0
0 0 0 0 0 0 0 0 0 0 0 0 0 0 0
0 0 0 0 0 0 0 0 0 0 0 0 0 0 0
0 0 0 0 0 0 0 0 0 0 0 0 0 0 0
0 0 0 0 0 0 0 0 0 0 0 0 0 0 0
0 0 0 0 0 0 0 0 0 0 0 0 0 0 0
0 0 0 0 0 0 0 0 0 0 0 0 0 0 0
48 27 40 99 133 72 104 149 132 135 139 135 114 80 80
156 159 155 255 250 242 0 0 0 0 0 0 0 0 0
0 2 9 9 8 8 0 0 0 64 65 48 137 134 122
26 20 6 0 0 0 15 0 10 72 76 81 5 1 4
0 0 0 0 0 0 34 40 40 0 0 0 4 3 0
21 9 0 14 6 14 0 0 0 0 0 0 0 0 0
79 73 67 14 26 12 0 0 0 0 0 0 0 0 0
90 96 79 65 59 58 0 0 0 33 4 12 0 0 0
0 0 0 150 140 152 255 255 255 0 6 0 0 0 0
0 0 0 42 30 16 53 50 42 17 0 0 0 0 0
0 0 0 0 0 0 0 0 0 0 0 0 0 0 0
2 1 0 0 5 0 0 8 0 0 0 0 0 0 0
0 0 0 0 0 0 0 0 0 0 0 0 0 0 0
0 0 0 0 0 0 0 0 0 0 0 0 51 41 35
143 107 108 78 58 41 0 0 0 0 0 0 0 0 0
0 0 0 95 98 118 73 84 101 23 38 49 12 22 30
9 17 1 3 15 5 0 0 0 0 0 0 0 0 0
0 0 0 7 1 13 27 27 29 15 19 7 26 29 23
0 0 0 8 9 7 10 14 11 3 8 11 0 2 0
0 1 0 2 12 0 61 52 43 0 0 0 0 0 0
0 0 0 0 0 0 0 0 0 0 0 0 0 0 0
0 0 0 50 51 48 34 21 28 46 36 52 65 63 65
67 64 74 45 40 54 20 30 21 62 78 74 52 45 51
19 26 20 0 0 0 0 0 0 0 0 0 0 0 0
0 0 0 0 0 0 0 0 0 0 0 0 0 0 1
18 0 20 19 0 33 0 0 0 0 0 0 0 0 0
0 0 0 0 0 0 9 0 5 1 1 0 7 0 0
25 15 15 17 11 4 0 0 0 0 0 0 1 11 0
14 1 0 11 2 0 0 0 0 0 0 0 0 0 0
0 0 0 9 13 11 0 0 0 0 0 0 0 0 0
8 0 4 0 0 0 6 9 4 38 40 39 7 5 11
46 38 46 31 30 32 0 0 0 0 0 0 0 0 0
0 0 6 0 0 0 60 63 64 53 57 48 41 49 63
0 0 0 0 0 0 0 0 0 0 0 0 0 0 0
0 0 0 0 0 0 0 0 0 0 0 0 0 0 0
0 0 0 127 144 149 255 255 255 0 0 0 0 0 0
0 0 0 0 0 0 0 0 0 0 0 0 175 174 180
39 32 45 0 0 0 0 0 0 0 0 0 0 0 0
0 0 0 0 0 0 0 0 0 1 4 13 0 0 0
0 0 0 0 0 0 0 0 0 0 0 0 0 0 0
0 0 0 0 0 0 0 0 0 0 0 0 0 0 0
0 0 0 0 0 0 0 0 0 0 0 0 0 0 0
0 0 0 0 0 0 0 0 0 0 0 0 0 0 0
0 0 0 0 0 0 0 0 0 0 0 0 0 0 0
0 0 0 0 0 0 0 0 0 0 0 0 0 0 0
0 0 0 0 0 0 0 0 0 0 0 0 0 0 0
0 0 0 0 0 0 0 0 0 0 0 0 0 0 0
42 23 40 63 51 50 103 159 142 49 49 51 0 0 0
0 0 0 46 70 59 105 137 128 0 0 0 0 0 0
0 0 0 0 25 30 7 26 35 0 0 0 76 72 62
161 140 140 29 25 11 1 0 0 27 2 5 85 84 86
5 0 0 0 0 0 0 0 0 35 54 45 0 0 0
13 8 12 8 8 12 5 0 10 0 0 0 11 0 11
0 0 1 77 60 72 3 0 1 0 0 0 0 0 0
12 8 0 55 63 38 42 35 39 0 0 0 22 0 14
0 0 0 0 0 0 207 206 228 0 0 24 0 0 0
0 0 0 27 34 42 92 70 62 0 0 0 0 0 0
0 0 0 0 0 0 0 0 0 0 0 0 0 0 0
0 0 0 0 0 0 0 0 0 0 0 0 16 28 25
0 11 0 0 9 0 2 8 0 23 18 12 20 19 17
0 0 9 0 0 0 0 0 0 0 0 0 0 0 0
0 0 0 31 17 0 67 62 41 76 52 31 40 32 0
0 0 0 0 0 0 0 0 0 68 51 70 44 81 97
31 24 17 0 0 0 6 19 23 60 42 56 32 13 42
0 0 0 0 0 0 0 0 0 12 14 9 13 10 10
26 31 26 0 0 0 11 13 18 25 4 1 16 0 2
13 0 0 8 0 1 22 10 3 34 26 32 0 0 0
0 7 2 3 0 0 0 0 0 0 0 0 0 0 0
0 0 0 0 0 0 5 13 31 3 0 0 32 36 42
93 101 98 137 140 141 136 140 140 132 145 148 211 232 220
12 0 0 0 0 0 0 0 0 0 0 0 0 0 0
0 0 0 12 0 16 0 0 11 55 31 72 33 14 32
23 0 10 24 1 17 12 0 0 0 0 0 0 0 0
39 34 23 0 0 0 0 0 0 9 0 0 0 0 0
0 0 0 14 6 0 3 0 0 0 0 0 0 0 0
0 0 0 2 0 0 3 7 0 0 0 2 1 0 0
11 0 15 20 15 28 4 10 14 0 0 0 0 0 0
0 2 8 5 3 2 0 0 0 18 3 7 51 35 28
0 0 0 50 43 36 50 41 34 7 0 0 7 0 0
26 27 17 29 12 18 0 0 0 36 29 28 43 55 40
49 52 63 1 8 0 0 0 0 19 42 32 35 24 33
0 0 0 0 0 4 0 0 0 15 4 0 0 0 0
0 0 0 0 0 0 68 69 85 183 206 204 0 0 0
0 0 0 31 39 41 0 0 0 0 0 0 93 99 107
201 196 204 0 0 0 0 0 0 0 5 7 0 0 0
0 0 0 0 0 0 0 0 0 0 0 0 1 7 6
0 10 0 6 10 0 13 8 1 0 6 0 10 1 0
0 6 0 0 0 0 0 5 0 4 1 0 0 9 0
9 0 0 0 8 1 4 6 12 0 8 0 0 3 0
0 7 0 0 0 14 0 0 2 0 0 0 0 0 0
0 0 0 0 0 0 0 0 0 0 0 0 0 0 0
0 0 0 0 0 0 0 0 0 44 41 35 50 49 36
99 101 96 155 157 160 174 168 183 144 152 150 152 144 151
153 154 158 139 150 155 117 130 111 98 104 102 93 73 74
107 84 40 37 90 18 62 58 86 185 181 180 0 0 0
0 0 0 0 0 0 0 0 0 0 0 0 0 0 0
0 0 0 0 0 0 17 43 50 11 26 34 0 0 0
30 34 20 129 130 107 20 2 0 0 0 0 20 0 0
107 104 108 0 0 2 0 0 0 0 2 0 17 28 29
0 0 0 0 0 0 7 0 5 22 11 16 38 23 35
34 18 21 34 25 33 108 90 101 28 21 24 0 0 0
0 0 0 65 57 53 72 61 50 59 41 56 11 0 2
49 21 55 30 12 36 64 54 91 255 255 255 0 0 0
0 0 0 0 0 0 72 61 71 58 57 41 0 0 0
8 0 0 24 2 0 0 1 0 15 20 16 14 22 19
20 20 6 0 6 0 0 4 0 0 4 0 0 2 0
11 23 25 0 9 6 0 0 0 0 0 0 0 0 0
0 0 0 0 0 0 0 0 0 0 0 0 0 4 0
28 46 39 10 19 22 0 0 0 94 58 56 154 133 119
154 134 114 2 0 0 0 0 0 0 0 0 49 47 45
76 155 168 16 73 52 9 0 0 12 11 25 80 138 35
74 62 54 0 0 0 0 0 0 0 0 0 0 0 0
0 0 0 11 0 11 0 0 0 0 2 3 9 4 11
0 5 0 0 0 0 0 0 0 13 10 8 18 16 12
77 76 81 45 39 62 11 12 33 0 0 0 0 0 0
0 0 0 0 3 1 1 0 0 0 0 0 0 0 0
0 0 0 0 0 0 0 0 0 0 0 0 0 0 0
33 52 48 18 0 12 3 0 0 0 0 0 22 4 17
57 40 64 25 0 32 13 0 23 39 14 51 12 0 28
0 0 0 0 0 0 11 4 5 25 4 11 0 0 0
0 0 0 0 0 0 0 0 0 5 14 10 41 19 23
0 0 0 0 0 0 0 0 0 22 18 9 46 39 29
0 0 0 6 14 0 14 11 2 3 13 0 4 0 0
0 0 0 7 10 26 33 23 41 12 20 22 0 7 13
1 0 0 14 18 21 11 8 10 0 0 0 0 0 0
13 17 14 0 0 0 22 5 12 43 31 34 29 15 12
28 25 29 46 36 35 23 0 10 0 0 0 0 0 0
14 15 9 40 49 54 19 41 30 53 55 61 122 135 142
105 110 101 35 54 41 0 0 0 0 0 0 0 0 0
0 0 0 0 0 0 0 0 0 0 0 0 35 34 44
0 0 0 0 0 0 0 0 0 0 0 0 143 142 145
98 112 119 46 59 63 0 0 0 0 0 0 0 0 0
13 9 21 0 0 4 0 0 0 17 26 21 25 19 23
0 0 0 0 0 0 0 0 0 0 0 0 0 0 0
0 0 0 0 0 0 0 0 0 0 0 0 0 0 0
0 0 0 1 0 0 0 4 0 0 0 0 0 0 0
0 0 0 0 0 0 15 9 38 0 6 24 16 9 24
0 8 0 0 0 0 0 0 0 0 0 0 0 0 0
0 0 0 0 0 0 0 0 0 0 0 0 26 20 29
0 0 0 0 0 0 0 0 0 0 0 0 0 0 0
0 0 0 0 0 0 0 0 0 5 0 0 0 0 5
38 32 48 64 129 13 19 92 19 144 206 200 25 27 26
0 0 0 0 0 0 0 0 0 64 20 22 122 90 74
172 131 107 65 44 30 0 0 0 0 0 0 0 0 0
0 0 0 20 15 19 14 15 18 0 6 10 2 0 0
22 19 11 121 125 131 0 0 0 0 0 0 0 9 0
29 36 28 60 68 59 74 72 68 13 4 5 0 0 0
0 0 0 0 0 0 20 26 20 51 48 51 0 0 0
0 0 0 0 0 0 24 0 13 0 0 0 23 23 25
0 0 0 0 0 0 0 0 0 0 0 0 0 0 0
0 0 0 0 9 0 26 44 34 0 0 0 0 0 0
0 0 0 0 0 0 25 11 9 0 0 0 0 0 0
0 0 0 0 0 0 0 0 0 0 0 0 0 0 0
0 0 0 9 1 0 8 3 0 4 0 3 8 11 1
11 0 3 11 9 10 12 18 20 28 33 29 0 0 0
0 0 0 0 0 0 0 0 0 0 0 0 8 7 5
11 8 3 187 172 163 0 0 0 0 0 0 0 0 0
0 0 0 119 74 76 34 112 114 20 63 44 0 0 0
0 0 0 0 0 0 103 99 86 42 37 22 0 0 0
64 56 53 27 26 32 0 2 0 14 28 22 9 7 14
0 0 0 0 0 0 0 0 2 0 0 0 0 0 0
0 0 0 15 27 19 0 0 0 3 16 0 77 85 40
77 75 59 0 0 0 0 0 0 7 13 5 84 94 85
190 177 183 109 98 92 0 0 0 0 0 0 0 0 0
0 0 0 80 81 82 0 0 0 0 0 0 0 0 0
0 0 0 0 0 0 0 0 0 0 0 0 0 0 0
33 39 9 32 29 0 8 14 0 0 0 0 0 0 0
0 0 0 2 0 0 0 2 0 0 0 0 0 12 0
2 0 0 0 0 0 0 0 0 0 0 0 0 0 0
0 0 0 0 0 0 0 0 0 0 0 0 3 1 0
0 0 0 0 0 0 4 2 0 27 21 14 0 0 0
1 0 0 0 0 0 0 0 0 0 0 0 0 0 0
20 18 17 42 36 38 22 19 23 11 9 2 0 0 0
0 0 0 0 0 0 2 0 0 20 22 23 44 49 47
34 21 31 0 0 0 0 0 0 0 0 0 18 3 2
37 30 33 51 49 41 123 102 107 33 18 13 130 117 101
62 52 51 13 10 0 33 20 31 0 0 0 0 0 0
242 226 246 87 88 119 0 13 32 47 31 50 0 0 0
142 122 138 64 54 60 0 0 0 0 0 0 6 0 0
1 4 3 26 27 11 31 38 40 17 17 16 0 0 0
0 0 0 30 21 38 0 0 0 0 16 0 9 19 21
4 11 17 0 8 0 0 1 6 4 11 12 14 20 16
0 0 0 0 5 0 0 0 6 0 3 0 0 1 0
0 1 0 0 3 0 0 0 0 6 8 14 22 34 39
0 0 0 0 0 0 43 30 42 76 75 86 12 8 28
0 0 0 27 26 37 8 11 15 4 0 3 0 0 0
0 9 6 0 0 0 0 0 0 0 6 0 0 0 7
0 0 0 0 0 13 34 23 23 0 0 0 10 0 0
0 0 0 0 0 0 70 65 39 65 79 61 151 172 189
0 0 0 0 0 0 0 0 0 27 0 0 62 24 31
92 47 45 97 57 56 22 2 0 0 0 0 0 0 0
0 0 0 11 0 0 34 37 42 46 41 38 6 11 9
0 0 0 17 21 9 41 37 44 0 0 0 0 0 0
0 3 0 2 5 3 14 20 19 54 45 33 30 34 18
0 0 0 0 0 0 0 0 0 32 43 35 60 73 71
0 0 0 0 0 0 11 55 37 0 0 0 0 0 0
0 0 0 0 0 0 0 0 0 0 0 0 0 0 0
0 0 0 0 0 0 28 19 0 26 36 19 9 27 9
0 0 0 0 0 0 0 0 0 23 7 9 0 1 0
0 7 10 4 0 0 6 4 0 0 0 0 2 0 0
2 0 0 0 0 0 13 5 7 0 7 0 2 0 3
0 4 0 6 0 0 9 0 5 1 0 3 15 13 12
0 0 0 17 10 3 0 0 0 0 0 0 30 18 20
36 30 37 34 23 24 128 115 112 39 52 29 0 0 0
0 0 0 0 0 0 6 0 0 105 86 75 30 128 108
11 9 7 0 2 0 0 0 0 42 40 33 0 0 0
0 0 0 24 25 24 1 0 0 0 0 0 0 8 11
0 0 0 0 0 3 0 0 2 0 0 0 0 0 0
0 1 0 0 0 0 0 0 0 0 0 0 33 48 46
39 45 43 11 13 29 0 0 0 0 0 0 35 44 41
68 60 64 102 107 87 60 64 55 0 0 0 0 0 0
0 0 0 0 0 0 105 115 106 0 0 0 0 0 0
0 0 0 0 0 0 0 0 0 0 0 0 0 0 0
0 0 0 0 0 0 0 0 0 0 0 0 0 0 0
11 14 7 24 23 18 24 25 34 28 35 29 16 24 0
15 18 4 12 19 0 4 12 5 0 6 0 0 0 0
0 10 7 20 12 12 6 7 24 4 5 0 0 0 0
0 0 0 0 0 0 0 0 0 0 0 0 0 0 0
0 0 0 0 0 0 11 8 1 15 12 5 8 11 4
0 7 0 0 1 0 0 0 0 2 0 0 0 0 0
0 0 0 0 0 0 0 0 0 0 1 4 0 0 5
9 15 2 0 0 0 1 0 0 6 0 0 0 0 0
1 0 0 15 0 7 21 9 5 37 30 15 52 39 19
91 80 70 6 6 0 0 0 0 4 6 11 0 0 0
0 0 0 238 216 216 0 3 25 0 0 0 0 0 0
0 0 0 143 125 143 70 49 59 0 0 0 0 0 0
0 10 0 0 0 3 8 4 0 8 12 15 0 4 0
0 0 0 0 0 0 0 0 18 0 0 0 0 0 0
0 1 16 0 4 1 0 0 0 0 0 6 0 0 0
0 5 13 0 0 0 0 0 0 0 0 0 0 0 0
0 0 0 0 0 0 0 0 0 0 3 0 0 0 0
17 10 9 0 0 0 0 0 0 15 13 25 0 0 0
0 0 0 0 0 0 0 0 0 0 0 0 0 0 0
0 0 0 0 0 0 0 0 0 0 0 0 0 0 0
0 0 0 0 0 0 0 0 6 24 16 11 0 0 0
0 0 0 0 0 0 0 0 0 46 55 63 119 138 121
102 112 137 0 0 0 0 0 0 0 0 0 12 3 9
66 70 63 93 79 72 94 85 81 29 32 21 0 0 0
0 0 0 0 0 0 0 0 0 29 35 41 48 42 38
11 11 7 0 0 0 37 28 18 40 52 54 0 0 0
0 0 0 0 12 12 0 6 0 0 3 0 9 0 4
0 0 0 0 0 0 0 0 0 0 0 0 35 31 25
46 39 36 0 0 0 0 0 0 18 47 28 146 132 145
106 81 82 88 83 82 57 45 49 36 25 40 13 18 11
0 0 0 0 0 0 10 4 8 6 8 11 3 7 15
0 0 2 0 0 0 0 0 0 2 0 0 21 2 9
0 3 0 0 6 8 6 6 8 0 5 0 0 3 5
2 8 0 2 8 2 0 4 0 0 0 3 0 0 0
0 0 1 0 1 0 0 0 0 0 5 0 0 4 9
15 18 14 0 0 0 4 11 0 0 0 0 0 0 0
0 0 0 7 1 0 19 8 4 52 42 37 97 103 93
0 0 0 8 0 0 0 0 0 0 0 0 62 37 41
71 159 165 26 19 21 14 18 22 0 0 0 8 0 0
0 0 0 0 0 0 3 0 4 0 0 0 0 0 0
0 0 0 0 0 0 15 4 7 10 3 0 0 0 1
0 0 3 0 0 0 0 0 3 8 14 1 0 0 0
0 0 0 0 0 0 69 76 55 127 135 67 38 40 49
0 0 0 0 0 0 0 0 0 0 0 0 0 0 0
0 0 0 19 18 10 35 26 33 0 0 0 0 0 0
9 0 15 0 0 1 0 0 3 1 3 0 3 0 5
0 3 0 0 0 0 39 39 47 43 30 33 37 40 35
34 25 24 14 23 18 9 0 0 0 0 0 0 0 0
7 3 0 16 12 13 21 25 13 19 24 23 19 15 11
25 14 15 31 31 30 39 37 26 35 42 47 22 19 2
0 0 0 0 0 0 3 0 0 12 9 12 4 2 0
0 0 0 0 0 0 0 0 0 4 13 10 6 15 12
0 7 3 8 0 3 0 0 0 0 0 0 3 7 3
0 0 0 0 0 0 0 0 0 9 5 2 8 4 0
0 0 0 0 0 0 0 0 0 15 17 10 37 29 27
0 0 0 0 0 0 0 0 0 0 0 3 0 0 0
44 37 29 53 47 34 0 0 0 0 0 0 0 0 0
0 0 0 0 0 0 132 123 134 0 0 1 0 29 48
75 78 92 0 0 0 154 148 152 94 87 101 0 0 0
0 0 0 16 21 15 19 25 28 6 22 6 6 17 11
6 23 3 23 17 11 14 0 7 0 0 0 0 0 0
0 6 0 6 4 10 2 3 0 0 0 0 0 0 0
0 0 0 2 4 8 0 4 13 0 7 2 5 8 8
3 9 10 3 8 14 3 7 16 3 8 12 12 13 25
0 0 0 37 46 32 0 0 0 13 20 18 19 24 29
0 0 0 15 10 19 75 80 67 0 0 0 8 21 12
0 0 0 0 0 0 0 0 0 0 0 0 0 0 0
0 0 0 0 0 0 0 0 0 0 0 13 2 10 0
13 0 22 7 0 0 0 0 0 0 0 0 118 98 69
170 229 181 78 91 105 0 0 0 0 0 0 0 0 0
20 12 16 76 75 78 98 78 85 89 75 82 32 31 29
0 11 0 0 0 0 0 0 0 0 0 0 23 29 35
45 39 34 10 7 12 0 0 0 62 45 34 71 77 76
0 0 0 0 0 0 4 7 6 40 37 47 47 60 45
50 41 36 5 0 0 0 0 0 8 0 0 0 0 0
48 45 46 24 20 29 0 0 0 0 0 0 0 0 0
200 185 182 131 106 118 91 86 96 67 58 54 71 56 61
2 0 8 0 0 0 0 0 0 37 32 38 15 15 16
0 0 0 0 0 0 0 0 0 0 0 0 11 0 0
17 7 0 1 2 7 1 14 18 15 4 11 9 2 9
8 0 8 4 0 1 4 0 10 9 5 2 0 3 13
6 2 2 0 0 12 0 0 1 2 0 0 2 1 0
0 0 5 0 6 3 2 0 0 0 0 0 0 0 0
0 0 0 0 0 0 0 0 0 29 4 14 0 0 0
114 116 112 41 30 20 39 20 26 0 0 0 0 0 0
0 0 0 85 90 92 42 32 36 41 65 71 0 0 10
0 0 0 0 0 0 0 0 0 0 0 0 0 0 0
0 0 0 7 0 0 3 0 0 29 19 22 12 15 12
0 1 7 0 0 0 0 0 0 0 0 0 53 58 57
84 92 86 132 134 131 144 151 154 141 148 149 130 131 151
113 121 123 116 111 118 78 79 78 0 0 0 0 0 0
0 0 0 0 0 0 25 33 18 67 75 80 8 0 7
0 0 0 25 17 17 23 16 18 24 18 27 39 23 33
18 28 19 11 15 9 0 0 0 2 0 4 0 3 0
15 7 15 11 11 12 24 14 26 12 8 15 10 3 5
13 15 21 0 0 0 0 0 0 0 0 0 0 0 0
0 0 0 0 0 0 2 0 4 2 2 11 7 0 4
0 0 0 0 0 0 0 0 0 0 0 0 4 2 0
19 17 17 7 14 13 25 18 22 11 0 6 0 0 0
0 0 0 0 0 0 0 0 0 15 11 14 10 15 18
30 30 37 10 7 18 11 3 14 10 12 2 15 7 26
4 3 0 0 0 2 0 0 0 0 0 0 28 39 36
38 38 39 0 0 0 0 0 0 0 0 0 4 6 5
0 0 0 0 0 0 0 0 0 0 0 0 0 0 0
10 6 9 0 0 0 0 0 0 0 0 0 0 0 13
79 99 117 122 117 122 0 0 0 19 20 27 70 70 76
0 0 0 0 0 0 0 0 0 22 23 19 21 15 15
2 0 1 0 6 0 2 1 0 0 0 0 0 0 0
0 8 0 0 15 0 11 0 0 11 2 0 3 0 0
0 0 0 6 0 0 4 0 0 1 0 0 0 1 1
5 0 3 3 0 3 3 0 3 3 0 5 3 0 3
2 0 0 0 0 0 0 0 0 0 0 0 0 0 0
0 0 0 0 0 0 93 81 96 74 71 66 0 0 0
0 0 0 0 0 0 0 0 0 0 0 0 0 3 5
1 0 0 0 0 0 0 0 0 3 3 0 3 0 21
3 6 0 38 17 45 0 0 0 0 0 0 0 0 0
111 145 58 210 255 239 1 20 33 0 0 0 0 0 0
0 0 0 11 5 17 80 75 76 68 76 64 68 55 43
14 6 3 3 18 7 0 0 0 0 0 0 0 0 0
26 32 38 39 33 27 20 14 19 0 0 0 76 63 68
18 30 34 0 0 0 0 0 0 1 16 5 36 45 44
64 67 68 94 78 92 68 58 62 0 0 3 8 8 5
21 21 26 44 57 44 20 15 8 0 0 0 0 0 0
0 0 0 69 50 57 6 0 0 0 0 0 0 0 0
14 14 10 0 0 0 0 0 0 0 0 0 32 30 36
5 13 10 0 0 0 0 0 0 0 0 0 7 3 3
12 11 12 15 7 0 0 0 5 0 1 0 0 0 0
0 6 0 0 0 0 0 2 0 0 0 0 0 0 0
0 0 0 0 0 0 0 4 0 0 2 0 0 0 0
0 3 1 2 3 4 0 0 7 17 30 25 0 8 0
0 0 0 0 0 0 0 0 0 0 0 0 30 38 21
0 0 0 123 125 107 51 47 46 29 3 4 0 0 0
0 0 0 0 0 0 0 0 0 64 47 41 39 102 109
33 22 28 3 0 7 1 0 4 6 4 5 0 0 0
0 0 0 0 0 0 5 11 7 4 16 14 36 25 19
27 23 13 6 7 5 0 0 0 0 0 0 5 10 4
0 0 0 47 54 41 76 76 64 0 1 0 0 0 0
0 0 0 0 0 0 122 116 133 184 192 191 164 157 164
134 127 142 49 38 51 9 4 13 48 41 50 23 12 28
0 0 0 0 0 0 0 0 0 0 0 0 0 0 0
0 0 0 0 0 0 0 0 0 0 0 0 0 0 0
0 0 0 0 0 0 0 0 0 0 0 0 12 6 12
22 29 17 46 48 46 0 0 0 0 0 0 0 0 0
6 0 0 0 0 0 11 0 0 21 0 0 12 0 2
25 4 3 23 0 0 23 6 0 0 0 0 0 0 0
0 0 0 0 0 0 0 0 0 25 7 12 8 0 0
1 0 0 0 0 0 0 0 0 0 0 0 4 5 0
0 3 0 27 40 28 11 4 1 10 8 10 17 23 6
32 28 39 46 35 20 19 3 19 8 0 0 0 0 0
36 32 23 33 20 28 0 0 0 0 0 0 19 18 8
27 21 31 0 0 0 0 0 0 0 0 0 2 7 0
44 36 19 49 48 49 0 4 2 0 0 0 0 0 0
0 0 7 70 80 102 83 81 101 0 0 0 0 0 0
29 30 43 0 0 0 0 0 0 0 0 0 0 0 0
0 0 0 0 0 0 0 0 0 0 0 0 0 0 0
0 0 0 0 0 0 0 11 0 1 6 2 0 7 1
0 0 0 0 0 0 0 0 0 0 7 0 0 0 0
0 0 0 0 0 0 0 0 0 0 0 0 0 0 0
0 0 0 0 0 0 32 26 18 0 0 0 0 0 0
0 0 0 0 0 0 17 20 20 237 231 236 115 115 120
211 211 212 251 255 252 255 255 255 255 255 255 0 0 0
7 13 10 8 3 6 0 0 0 0 0 0 0 12 3
15 15 15 14 14 12 0 0 0 0 0 0 0 0 0
0 0 1 92 120 48 255 249 255 0 0 0 0 0 0
4 0 0 0 0 0 3 0 4 61 53 66 48 48 50
12 17 11 0 0 0 0 10 7 0 0 0 0 0 0
0 0 0 28 34 38 40 34 26 17 8 12 0 0 0
90 66 71 1 2 2 0 0 0 0 0 0 0 0 0
0 0 0 0 0 0 0 0 0 0 0 0 0 0 0
0 0 0 0 0 0 39 57 52 11 3 12 0 0 0
0 0 0 0 0 0 75 69 65 5 0 0 2 7 15
0 0 1 19 11 12 0 0 0 0 0 3 40 47 31
15 4 13 4 0 0 0 0 0 0 0 0 0 0 0
6 0 10 3 0 0 4 0 0 0 0 0 0 3 5
0 0 0 0 0 0 0 0 11 0 0 0 0 0 4
5 2 0 4 0 5 3 0 0 0 0 0 0 0 0
3 0 4 1 0 0 6 0 4 0 0 0 26 39 18
0 0 0 7 10 0 0 0 0 0 0 0 0 0 0
55 45 39 0 0 0 117 110 102 77 53 60 6 0 0
0 0 0 2 0 5 0 0 0 0 0 0 36 21 27
79 102 122 14 49 41 22 13 13 1 10 12 24 21 33
0 0 5 11 18 26 10 5 0 14 12 16 5 9 3
18 10 19 12 24 4 22 18 14 9 5 7 0 0 0
2 7 3 0 0 0 0 0 0 0 0 0 0 0 0
0 0 0 0 0 0 0 0 0 0 0 0 39 36 55
73 78 77 168 162 170 151 157 154 163 149 147 137 140 143
0 0 6 0 0 0 0 0 0 0 0 0 0 0 0
0 0 0 0 0 0 0 0 0 0 0 0 0 0 0
33 27 28 21 22 0 16 13 9 3 0 0 0 0 0
5 0 0 7 3 0 11 2 0 60 52 50 73 57 66
75 61 69 63 60 58 75 58 55 65 54 59 83 58 62
74 51 49 94 76 78 101 65 74 113 91 85 77 54 60
31 9 2 0 0 0 0 0 0 0 0 0 0 0 0
5 0 0 11 4 0 15 5 4 1 2 0 3 0 0
0 0 0 0 0 0 4 0 0 0 0 0 0 0 0
10 14 8 43 35 38 44 46 46 39 28 32 40 25 30
0 0 0 14 16 11 0 0 6 0 0 0 0 0 0
35 35 44 34 23 29 4 0 0 23 26 22 5 0 0
8 5 0 25 28 21 13 14 14 6 0 1 4 0 0
0 0 0 0 0 0 0 4 27 92 93 105 91 88 85
102 106 126 95 94 101 0 0 0 0 0 0 0 0 0
0 0 0 0 0 0 0 0 0 0 0 0 0 0 0
0 0 0 0 0 14 0 0 0 2 12 0 18 1 11
1 5 0 5 0 0 0 0 0 0 0 0 3 0 2
0 0 0 0 0 0 0 0 0 0 0 0 0 0 3
0 0 0 0 0 0 0 0 0 31 31 33 0 0 0
18 3 0 0 0 0 0 0 0 163 157 170 255 248 255
103 97 113 182 176 191 152 151 146 92 73 98 9 8 6
0 0 0 11 18 15 11 8 11 0 0 0 0 0 0
0 7 1 25 18 22 13 4 9 0 0 0 0 0 6
4 6 20 0 0 7 62 72 38 244 245 255 0 0 0
0 0 0 38 19 13 0 0 0 3 0 0 48 43 50
25 24 17 0 0 0 0 0 0 0 0 0 0 0 0
0 0 0 8 2 5 25 31 33 42 34 40 11 0 0
0 0 0 62 55 50 12 29 18 0 0 0 0 0 0
0 0 0 0 0 0 0 0 0 0 0 0 0 0 0
0 0 0 0 0 0 0 0 0 23 29 21 0 0 0
0 0 0 0 0 0 0 6 15 86 79 79 19 3 5
16 8 5 0 0 0 0 0 0 0 0 0 0 0 1
23 28 12 0 0 0 0 0 0 0 0 0 0 0 0
0 1 0 12 13 7 13 4 0 0 0 0 9 10 16
0 9 3 9 0 0 4 5 0 2 0 0 8 0 0
0 0 0 2 10 0 0 0 0 0 7 0 0 6 0
0 0 0 0 1 0 0 0 0 1 0 0 0 0 0
28 33 17 0 0 0 7 18 0 0 0 0 0 0 0
0 0 0 49 52 61 0 0 0 59 60 46 64 53 42
33 25 18 0 0 0 0 0 0 0 0 0 0 0 0
0 0 0 106 103 95 20 69 78 11 12 11 15 9 2
12 24 8 0 0 3 17 17 22 0 0 6 10 15 5
0 3 0 0 0 0 6 10 9 25 23 16 32 31 26
2 7 0 27 20 23 141 130 141 90 77 83 0 0 0
0 0 0 0 0 0 0 0 0 9 11 21 40 31 28
15 13 22 0 0 0 0 0 0 0 0 0 0 0 0
145 140 144 131 102 132 0 0 0 0 0 0 7 10 0
7 4 4 5 7 5 17 9 0 0 13 0 0 4 0
0 1 0 0 5 0 4 10 0 10 12 17 17 12 15
21 24 24 20 26 17 30 28 26 22 22 3 64 44 61
49 40 53 63 38 36 47 32 39 40 26 29 47 17 38
42 31 34 41 22 30 35 20 24 56 34 35 72 60 62
62 55 68 47 36 36 19 15 22 25 14 12 1 4 7
13 0 0 21 0 0 36 11 23 33 28 30 38 16 30
15 11 2 7 0 0 0 0 0 5 0 0 0 0 0
0 0 0 1 0 0 34 29 30 43 43 45 30 24 12
22 16 4 13 11 16 7 3 2 0 0 0 0 0 0
7 10 7 16 18 20 26 18 22 10 4 0 22 19 29
0 0 0 0 0 0 1 1 0 0 0 0 0 0 0
23 6 2 0 0 0 0 0 0 0 0 0 36 30 44
130 136 140 107 142 153 143 166 144 0 0 0 63 82 84
67 54 69 5 11 11 0 0 0 21 13 10 27 29 23
0 0 0 0 0 0 41 27 43 0 0 0 2 16 0
19 9 25 2 15 5 0 0 0 0 0 0 0 3 0
0 0 0 13 20 11 0 9 2 15 9 0 0 9 0
15 7 0 0 16 0 12 8 0 0 0 0 0 0 0
0 0 0 0 0 0 0 0 0 5 0 0 174 163 189
13 6 16 0 0 0 0 0 0 0 0 0 0 0 0
0 0 0 0 0 0 3 11 8 17 7 10 0 0 0
0 0 0 0 4 0 21 19 24 0 0 0 0 0 0
16 9 46 67 69 52 0 0 20 61 69 39 255 255 255
0 0 0 0 0 0 22 0 5 0 0 0 0 0 0
42 49 43 47 21 36 4 10 4 11 6 8 8 5 3
0 0 0 0 10 9 18 17 22 46 54 54 54 44 46
0 0 12 0 0 0 62 63 55 14 27 29 0 0 0
0 0 0 60 56 52 188 182 189 207 213 195 148 139 144
72 63 61 0 0 0 0 0 0 0 0 0 6 5 2
0 0 0 0 0 0 0 0 0 19 15 22 101 89 86
13 4 11 28 27 33 0 0 0 0 0 0 0 0 0
36 46 41 75 64 68 0 0 0 4 13 11 5 6 6
1 13 10 0 0 0 0 0 0 0 0 0 0 0 0
0 0 0 0 0 0 0 0 0 0 0 0 0 0 0
0 0 0 0 0 1 13 13 14 0 0 0 0 0 0
0 0 0 0 0 0 0 0 0 0 5 0 8 10 0
1 0 0 24 34 4 0 0 0 7 12 0 0 0 0
0 0 0 0 0 0 93 91 90 13 18 17 4 0 0
61 46 40 83 64 58 0 0 0 0 0 0 28 23 28
6 0 0 0 0 0 106 124 123 64 99 103 7 21 24
8 0 3 0 6 5 0 0 0 22 17 25 0 0 0
0 0 0 0 0 0 0 0 0 1 16 2 39 64 18
35 73 18 58 67 38 86 101 83 177 166 153 145 131 146
26 20 31 0 0 0 0 0 0 20 22 20 48 47 47
4 4 2 122 111 129 0 0 0 0 0 0 0 0 0
0 0 0 173 164 171 255 255 255 69 60 73 0 0 0
0 0 0 2 0 1 2 14 4 13 16 17 14 18 0
8 7 0 20 21 0 0 0 0 0 0 0 0 0 0
11 13 11 18 14 9 6 18 0 8 5 0 16 13 0
0 0 0 0 0 11 0 0 0 0 0 0 0 0 0
0 0 0 0 0 0 0 0 0 0 0 0 0 0 0
21 12 6 82 60 71 94 74 70 74 66 70 48 50 54
20 25 24 80 45 49 44 17 17 22 11 9 5 0 0
25 0 8 22 0 4 27 6 17 24 16 10 11 0 3
0 0 0 0 0 0 0 0 0 9 14 8 9 12 11
0 0 0 0 0 0 13 16 20 0 0 0 0 0 0
0 0 0 1 0 0 0 0 0 0 0 0 0 0 0
6 0 0 0 0 0 3 0 0 26 21 7 0 0 0
0 0 0 34 31 15 0 0 0 73 60 80 0 0 0
0 0 0 4 10 6 39 52 55 181 216 220 86 69 108
137 201 110 122 98 142 5 13 13 0 0 0 11 0 6
32 24 36 0 0 0 0 0 0 7 8 22 0 0 0
0 3 0 14 9 2 5 5 1 9 7 0 0 0 0
0 0 0 0 0 0 0 0 0 0 0 0 0 0 0
0 0 0 0 0 0 0 0 0 0 0 0 0 0 0
13 12 10 21 16 22 0 0 0 0 0 0 86 86 104
234 232 251 0 0 0 0 0 0 0 0 0 0 0 0
2 0 0 13 1 8 0 0 0 0 1 0 4 0 0
0 3 0 5 2 11 0 4 0 0 0 0 0 0 0
12 0 22 69 52 57 107 103 19 0 0 0 66 80 55
255 255 255 0 0 0 0 0 0 17 4 0 0 0 0
5 0 11 43 47 37 16 0 0 0 0 0 0 0 0
0 0 0 0 0 0 0 0 0 0 0 0 24 16 16
10 14 15 29 21 32 32 14 13 53 48 33 0 0 0
0 0 0 0 0 0 10 3 11 0 0 2 65 63 58
124 103 122 61 63 70 55 50 52 76 67 66 8 24 19
0 0 0 0 0 0 0 0 0 2 0 5 12 10 7
49 59 42 21 27 25 8 3 0 0 0 0 0 0 0
29 29 28 9 5 2 0 0 0 0 0 0 0 0 0
0 0 0 0 0 0 0 7 0 6 18 9 23 7 14
7 10 1 12 8 13 16 22 14 25 23 19 20 18 4
39 32 37 42 59 40 24 22 24 0 0 0 10 8 10
0 18 0 13 9 0 0 2 0 0 0 0 0 0 0
0 0 0 0 0 0 0 0 0 0 4 0 0 0 0
0 0 0 0 0 0 0 0 0 0 0 0 95 90 92
0 0 0 59 48 32 80 63 64 13 0 0 0 0 0
0 0 0 8 0 0 0 0 0 0 0 0 96 101 107
22 116 98 3 7 13 44 55 23 10 29 38 0 0 0
32 28 39 4 1 0 6 10 7 39 52 39 30 34 37
22 25 20 146 141 144 164 197 179 89 115 93 0 0 0
17 0 33 61 49 53 79 73 79 49 44 56 4 14 12
0 0 0 0 0 0 79 76 69 0 0 0 0 0 0
37 41 45 2 11 9 0 0 0 9 8 23 244 227 255
0 0 0 13 16 7 0 0 0 0 0 0 0 0 1
0 0 0 0 0 0 19 19 8 22 23 23 19 23 3
0 2 0 0 0 0 0 0 0 0 0 0 0 0 0
0 0 0 0 0 0 0 0 0 0 0 0 0 0 0
0 0 0 0 0 0 0 0 0 0 0 0 10 16 2
0 0 0 0 0 0 0 0 0 0 16 2 0 0 0
0 0 0 0 26 11 0 0 0 56 42 46 101 89 81
46 42 37 2 0 0 0 0 0 16 0 0 0 0 0
26 9 24 65 50 49 20 8 16 27 27 20 37 35 42
29 37 24 40 43 38 0 0 0 18 18 14 2 12 5
5 3 1 0 5 4 0 0 3 7 18 10 21 25 31
36 41 50 45 42 48 10 19 16 0 0 0 0 0 0
0 0 0 0 0 0 0 0 0 0 0 0 0 0 0
0 0 0 0 0 0 0 0 0 0 0 0 0 0 0
42 1 44 49 201 95 77 43 63 0 0 0 0 0 0
0 0 0 0 0 0 50 49 55 57 45 87 28 26 52
0 0 0 7 21 11 42 35 34 15 15 16 0 0 0
0 0 0 16 15 29 33 41 35 8 20 20 30 20 30
33 27 39 44 38 44 37 30 44 29 32 19 16 9 25
8 0 4 3 11 8 0 0 0 0 0 0 132 132 147
255 255 208 105 104 130 0 0 0 0 0 0 0 0 0
0 0 0 0 0 0 0 0 0 0 0 0 12 9 12
10 5 6 0 0 0 0 0 0 0 0 0 0 0 0
0 0 0 44 43 71 44 46 37 17 27 45 0 0 0
95 117 94 255 255 255 0 0 0 0 0 0 24 3 0
0 0 0 18 20 28 59 58 63 23 26 13 0 0 0
0 5 0 28 18 18 0 0 0 0 0 0 2 0 2
30 24 24 0 0 0 0 0 0 0 0 0 15 0 3
7 20 19 0 0 0 0 0 0 25 21 13 18 21 13
56 52 49 67 67 62 0 0 0 0 0 0 47 44 45
34 26 33 5 19 6 0 0 0 0 0 0 0 0 0
7 5 15 24 20 23 0 0 0 0 0 0 0 0 0
0 0 0 40 42 44 33 34 35 13 14 23 0 0 0
0 0 0 0 0 0 0 0 0 2 1 0 1 1 0
0 0 0 0 0 0 0 0 0 0 0 2 0 0 0
0 0 0 1 0 9 10 16 17 0 0 7 0 0 0
16 3 18 5 0 3 0 0 0 0 1 0 0 0 0
0 0 0 0 2 0 0 2 0 0 4 0 3 8 3
0 0 0 0 0 0 0 0 0 0 0 0 0 0 0
63 66 70 7 0 0 64 42 43 79 68 67 22 19 8
0 0 0 0 0 0 0 0 0 0 0 0 0 0 0
74 85 102 84 117 106 24 31 35 0 0 5 0 0 0
0 0 0 0 0 0 0 0 0 0 0 0 0 0 0
0 0 0 0 0 0 0 0 0 0 0 0 0 0 0
0 0 0 1 0 3 44 40 44 41 37 38 2 0 3
0 0 0 0 0 0 0 0 0 84 83 76 9 12 4
0 0 0 0 0 0 32 24 32 0 0 0 0 0 0
209 187 214 10 16 15 0 0 0 0 0 0 0 0 0
23 17 12 35 38 21 0 0 0 9 13 0 1 0 0
0 0 0 0 0 0 0 1 0 0 5 6 5 4 12
0 2 0 0 8 0 0 0 0 0 0 23 0 8 7
0 8 12 0 1 0 0 0 0 0 0 0 0 0 0
0 9 0 6 27 12 0 12 0 0 0 0 0 0 0
3 2 17 0 14 10 16 33 31 0 0 0 27 14 13
58 64 60 52 50 59 36 20 19 30 6 17 18 0 0
0 0 0 8 0 0 0 0 0 0 0 0 0 0 0
0 0 0 0 0 0 9 24 17 0 0 0 12 8 13
6 2 0 0 0 0 0 0 0 0 0 0 3 0 0
12 1 15 5 13 19 33 35 35 0 5 7 0 0 0
0 0 0 0 0 0 0 0 0 0 2 0 0 0 0
42 23 34 3 0 9 0 0 0 0 0 0 0 0 0
0 0 0 85 61 89 120 172 188 97 147 175 71 58 70
21 31 43 46 51 65 39 31 52 0 2 12 0 0 0
0 0 0 0 0 0 0 0 0 3 0 0 0 0 0
0 0 0 0 0 0 30 26 27 34 31 41 1 0 0
10 7 9 5 5 9 0 0 0 0 0 0 0 0 4
9 0 14 0 0 0 0 0 0 7 7 8 139 133 145
217 208 208 217 212 212 113 110 128 8 4 8 24 18 36
0 0 0 0 1 16 9 0 0 0 3 0 0 0 0
0 0 0 0 0 0 0 0 0 0 0 0 1 10 4
46 34 46 57 66 60 63 54 76 33 27 45 0 0 0
0 0 0 143 195 152 224 212 216 0 0 0 0 0 0
12 0 0 0 0 0 12 15 19 39 34 46 14 9 0
0 0 0 14 13 0 15 27 14 0 0 0 0 0 0
58 49 58 68 62 62 0 0 0 0 0 0 0 0 0
7 10 5 0 8 16 0 0 0 0 0 0 24 24 23
19 13 21 36 37 43 32 33 40 0 0 0 0 0 0
0 6 8 27 36 28 12 14 17 0 0 0 0 0 0
0 0 0 0 0 0 22 28 16 0 0 0 0 0 0
0 0 0 21 15 15 55 60 61 32 23 15 0 3 0
0 0 0 0 0 0 0 0 0 0 0 0 8 2 11
3 1 0 3 6 16 8 11 18 0 0 0 4 0 0
0 0 0 0 0 0 0 0 0 14 14 0 0 0 0
0 0 0 0 0 0 0 0 0 0 0 0 0 0 0
1 0 0 0 5 0 0 4 0 2 7 0 4 0 6
12 5 14 0 0 0 0 0 0 0 0 0 0 0 0
0 0 0 8 12 18 33 17 20 26 21 6 75 61 60
75 56 36 18 12 23 0 0 0 0 0 0 0 0 0
0 0 0 0 0 0 45 36 38 91 74 79 29 40 36
33 24 35 25 30 31 8 27 34 0 0 15 57 60 40
79 87 82 130 147 137 176 177 184 53 48 46 0 0 0
0 0 0 0 0 0 0 0 0 0 0 0 27 19 27
72 67 66 71 60 67 35 27 27 0 0 0 59 65 54
29 35 24 0 0 0 0 0 0 0 0 0 0 0 0
0 0 0 176 179 179 130 137 144 0 0 0 0 0 0
0 0 4 1 6 0 41 55 43 0 0 0 0 0 0
0 0 0 0 0 0 0 0 0 0 0 0 0 6 0
0 1 0 0 0 0 0 3 0 0 0 5 0 0 2
0 6 2 0 7 4 0 0 0 0 11 0 0 3 0
0 0 0 0 0 0 0 0 0 10 38 21 0 0 0
0 0 0 0 0 0 44 83 72 75 118 109 0 0 0
0 0 0 0 0 0 0 0 0 67 60 51 75 77 80
19 7 13 0 0 0 24 3 20 0 0 0 17 14 10
32 8 12 0 0 0 0 0 0 1 0 0 0 0 0
4 10 17 5 1 0 0 0 0 0 0 0 0 0 3
0 7 6 3 2 0 0 0 0 47 40 48 27 24 33
20 18 2 0 2 0 0 0 0 0 0 0 13 2 4
7 15 0 17 19 25 0 15 4 4 1 0 0 0 0
0 0 0 0 0 0 0 0 0 5 0 0 77 66 69
98 96 93 102 162 144 129 134 101 37 17 52 12 14 26
10 0 19 0 0 0 0 0 4 0 0 14 26 10 39
9 0 8 0 0 0 0 0 0 0 0 0 0 0 0
0 0 0 0 0 0 0 0 0 0 0 4 0 0 10
0 0 0 0 0 0 0 0 0 0 0 0 95 105 89
233 235 233 76 84 90 0 0 0 0 0 0 0 0 0
0 0 0 0 0 0 0 9 7 10 0 0 0 0 0
37 37 37 0 0 0 0 0 0 0 0 0 49 49 57
81 87 82 87 72 85 60 66 63 0 0 0 0 0 0
0 0 0 16 11 26 236 255 245 118 116 115 0 0 0
0 0 0 0 0 0 0 0 0 17 6 2 10 17 11
0 0 0 0 0 0 12 5 2 0 0 0 0 0 0
24 33 24 119 110 119 117 111 111 43 43 46 26 23 30
40 22 14 90 87 81 0 0 0 0 0 0 0 0 0
31 34 31 31 21 30 46 40 39 44 36 37 10 12 5
0 0 0 0 0 0 11 14 18 0 0 0 0 0 0
0 0 0 0 0 3 37 38 46 95 95 99 0 0 0
0 0 0 0 0 0 24 26 20 35 32 36 0 0 0
0 0 0 0 0 0 0 0 0 2 0 3 0 9 0
0 8 7 9 7 0 2 9 10 25 11 22 0 0 0
5 0 1 0 0 0 0 0 0 0 0 0 15 6 11
0 0 3 0 0 0 0 0 2 0 0 0 5 0 11
0 0 0 0 0 0 0 0 0 0 0 0 0 9 0
5 3 7 6 2 3 0 0 0 0 4 0 0 0 0
0 0 0 0 0 0 0 0 0 40 35 39 9 0 0
76 53 57 104 83 75 30 38 37 0 0 0 0 0 0
27 22 0 0 0 0 0 0 0 0 0 0 59 57 46
63 111 104 7 74 57 11 54 3 24 85 2 38 63 5
96 132 42 47 60 65 0 0 0 0 0 0 0 2 15
2 1 15 39 50 58 48 21 45 16 0 3 0 0 0
0 0 0 27 27 27 77 77 70 63 54 53 0 2 0
44 43 43 23 18 19 65 57 53 0 0 0 0 0 0
0 0 0 0 0 0 134 139 144 198 199 199 0 0 0
0 0 0 0 0 0 0 0 0 24 20 9 0 0 0
0 0 0 0 0 0 0 0 0 7 0 6 6 7 0
4 8 10 0 0 0 0 0 0 0 0 0 0 0 0
0 4 4 0 0 0 0 3 1 0 0 0 0 3 0
0 3 0 0 0 0 0 0 0 0 0 0 0 6 0
22 39 41 0 0 0 0 0 0 30 54 49 102 114 118
45 58 55 0 0 0 0 0 0 0 0 0 4 4 0
99 97 103 98 79 79 63 64 54 0 0 0 0 0 0
17 0 0 18 14 15 0 0 0 3 0 0 0 0 0
0 0 0 11 10 22 0 0 4 0 0 0 0 0 0
0 0 0 2 3 0 4 0 4 0 0 0 40 35 54
30 28 19 17 23 21 10 13 8 0 0 0 0 0 0
0 0 0 26 17 19 0 0 0 0 0 0 29 20 19
37 30 32 29 1 0 0 0 0 0 0 0 0 0 0
0 0 0 0 0 0 122 148 167 67 192 129 66 60 81
0 7 20 11 0 15 0 0 0 0 0 0 0 0 0
5 0 15 8 2 22 0 0 0 0 0 14 37 28 49
20 15 28 35 31 54 0 0 0 0 0 0 0 0 0
0 0 0 0 0 0 0 0 0 0 0 0 48 55 47
175 185 168 146 146 153 0 0 0 0 0 0 0 0 0
0 0 0 0 0 0 0 0 0 2 3 0 0 0 0
0 3 0 56 56 56 0 0 0 0 0 0 35 20 17
69 72 79 54 57 53 0 4 9 0 0 0 0 0 0
0 0 0 0 0 0 62 65 75 219 225 218 0 0 0
0 0 0 0 0 11 0 0 0 0 0 0 26 19 26
11 3 15 0 0 0 0 7 0 15 6 6 0 0 0
0 0 0 16 25 16 87 78 87 86 80 80 30 30 33
38 32 40 36 40 25 99 93 87 0 0 0 0 0 0
0 0 0 30 35 25 24 29 25 40 46 45 33 37 38
1 0 0 0 0 0 33 31 20 34 37 32 0 0 0
0 0 0 0 0 0 65 57 67 125 129 124 157 144 141
11 16 5 0 0 0 0 0 0 38 36 28 18 12 13
0 0 0 0 0 0 0 0 2 0 0 0 0 0 0
6 9 0 6 9 6 14 2 8 11 12 28 13 16 16
0 0 0 14 5 0 0 0 0 0 0 0 1 0 0
13 17 0 0 0 0 0 0 0 0 0 0 2 14 0
0 0 0 0 5 0 0 0 0 0 0 0 0 3 0
5 16 0 0 0 3 8 2 14 0 5 7 11 9 9
0 11 0 0 0 0 0 0 0 0 0 0 56 38 47
0 0 0 42 38 42 84 85 86 43 37 32 0 0 0
0 0 0 26 12 0 19 0 20 0 0 0 0 0 0
0 0 0 119 82 78 32 116 118 22 59 40 48 50 52
90 93 92 101 113 137 24 39 51 0 0 0 0 0 0
0 0 0 31 12 33 12 6 29 0 0 0 0 0 0
0 0 0 0 0 0 0 0 0 0 0 0 0 0 0
0 0 0 24 22 18 0 0 0 111 114 102 28 30 19
0 0 0 0 0 0 0 0 0 41 40 45 232 227 254
0 0 0 0 0 0 0 0 2 0 0 0 0 0 0
0 0 0 0 0 0 11 11 8 14 16 5 27 18 36
14 20 12 10 12 13 0 1 0 0 0 0 0 0 6
0 0 0 0 0 0 0 0 0 0 0 0 0 0 0
0 0 0 0 0 0 0 0 0 16 20 0 0 0 0
0 0 0 16 16 8 0 0 0 0 0 0 0 0 0
0 0 0 87 97 103 27 43 30 0 0 0 0 0 0
0 0 0 0 22 24 114 117 128 200 211 212 0 0 0
0 0 0 0 0 0 0 0 0 0 0 0 0 0 0
0 0 0 0 0 0 5 15 7 0 3 0 1 0 0
0 0 0 0 0 0 3 2 0 3 8 15 0 0 0
30 25 26 16 22 22 19 18 27 3 13 0 0 0 0
0 0 0 0 0 0 15 6 0 0 0 0 0 0 0
0 0 0 0 0 0 17 0 0 12 2 3 13 0 0
0 0 0 0 0 0 0 0 0 62 50 62 200 193 197
114 108 112 9 16 11 0 0 0 5 9 16 0 0 0
0 0 2 0 0 9 0 0 16 0 0 0 0 0 0
34 16 32 0 0 0 0 0 0 0 0 0 0 0 0
0 0 0 0 0 0 0 0 0 13 0 18 19 7 21
173 174 177 124 125 120 1 3 5 0 0 0 0 0 0
36 49 38 26 31 41 0 0 0 2 0 0 0 3 5
0 0 0 0 0 0 0 0 0 0 0 0 8 0 0
58 49 44 38 44 50 0 0 0 0 0 0 0 0 0
0 0 0 24 12 27 0 0 0 93 100 111 143 156 151
0 0 0 0 0 0 4 5 20 0 0 0 12 1 0
60 56 49 43 37 35 0 0 0 27 36 26 35 26 31
0 0 0 0 0 0 0 0 0 2 0 2 0 0 0
0 0 0 5 0 2 4 3 0 18 29 6 0 0 0
0 0 0 0 0 0 33 27 39 33 31 25 32 26 26
15 9 9 0 0 0 36 25 25 56 55 55 25 21 35
0 0 0 0 0 0 0 0 0 45 43 52 100 112 114
116 111 123 0 0 0 0 0 0 10 17 24 66 54 59
12 9 3 0 0 0 0 0 0 0 0 0 6 0 0
0 8 0 0 8 8 11 2 16 3 8 3 2 0 17
9 4 5 1 0 0 7 6 0 18 9 16 25 7 16
19 22 20 32 24 24 7 4 8 2 0 0 0 0 0
0 6 0 11 0 6 0 2 0 10 0 5 0 3 0
0 4 0 0 10 0 1 0 0 0 0 18 0 0 0
5 12 7 0 22 6 0 0 0 0 0 0 0 0 0
55 45 46 0 0 0 25 9 5 65 61 60 20 22 16
0 0 0 0 0 0 15 7 0 4 0 0 30 0 34
0 0 0 0 0 0 42 25 15 135 183 171 108 133 123
0 29 16 0 0 0 0 0 0 0 0 0 0 0 0
0 0 0 0 0 0 18 0 24 16 9 24 0 0 0
13 7 7 33 23 30 26 20 22 0 0 0 0 0 0
0 0 0 0 0 0 0 0 0 0 0 0 84 82 80
121 118 115 0 0 0 0 0 0 0 0 0 0 0 0
255 255 255 0 0 0 0 0 0 20 12 23 6 6 8
0 0 0 9 14 8 2 0 0 37 27 24 38 20 20
30 31 30 29 17 18 0 8 7 0 1 0 0 0 1
7 0 2 0 0 0 0 0 12 0 0 0 0 0 2
0 0 0 0 0 0 0 0 0 0 0 0 1 0 0
0 9 0 12 17 0 0 0 0 0 0 0 0 0 0
0 0 0 0 0 0 0 0 0 0 1 3 89 93 105
54 67 70 0 0 0 0 0 0 0 1 0 43 61 48
157 155 153 124 136 120 0 0 0 0 0 0 18 17 19
0 0 0 7 0 6 0 0 0 0 0 0 0 0 6
5 0 2 0 3 0 2 0 0 3 1 0 0 3 5
8 5 1 0 1 7 2 2 8 6 10 0 1 11 5
0 0 0 0 0 0 0 0 0 0 0 0 0 5 0
0 6 3 0 0 0 0 0 0 0 0 0 34 12 18
34 23 21 24 13 8 0 0 0 0 0 0 0 0 0
0 0 0 0 0 0 53 51 61 111 112 106 47 59 65
0 0 0 0 0 0 0 0 0 0 0 0 0 0 0
0 0 0 0 0 0 0 0 0 0 0 0 45 31 67
104 96 124 85 75 95 113 104 130 158 170 122 149 145 115
99 99 91 23 17 29 0 0 0 0 0 0 0 0 0
0 0 0 7 8 13 0 0 0 0 0 0 0 0 4
0 2 0 0 0 0 0 0 0 0 0 0 0 0 0
0 0 0 39 33 22 15 21 23 0 0 0 0 0 0
0 8 9 0 0 0 32 35 43 0 0 0 133 145 155
123 136 112 0 0 0 0 0 0 0 0 0 1 0 0
24 17 16 85 82 85 54 47 57 10 2 12 41 46 26
34 22 24 0 0 0 0 0 0 0 0 0 6 0 5
0 0 0 0 0 0 0 0 0 0 0 0 0 0 0
0 0 0 0 0 0 0 0 0 34 28 40 5 22 13
4 18 12 0 0 0 0 0 0 34 22 27 38 39 25
0 0 0 0 0 0 0 0 0 0 0 0 11 1 15
42 46 45 41 32 39 0 0 0 0 0 0 41 48 49
82 72 71 0 0 0 0 0 0 5 1 4 0 0 0
1 0 0 10 7 11 12 17 10 9 7 17 0 8 5
7 2 23 0 0 0 3 0 3 7 7 11 22 15 24
36 29 31 34 39 45 55 49 47 8 8 17 18 11 14
0 0 0 13 13 9 10 11 15 0 6 0 3 0 5
0 4 0 0 0 0 1 0 0 8 12 24 0 0 10
0 0 0 12 10 3 3 15 0 0 0 0 0 0 0
0 0 0 86 57 57 0 0 0 0 0 0 28 20 11
2 0 0 0 0 0 35 12 0 16 4 0 0 0 2
26 13 29 19 11 3 0 0 0 0 0 0 97 89 108
126 128 146 0 0 9 16 16 40 0 0 0 0 0 0
38 26 56 41 18 48 0 0 0 0 0 11 57 60 85
8 2 0 15 14 6 6 12 13 20 24 25 52 50 53
58 56 53 22 9 18 0 0 0 0 0 0 0 0 0
21 9 15 163 151 154 7 8 12 0 0 0 0 0 0
0 0 0 255 255 255 16 8 32 0 0 0 16 22 10
49 57 45 0 0 0 31 34 12 0 0 0 23 22 8
26 14 20 28 20 25 11 0 10 0 0 0 0 0 0
0 0 0 0 4 0 0 0 1 0 0 20 0 0 2
0 0 10 0 0 0 0 0 0 1 6 0 0 2 0
0 0 0 19 27 0 11 8 0 0 0 0 8 6 0
34 40 39 44 32 21 5 18 12 0 0 0 0 0 0
33 36 34 59 72 68 0 14 17 0 0 0 0 0 0
0 0 0 154 152 164 207 203 207 3 0 0 0 0 0
81 63 68 0 0 0 24 17 29 8 3 5 0 0 0
1 0 1 6 0 0 0 0 0 2 0 0 5 0 3
5 0 5 17 13 16 0 0 0 0 0 6 0 0 0
0 5 0 2 4 0 1 7 8 5 0 0 0 0 0
16 0 1 24 12 35 15 15 13 2 1 6 3 4 8
6 13 7 0 0 0 0 0 0 14 0 0 0 0 0
0 0 0 0 0 0 0 0 0 0 19 33 152 186 180
111 118 129 0 0 0 0 0 0 0 0 0 0 0 0
0 0 0 10 3 16 49 40 64 30 5 33 94 91 99
137 149 101 154 196 103 166 194 120 175 197 141 178 203 162
131 159 124 104 127 103 0 0 0 0 0 0 0 0 0
0 0 0 0 7 2 0 0 0 0 0 0 15 9 15
0 1 1 0 0 4 0 0 0 0 0 0 16 23 14
0 0 0 0 0 0 27 26 17 17 30 23 0 0 0
0 0 0 0 0 0 0 0 0 0 0 0 0 0 0
211 213 219 194 204 205 0 0 0 0 0 0 0 0 0
0 0 0 15 15 9 93 86 95 72 76 73 41 43 37
63 64 53 26 36 34 0 0 0 0 0 0 8 5 2
46 48 44 30 24 35 0 0 0 13 9 12 3 0 0
19 15 9 0 0 0 0 0 0 0 0 0 1 8 0
19 24 9 23 18 20 17 10 1 0 0 0 30 21 18
28 20 12 1 0 0 0 0 0 0 0 0 7 25 18
47 59 52 66 70 62 0 0 0 0 0 0 0 0 0
61 73 70 104 100 96 0 0 0 0 0 0 0 0 0
0 0 0 0 0 0 0 6 8 8 11 15 19 10 18
0 3 5 0 0 0 0 0 0 0 0 4 0 0 0
33 20 22 40 45 39 81 79 85 103 94 97 66 62 68
81 74 82 0 4 0 32 36 42 36 39 47 22 23 16
11 12 10 4 0 0 0 4 0 12 9 0 36 26 33
17 0 13 0 0 0 0 7 11 5 18 0 0 0 0
0 0 0 0 5 0 131 102 108 0 0 0 40 12 23
60 56 39 32 28 19 18 18 11 43 26 7 16 0 0
25 13 28 0 0 0 44 34 38 14 1 7 0 0 0
0 0 3 109 114 140 0 5 20 62 73 103 37 38 69
8 0 20 37 19 53 78 69 95 0 0 0 0 0 0
0 0 14 0 0 0 0 0 0 0 0 0 0 0 0
0 0 0 14 4 15 59 69 71 100 105 100 0 0 0
0 0 0 0 0 0 170 174 173 80 71 79 0 0 0
16 9 3 0 0 0 255 255 255 28 17 42 0 0 0
0 0 0 82 85 83 0 0 0 21 26 8 0 0 0
10 13 0 36 36 26 42 39 38 25 21 27 0 0 0
0 0 0 0 0 0 0 0 0 0 0 0 0 0 0
0 0 0 0 0 3 0 0 0 0 0 0 0 5 0
0 0 0 5 7 0 9 0 0 0 0 0 0 0 0
22 10 4 0 0 0 0 0 0 43 36 34 198 191 193
0 0 0 0 0 0 0 0 0 66 97 90 88 106 107
0 0 0 0 0 0 0 4 6 198 202 208 11 2 15
36 30 37 172 160 165 34 18 16 51 41 49 33 37 40
0 0 0 0 0 0 1 0 0 0 0 0 11 0 0
12 8 9 18 19 6 17 12 13 0 0 0 0 0 0
4 2 1 17 18 12 29 29 21 25 23 18 16 0 0
5 0 0 0 0 0 8 0 12 0 0 0 0 0 0
0 0 0 18 17 16 38 37 34 17 11 13 8 0 0
0 0 0 4 0 0 0 0 0 0 0 0 0 0 0
148 173 175 89 213 193 94 124 112 75 72 78 61 41 51
50 31 48 58 35 53 144 110 106 139 199 85 138 219 78
142 133 85 37 45 50 0 0 0 0 0 0 0 0 0
0 0 0 0 0 0 14 40 0 129 126 115 190 190 189
177 178 180 131 132 131 91 76 99 6 11 23 0 0 0
13 5 29 0 0 0 0 0 2 0 0 0 0 0 0
0 0 0 0 5 1 30 19 18 9 6 3 0 0 0
0 0 0 5 6 18 9 0 16 0 0 9 0 0 3
45 35 56 226 236 242 0 0 0 0 0 0 12 11 17
0 0 0 0 0 0 20 7 0 69 66 57 7 0 0
0 0 0 1 0 0 12 16 14 0 0 0 0 0 0
13 17 13 90 98 86 58 58 47 23 19 21 45 37 35
45 34 45 119 114 135 0 0 0 0 0 0 39 37 27
83 79 65 16 14 14 20 14 17 12 5 25 5 0 10
13 2 12 24 26 26 42 45 42 0 0 0 0 0 0
0 0 0 21 25 33 0 0 0 0 0 7 0 0 0
32 36 37 82 80 75 0 0 0 0 0 0 0 0 0
0 0 0 43 54 47 13 19 15 15 11 15 8 4 5
0 0 0 0 0 0 5 0 0 18 5 0 0 0 0
15 14 16 54 53 54 36 43 37 24 17 30 0 8 0
0 0 0 0 0 0 0 0 0 0 0 0 0 0 0
0 0 0 0 0 0 0 0 0 0 0 0 0 0 0
0 0 0 0 0 0 0 0 0 0 0 0 0 0 0
0 0 0 0 0 0 0 0 0 12 7 19 0 0 0
0 0 0 0 0 0 0 0 0 61 52 66 60 51 34
0 0 0 0 0 0 0 3 0 0 0 0 0 0 0
0 0 0 0 0 0 0 0 0 0 0 0 0 0 0
0 0 0 97 81 83 25 16 31 68 69 68 94 97 98
0 0 0 0 0 0 0 0 0 2 12 0 0 0 0
0 0 0 0 0 0 0 0 0 0 0 0 0 0 0
34 34 24 22 25 12 0 0 0 0 0 0 216 212 213
0 0 0 0 0 0 0 0 0 255 255 255 93 92 95
0 0 0 17 11 8 0 0 0 0 0 0 17 14 19
0 0 0 13 19 21 0 0 0 0 0 0 0 0 0
0 0 0 11 6 0 0 0 0 0 0 0 0 0 0
0 0 0 0 0 0 0 0 0 0 0 0 0 0 0
0 0 0 7 1 0 0 0 0 0 0 0 0 0 0
0 0 0 0 5 0 0 0 0 0 0 0 0 0 0
71 61 79 122 110 133 118 124 132 0 0 0 0 0 0
0 0 0 47 40 43 0 0 0 0 0 0 36 68 50
0 0 0 0 0 0 2 0 7 120 124 116 56 56 62
38 28 26 21 19 28 0 0 0 0 0 0 0 9 10
18 22 15 0 5 0 0 0 0 0 0 0 81 84 83
11 2 11 0 0 0 0 0 0 0 0 0 17 20 27
1 0 0 0 0 0 0 0 0 0 2 0 0 2 0
0 0 0 0 0 0 0 0 0 0 0 0 0 0 0
0 0 0 29 20 1 84 66 60 91 77 72 26 23 15
0 0 0 0 0 0 93 69 50 61 119 133 37 97 71
40 67 42 55 111 47 70 205 53 73 96 79 0 0 0
25 43 62 1 10 20 0 0 0 0 0 0 0 0 0
0 0 0 0 0 0 0 0 0 0 0 0 0 0 0
0 0 0 0 0 0 0 0 0 0 0 0 0 0 0
0 0 0 0 7 0 0 2 0 0 0 0 0 0 0
0 6 0 0 0 0 0 0 0 10 3 17 3 0 15
0 0 22 0 0 0 5 0 5 0 0 0 5 0 12
0 0 0 78 76 73 231 226 255 0 0 0 0 0 0
15 7 25 0 0 0 0 0 0 36 24 6 89 88 91
44 31 26 0 0 0 37 32 30 37 36 34 0 0 0
0 0 0 7 13 9 75 77 66 27 23 8 0 0 0
0 6 7 3 1 17 93 96 102 0 0 0 0 0 0
9 16 0 38 42 20 0 0 0 14 17 14 0 0 0
5 0 12 0 0 0 11 11 15 18 7 27 0 0 0
0 0 0 0 0 0 35 36 30 0 2 0 29 26 28
0 0 0 38 27 46 82 75 70 10 1 12 0 0 0
0 0 0 0 0 0 25 25 23 0 6 0 0 1 7
0 0 0 0 0 0 0 0 0 13 0 0 12 0 0
9 0 2 20 14 12 19 22 17 7 10 0 0 0 0
0 1 0 0 0 0 0 0 0 0 0 0 0 1 0
0 0 0 0 0 0 0 0 0 0 17 0 0 27 0
16 36 24 0 0 0 11 0 2 0 0 0 0 0 0
7 12 7 0 0 0 0 0 0 0 0 0 37 47 40
22 23 32 10 19 1 0 0 0 3 0 0 46 49 53
55 56 33 21 4 0 0 0 0 22 16 19 13 15 0
0 0 0 0 0 0 16 0 0 18 4 0 17 0 6
0 0 0 0 0 0 0 0 0 0 0 0 18 22 22
109 108 113 0 0 0 0 0 0 18 11 1 0 0 0
0 0 0 0 0 0 25 24 22 13 14 4 0 0 0
0 0 0 0 0 0 34 44 27 67 74 71 0 0 0
181 187 179 0 0 0 0 0 0 0 0 0 205 203 199
56 49 51 0 0 0 0 0 3 96 97 91 39 37 35
18 15 10 0 0 0 25 21 25 7 12 0 0 0 0
0 0 0 0 1 0 1 8 0 0 0 0 0 0 0
3 0 0 0 0 0 0 0 0 0 0 0 0 0 0
0 0 0 8 0 0 0 11 0 0 0 0 0 0 0
3 1 0 0 0 0 0 0 0 6 12 8 0 11 2
0 0 0 2 0 4 0 0 0 32 26 38 34 17 33
0 0 0 16 15 5 40 44 46 0 0 0 0 0 0
69 88 75 22 42 32 0 0 0 0 0 0 82 85 76
50 43 54 33 29 32 34 30 36 19 11 4 0 0 4
6 13 7 4 20 26 0 2 0 0 0 0 0 0 0
19 16 19 0 0 0 8 6 8 25 22 23 27 26 32
15 19 12 12 10 6 19 14 14 0 8 0 0 17 0
0 0 0 0 0 0 0 0 0 4 0 0 15 15 13
19 13 0 19 13 7 25 20 13 44 25 8 48 29 21
14 3 0 0 0 0 0 0 0 20 14 0 34 49 41
87 146 145 29 117 102 0 5 3 0 20 6 0 17 8
0 0 0 0 0 0 0 0 0 0 0 0 0 0 0
12 8 24 41 24 41 20 0 36 7 0 20 31 7 41
0 0 0 31 19 33 31 30 43 16 12 13 0 0 0
0 4 0 0 0 0 0 0 0 5 9 2 3 3 0
0 4 0 0 0 0 0 0 5 0 0 0 12 6 8
0 0 2 2 2 16 0 0 1 5 0 9 0 0 0
18 11 23 0 0 0 147 147 116 201 203 222 0 0 0
0 0 0 6 0 2 0 0 0 0 0 0 34 14 8
85 77 87 21 22 22 0 0 0 23 17 14 10 25 12
0 0 0 0 0 0 6 4 3 69 57 52 19 13 1
0 0 0 0 0 0 6 3 9 101 100 106 0 0 0
0 0 0 15 20 12 39 39 31 0 0 0 12 21 16
0 0 0 0 0 0 11 2 8 22 22 10 0 12 5
0 0 0 0 0 0 0 0 0 9 31 20 0 0 0
21 16 22 0 0 0 43 38 53 72 73 61 0 0 0
0 0 0 0 0 0 0 0 0 37 47 42 2 2 3
0 1 8 0 0 0 0 0 0 0 0 0 17 5 14
8 2 0 9 16 9 1 6 2 13 4 5 0 0 0
0 0 0 0 0 0 0 0 0 0 0 0 0 0 0
0 0 0 0 0 0 0 0 0 0 0 0 0 0 0
0 0 0 3 19 0 0 0 0 26 14 28 3 6 10
0 0 0 12 13 7 0 0 0 0 0 0 0 0 0
28 31 19 28 18 24 36 28 30 0 0 0 0 0 0
18 14 13 52 36 37 31 16 14 4 6 4 35 22 29
20 21 13 0 0 0 0 0 0 0 0 0 3 1 5
0 0 0 18 7 24 0 0 0 0 0 0 0 0 0
103 106 111 247 241 245 67 65 79 0 0 0 0 0 0
0 0 0 0 0 0 5 12 3 30 34 40 0 0 0
0 0 0 0 0 0 0 0 0 74 70 77 85 87 83
0 0 0 225 228 236 66 63 65 0 0 0 0 0 0
0 0 0 146 134 146 0 0 0 0 0 0 40 28 26
0 0 0 27 28 29 0 0 0 2 0 0 0 4 0
1 0 0 0 0 0 0 0 0 1 12 3 0 5 0
0 0 0 0 0 9 0 3 3 0 0 0 1 1 0
0 0 0 0 4 1 10 0 4 9 19 15 0 0 0
0 0 0 0 0 1 0 0 0 0 0 0 0 0 0
0 0 0 0 0 0 0 0 0 0 0 0 0 0 0
43 41 40 20 22 32 0 0 0 5 6 16 40 53 44
0 0 0 5 12 16 0 0 0 0 0 0 0 0 0
18 6 5 68 52 69 74 72 82 55 33 36 26 15 3
0 2 6 7 8 0 3 0 5 0 0 0 4 2 0
0 0 0 18 20 25 11 11 9 64 41 53 54 57 59
4 12 4 0 0 0 0 0 0 12 23 23 0 0 0
0 0 0 0 0 0 5 0 0 18 0 11 17 10 10
25 10 11 12 13 15 11 0 0 13 0 8 0 0 0
3 0 0 23 14 19 0 0 0 0 0 0 0 0 0
0 0 0 40 34 45 100 80 92 13 6 2 0 0 0
0 0 0 0 0 0 0 0 0 0 0 0 0 0 0
34 31 46 79 61 80 59 57 65 14 13 26 0 0 0
3 7 9 0 0 0 2 0 10 0 0 2 0 0 0
0 0 0 12 18 19 10 3 3 0 0 0 4 4 5
0 0 0 0 0 0 0 2 0 10 10 10 0 3 0
1 0 0 4 0 12 4 1 8 5 5 22 2 0 0
0 0 0 36 26 40 0 0 0 207 212 172 135 133 155
0 0 0 0 0 0 0 0 0 0 0 0 12 5 4
30 29 27 102 97 86 34 30 34 0 0 0 31 19 17
11 13 15 0 0 0 0 0 0 1 13 18 63 66 54
7 10 15 0 0 0 0 0 0 19 11 20 93 107 105
0 0 0 0 0 0 44 48 40 45 53 39 4 4 8
34 41 33 0 0 0 0 0 0 36 25 21 43 28 33
6 11 10 0 0 0 0 0 0 5 9 0 19 25 30
2 1 3 10 5 1 0 0 0 69 56 71 62 64 52
0 0 0 0 0 0 0 0 0 0 0 0 63 60 54
0 2 2 0 0 1 0 0 0 0 0 0 0 0 0
22 8 18 13 6 7 0 0 0 3 9 11 16 13 18
21 19 27 25 15 25 22 10 17 12 0 6 0 2 0
0 0 0 0 0 0 0 0 0 0 0 0 0 0 0
0 0 0 0 0 0 0 0 0 0 0 0 0 0 0
0 0 0 0 0 0 0 0 0 0 0 0 0 0 0
0 0 0 0 14 0 16 18 15 62 42 38 10 0 0
0 0 0 0 0 0 32 27 15 12 0 3 17 15 12
25 17 18 26 26 21 2 0 0 0 0 0 0 0 0
0 0 0 0 0 0 20 29 32 0 0 0 0 0 0
0 0 0 23 26 36 116 133 138 135 129 152 0 0 0
0 0 0 0 0 0 0 0 0 0 0 0 13 5 8
0 0 0 0 0 0 0 0 0 0 0 0 0 0 0
0 0 0 0 0 0 98 98 103 101 98 98 85 88 85
38 37 46 0 0 0 187 180 199 0 0 0 0 0 0
36 35 38 0 0 0 0 0 0 0 0 0 0 0 0
0 0 0 3 7 2 2 6 0 11 11 15 1 0 0
10 0 0 6 0 0 13 11 11 0 14 3 16 0 18
0 11 0 11 0 13 0 13 0 19 2 22 11 28 14
3 0 10 7 4 0 5 2 16 1 0 0 0 0 11
2 0 0 3 0 13 10 0 0 16 18 26 0 0 0
0 0 0 22 27 19 0 0 0 0 0 0 0 0 0
62 62 56 0 0 0 0 0 0 0 2 0 0 0 0
0 0 0 0 0 0 75 74 89 81 70 79 32 20 27
8 0 0 0 0 0 0 0 0 0 0 0 0 0 0
0 0 2 0 0 0 26 17 34 5 12 12 34 16 30
19 26 21 0 0 0 0 0 0 0 0 0 31 33 21
23 6 20 14 12 7 18 12 21 23 10 13 2 0 10
0 0 0 0 0 0 0 0 0 0 0 0 0 0 0
0 0 0 0 0 0 19 7 21 21 22 23 0 0 0
0 0 0 0 0 0 0 0 0 14 0 3 90 95 91
89 105 97 8 13 22 0 0 0 7 13 20 26 21 25
17 25 30 31 25 44 33 28 40 19 25 17 0 0 0
0 0 0 0 0 0 0 0 5 0 0 0 0 0 0
0 0 0 3 4 1 33 34 43 11 16 25 0 0 0
7 0 7 3 0 0 0 0 0 0 0 0 11 11 11
0 8 0 2 0 0 1 3 0 3 6 0 4 10 16
7 5 0 0 0 0 31 18 33 0 0 0 250 251 237
64 66 82 0 0 0 0 0 0 0 0 0 0 0 0
43 30 33 65 58 50 134 122 118 62 52 61 0 0 0
44 55 42 38 36 32 0 0 0 0 0 0 5 12 3
59 50 47 13 14 5 2 0 0 24 24 15 36 20 34
93 100 102 0 0 0 0 0 0 43 46 48 19 26 22
9 0 0 37 33 25 0 0 0 0 0 0 42 46 37
39 38 35 0 4 0 0 0 0 0 0 0 5 16 6
0 16 26 7 26 14 0 0 0 0 0 0 82 70 85
47 53 40 0 0 0 0 0 0 0 0 0 0 0 0
52 52 46 0 1 1 0 0 0 0 0 0 0 0 10
15 12 0 11 9 13 12 3 7 13 9 1 4 0 0
25 14 13 39 39 32 52 46 39 55 48 36 69 60 60
60 52 43 130 101 104 107 90 97 102 81 73 70 52 48
24 20 9 0 0 0 0 0 0 0 0 0 0 0 0
0 0 0 0 0 0 0 0 0 0 0 0 0 0 0
0 0 0 0 0 0 0 0 0 9 1 11 42 51 52
3 10 0 0 0 0 0 0 0 11 0 2 0 0 0
29 25 10 21 17 12 28 17 18 0 8 0 0 0 0
11 0 3 0 0 0 0 0 0 6 0 4 37 33 27
0 0 0 0 0 0 0 0 0 0 0 0 181 171 176
249 255 255 95 99 94 64 68 66 0 0 0 0 0 0
0 0 0 30 43 23 0 0 6 0 0 0 0 0 0
0 0 0 0 0 0 0 0 0 0 0 0 0 0 0
89 91 91 193 190 202 255 255 255 167 152 167 0 0 0
0 0 0 153 150 159 0 0 0 0 0 0 0 0 0
0 0 0 0 0 0 0 4 1 0 3 6 6 8 0
0 6 8 7 9 6 3 11 5 18 20 26 8 17 2
17 1 20 0 6 0 10 0 13 1 8 0 13 0 16
21 28 12 2 0 8 8 2 0 2 0 11 4 0 0
0 0 9 0 0 0 5 0 12 0 0 0 23 39 24
0 0 0 0 0 0 0 0 0 0 0 0 0 0 0
0 0 2 24 38 42 0 0 2 0 0 0 17 8 16
8 13 27 0 0 0 0 0 0 42 51 52 11 9 4
76 58 52 25 4 0 19 1 3 7 0 0 0 0 0
0 0 0 0 0 0 3 4 0 0 0 0 0 0 0
0 0 0 0 0 0 0 0 0 0 0 0 0 14 6
52 65 51 44 49 58 46 37 34 11 8 13 0 0 0
0 0 0 0 0 0 0 0 0 0 0 0 0 0 0
0 0 0 4 0 0 0 0 0 9 0 0 17 6 0
10 0 0 0 0 0 0 0 0 0 0 0 0 0 0
73 59 67 104 104 108 60 42 59 0 0 0 0 0 0
2 0 16 0 0 15 0 0 0 0 0 0 0 0 0
0 0 0 0 0 0 0 0 0 27 29 32 13 1 8
0 0 0 0 0 0 11 4 9 33 36 31 5 13 5
0 0 0 0 8 4 0 0 0 0 0 0 0 0 0
5 5 11 0 7 4 9 0 15 4 4 10 3 3 13
0 0 2 4 0 5 0 0 0 7 0 15 16 15 17
245 252 255 0 0 0 0 0 0 0 0 0 0 0 0
0 0 0 0 0 0 24 13 20 91 83 88 27 29 34
0 0 0 23 27 10 24 15 20 0 0 0 0 0 0
11 17 6 51 39 33 12 1 0 3 8 10 34 42 34
23 28 43 69 71 73 0 0 0 0 0 0 28 29 31
0 0 0 0 0 0 21 24 28 0 0 0 0 0 0
23 9 9 6 14 0 0 0 0 0 0 0 0 0 0
4 0 1 0 0 0 0 0 0 0 0 0 0 0 0
95 83 98 40 49 35 0 0 0 0 0 0 0 0 0
0 4 4 36 42 34 0 2 1 0 0 0 0 0 0
0 0 9 9 20 1 19 11 18 0 4 1 37 33 25
7 5 0 0 0 0 12 9 3 27 31 17 43 32 42
74 60 62 98 88 90 147 112 113 135 118 124 152 137 125
152 136 131 138 125 125 117 109 109 98 87 64 137 123 111
23 24 36 54 60 82 18 18 27 5 1 2 11 15 5
0 0 0 0 0 0 0 0 0 0 0 0 5 2 0
36 31 28 28 15 13 0 0 0 0 0 0 1 0 0
0 0 0 10 0 0 2 5 0 19 19 8 5 4 0
10 0 3 8 11 5 3 6 0 0 0 0 60 55 57
53 45 38 0 0 0 17 26 18 0 0 0 0 0 0
106 107 108 190 179 197 185 175 178 175 167 163 48 39 47
0 0 0 0 0 0 0 0 2 18 9 16 0 0 0
2 0 1 23 18 13 36 35 30 10 18 11 20 10 10
0 0 0 0 0 0 0 0 0 161 148 163 248 253 255
0 0 0 21 16 16 8 1 5 0 0 0 4 0 2
0 0 0 0 0 0 1 0 0 0 0 0 0 0 0
9 2 7 8 17 11 17 5 8 10 0 6 23 24 20
7 14 0 5 7 19 0 2 0 0 0 10 1 4 0
3 2 15 17 17 6 2 1 14 6 8 0 2 3 15
0 0 0 0 0 10 0 0 0 0 0 8 12 3 3
0 0 0 0 2 0 20 30 21 4 0 0 0 0 0
0 3 0 36 33 35 0 0 0 13 13 20 0 0 0
0 4 10 21 30 25 0 0 0 0 0 0 0 17 18
0 0 0 124 107 110 58 29 38 51 45 56 22 23 11
0 0 0 8 0 0 0 4 0 0 0 0 0 0 0
0 0 0 23 20 34 33 28 39 9 9 3 4 2 0
8 22 18 32 38 28 7 0 5 0 0 0 0 0 0
0 0 0 0 0 0 0 0 0 27 24 30 103 93 102
0 0 0 0 0 0 0 0 0 0 0 0 0 0 0
24 17 11 60 30 27 33 20 5 2 0 0 0 0 0
0 0 0 0 0 0 61 47 61 169 177 197 149 138 162
0 0 5 18 0 26 27 17 45 18 1 27 0 0 0
0 0 6 6 8 3 0 0 0 0 0 0 30 29 26
21 12 20 0 0 0 0 0 0 0 0 0 21 28 21
8 10 18 0 0 0 4 7 3 0 0 6 0 0 0
0 0 0 0 0 0 0 9 0 15 6 11 5 5 3
0 0 0 0 0 0 6 0 4 0 0 0 0 0 0
76 73 85 227 232 250 0 0 0 0 0 0 0 13 7
0 0 0 0 0 0 0 0 0 0 0 0 71 63 53
11 5 14 0 0 0 0 9 0 3 0 10 0 0 0
0 0 0 0 11 8 23 25 22 0 0 0 16 11 12
61 60 45 24 21 25 26 18 33 0 0 0 0 0 5
32 39 21 0 0 0 0 0 0 33 30 26 0 0 0
0 0 0 0 0 0 6 19 0 0 0 0 0 0 0
0 3 8 4 3 10 0 0 0 0 5 12 0 0 0
0 0 0 117 109 123 40 53 38 0 0 0 0 0 0
17 3 8 38 34 40 14 8 7 0 0 0 0 0 0
0 0 0 6 7 20 17 23 6 15 0 9 0 0 0
26 16 23 1 0 0 0 0 0 0 0 0 0 0 0
0 0 0 4 0 0 32 39 36 1 0 0 18 3 4
53 28 35 55 38 49 68 62 49 76 64 69 101 81 64
122 107 105 87 92 101 85 97 102 57 63 56 39 41 45
46 51 45 0 0 0 0 0 0 0 0 0 16 23 13
0 0 0 19 10 21 0 4 0 0 0 0 0 2 0
1 0 0 0 0 0 0 0 0 0 0 0 15 15 10
1 4 6 4 4 3 24 19 24 24 3 11 0 0 0
56 64 53 0 0 0 0 0 0 0 0 0 0 0 0
0 0 0 0 0 0 0 0 0 0 0 0 138 146 140
169 171 186 0 12 0 0 0 0 0 0 0 16 15 5
16 23 7 43 52 45 0 2 10 0 0 0 0 0 0
0 0 4 0 0 0 0 0 0 0 0 0 0 0 0
186 188 181 219 207 212 152 156 160 0 0 0 0 0 0
71 64 65 26 37 51 0 0 0 1 0 13 0 0 0
0 0 0 0 0 0 4 22 18 2 1 1 0 0 0
13 20 11 9 9 0 4 1 0 0 0 0 0 0 0
0 0 0 0 0 0 0 4 0 5 0 2 3 8 0
0 0 0 0 0 0 0 0 0 0 0 0 8 0 0
21 3 0 0 0 0 0 0 0 27 36 29 6 4 8
0 0 0 14 21 23 39 38 42 0 0 0 1 17 12
0 0 0 0 0 0 1 15 8 0 0 0 0 0 0
0 0 0 0 0 0 70 64 66 20 0 1 50 40 34
33 13 18 8 0 0 9 0 0 14 0 0 0 0 0
0 0 0 54 61 46 102 106 104 45 47 42 0 0 0
0 0 0 0 0 0 5 15 5 0 0 0 0 0 0
0 0 0 0 0 0 13 23 22 30 41 43 50 70 49
116 126 112 0 0 0 0 0 0 0 0 0 3 0 0
0 0 0 17 0 1 51 30 18 46 27 15 39 16 31
29 7 16 29 8 17 2 0 0 11 1 8 159 152 156
211 201 217 90 97 108 0 0 0 49 41 66 56 41 71
33 21 32 24 15 18 19 28 26 0 6 6 0 0 0
5 8 10 26 18 11 8 4 4 0 0 0 0 0 0
0 0 0 0 7 5 0 0 0 2 11 2 5 7 9
0 0 0 1 6 0 0 0 0 0 0 0 18 9 24
1 0 0 0 0 0 0 0 0 2 0 0 0 0 0
0 0 0 121 117 115 255 255 255 0 0 0 0 0 0
24 38 39 0 0 0 0 0 0 0 0 0 0 0 0
65 65 71 23 8 5 0 0 0 0 0 0 12 7 4
0 0 0 0 0 0 0 0 0 1 1 0 0 0 0
33 28 23 91 83 85 40 29 47 0 0 0 0 0 0
0 0 0 72 79 81 43 58 48 41 49 41 68 77 61
12 8 8 34 24 28 11 1 3 39 37 18 0 0 0
0 0 0 0 0 0 0 0 7 6 27 36 42 54 70
0 0 0 0 0 0 118 114 127 65 70 55 0 0 0
0 0 0 0 0 0 33 43 43 0 2 0 0 6 1
0 0 0 0 0 0 7 6 20 16 19 3 0 0 0
0 0 0 0 0 0 0 0 0 0 0 0 0 0 0
0 0 0 0 0 0 0 0 0 0 0 0 0 0 0
0 0 0 0 0 0 0 0 0 0 0 0 0 0 0
0 0 0 0 0 0 44 36 42 24 32 41 0 4 1
4 6 12 49 51 46 42 38 43 47 42 47 62 63 59
84 87 73 21 20 25 2 0 0 0 0 0 6 0 1
24 24 7 35 31 46 10 19 7 18 6 4 37 27 25
62 55 48 44 40 49 53 31 26 42 47 55 43 34 28
25 8 18 93 85 83 47 45 30 0 0 0 0 0 0
0 0 0 0 0 0 0 0 0 0 0 0 0 0 0
61 61 74 190 178 185 0 0 0 0 0 0 0 0 0
0 0 0 0 0 0 3 0 0 5 2 11 0 0 0
6 1 1 0 0 0 0 0 0 0 0 0 0 0 0
0 0 0 0 0 0 96 102 104 255 255 255 96 90 95
0 0 0 0 0 0 62 69 84 0 0 0 0 0 0
0 0 0 0 0 0 3 0 0 25 22 23 31 18 16
2 0 0 32 49 25 21 21 5 17 13 7 0 0 0
0 0 0 0 0 0 2 0 0 7 0 0 29 19 19
17 13 6 8 4 0 0 0 0 3 0 0 0 0 0
0 0 0 0 0 0 0 0 0 0 8 0 40 45 36
0 8 9 0 0 0 35 29 34 74 83 71 35 48 44
17 24 12 0 0 0 0 0 0 3 7 1 6 0 4
1 0 2 0 11 10 0 0 0 24 17 22 39 29 26
104 84 94 59 40 47 7 0 0 2 0 0 24 6 14
0 0 0 0 0 0 111 108 104 195 185 195 76 84 79
0 0 0 0 0 0 0 0 0 52 48 48 0 0 0
0 0 0 16 21 25 62 73 63 87 88 92 37 47 46
0 0 0 0 0 0 55 48 50 0 0 0 0 0 0
0 0 0 0 0 0 2 0 0 45 17 15 34 16 0
119 86 101 0 0 0 0 0 0 0 0 0 0 0 0
0 0 0 49 36 58 72 58 87 0 0 0 50 45 55
103 80 109 65 54 67 29 13 26 10 13 22 14 5 10
12 7 16 0 0 0 1 14 8 18 17 12 0 0 0
0 0 0 0 0 0 1 3 2 2 0 0 9 13 5
2 2 2 0 0 0 0 0 0 25 25 25 0 7 2
1 0 0 0 0 0 0 0 1 0 2 7 10 5 3
0 0 0 12 0 26 162 164 164 150 150 166 0 0 0
0 0 0 1 20 5 0 0 0 0 0 0 27 0 13
81 74 56 124 125 123 63 67 58 74 72 71 123 127 116
66 61 63 0 0 0 0 0 0 36 39 32 15 9 8
21 16 16 52 47 55 0 0 0 0 0 0 0 2 12
54 54 66 89 92 110 0 0 0 0 0 0 43 26 21
11 0 0 6 2 0 28 15 19 36 38 34 0 0 0
0 0 0 42 47 49 188 199 210 3 3 6 0 0 0
0 0 0 0 0 0 53 37 12 132 135 146 0 9 0
0 0 0 0 0 0 104 91 97 41 31 37 1 0 0
0 0 0 0 0 0 0 0 0 19 16 30 47 45 30
26 24 27 3 0 0 74 63 60 32 19 32 0 0 0
0 0 0 0 0 12 11 24 15 7 3 0 0 0 0
0 0 0 0 0 0 0 0 0 0 0 0 0 0 0
0 0 0 0 0 0 0 0 0 0 0 0 0 0 0
0 0 0 0 0 0 0 0 0 0 0 0 0 0 0
0 0 0 0 0 0 3 11 0 48 42 40 3 4 2
14 6 16 0 3 0 0 0 0 0 0 0 0 0 0
0 0 0 0 0 0 5 18 15 37 32 32 11 4 17
0 0 0 25 19 10 90 100 81 33 25 17 0 0 0
0 0 0 0 0 0 0 0 0 0 0 0 0 0 0
12 10 31 0 0 0 194 190 210 255 255 255 182 188 186
223 229 242 157 162 164 0 0 0 0 0 0 0 6 12
112 112 113 0 6 3 0 0 0 21 21 21 0 0 0
8 6 5 0 0 0 0 0 0 0 0 0 230 227 224
245 245 255 0 0 0 0 0 0 83 81 88 11 14 10
0 0 0 0 0 4 29 41 25 8 11 7 0 0 0
0 0 0 0 0 0 9 21 2 0 0 0 0 0 0
0 0 0 0 0 0 0 0 0 0 0 0 0 0 0
0 0 0 0 0 0 0 0 0 0 0 0 0 0 0
0 12 0 15 2 0 0 0 0 51 65 58 9 20 18
0 0 0 0 0 0 0 0 0 0 0 0 0 0 0
0 0 0 0 0 0 0 0 0 0 4 0 0 4 0
0 0 0 8 2 0 0 14 9 0 0 0 0 0 0
0 0 0 0 0 0 0 0 0 159 138 144 32 7 11
0 0 0 16 11 5 0 0 0 0 0 0 52 45 51
0 0 0 0 0 0 1 0 0 123 111 112 0 0 0
10 4 0 24 17 21 67 67 67 27 27 17 0 0 0
0 13 5 58 70 57 41 53 36 45 45 49 42 57 44
97 100 95 239 236 223 187 179 184 48 57 44 92 85 79
131 127 122 0 0 0 0 0 0 0 0 0 0 0 0
0 0 0 0 0 0 0 0 0 0 0 0 108 102 104
23 23 32 0 0 0 0 0 0 0 0 0 13 15 7
4 0 10 0 0 0 33 30 30 7 14 17 0 0 0
0 0 0 0 0 0 0 0 0 1 0 3 20 26 26
0 0 0 0 0 0 0 0 0 0 0 0 0 0 3
2 10 11 21 9 21 17 20 22 7 7 8 0 0 0
4 0 5 0 0 0 0 0 0 177 175 189 147 152 164
0 0 0 0 0 0 21 34 30 0 0 0 0 0 0
9 0 5 44 33 32 82 79 85 8 7 1 10 3 0
57 48 55 35 27 25 0 0 0 0 0 0 26 29 33
9 0 0 26 31 24 32 28 25 0 0 0 0 0 0
106 107 126 52 58 69 0 0 3 0 0 0 0 0 0
0 0 0 0 0 0 0 0 0 0 0 0 10 6 9
0 0 0 0 0 0 29 35 28 30 40 51 0 0 0
5 17 40 0 0 0 0 0 0 51 36 9 127 135 144
23 14 3 0 0 0 0 0 0 74 74 76 24 27 29
0 0 0 0 0 0 0 0 0 0 0 0 6 3 16
12 26 11 16 7 11 0 0 0 61 43 54 35 31 38
0 0 0 1 0 0 0 1 0 13 4 0 0 0 0
0 0 0 11 4 0 0 1 0 0 0 9 0 0 0
0 0 0 0 0 0 0 0 0 0 3 0 0 0 0
0 2 4 3 1 0 5 0 4 4 0 0 0 9 0
0 3 0 0 0 0 0 0 0 23 32 30 47 38 49
0 3 0 17 3 14 19 19 14 0 0 0 0 0 0
0 0 0 0 0 0 0 0 0 7 1 3 3 0 3
20 22 16 38 36 29 41 35 35 71 67 60 24 7 14
0 0 0 0 0 0 0 0 0 0 0 0 0 2 0
0 0 0 0 0 0 0 0 0 0 0 0 96 97 100
94 85 97 179 173 193 255 255 255 255 251 255 0 0 0
0 0 0 0 0 0 116 117 108 69 59 56 0 0 0
0 0 0 0 0 0 0 0 0 0 0 0 0 0 0
151 145 134 211 210 216 0 0 0 0 0 0 102 110 116
0 0 0 0 0 0 0 0 0 0 0 0 0 0 0
24 24 14 59 47 43 4 2 0 0 0 0 0 0 0
0 0 0 0 0 0 0 0 0 0 0 0 0 0 0
0 0 0 0 0 0 0 0 0 0 0 0 0 0 0
0 0 0 0 0 0 0 15 0 32 32 24 0 0 0
0 0 0 0 0 0 25 24 15 30 25 13 0 0 0
0 0 0 0 0 0 0 1 0 0 7 0 0 1 0
0 10 0 9 7 4 2 11 1 3 22 13 0 5 0
0 0 0 0 9 7 0 0 0 0 0 0 127 114 117
24 8 8 18 0 0 1 0 0 0 0 0 0 0 0
34 27 31 0 0 0 0 0 0 10 14 6 98 88 87
0 0 0 17 5 0 38 21 28 36 45 40 56 44 55
100 109 98 94 110 101 65 70 72 88 100 97 171 176 169
116 121 111 37 42 37 68 64 66 0 0 0 0 0 0
0 0 0 0 0 0 0 0 0 0 0 0 0 0 0
0 0 0 0 0 0 0 0 0 0 0 0 0 0 0
0 0 0 0 0 0 0 0 0 0 0 0 6 0 7
1 1 0 0 0 0 0 0 0 16 13 9 7 12 14
0 0 0 0 0 0 0 0 0 0 0 0 0 0 0
17 16 19 0 0 0 6 0 0 8 0 0 1 0 0
0 0 4 0 0 0 0 0 7 4 2 13 0 0 0
0 0 0 0 0 0 0 0 0 0 0 0 198 200 205
63 64 73 0 0 0 0 0 0 45 62 46 0 0 0
0 0 0 0 0 0 36 17 24 58 51 46 0 0 0
0 0 0 36 41 31 17 20 25 0 0 0 0 0 0
0 14 6 17 17 8 70 74 55 33 20 27 0 0 0
52 40 62 183 178 193 0 0 0 0 0 0 13 6 7
75 83 73 21 15 7 0 0 0 0 0 0 0 0 0
0 0 0 4 0 0 0 0 5 13 22 30 0 0 11
0 0 0 29 24 54 0 0 4 0 0 0 54 40 11
128 125 140 1 4 0 0 0 0 4 0 0 80 68 69
33 24 34 0 0 0 0 0 0 0 0 0 0 0 0
9 6 18 9 19 5 25 5 11 30 30 16 38 34 44
37 20 34 0 3 0 0 0 0 0 0 0 0 0 0
0 0 0 0 0 0 0 9 0 0 0 0 0 0 0
0 0 0 0 0 0 0 0 0 0 0 0 0 2 2
0 0 0 0 0 0 0 0 0 0 0 0 0 0 0
0 0 0 0 0 0 0 0 0 0 0 0 27 25 8
35 40 31 0 3 0 20 8 10 14 17 12 5 0 0
0 0 0 0 0 0 0 0 0 0 0 0 0 0 0
0 0 0 31 29 36 74 67 75 41 42 54 20 24 12
33 28 24 10 18 14 20 23 11 23 26 28 16 23 28
31 42 18 61 59 54 39 41 58 0 0 13 0 0 0
0 0 0 0 0 0 0 0 0 0 0 10 255 255 255
255 255 255 56 58 68 0 0 0 0 0 0 35 30 39
0 0 0 0 0 0 26 19 8 26 15 15 0 0 0
0 0 0 8 1 0 248 251 255 86 83 76 0 0 0
0 0 0 0 0 0 17 17 18 12 13 9 0 0 0
0 0 0 1 4 13 11 3 6 0 0 0 0 0 0
0 0 0 11 3 8 1 11 16 0 2 9 13 15 23
60 56 67 111 118 123 101 101 109 110 107 116 81 76 86
27 37 39 0 2 6 0 0 5 0 0 0 0 0 0
0 0 0 0 0 0 13 16 24 0 2 1 0 0 0
0 0 0 0 0 0 2 0 0 0 0 0 0 0 0
0 0 0 0 0 0 0 0 2 0 0 1 0 11 4
0 0 0 0 0 8 15 22 19 0 0 0 0 0 0
102 90 95 48 32 33 50 36 41 1 0 0 0 0 0
54 41 45 53 62 75 0 0 0 0 0 0 19 23 28
50 45 55 0 0 0 14 0 6 39 13 11 84 71 64
97 94 82 96 90 100 69 74 73 46 44 49 73 78 67
20 17 24 0 0 0 0 0 0 0 0 0 0 0 0
0 0 0 0 2 0 0 0 0 0 0 0 0 0 0
0 0 0 0 0 0 0 0 0 0 0 0 1 12 2
25 33 29 0 0 0 0 0 0 0 0 0 39 36 33
90 80 88 74 59 62 46 29 50 54 40 63 15 10 16
14 17 12 0 0 0 0 0 0 0 0 0 0 0 0
0 1 0 17 12 14 0 4 2 0 7 0 0 9 3
2 14 0 2 2 11 0 0 0 0 0 0 0 0 0
0 0 0 0 0 0 0 0 0 0 0 0 21 12 19
248 246 255 19 26 30 0 0 0 0 0 0 37 50 38
0 0 0 0 0 0 0 0 0 18 10 11 33 37 36
0 0 0 0 0 0 41 40 33 20 16 13 0 0 0
0 0 0 3 16 10 35 25 24 98 92 95 12 17 31
0 0 0 98 104 132 109 106 120 0 0 0 0 0 0
97 95 86 152 168 151 86 71 57 0 0 0 0 0 0
0 0 0 69 70 66 51 57 63 0 0 0 0 0 0
2 0 17 0 0 0 0 0 0 0 0 24 0 0 0
67 55 25 125 126 139 0 0 0 0 0 0 5 9 0
74 74 72 17 20 27 0 0 0 0 0 0 0 0 0
5 7 1 28 24 36 24 31 18 15 5 5 26 24 13
0 0 0 0 0 0 0 0 0 0 0 0 0 0 0
0 8 0 0 0 0 0 0 0 0 19 10 0 5 10
0 0 0 0 0 0 0 0 0 0 0 6 0 0 13
0 8 5 0 0 0 0 0 0 0 0 0 0 0 0
0 0 0 0 0 0 0 0 0 0 0 0 0 0 0
16 22 9 45 28 41 0 0 0 7 1 14 2 14 0
5 0 4 2 0 0 37 29 31 0 0 0 3 0 0
0 0 0 0 0 0 44 46 33 102 90 88 39 45 37
0 0 0 3 4 0 37 27 34 57 67 63 70 58 65
35 23 31 8 10 0 20 23 10 0 0 0 0 0 0
0 0 0 0 0 0 0 0 0 0 0 0 0 0 0
0 0 0 193 180 190 255 255 255 36 34 37 0 0 0
59 50 51 28 30 30 0 0 0 0 0 0 4 9 21
0 0 0 0 0 0 0 0 0 141 135 141 255 255 255
0 0 0 0 0 0 0 0 0 0 0 0 0 2 0
32 37 25 27 12 20 0 0 0 0 0 0 0 0 0
0 0 0 0 0 0 42 48 40 65 69 62 51 49 44
67 80 67 121 129 118 184 183 175 125 143 129 180 192 180
227 237 226 219 224 215 172 181 174 103 109 103 0 0 0
0 0 0 0 0 0 45 48 50 41 38 41 0 0 0
0 0 0 0 0 0 12 9 2 19 20 16 0 0 0
0 4 0 0 4 0 0 0 0 0 1 0 0 0 0
0 0 3 0 0 0 17 24 17 39 56 61 0 0 0
0 0 0 41 40 30 2 0 0 72 52 52 34 20 27
0 0 0 122 110 98 110 118 117 12 12 6 0 0 0
0 8 0 15 2 3 0 0 0 11 0 0 12 0 0
114 98 107 77 62 71 0 0 0 0 0 0 0 0 13
0 0 0 0 0 0 0 0 0 0 0 0 0 0 0
0 0 6 0 19 10 68 79 70 10 22 10 0 0 0
0 0 0 0 15 6 33 41 29 21 34 17 0 21 0
0 0 0 0 0 0 0 2 0 0 0 0 2 6 0
96 88 76 115 112 116 65 71 81 46 38 56 72 51 85
3 11 3 13 7 1 0 0 0 0 0 1 0 0 0
0 0 0 0 0 8 19 13 9 1 11 5 10 11 0
3 4 0 5 10 0 61 58 63 0 0 0 0 0 0
0 0 0 0 0 3 7 15 16 0 0 1 0 0 0
60 54 56 255 255 255 0 0 0 0 0 0 0 2 0
13 26 14 0 0 0 0 0 0 0 0 0 15 10 0
44 41 34 4 9 5 0 0 0 41 39 29 9 10 19
0 0 0 0 0 0 8 6 15 4 0 0 32 26 13
0 0 0 28 29 17 151 147 186 0 0 0 0 0 0
0 0 0 36 31 32 52 68 65 75 62 55 0 0 0
0 0 0 0 0 0 204 197 205 53 49 52 0 0 0
0 0 0 14 20 32 0 0 1 0 0 0 0 0 0
0 0 0 72 60 31 123 126 138 0 0 0 0 0 0
27 20 16 73 61 66 17 8 13 0 0 0 0 0 0
0 0 0 1 4 0 45 47 60 44 46 35 22 4 7
6 4 0 0 0 0 0 0 0 0 0 0 0 0 0
0 0 0 5 7 0 0 16 0 0 0 0 3 11 8
0 7 6 0 0 0 0 0 0 0 0 0 0 0 0
2 0 0 0 16 0 5 0 0 0 0 0 0 0 0
0 0 0 0 0 0 3 0 0 0 0 0 0 0 0
0 0 0 3 22 0 29 33 25 0 0 0 11 1 4
12 20 12 10 0 11 0 0 0 44 40 48 0 0 0
8 14 27 0 0 0 0 0 0 16 23 21 64 56 68
0 0 0 0 0 0 0 0 0 0 0 0 15 29 18
5 9 0 0 0 0 0 0 0 0 0 0 0 0 0
0 0 0 0 0 0 0 0 0 0 0 0 0 0 0
0 0 0 0 0 0 0 0 0 183 192 187 221 217 226
0 0 0 0 0 0 24 25 19 0 0 0 0 0 0
0 0 6 0 0 2 50 56 55 0 0 0 0 0 0
255 255 255 151 147 157 0 0 0 0 0 0 0 0 0
0 0 0 9 3 1 3 2 4 0 0 0 0 0 0
21 18 26 124 121 139 83 77 107 75 67 87 33 39 50
0 0 1 0 0 0 0 0 0 0 0 0 0 0 0
0 0 0 0 0 0 0 0 0 0 0 13 50 50 64
85 85 103 89 88 92 25 18 39 44 42 40 50 40 66
13 0 12 0 0 0 0 0 0 0 0 0 11 0 3
0 0 1 0 0 0 0 0 0 0 0 0 0 0 0
0 0 0 0 0 0 0 0 0 0 0 0 18 31 26
10 31 33 0 0 0 0 0 0 0 0 0 53 41 43
76 59 52 0 0 0 61 53 58 27 37 38 0 0 0
0 0 0 0 9 1 21 9 24 41 32 33 34 23 38
55 47 45 111 97 104 0 0 0 0 0 0 0 0 0
0 0 0 0 0 0 0 0 0 5 12 0 0 0 8
16 19 14 0 0 0 0 0 0 22 27 35 0 0 0
0 0 0 27 43 33 71 68 68 75 87 83 46 48 50
0 2 0 0 0 0 0 0 0 14 16 0 0 0 0
0 0 0 0 0 0 0 0 0 0 0 0 0 0 0
0 0 0 30 34 35 20 17 23 13 13 22 0 1 0
0 0 0 0 0 0 0 0 0 13 10 3 0 0 3
0 1 0 2 4 5 0 0 0 74 76 84 33 42 37
1 0 3 0 4 0 37 39 39 57 64 59 61 53 51
1 13 19 90 79 47 255 255 255 0 0 0 0 0 0
0 9 5 0 1 0 0 0 0 0 0 0 0 0 0
19 11 3 55 49 50 23 24 8 25 12 26 47 40 29
6 4 9 0 0 0 0 0 0 0 9 0 0 0 0
0 0 0 0 0 0 12 7 15 198 196 228 0 0 0
0 0 0 7 15 10 87 89 82 59 56 38 43 30 20
0 0 0 0 0 0 7 2 4 230 232 253 0 0 0
0 0 0 0 0 0 0 0 0 0 12 8 0 0 3
0 0 0 0 0 0 85 74 46 112 116 128 0 0 0
0 0 0 34 31 25 72 66 69 0 0 0 0 0 0
0 0 0 0 0 0 14 18 10 63 62 76 42 59 40
11 0 0 0 0 0 0 0 0 0 7 0 0 0 0
0 0 0 0 0 0 0 2 0 0 0 0 0 0 0
0 0 0 0 0 0 0 0 0 0 0 0 0 0 0
0 0 0 0 0 0 0 0 0 0 5 0 3 6 0
6 0 7 6 0 7 3 6 0 0 7 0 0 1 0
0 5 0 0 0 0 14 34 0 37 32 44 0 0 0
0 2 0 18 13 0 0 0 0 0 0 0 8 9 9
0 0 0 6 6 15 1 1 0 0 0 0 0 0 0
4 6 0 0 0 0 0 0 0 0 0 0 0 0 0
0 0 0 0 0 0 0 0 0 0 0 0 0 0 0
0 0 0 67 71 72 164 150 144 131 127 134 56 48 38
59 63 60 36 22 27 0 0 0 0 0 0 0 0 0
200 194 191 90 99 94 0 0 0 78 78 84 31 27 10
0 0 0 0 8 20 0 0 3 68 72 70 0 0 0
0 0 0 255 255 255 255 255 255 0 0 0 43 39 45
0 0 0 0 0 0 0 0 0 0 0 0 0 0 0
0 0 0 122 137 129 125 108 134 65 57 73 23 18 39
0 0 0 0 0 0 0 0 0 0 0 0 0 0 0
0 0 0 0 0 0 0 0 0 0 0 0 0 0 0
0 0 0 0 0 0 2 0 2 40 25 44 0 0 0
29 13 23 93 94 115 90 78 91 0 0 0 0 0 0
0 0 0 0 0 15 1 6 1 6 0 1 0 0 0
0 0 0 0 0 0 0 0 1 0 2 0 0 0 0
1 15 6 32 60 58 0 0 0 0 0 0 0 0 0
80 69 65 137 119 118 0 0 0 57 42 41 0 0 0
0 0 0 0 0 0 58 64 62 52 38 36 62 57 55
51 52 54 121 121 116 33 37 28 0 0 0 0 0 0
0 7 0 10 0 2 0 0 0 51 47 62 41 39 40
0 0 0 0 0 0 0 0 0 0 0 0 126 140 131
147 161 158 69 66 74 86 97 96 91 97 101 63 70 67
31 30 21 0 0 0 0 0 0 0 0 0 1 12 0
0 0 0 0 0 0 0 0 0 0 0 0 0 0 0
0 0 0 0 0 0 41 29 44 18 7 19 18 12 17
0 6 0 0 0 0 0 0 0 0 0 0 17 7 13
0 0 0 0 3 0 0 0 0 0 0 0 0 0 0
40 61 27 77 74 58 32 33 21 0 0 0 20 24 14
50 40 43 42 41 13 95 81 74 227 216 237 0 0 0
0 0 0 0 19 0 0 3 0 0 0 0 0 0 0
0 0 0 24 17 0 52 45 41 29 23 7 15 10 18
30 29 22 1 0 0 0 0 0 0 0 0 1 8 2
0 0 0 8 14 0 0 0 0 9 5 0 255 255 255
0 0 0 0 0 0 111 113 104 147 157 134 48 45 32
0 0 0 0 0 0 105 94 96 237 225 222 97 103 113
0 0 0 0 0 0 0 0 0 0 0 0 11 26 33
0 0 2 0 0 0 0 0 0 94 77 54 114 122 135
0 0 0 0 0 0 46 42 41 65 59 65 0 0 0
0 0 0 0 0 0 0 0 7 25 32 28 54 55 71
35 50 35 2 0 0 0 0 0 0 0 0 0 10 0
0 0 0 0 0 0 0 6 0 0 5 0 0 2 0
0 0 0 0 0 0 0 0 0 2 2 14 0 0 7
6 8 17 0 0 0 0 0 0 0 0 0 0 3 0
0 5 0 0 5 0 0 5 0 0 4 0 0 6 0
5 0 0 0 8 0 0 0 0 19 30 0 40 25 32
0 0 0 8 0 1 6 0 5 8 0 12 5 0 6
0 0 0 0 0 0 0 0 0 0 1 0 0 0 0
0 0 0 0 0 0 0 0 0 26 29 29 6 4 8
1 0 0 0 3 7 0 0 0 0 0 0 0 7 0
18 29 21 0 0 0 0 0 0 0 0 0 0 0 0
0 0 3 57 63 76 69 75 79 83 78 87 0 0 0
0 0 0 91 84 87 192 201 198 86 77 86 178 178 180
147 141 135 0 0 0 0 0 19 0 0 20 0 0 7
0 0 0 0 0 0 17 19 26 205 209 200 15 18 18
7 7 3 98 89 95 8 6 7 0 0 0 0 0 0
0 0 0 0 4 0 99 114 94 14 7 33 2 0 15
0 0 2 0 0 0 0 0 15 11 1 11 7 7 44
4 3 16 0 0 30 27 20 50 32 46 94 26 35 60
0 4 50 0 0 0 0 0 0 0 0 0 0 0 15
0 0 0 0 0 0 53 60 77 90 83 94 27 26 30
0 0 0 0 0 0 5 5 0 2 15 0 0 6 0
2 10 0 0 1 0 0 0 0 0 5 0 0 10 0
0 0 0 0 0 0 29 44 41 0 9 0 0 0 0
0 0 0 93 73 71 129 106 96 54 23 24 76 52 54
0 0 0 0 0 0 17 12 20 71 68 64 29 0 0
0 0 0 0 0 0 65 58 60 0 0 0 0 0 0
20 30 21 49 51 48 0 0 0 2 5 0 22 9 7
7 0 0 0 0 0 42 41 41 29 39 43 20 34 28
93 95 101 56 72 69 0 0 0 23 10 25 79 66 73
85 78 83 69 68 61 21 19 20 0 0 0 0 10 0
0 3 0 0 16 0 0 0 0 0 0 0 0 0 0
0 0 0 29 40 54 63 58 75 11 14 2 20 14 12
18 21 21 0 12 3 0 0 2 0 0 0 0 0 0
17 13 23 0 0 1 0 0 4 0 2 0 0 0 0
0 0 0 29 25 19 116 120 69 46 48 33 0 0 0
0 0 0 0 0 0 26 14 24 91 84 104 194 187 200
0 0 0 0 0 0 2 8 0 0 0 0 2 0 0
0 0 0 16 1 0 28 18 1 49 49 47 27 16 14
10 10 12 23 15 5 0 0 0 0 0 0 0 0 0
0 0 0 23 14 13 99 88 84 0 0 0 10 0 0
255 255 255 0 0 0 0 0 0 58 52 49 121 129 97
59 57 25 0 0 0 0 0 0 81 77 75 88 83 90
0 0 0 0 0 0 0 0 0 0 0 0 0 9 26
35 41 50 0 0 0 0 14 8 0 0 0 96 81 73
124 107 125 0 0 0 0 0 0 48 37 49 70 54 76
0 0 0 0 0 0 0 0 0 0 1 0 5 16 19
27 30 31 30 28 27 4 0 0 0 0 0 0 3 0
0 0 0 0 0 0 0 0 0 0 0 0 0 0 0
0 0 0 0 0 0 0 7 9 0 0 0 0 0 0
0 0 0 0 1 0 0 0 0 0 0 0 0 0 0
0 0 0 0 0 0 0 0 0 0 3 0 0 7 0
0 11 0 5 5 0 0 10 0 0 0 0 29 48 16
32 46 29 0 2 0 7 4 0 29 12 11 11 0 0
23 8 4 0 4 15 19 26 11 23 19 24 25 18 17
43 29 22 11 0 2 0 0 0 13 6 9 15 14 21
0 0 0 0 0 0 0 2 1 0 0 0 0 0 0
0 0 0 0 0 0 0 0 0 0 0 0 0 0 0
0 0 0 0 0 0 0 0 0 0 0 0 92 107 100
16 10 26 0 0 0 0 0 0 0 0 0 0 0 0
102 93 98 238 225 226 0 0 0 0 0 0 0 0 0
0 0 0 0 0 0 0 0 0 0 0 0 25 28 24
221 209 203 0 0 0 102 103 95 47 50 42 0 0 0
0 0 0 0 0 0 0 0 0 22 28 20 0 0 9
0 0 0 0 0 0 0 0 0 0 0 0 0 0 0
0 0 0 0 0 0 0 0 0 0 0 0 0 0 0
0 0 0 0 0 0 4 9 29 37 35 70 12 23 49
0 0 0 0 0 0 0 0 0 0 0 0 0 4 13
69 68 76 1 5 10 0 0 0 0 0 0 0 0 0
0 0 0 0 0 0 0 0 0 0 0 0 2 0 0
0 0 0 5 0 0 0 0 0 0 9 8 0 0 0
0 0 0 0 0 0 63 54 44 85 67 69 0 0 0
61 23 36 41 28 23 13 0 0 55 52 49 77 77 71
25 6 0 0 0 0 0 0 0 0 0 0 0 0 0
0 0 0 40 54 53 14 14 24 0 0 0 0 0 0
56 42 40 0 0 0 0 0 0 12 4 10 11 14 19
0 0 0 0 0 0 0 0 0 0 0 0 0 0 0
0 0 0 0 0 0 17 0 7 14 19 17 25 24 28
74 75 64 0 0 0 0 0 0 0 0 0 0 0 0
0 0 0 0 0 0 0 0 0 49 46 58 0 0 0
2 0 12 25 25 23 24 25 20 0 3 0 0 0 0
0 0 0 3 4 3 5 0 0 0 7 0 0 8 2
0 4 0 0 0 0 0 0 0 25 17 45 0 0 12
0 0 0 0 0 0 0 10 0 0 14 3 172 184 165
106 127 126 0 0 0 0 0 0 47 46 48 0 0 0
102 102 95 0 0 0 9 0 5 55 35 35 44 40 31
0 0 0 7 20 12 52 64 37 2 17 15 0 0 0
65 77 71 30 48 29 53 49 34 24 23 9 0 0 0
183 186 186 97 89 128 0 0 0 0 0 0 62 61 66
16 19 35 0 0 0 0 0 0 113 102 121 43 18 44
0 0 0 46 37 58 0 0 0 0 0 0 0 0 0
38 44 37 0 4 0 0 0 0 0 0 0 0 0 0
114 101 74 92 86 77 0 0 0 0 0 0 57 65 51
25 26 5 0 0 0 0 0 0 0 0 0 31 21 31
145 130 143 102 102 89 0 0 0 0 0 0 0 0 0
14 31 13 0 0 0 0 0 0 0 0 0 0 0 0
0 0 0 0 0 0 0 0 0 0 0 0 0 0 0
11 1 5 38 35 29 33 32 32 32 30 25 13 14 5
23 23 8 0 2 0 11 13 7 6 10 0 2 0 0
0 0 0 0 0 0 0 0 0 0 0 0 0 0 0
0 0 0 22 5 17 19 15 28 0 3 0 0 0 0
0 0 0 0 6 0 0 0 0 0 0 0 0 0 2
0 0 0 0 0 0 0 0 0 0 6 0 0 0 0
0 0 0 0 4 0 0 8 0 17 8 15 26 24 20
24 30 26 23 23 18 0 0 0 184 188 159 126 134 103
99 87 74 28 24 0 0 0 0 0 0 0 0 0 0
0 0 0 27 17 34 66 76 80 81 79 92 0 2 25
0 0 0 0 1 10 155 161 155 255 255 255 88 92 88
255 255 255 0 4 0 0 0 0 32 41 46 0 0 0
0 0 0 203 191 212 0 0 0 0 0 0 83 79 75
175 175 172 106 97 120 127 111 122 26 33 37 0 0 0
0 0 0 0 0 0 0 0 0 0 0 0 0 0 0
55 41 43 127 102 145 202 183 214 90 73 80 145 132 113
68 51 30 19 5 0 0 0 0 0 0 0 0 0 0
61 36 45 97 82 96 46 23 54 0 0 0 0 0 0
0 0 0 31 27 41 107 104 117 120 109 145 81 76 117
10 7 38 0 0 40 12 4 39 0 0 0 0 0 0
0 3 0 15 17 18 0 0 0 0 0 0 0 0 0
0 1 0 0 0 0 0 0 0 0 0 0 39 36 40
0 0 0 0 0 0 0 0 0 39 21 18 77 75 94
0 0 2 0 0 0 0 0 0 0 0 0 0 0 0
0 0 0 0 0 0 0 0 0 0 0 0 0 0 0
0 0 5 0 0 0 0 0 0 8 13 0 0 0 0
0 0 0 30 29 22 104 99 85 50 54 33 30 26 48
0 0 0 0 0 0 38 51 33 7 0 0 0 0 0
0 0 0 43 49 22 9 11 0 59 60 45 0 0 0
0 0 0 0 0 0 196 197 206 58 61 71 3 11 28
26 16 28 20 7 30 19 3 16 0 0 0 0 0 0
0 0 0 34 39 39 0 0 0 0 0 0 0 0 0
0 0 0 0 0 0 34 32 47 70 59 76 92 112 53
59 81 32 7 4 29 0 0 8 14 12 24 18 41 41
184 205 209 36 56 59 0 0 0 0 0 0 51 45 58
0 0 0 0 0 0 0 0 0 8 0 0 51 25 32
30 40 34 0 0 0 7 25 6 29 49 26 0 0 0
0 0 0 0 0 0 0 0 0 0 0 0 0 0 0
0 0 0 241 242 250 0 0 0 0 0 0 0 0 0
21 39 35 171 179 195 114 104 124 70 60 87 83 73 101
35 19 44 3 0 9 66 62 76 0 0 0 0 0 0
0 0 0 36 33 27 0 8 7 0 0 0 0 0 0
0 0 0 111 91 58 95 93 99 0 0 0 0 0 0
52 55 45 45 39 34 0 0 0 0 0 0 0 0 0
13 5 4 115 102 102 77 72 73 0 0 0 0 0 0
0 0 0 0 0 0 0 0 0 0 0 0 0 0 0
0 0 0 23 8 2 30 14 22 19 5 5 51 38 35
43 27 16 18 11 15 14 8 2 5 3 0 9 10 0
9 0 9 37 49 32 0 0 0 0 0 0 4 0 0
0 0 0 0 0 0 0 4 0 0 3 0 0 9 0
0 0 0 0 0 0 23 17 15 21 18 20 9 9 17
0 7 5 0 0 0 7 23 11 0 0 0 0 0 11
2 15 15 5 12 7 0 6 7 0 0 0 0 0 4
0 1 0 0 11 11 6 10 6 6 3 0 0 12 0
12 8 8 5 16 6 2 9 2 0 0 0 0 0 0
0 0 0 48 37 14 54 59 30 36 35 12 3 12 0
5 4 0 0 0 0 37 26 42 24 23 45 93 80 120
129 132 139 103 95 115 36 33 33 47 43 49 80 83 66
215 224 202 226 234 198 193 191 175 40 46 27 48 39 45
29 30 30 0 0 0 91 82 89 81 84 90 0 0 0
0 0 0 59 50 50 209 211 228 219 210 218 58 48 71
0 0 13 0 0 0 0 0 0 0 0 0 0 0 0
35 22 51 114 109 131 108 105 81 135 132 72 116 109 80
167 165 108 139 134 116 122 123 111 107 90 79 5 0 0
1 0 0 74 49 40 9 0 12 33 8 44 60 43 63
55 52 65 0 0 0 0 0 0 21 6 32 173 189 200
171 155 203 0 0 0 0 0 0 0 0 0 13 13 29
0 0 0 0 0 0 1 0 0 9 12 6 0 0 0
0 3 11 0 3 0 0 0 0 0 0 0 5 0 4
93 84 92 73 41 51 37 4 7 19 0 3 30 15 6
40 49 58 5 15 10 0 0 0 0 0 2 0 17 8
0 20 8 0 6 13 0 0 0 0 0 0 0 0 0
0 11 2 1 17 18 14 25 25 0 0 0 0 0 0
0 0 0 0 0 0 34 33 32 101 107 73 47 58 40
0 0 0 0 3 8 38 43 29 48 52 36 0 0 0
0 0 0 0 0 0 4 0 0 0 0 0 0 0 0
0 0 0 0 0 0 0 0 0 86 80 103 31 30 47
0 0 0 23 4 29 12 0 9 17 16 19 2 0 0
0 0 0 0 0 0 19 16 10 0 0 0 24 17 15
11 19 8 12 20 4 12 16 9 0 0 0 2 0 9
49 40 65 58 58 31 44 37 21 42 51 17 39 54 11
133 128 93 28 25 46 0 0 0 46 43 71 0 0 0
0 0 0 0 0 0 0 0 0 0 0 0 18 0 5
52 28 25 35 37 25 0 0 0 6 15 0 26 28 19
0 0 0 0 0 0 0 0 0 4 1 0 0 0 0
0 0 0 0 0 0 255 255 255 0 0 0 0 0 0
16 16 22 119 115 115 181 187 182 103 101 108 9 5 8
0 0 0 0 0 0 75 67 70 76 76 84 0 0 4
0 0 0 0 0 0 29 22 32 0 4 0 0 0 2
0 0 0 0 0 0 97 80 50 111 97 114 0 0 0
0 0 0 46 53 47 64 64 61 0 0 0 0 0 0
0 0 0 22 8 18 118 118 119 55 61 54 0 0 0
0 0 0 0 0 0 0 1 5 0 0 0 0 0 0
0 0 0 0 5 7 8 13 11 19 25 18 15 22 8
21 20 28 30 25 23 30 32 36 38 30 34 19 12 16
0 8 0 0 0 0 0 0 0 0 0 0 0 0 0
0 0 0 0 0 0 0 0 0 0 0 0 0 0 0
0 0 0 0 0 0 0 0 0 13 8 6 16 11 14
11 7 14 0 0 0 0 0 0 10 16 7 0 0 0
1 10 0 3 9 11 6 7 3 1 0 2 0 0 0
0 1 7 3 7 0 0 0 0 0 0 0 0 0 4
0 0 0 0 0 0 0 0 0 4 0 0 0 0 0
0 0 0 0 0 0 0 0 0 0 0 0 0 0 0
0 1 0 9 2 10 0 0 0 0 0 0 0 0 0
6 2 18 15 19 24 0 0 0 0 0 0 0 0 0
0 0 0 0 0 0 0 0 0 146 140 152 133 137 145
88 87 91 111 120 118 24 30 38 0 0 0 204 206 205
0 0 0 0 0 0 0 0 0 46 51 52 123 127 121
0 0 0 0 0 0 0 0 7 0 0 0 0 0 0
55 61 68 130 130 114 148 148 76 66 61 102 35 33 80
0 0 4 37 32 61 65 66 47 84 93 60 104 98 142
0 0 0 0 0 0 8 0 9 14 24 15 0 0 0
6 4 0 23 29 22 0 0 0 0 0 0 0 0 0
0 0 0 255 255 255 48 51 68 0 0 0 0 0 0
9 0 0 0 4 0 0 2 0 0 0 0 2 0 0
0 12 0 8 27 27 0 0 0 0 0 0 0 0 0
0 9 5 106 93 79 98 72 81 40 16 8 20 5 7
12 0 0 0 0 0 0 0 0 0 0 0 0 0 0
0 0 16 0 7 4 4 0 7 0 0 0 0 0 0
0 0 0 7 4 12 19 9 6 0 0 0 0 0 0
84 68 67 83 84 87 22 21 10 28 36 31 57 38 35
0 0 0 0 0 0 16 17 16 52 58 58 9 2 3
0 0 0 0 0 0 0 0 0 0 0 0 0 0 0
0 0 0 0 0 0 29 35 34 0 0 0 75 72 79
47 53 66 8 9 27 14 0 12 14 11 17 16 25 23
4 0 5 0 0 0 0 0 0 0 11 0 0 0 0
0 6 0 0 0 0 0 0 0 0 0 0 0 0 0
0 0 0 0 0 0 6 19 13 0 0 13 6 8 16
25 29 16 195 202 153 0 0 0 0 0 0 156 165 194
0 0 0 0 0 0 34 36 46 18 28 23 0 0 0
23 12 13 35 17 15 20 22 3 0 1 0 19 20 6
13 27 6 0 0 0 0 0 0 0 0 0 55 56 64
37 26 22 4 7 0 0 0 0 156 161 163 0 0 0
8 3 23 163 166 163 81 80 96 0 0 0 0 0 0
0 0 0 0 0 0 0 0 0 82 80 77 77 81 88
4 6 9 0 0 0 0 0 0 23 20 18 0 0 0
0 0 0 0 0 0 0 0 0 72 57 28 130 122 137
0 0 0 0 0 0 35 34 33 79 80 74 0 0 0
0 0 0 0 0 0 16 13 19 131 121 129 60 46 48
0 0 0 0 0 0 1 9 2 13 4 14 4 8 21
5 12 12 24 16 19 7 21 10 0 0 8 0 3 7
1 4 0 0 0 0 0 0 0 0 0 0 0 0 0
0 0 0 0 0 0 0 0 0 0 0 0 0 0 0
9 0 2 3 0 0 3 0 0 8 0 6 0 0 0
0 0 6 18 14 21 0 0 0 0 0 0 10 3 2
4 12 10 6 0 0 6 0 3 2 0 0 10 14 6
0 0 0 0 8 0 7 0 8 0 6 0 0 0 0
0 0 0 0 0 4 0 5 0 0 0 0 0 0 0
0 0 0 0 0 0 0 0 0 0 0 0 0 0 0
0 0 0 1 0 0 0 0 0 0 0 0 0 0 0
0 0 0 0 0 0 0 0 0 0 0 0 0 0 0
0 0 0 3 0 4 0 0 0 0 0 0 0 0 0
0 0 0 0 0 0 0 0 0 0 0 0 0 0 0
69 72 65 42 31 32 55 43 46 151 151 163 0 0 0
117 127 117 249 244 240 34 28 33 0 0 0 0 0 0
194 191 196 14 19 13 0 0 0 0 0 0 0 0 9
37 37 45 101 112 83 128 124 72 36 33 60 0 0 0
0 0 0 0 0 0 0 0 0 63 64 66 131 140 8
168 162 120 0 0 0 0 0 0 0 0 0 130 126 138
12 15 28 0 0 0 0 0 0 0 0 0 0 0 0
0 0 0 0 0 0 65 64 78 11 26 44 102 92 104
35 38 50 0 0 0 0 0 0 27 20 23 0 3 0
0 0 0 8 20 1 16 24 14 0 0 0 0 0 0
0 0 0 9 3 8 104 96 85 54 36 42 17 0 0
29 9 13 17 10 0 0 0 0 0 0 0 0 0 0
0 0 0 3 12 17 0 8 7 0 0 5 0 0 1
0 0 0 0 0 0 0 0 0 13 18 23 0 0 0
23 34 20 130 139 128 92 91 89 0 0 0 0 0 0
0 0 0 0 0 0 0 0 0 3 9 11 24 28 19
0 0 0 0 0 0 0 2 0 14 23 17 0 0 0
0 0 0 0 0 0 77 90 73 140 150 143 65 65 74
73 69 84 32 31 45 57 51 61 0 0 0 5 0 9
15 15 18 9 14 13 0 0 0 0 0 0 17 5 6
0 0 0 0 0 0 0 0 0 0 0 0 0 0 0
0 0 0 6 0 0 53 47 48 22 34 16 0 0 0
0 0 0 0 0 5 198 199 188 0 0 0 0 0 0
240 235 255 0 0 0 0 0 0 0 0 0 0 0 0
0 0 0 34 26 31 28 17 0 6 18 10 4 10 0
23 30 18 8 18 13 0 0 0 0 0 0 0 0 0
117 117 111 61 53 43 67 79 59 0 0 0 76 68 71
166 177 192 87 99 108 0 0 0 0 0 0 0 0 0
0 0 0 54 49 51 68 61 52 38 24 33 97 83 89
50 43 45 0 5 0 0 0 0 0 0 0 17 17 17
0 0 0 0 0 0 0 0 0 9 0 0 50 35 6
131 124 137 21 15 10 0 0 0 17 21 15 84 82 80
0 0 0 0 0 0 0 0 0 21 16 20 133 130 136
44 38 37 0 0 0 0 0 0 11 15 2 0 0 0
0 0 5 11 23 20 27 29 27 23 25 16 8 0 4
6 0 0 0 0 0 0 0 1 0 0 0 0 0 0
0 0 0 0 0 0 8 3 0 46 21 37 79 67 61
50 46 59 66 66 69 58 61 61 50 51 48 35 40 32
35 32 25 39 36 29 36 47 34 0 0 0 0 0 0
8 0 0 7 4 9 0 0 0 8 2 7 0 0 0
12 14 1 0 0 0 0 0 7 10 9 13 12 6 6
0 5 5 0 0 0 0 0 2 0 0 0 7 1 11
0 0 0 0 0 0 0 0 0 0 0 0 0 0 0
0 0 0 0 0 0 0 0 0 0 0 0 0 0 0
8 10 0 13 16 12 0 10 3 0 0 0 0 0 0
0 0 0 0 0 0 0 0 1 0 0 0 0 0 0
0 0 0 31 45 21 15 29 9 0 0 0 0 0 0
0 0 0 0 0 0 0 0 0 0 0 0 0 0 0
0 0 0 0 0 0 129 123 130 80 87 68 0 0 0
0 0 0 236 237 234 71 76 60 0 0 0 0 0 0
27 19 85 109 115 66 139 148 45 98 101 109 0 0 0
0 0 0 0 0 0 0 0 0 14 13 23 138 137 188
193 203 108 224 219 176 23 21 50 0 0 0 0 0 6
144 142 139 99 92 77 100 96 108 54 65 68 59 47 77
51 47 52 0 0 0 0 0 0 0 0 0 0 0 0
30 15 40 114 114 136 0 0 0 0 0 0 0 0 0
14 0 14 0 0 0 0 21 0 9 14 13 0 0 0
0 0 0 0 0 0 17 11 15 93 104 78 0 0 0
0 0 0 24 14 7 26 30 24 0 0 0 0 0 0
3 0 0 0 0 0 1 15 2 0 4 0 0 1 0
0 0 0 0 0 0 0 0 0 0 4 3 18 29 12
0 0 0 13 15 13 82 87 80 25 33 19 0 0 0
0 0 0 7 0 0 14 4 2 0 0 0 0 4 9
0 0 0 0 5 0 3 4 0 13 10 2 5 12 10
0 0 0 0 4 0 0 0 0 33 25 22 54 61 50
99 86 107 51 48 66 0 0 9 65 64 93 0 0 0
0 0 0 12 12 19 18 22 16 0 0 0 0 0 0
4 10 14 0 15 3 0 2 0 6 2 5 9 3 1
9 8 0 0 0 0 8 9 16 61 55 46 18 21 22
0 0 0 0 0 3 38 44 31 239 239 235 0 0 13
0 0 0 201 205 229 226 226 236 32 30 45 0 0 0
0 0 0 0 0 0 51 40 20 19 19 0 0 0 0
8 14 7 49 39 28 12 10 1 0 0 0 0 0 0
0 0 0 143 142 146 0 0 0 23 22 9 0 0 0
78 72 79 186 246 255 0 0 6 0 0 0 0 0 0
0 0 0 64 46 72 37 21 31 5 3 0 28 18 26
144 136 134 0 0 12 0 0 0 0 0 0 0 1 5
30 31 29 0 0 0 0 0 0 0 0 0 31 0 0
7 0 0 132 125 136 61 60 54 0 0 0 0 0 0
100 89 90 0 0 0 0 0 0 0 0 0 6 11 14
144 138 145 53 54 52 0 0 0 0 0 0 13 13 13
33 30 38 23 9 22 35 43 35 33 26 42 13 7 16
0 0 0 0 0 0 0 0 0 20 3 7 20 19 20
44 32 50 81 61 70 84 69 78 73 76 67 78 61 74
85 77 71 29 24 23 38 35 43 27 27 29 23 23 20
12 18 9 8 8 0 1 1 0 0 0 0 6 1 10
0 0 0 0 1 0 0 6 4 0 0 0 0 0 0
9 0 4 8 2 4 0 0 0 4 0 0 2 10 5
5 6 0 2 0 0 0 0 0 0 0 0 0 0 0
35 41 52 25 17 21 23 14 33 30 19 26 18 21 24
19 13 21 11 17 17 20 20 25 0 0 0 4 1 3
20 28 34 47 47 42 48 48 47 38 51 42 28 17 24
0 0 0 82 76 81 6 13 11 0 0 0 0 0 0
0 0 0 0 0 0 0 0 0 25 22 12 71 58 79
7 20 17 0 0 0 0 0 0 3 4 11 4 0 0
0 0 0 76 75 74 0 0 0 68 63 74 100 95 100
0 0 0 0 0 0 0 0 0 0 0 0 0 0 0
0 0 0 82 78 139 115 118 20 77 85 62 0 0 0
0 0 0 0 0 0 0 0 0 0 0 0 0 0 0
0 0 0 0 0 0 3 0 41 0 0 0 0 0 0
39 41 41 152 145 94 101 95 34 131 129 53 137 135 66
132 136 91 120 109 133 74 69 99 54 46 89 0 0 17
0 0 0 0 0 0 187 192 207 146 141 140 0 0 0
0 0 0 0 0 0 0 0 0 6 13 0 0 0 9
0 0 0 0 0 0 0 0 0 22 19 17 74 64 62
0 0 0 0 0 0 27 23 11 10 18 4 0 0 0
0 5 0 0 16 4 0 0 0 0 7 0 0 8 0
6 0 4 0 0 0 0 0 0 0 0 0 4 11 1
14 27 6 0 0 0 0 0 0 0 0 0 0 0 0
0 0 0 0 0 0 53 58 55 34 27 22 1 17 8
8 26 15 0 0 0 2 10 0 25 33 22 6 4 0
0 0 0 0 0 0 47 41 23 0 0 0 0 0 0
0 0 0 23 14 41 9 6 23 0 0 0 65 49 74
0 0 0 0 0 0 18 0 13 23 23 23 0 0 0
0 0 0 15 14 12 15 10 4 0 0 0 0 5 0
0 0 0 0 0 0 0 0 0 0 0 0 0 0 0
0 0 0 0 0 0 63 67 51 85 81 52 238 245 255
0 0 0 0 0 0 0 0 0 127 124 140 168 154 159
146 150 155 0 0 0 0 0 0 24 33 17 6 6 2
0 0 0 5 19 8 39 42 38 0 0 0 0 0 0
0 0 0 0 0 0 128 123 124 0 0 0 0 2 0
0 0 0 140 127 125 124 126 140 0 0 0 0 0 0
39 30 42 68 71 77 27 31 25 0 0 0 0 0 0
0 0 0 141 142 132 0 0 0 0 0 0 0 0 0
4 14 10 32 35 27 0 0 0 0 0 0 0 0 0
41 13 17 0 0 0 117 106 114 98 99 88 0 0 0
0 0 0 108 104 98 6 4 4 0 0 0 0 0 0
12 0 2 162 166 163 79 82 80 0 0 0 0 0 0
11 17 18 71 77 73 44 43 47 52 51 42 31 18 30
0 0 0 0 0 0 0 0 0 0 0 0 22 15 27
18 21 12 59 46 53 71 74 62 57 61 62 47 32 19
0 0 0 0 0 0 0 0 0 0 0 0 0 0 0
0 0 0 0 0 0 0 0 0 0 0 0 0 0 0
38 40 34 0 6 3 0 0 0 0 2 1 2 0 7
0 4 0 0 6 0 0 12 0 0 0 0 6 0 4
11 1 2 0 8 0 0 0 1 0 3 0 0 3 0
0 0 0 37 36 26 6 18 0 9 21 14 10 12 4
11 11 7 16 16 9 14 27 12 13 12 12 20 10 20
6 7 0 1 12 8 14 7 9 10 13 13 14 22 13
27 27 22 6 23 0 50 50 47 14 35 12 53 54 39
81 90 69 58 71 57 0 0 0 0 0 0 0 0 0
0 0 0 0 0 0 0 0 0 0 0 0 0 0 0
30 27 37 0 0 0 99 104 97 154 150 156 145 150 155
197 235 98 117 110 141 0 0 0 0 0 0 0 0 0
0 0 0 0 0 0 126 126 104 75 76 13 0 5 19
0 0 0 0 0 0 0 0 0 0 0 0 0 0 0
0 0 0 0 0 0 0 0 0 0 0 0 0 0 0
0 0 0 46 54 45 136 124 138 57 51 71 36 37 59
65 65 84 113 101 129 131 132 92 118 118 79 114 125 105
214 205 173 111 116 159 0 0 2 45 49 72 217 214 210
108 104 115 0 0 0 0 0 0 0 0 0 4 18 0
0 0 5 0 0 0 0 0 0 36 38 42 49 48 30
24 30 8 0 0 0 31 17 9 12 2 5 0 0 0
0 0 0 0 2 6 0 0 0 0 1 0 1 2 0
0 17 0 1 2 0 0 8 0 0 0 0 0 4 0
0 8 0 20 25 18 23 19 18 0 0 0 0 0 0
0 0 0 0 0 0 21 17 15 88 88 93 50 42 52
0 0 0 9 23 23 0 0 0 0 0 0 9 21 13
0 0 0 0 0 0 0 0 0 43 41 19 0 0 0
2 0 0 0 0 0 23 23 34 0 0 0 0 0 13
31 22 53 0 0 0 0 0 0 18 10 7 28 31 35
0 0 0 0 0 0 0 3 0 0 1 0 0 0 0
0 0 0 0 0 0 0 0 0 4 0 9 16 12 14
0 0 0 0 0 0 0 0 0 97 104 41 114 118 130
234 239 241 0 0 0 0 0 0 0 0 0 0 0 0
0 0 0 121 113 131 114 98 112 61 52 58 0 0 0
0 0 0 0 0 0 12 4 0 56 48 52 8 4 0
0 0 0 0 0 0 0 0 0 120 105 106 0 0 0
23 14 15 127 119 115 184 221 221 12 29 29 0 0 0
0 0 0 0 0 0 45 40 49 51 50 49 0 0 0
0 0 0 0 0 0 77 81 76 0 0 0 0 0 0
0 0 0 0 4 3 37 35 39 0 0 0 0 0 0
0 0 0 53 35 39 0 0 0 123 119 115 108 97 108
0 0 0 0 0 0 104 99 107 16 15 11 0 0 0
0 0 0 7 6 7 174 161 168 59 54 63 0 0 0
0 0 0 18 14 9 55 67 63 28 27 33 44 45 39
19 19 26 0 0 0 0 0 0 0 0 0 29 20 18
96 97 89 92 83 86 60 43 56 0 0 0 0 0 0
0 0 0 0 0 0 0 0 0 0 0 0 0 0 0
0 0 0 0 0 0 0 0 0 0 0 0 0 0 0
0 0 0 15 21 16 0 0 0 0 0 0 0 0 0
0 0 0 0 0 0 0 0 0 0 0 0 0 0 0
0 0 0 4 10 0 10 14 0 2 0 3 0 0 0
0 0 0 0 0 0 0 0 0 0 0 0 0 0 0
0 0 0 0 0 0 0 0 0 0 0 0 0 0 0
0 0 0 0 0 0 1 4 5 0 6 0 0 0 0
0 0 0 0 0 0 0 0 0 0 0 0 4 10 0
41 27 21 12 8 9 3 3 0 22 28 15 13 5 0
0 0 0 0 0 0 104 102 117 27 10 28 49 41 45
180 175 179 146 144 143 116 113 115 25 30 37 31 18 22
0 0 0 136 119 113 98 158 45 93 76 80 121 134 151
46 48 67 0 0 0 0 0 0 139 144 100 79 80 55
20 27 23 60 58 67 37 35 37 101 101 123 182 185 162
122 119 126 84 87 73 0 0 0 0 0 1 53 40 61
0 0 2 0 0 0 0 0 0 0 0 0 0 0 0
0 0 0 0 0 0 0 0 0 43 48 45 54 42 77
0 0 24 49 37 19 196 199 182 0 0 0 0 0 0
102 89 95 186 190 191 0 0 0 0 0 0 0 0 0
19 24 0 0 0 0 0 0 0 0 0 0 48 58 63
48 41 29 2 0 0 17 0 0 73 69 62 15 8 0
0 0 0 0 0 0 0 0 0 0 0 0 0 4 0
0 0 0 0 0 0 0 0 0 0 0 0 0 0 0
0 0 0 0 6 0 22 28 10 0 0 0 0 0 0
18 9 1 44 43 43 6 15 4 25 24 18 0 0 0
0 0 0 0 0 0 0 0 0 0 0 0 0 0 0
0 0 0 0 0 0 0 0 0 0 0 0 6 10 0
0 0 0 134 121 124 124 121 130 84 77 92 5 0 15
30 23 42 17 5 23 0 0 3 0 0 0 0 0 0
12 22 16 0 0 0 0 0 0 0 0 0 0 0 0
36 31 28 6 12 7 0 1 10 0 0 0 0 0 0
45 29 46 0 0 0 16 8 25 72 84 70 100 113 97
178 185 207 0 0 0 0 0 0 0 0 0 0 0 8
0 0 0 0 0 0 0 0 0 0 0 0 19 25 15
3 17 10 0 3 0 15 19 21 30 28 33 0 0 0
0 0 0 0 0 0 0 0 0 0 0 0 83 85 98
0 0 0 81 84 77 162 172 182 0 0 0 0 0 0
0 0 0 0 0 0 71 61 76 38 34 43 0 0 0
0 0 0 0 0 0 46 24 28 94 91 80 0 0 0
0 0 0 0 0 0 39 35 35 0 0 0 0 0 0
0 29 20 0 0 0 0 0 0 0 0 0 0 0 0
196 189 189 0 0 0 0 0 0 95 92 98 111 113 107
0 0 0 0 0 0 0 0 0 96 92 99 88 94 86
0 0 0 0 0 0 0 0 0 77 78 75 20 15 24
0 0 0 0 0 0 0 0 0 0 0 0 127 126 133
123 115 124 58 50 55 0 0 0 0 0 0 0 0 0
0 0 0 0 0 0 17 11 0 40 28 0 0 0 0
0 0 0 0 0 0 0 0 0 0 0 0 0 0 0
0 0 0 31 33 22 45 59 47 4 13 8 0 0 0
0 0 0 0 0 0 0 0 0 1 5 1 8 11 6
0 0 0 0 0 5 0 0 0 0 0 0 0 0 0
0 0 0 6 0 8 9 13 0 29 31 43 12 12 0
0 0 0 0 0 0 2 1 0 13 8 5 3 13 4
0 0 0 33 28 26 6 11 4 10 0 2 1 1 0
0 0 0 0 0 0 0 0 0 0 0 0 0 0 0
0 0 0 0 0 0 24 35 15 2 0 0 35 38 26
90 96 78 63 55 55 25 31 40 61 72 87 110 115 108
71 77 82 0 0 0 0 0 0 0 0 0 0 0 0
0 0 0 0 0 0 121 112 128 161 154 119 152 172 84
222 207 128 31 31 59 0 0 0 108 100 87 30 34 19
0 0 0 0 0 0 87 77 98 218 217 175 151 151 155
142 143 99 12 14 11 150 156 103 22 28 18 0 0 0
0 0 0 76 76 91 0 5 1 12 22 26 0 0 3
0 0 0 0 0 0 0 0 0 0 0 0 0 0 0
0 0 0 32 33 39 105 100 36 205 196 225 39 38 47
0 0 0 77 79 83 248 255 255 154 138 188 0 0 0
0 0 0 0 0 0 0 0 0 0 0 9 56 47 55
68 71 62 56 26 33 43 38 30 3 0 0 0 0 0
0 0 0 0 0 0 0 0 0 0 0 0 0 11 0
0 9 0 0 0 0 2 0 0 0 0 0 0 0 0
0 0 0 0 0 0 0 0 0 0 0 0 0 0 0
0 0 0 50 51 66 0 0 0 0 0 0 0 0 0
0 0 0 0 0 0 82 90 84 0 0 0 0 0 0
0 0 0 0 0 0 2 4 4 25 34 26 22 23 23
0 0 0 0 0 0 255 255 255 194 176 177 0 0 0
0 0 0 18 5 32 17 12 27 0 0 8 5 2 0
36 29 40 106 112 109 2 0 3 0 0 0 24 24 23
0 0 0 3 1 0 20 19 11 48 50 51 50 50 51
0 0 0 0 0 0 0 0 0 0 0 0 69 76 58
123 129 122 32 35 36 0 0 0 0 0 0 11 12 6
7 6 12 0 0 0 0 0 0 5 4 3 37 24 17
20 21 17 72 72 60 34 44 39 35 25 19 21 31 14
0 0 0 0 0 0 0 0 0 0 0 0 45 49 51
23 13 19 0 0 0 69 69 71 139 143 146 0 0 0
0 0 0 74 88 86 0 0 0 43 34 51 42 35 36
0 0 0 0 0 0 0 2 0 29 13 15 61 62 47
0 0 0 0 0 0 0 0 0 58 62 61 0 6 7
0 0 0 0 3 0 0 0 0 0 0 0 9 0 0
0 0 0 110 106 103 68 60 70 0 0 0 0 0 0
96 99 93 0 0 0 0 0 0 0 0 0 125 118 126
152 151 142 6 5 13 0 0 0 0 0 0 70 74 66
42 50 55 18 21 13 0 0 0 0 0 0 39 39 27
67 63 59 40 30 27 0 0 0 0 0 0 0 0 0
0 0 0 0 0 0 0 0 0 0 3 0 0 0 0
30 21 0 0 0 0 0 0 0 0 0 0 0 0 0
0 0 0 1 3 0 25 26 31 20 28 33 9 23 23
17 10 14 11 10 10 12 13 13 14 21 18 26 18 12
50 45 38 9 0 14 12 27 26 9 21 12 3 12 4
5 11 4 0 6 1 1 9 0 0 10 0 0 0 0
0 0 0 0 0 0 0 0 0 0 0 0 6 0 0
10 14 1 0 3 0 26 20 7 2 0 0 0 2 0
23 11 10 34 30 15 41 36 26 52 38 27 43 44 41
59 54 35 0 0 0 0 0 0 0 0 0 0 0 0
0 0 0 0 0 0 0 0 0 0 0 0 0 0 0
0 0 0 0 0 0 0 0 0 30 22 38 0 0 0
0 0 0 46 42 41 0 0 0 0 0 0 0 0 0
0 0 0 34 21 58 0 0 0 0 0 0 155 151 126
11 19 0 0 0 0 99 105 94 0 0 16 0 0 0
0 0 0 17 18 32 31 29 27 95 96 42 35 35 62
0 0 0 0 0 0 13 14 19 0 0 0 10 14 5
0 0 0 67 50 67 0 0 0 0 0 0 0 0 0
41 51 53 71 58 85 99 106 63 102 86 119 97 106 110
0 0 0 0 0 0 39 41 38 128 127 130 96 84 135
0 0 0 0 0 0 0 5 0 0 0 0 0 0 10
41 46 47 65 60 58 51 25 34 27 25 19 13 11 0
26 21 13 12 11 2 0 0 0 0 0 0 0 0 0
0 0 0 0 3 0 0 0 0 0 0 0 0 0 0
0 0 0 0 0 0 0 12 2 14 12 27 0 0 0
58 49 75 181 183 195 255 255 255 212 207 220 174 165 179
209 195 215 221 210 237 172 159 186 60 68 50 183 193 177
237 241 238 0 0 0 0 0 0 0 0 0 0 0 0
0 0 0 0 0 0 0 0 0 167 148 155 128 112 117
84 73 86 11 1 30 22 8 30 1 0 0 0 0 0
6 0 3 22 21 19 19 32 20 0 0 0 0 0 0
52 48 39 0 3 3 20 15 18 0 0 0 0 0 0
0 0 0 3 6 16 0 0 0 43 39 61 0 0 5
121 116 86 141 150 159 0 0 0 0 0 0 0 0 0
15 17 27 32 24 15 0 0 0 0 0 0 34 38 21
62 56 52 35 38 23 25 27 26 0 8 1 0 0 0
0 0 0 0 0 0 0 0 0 0 0 0 0 0 0
38 45 54 0 0 0 0 0 0 170 166 172 104 98 89
0 0 0 0 5 14 113 113 125 0 0 0 72 63 59
59 63 72 0 0 0 0 0 0 56 40 42 51 45 32
42 44 36 0 0 0 0 0 0 39 35 31 104 98 101
22 36 25 0 0 0 0 0 0 0 0 0 0 0 0
29 28 18 0 0 0 24 24 23 169 154 164 11 0 0
0 0 0 79 80 75 17 17 17 0 0 0 0 0 0
84 82 89 164 156 155 89 86 95 0 0 0 0 0 0
0 15 0 0 5 3 0 0 0 0 0 0 0 0 0
108 108 110 32 41 45 0 0 0 0 0 0 0 0 0
0 0 0 0 0 0 0 0 0 0 0 0 0 6 0
0 0 0 30 23 0 0 0 0 0 0 0 0 0 0
54 59 56 77 72 79 61 47 60 41 33 26 0 0 0
1 0 0 0 0 0 0 0 0 8 2 4 11 3 3
18 7 2 29 32 28 0 0 0 0 0 0 0 0 0
0 0 0 0 0 0 0 0 3 19 2 16 10 4 19
1 0 0 0 0 0 0 0 0 0 7 1 4 14 11
16 17 16 18 18 20 0 11 4 35 31 25 9 0 0
0 0 0 0 0 0 0 0 0 0 1 1 0 0 0
0 0 0 0 0 0 0 5 0 0 1 0 0 1 1
23 28 25 34 26 21 0 0 0 0 0 0 0 0 0
0 0 0 0 0 0 0 0 0 0 5 11 97 109 114
82 90 93 0 0 0 0 0 0 0 0 0 0 0 0
0 0 0 0 0 0 0 0 0 0 0 0 0 0 0
135 128 114 70 75 45 56 55 52 84 91 71 0 0 0
0 0 0 0 0 0 0 0 0 86 83 77 61 75 20
111 105 37 63 72 74 0 0 0 0 0 0 24 30 36
34 39 52 46 41 67 40 34 52 0 0 0 0 0 0
100 89 111 162 168 90 120 104 57 138 145 127 48 42 55
0 0 0 0 0 0 0 0 0 12 0 10 13 15 20
63 50 111 0 0 19 0 0 0 0 0 0 0 0 0
0 0 0 14 23 16 35 31 29 8 7 0 0 0 0
30 16 5 32 16 15 6 15 9 0 0 0 0 0 0
0 0 0 0 0 0 0 0 0 0 0 0 0 0 0
0 0 0 0 0 0 0 0 26 29 17 50 39 35 57
25 23 58 38 32 59 57 55 87 68 52 89 0 0 5
0 0 0 0 0 0 0 0 29 13 2 43 11 24 11
82 99 79 102 112 107 2 2 0 81 91 100 8 13 1
0 0 0 46 50 52 0 0 0 0 0 0 0 0 0
0 0 0 117 105 125 16 13 19 3 5 7 0 0 0
0 0 0 21 14 25 49 42 70 0 0 0 0 0 0
0 0 0 7 1 1 0 0 0 6 0 0 0 0 0
0 0 0 0 0 0 32 35 42 18 14 35 71 77 13
0 0 9 153 151 140 139 141 134 0 0 0 0 0 0
0 2 0 9 13 27 27 23 22 0 0 0 0 0 0
24 25 8 54 36 39 65 67 40 0 0 0 0 0 0
0 0 0 0 0 0 0 0 0 15 0 7 9 16 20
0 0 0 0 0 0 0 0 0 27 23 32 173 255 255
52 45 46 0 0 0 68 59 80 0 0 0 0 0 0
71 61 57 67 63 76 0 0 0 0 0 0 80 77 62
59 59 51 18 29 19 0 0 0 0 0 0 53 57 56
110 101 111 19 28 18 0 0 0 0 0 0 0 0 0
0 0 0 0 0 0 0 0 0 0 0 0 152 149 157
102 102 88 0 0 0 32 30 26 27 26 26 0 0 0
0 0 0 8 17 20 100 104 101 92 85 85 11 5 0
0 0 0 0 2 4 0 0 0 0 0 0 0 0 0
0 0 0 112 103 109 0 0 0 0 0 0 0 0 0
0 0 0 12 17 4 16 21 0 0 0 0 0 10 0
7 18 0 0 0 0 0 0 0 0 0 0 0 0 0
3 0 0 53 43 52 65 62 52 27 20 24 2 0 0
0 0 0 0 0 0 0 0 0 0 0 0 0 0 0
0 0 0 0 0 0 0 0 0 0 0 0 0 0 0
0 0 0 0 0 0 0 0 0 0 0 0 0 0 0
0 0 0 5 8 1 12 14 10 22 14 13 11 16 5
0 0 0 0 0 0 0 0 0 0 0 0 0 0 0
0 0 0 0 0 0 0 0 0 0 0 0 0 0 0
0 0 0 0 0 0 0 0 0 0 0 0 10 0 0
0 0 0 49 51 36 88 93 96 55 39 44 44 24 31
0 0 0 0 0 0 0 0 0 0 0 0 0 0 0
0 0 0 15 11 10 118 109 115 48 40 38 120 123 129
189 175 178 137 143 141 227 221 224 172 167 158 0 0 0
0 0 0 137 133 128 115 132 55 45 47 46 0 0 0
0 0 0 21 14 31 0 0 0 0 0 0 144 142 149
45 51 10 84 114 13 97 107 110 0 0 0 0 0 0
48 44 72 31 27 54 39 25 39 0 0 0 0 0 0
31 23 28 91 97 69 140 147 38 87 94 113 21 24 17
0 0 0 0 0 0 0 0 0 0 0 0 35 19 20
0 6 10 44 33 71 0 0 0 0 0 0 0 14 0
0 0 0 0 0 0 14 9 0 12 16 2 6 0 0
0 0 0 18 23 13 3 12 7 0 0 0 0 0 0
0 0 0 0 0 0 0 0 0 0 0 0 0 0 0
0 0 0 0 0 0 0 0 0 0 0 0 0 0 20
0 0 13 0 0 0 0 0 0 0 0 0 0 0 0
0 0 0 0 0 0 0 0 0 0 0 0 0 0 0
0 0 0 0 0 0 1 0 2 205 210 193 212 206 206
0 0 2 29 41 38 0 0 0 0 0 0 0 0 0
0 0 0 0 0 0 15 10 17 2 6 13 11 0 0
0 0 0 0 0 0 0 0 21 61 56 65 0 0 0
0 0 0 0 0 0 0 0 0 0 0 0 0 0 0
0 0 0 0 0 0 69 60 56 0 0 0 47 36 51
44 62 3 34 43 30 155 154 179 21 19 31 0 0 0
0 0 7 17 15 16 0 0 0 7 4 2 22 11 11
0 0 0 0 0 0 0 0 0 65 69 50 0 0 0
0 0 0 5 0 0 1 8 9 43 31 42 69 58 67
73 67 85 7 6 3 0 0 0 12 25 29 144 137 143
159 152 160 1 0 0 0 0 0 86 89 104 0 0 0
0 0 0 34 29 13 28 22 25 0 0 0 0 0 0
45 44 28 25 12 0 0 0 0 0 0 0 0 0 0
51 55 57 83 82 82 4 9 13 0 0 0 0 0 0
0 0 0 0 0 0 0 0 0 0 0 0 1 0 0
52 44 48 133 122 113 40 25 31 0 0 0 28 26 26
0 5 3 0 0 0 0 0 0 34 20 30 62 68 71
74 75 66 55 41 51 69 77 63 14 29 8 0 0 0
0 0 0 54 58 47 89 92 85 0 0 0 0 0 0
0 0 0 0 0 0 30 26 41 19 32 19 0 0 1
0 0 0 7 17 12 0 0 0 0 0 0 0 0 0
0 6 0 65 53 60 38 32 26 16 6 10 15 1 10
0 0 0 0 0 0 14 0 0 4 6 3 27 11 24
24 29 25 31 22 25 19 20 16 33 27 13 52 52 61
61 63 81 37 37 40 10 8 7 0 0 0 0 0 0
0 0 0 0 0 0 0 0 0 0 0 0 0 0 0
0 0 0 0 0 0 0 0 0 0 7 10 34 24 42
0 0 0 0 0 0 13 17 12 42 48 38 83 74 93
94 106 101 98 88 98 57 57 62 121 113 129 117 128 126
39 28 36 0 0 0 0 0 0 0 0 0 0 0 0
0 0 0 0 0 0 0 0 0 61 57 63 106 105 98
95 97 112 108 109 117 136 141 141 183 182 188 105 102 96
67 77 74 94 86 75 54 68 48 56 54 60 78 77 60
38 44 73 0 0 0 240 231 192 107 111 76 0 0 0
0 0 0 0 0 0 0 0 0 0 0 0 0 0 0
185 178 154 53 55 10 69 69 38 69 74 86 0 0 0
6 3 18 23 25 36 0 0 0 0 0 0 0 0 0
64 48 63 21 32 37 26 21 42 103 102 112 43 48 63
0 0 0 0 0 0 0 0 0 0 0 0 0 0 0
39 37 41 36 37 21 41 26 62 0 0 0 36 43 13
2 30 0 0 0 0 0 0 0 0 4 0 12 24 13
16 7 0 0 0 0 20 24 15 0 0 0 0 0 0
0 0 0 0 0 0 0 0 5 0 0 8 0 0 0
28 6 33 8 0 16 17 6 24 26 22 33 47 41 56
24 19 45 0 0 0 0 0 0 0 0 19 0 0 0
0 0 0 0 0 0 18 13 33 25 29 33 25 18 44
0 0 0 0 0 0 83 84 86 169 169 172 50 58 60
0 0 0 0 0 0 0 0 0 0 0 0 0 0 0
0 0 0 197 202 202 5 10 7 0 0 0 0 0 17
0 0 0 21 34 21 0 0 0 0 0 0 34 19 37
0 0 0 0 0 0 0 0 0 0 0 0 0 0 0
186 178 166 156 169 149 226 231 239 255 255 255 0 0 0
44 33 74 34 31 15 95 93 66 107 109 122 0 0 0
0 0 0 0 0 0 18 16 25 0 0 0 10 1 0
25 17 16 0 0 0 0 0 0 0 0 0 33 17 18
103 105 94 49 49 41 53 46 58 59 48 44 35 30 37
9 3 1 0 0 0 0 0 0 6 8 26 180 203 202
118 127 130 0 0 0 0 0 0 9 14 15 53 32 57
0 0 0 4 3 0 20 30 10 10 14 17 0 0 0
0 0 0 33 28 18 7 2 0 0 0 0 0 0 0
0 3 0 36 30 40 41 40 34 0 0 0 0 0 0
0 0 0 0 2 0 9 11 0 0 0 0 12 0 0
17 6 3 0 0 0 92 84 84 84 83 81 0 0 0
0 0 0 0 5 4 0 0 0 0 0 0 0 0 0
0 0 0 58 42 40 79 76 85 51 67 56 38 44 39
45 44 54 66 54 53 131 126 125 124 110 111 0 0 0
0 0 0 0 0 0 0 0 0 0 0 0 1 15 0
0 0 0 0 0 0 0 7 11 0 0 0 0 0 0
0 0 0 77 70 71 114 119 126 51 33 33 5 0 0
35 18 14 12 7 6 26 16 18 49 25 29 52 43 48
62 52 45 66 60 71 55 45 43 42 35 27 41 46 32
0 0 22 22 24 48 32 35 38 48 51 48 58 61 68
82 90 83 107 102 114 116 122 123 8 8 7 24 18 26
11 10 11 0 0 0 0 0 0 0 0 0 13 8 12
46 44 56 0 0 0 0 0 0 10 7 13 14 23 9
21 15 26 13 20 12 19 6 26 0 0 0 0 0 0
0 0 0 0 0 0 0 0 2 0 0 0 0 0 0
0 0 0 0 0 0 163 167 160 204 203 203 220 215 227
184 183 189 188 173 177 159 164 174 36 25 25 0 0 0
0 0 0 0 0 0 0 0 0 0 0 0 0 0 0
0 0 0 0 0 12 0 0 0 198 195 186 99 101 91
25 22 29 24 27 29 0 0 0 0 0 0 0 0 0
0 0 0 135 131 108 91 93 45 24 26 43 0 0 0
0 0 0 4 2 27 0 0 0 0 0 0 0 0 0
20 20 22 77 72 65 33 34 26 28 31 30 6 3 0
0 0 0 0 0 0 49 38 54 34 33 49 0 0 0
0 0 0 94 87 95 52 65 52 12 13 45 0 0 0
0 14 0 0 0 0 0 0 0 0 0 0 0 0 0
0 0 0 0 0 0 0 0 0 39 21 28 0 0 0
0 0 0 0 4 7 43 43 54 86 81 109 95 95 130
69 64 97 75 56 81 90 86 107 127 109 128 108 102 123
125 119 149 122 119 140 21 14 48 0 0 0 0 0 0
0 0 1 0 0 0 0 0 0 0 0 0 0 0 0
0 0 0 0 0 0 0 0 0 107 114 121 46 47 61
0 0 0 40 37 39 0 0 0 0 0 0 0 0 0
0 0 0 0 0 0 255 255 255 162 165 136 0 0 0
0 0 0 0 0 0 0 0 0 0 0 0 0 0 0
0 0 0 0 0 7 0 0 0 0 0 0 28 42 19
84 78 76 216 234 214 102 103 102 0 0 0 0 0 0
0 0 0 35 11 26 36 45 27 122 137 99 75 68 87
0 0 0 0 0 0 0 0 0 15 13 25 1 2 0
18 10 0 17 8 0 0 0 0 0 0 0 0 0 0
0 0 0 109 104 70 30 28 0 47 42 16 49 39 6
0 0 0 0 0 0 0 0 0 0 0 0 168 152 194
113 179 147 14 29 41 0 0 0 0 0 0 0 0 7
17 0 17 0 0 3 40 28 17 20 14 1 17 1 11
7 4 0 15 10 0 17 11 0 8 0 0 0 0 0
3 0 0 0 8 0 11 13 20 6 15 21 0 0 1
0 0 0 0 0 0 0 0 0 12 12 0 0 0 0
0 0 0 0 0 0 0 0 0 3 0 0 25 15 14
60 69 61 0 0 0 1 8 6 0 0 0 0 0 0
0 0 0 0 0 0 0 0 0 7 0 9 0 0 0
0 7 0 13 6 0 40 31 33 64 55 65 113 94 107
108 104 115 150 129 133 0 0 0 0 0 0 0 0 0
7 5 2 8 16 28 0 24 12 0 10 15 0 3 0
0 0 0 0 0 0 63 62 58 119 127 127 46 25 28
6 0 6 43 27 29 23 1 15 11 0 6 8 1 6
19 17 27 24 35 23 28 25 42 13 21 16 0 0 0
0 0 0 0 0 0 0 0 0 0 0 0 10 1 8
47 39 51 81 78 92 112 104 125 121 126 132 136 141 153
142 144 156 130 137 151 73 77 77 0 0 0 0 0 0
0 0 0 0 0 0 0 0 0 0 0 0 0 0 0
0 0 0 0 0 0 0 0 0 0 0 0 0 0 0
0 0 0 0 0 0 51 44 46 173 170 179 199 202 214
183 192 196 208 199 215 255 254 255 99 116 101 69 90 67
0 0 0 0 0 0 0 0 0 0 0 0 0 0 0
0 0 0 0 0 0 0 0 0 49 29 40 128 140 139
47 38 54 16 10 9 37 40 71 0 0 0 0 0 0
74 84 39 94 99 81 78 88 66 0 0 0 24 24 20
23 27 13 139 148 118 7 6 0 106 111 71 0 0 0
0 0 0 0 0 0 0 0 6 0 0 0 0 0 0
39 38 10 52 46 51 89 80 41 66 63 73 4 9 0
0 0 0 0 0 0 65 62 62 91 71 106 46 44 71
0 0 0 0 0 0 228 235 245 67 73 86 0 0 0
0 0 0 0 0 0 0 0 0 0 0 0 0 0 0
0 0 0 0 0 0 0 0 0 0 0 0 15 16 16
0 0 0 0 0 0 0 13 11 45 33 56 78 59 101
100 75 130 107 79 145 52 47 39 89 93 79 92 77 75
33 29 37 75 66 81 149 138 67 95 82 97 14 0 0
0 0 0 50 56 48 102 103 94 31 35 26 0 0 1
0 0 3 0 0 0 0 0 0 0 0 0 0 0 0
0 0 0 34 37 47 255 255 255 113 103 110 0 0 0
0 0 11 0 0 0 0 0 0 220 217 228 147 127 110
26 5 46 0 0 0 0 0 0 0 0 0 0 0 10
2 0 16 15 0 25 40 22 47 0 0 0 0 0 3
115 113 103 171 155 150 8 14 2 0 0 0 0 0 0
0 0 0 0 0 0 7 0 0 36 76 26 116 148 91
0 0 0 0 0 0 0 0 0 0 0 0 0 0 0
0 0 0 0 0 0 0 0 0 0 0 0 0 0 0
32 28 10 0 0 0 91 75 63 3 0 0 28 20 0
47 34 28 7 0 0 0 0 0 0 0 0 0 0 0
132 255 180 102 89 106 0 0 0 0 0 0 0 0 0
0 0 0 9 1 29 0 0 0 37 38 29 21 26 0
4 0 0 0 0 0 0 0 0 0 0 0 0 0 0
0 0 0 0 0 0 0 0 0 0 0 0 0 0 0
0 0 0 0 0 0 0 0 0 0 0 0 28 26 5
0 0 0 0 0 0 0 0 0 11 0 0 0 0 0
29 7 0 210 202 200 58 50 51 44 52 39 41 34 35
0 0 0 0 0 0 0 0 0 0 0 0 0 0 0
0 0 0 12 17 12 0 0 0 0 0 0 0 0 0
81 63 70 166 165 173 194 181 193 0 0 0 0 0 0
0 0 0 11 25 32 51 59 70 61 77 83 59 56 55
42 51 43 0 0 0 0 0 0 54 52 51 111 107 119
20 9 18 0 0 0 60 36 57 19 14 12 0 0 0
0 0 0 0 0 0 15 28 30 39 42 58 20 34 32
0 0 0 0 0 0 16 0 32 9 13 40 0 0 0
0 0 0 0 0 0 0 0 0 0 0 0 0 0 0
0 0 0 0 0 1 118 109 122 175 173 177 114 108 117
23 13 22 0 0 0 0 0 0 0 0 0 0 0 0
0 0 0 0 0 0 0 0 0 11 14 20 175 167 170
255 255 255 237 230 244 217 226 232 217 210 229 113 117 124
0 8 8 28 26 30 47 52 58 26 25 32 0 0 0
0 0 0 9 19 17 0 0 5 0 0 0 0 0 0
0 0 0 54 55 82 20 7 27 0 0 0 0 0 0
0 0 0 0 0 0 0 0 0 25 26 45 25 29 41
0 0 0 108 115 98 164 168 157 110 123 108 50 42 46
121 116 111 65 66 41 115 113 80 0 0 0 208 219 165
56 57 46 0 0 0 0 0 0 0 0 8 0 0 0
0 0 0 160 149 87 94 132 26 143 207 73 144 129 143
0 0 0 0 0 0 0 0 5 66 65 73 101 98 129
54 39 82 0 0 0 0 0 0 255 255 255 123 127 135
0 0 0 0 0 0 0 5 0 0 0 0 0 0 0
0 0 0 0 0 0 0 0 0 0 0 0 0 4 0
0 0 0 0 0 0 0 0 0 0 0 0 0 0 0
0 0 0 0 0 22 3 0 36 11 0 0 71 67 59
53 45 44 0 0 0 0 0 0 122 131 90 114 117 104
81 77 61 0 0 0 47 40 42 153 137 132 82 86 100
64 60 62 109 111 121 95 101 89 34 20 33 0 0 0
46 36 85 127 137 150 3 0 2 0 0 0 0 0 0
0 0 0 0 0 0 0 0 0 0 0 0 0 0 0
0 0 0 30 14 63 0 0 0 19 0 33 13 0 12
0 0 0 6 0 21 25 8 36 28 14 53 0 0 0
0 0 0 68 71 65 112 110 106 0 0 0 0 0 0
0 0 0 0 0 0 72 90 76 15 20 53 42 99 21
104 103 73 78 64 105 79 77 89 0 0 0 0 0 0
0 0 0 12 3 18 46 37 51 27 19 31 0 0 0
0 0 0 0 0 0 0 0 0 63 58 84 13 3 30
18 0 35 17 8 27 0 0 0 0 0 0 0 0 0
16 10 5 160 221 217 61 65 83 0 0 0 0 0 0
3 0 0 0 0 0 0 0 0 40 51 57 0 0 0
0 0 0 0 0 0 30 27 27 0 0 2 0 0 0
0 0 0 0 0 0 46 32 44 2 0 0 58 53 46
150 124 131 131 134 117 64 49 38 0 0 0 0 0 0
0 2 0 7 31 23 0 0 0 0 0 0 7 18 3
0 0 0 7 13 0 0 0 0 194 177 182 26 21 28
0 0 0 25 18 22 45 30 44 0 0 0 0 0 0
0 0 0 0 0 0 0 0 0 0 0 0 0 0 0
0 0 0 10 4 4 74 77 65 246 244 237 13 10 4
0 0 0 0 0 0 47 41 46 98 83 79 45 52 40
0 0 0 0 0 0 0 0 0 0 0 0 0 0 0
15 7 7 127 123 117 49 32 33 0 0 0 0 0 0
9 0 0 34 33 26 59 53 58 35 17 11 0 0 0
0 0 0 0 0 0 0 0 0 4 0 0 0 5 0
0 0 0 0 0 0 0 0 0 0 0 0 0 0 0
0 0 0 0 0 0 0 0 0 0 0 0 0 0 0
0 0 0 44 45 64 215 219 227 255 255 255 202 201 210
125 130 144 178 181 200 103 119 122 110 114 126 241 249 255
142 138 149 0 0 0 0 0 0 0 0 0 0 0 0
0 0 0 0 0 0 0 0 9 88 97 116 0 0 0
0 0 0 0 0 0 0 0 0 0 0 0 27 30 26
20 18 26 0 9 0 19 36 22 0 0 0 0 0 0
0 0 0 0 0 0 10 8 24 0 0 0 0 0 0
0 0 3 0 0 0 0 0 0 0 0 0 103 93 117
124 125 147 2 3 21 25 27 59 140 141 177 7 5 27
11 11 40 0 0 0 0 0 0 0 11 23 0 0 0
0 0 0 159 160 121 0 0 5 96 96 44 146 140 169
0 0 0 0 0 0 16 10 34 0 0 0 57 44 59
98 107 115 0 0 0 0 0 0 0 0 0 170 182 150
22 30 0 0 0 0 0 0 0 0 0 0 0 0 0
27 20 21 31 20 23 14 0 0 33 21 0 23 22 4
0 0 0 0 0 0 0 0 0 0 16 28 0 0 0
7 10 22 61 57 74 95 70 77 0 0 0 150 153 127
0 0 0 0 0 0 0 0 0 28 21 38 82 67 84
124 128 134 182 180 180 0 0 0 157 166 171 193 191 79
31 47 55 66 71 62 120 118 112 121 121 98 179 184 162
255 255 227 88 81 96 0 0 0 41 40 38 134 129 144
0 0 0 0 0 0 0 0 0 0 0 0 0 0 0
32 33 43 28 33 54 77 79 34 79 86 30 33 42 44
42 50 46 0 0 0 21 36 2 0 0 0 0 0 0
0 0 0 102 94 91 107 98 80 69 68 83 0 0 0
0 0 0 0 0 0 0 0 0 40 51 46 0 0 19
84 113 44 138 141 118 98 94 109 183 185 183 217 220 215
253 240 242 0 0 0 0 0 0 0 0 0 0 0 0
10 0 28 58 54 65 39 21 51 0 0 0 26 1 48
28 12 52 0 0 20 72 56 81 6 15 16 0 0 0
13 32 16 163 167 156 0 22 15 0 0 0 0 0 0
0 0 0 15 0 0 10 0 2 0 2 0 27 48 43
22 18 0 0 0 0 0 0 0 29 35 35 0 0 0
0 0 0 0 0 0 0 0 0 20 23 9 42 34 28
94 76 86 81 64 64 21 11 16 0 0 0 0 0 0
0 0 0 0 0 0 0 0 0 0 0 0 0 0 0
12 20 1 12 12 8 24 18 19 0 0 0 45 27 33
63 56 63 89 88 87 9 13 16 0 0 0 46 48 41
33 35 21 0 0 0 0 0 0 0 0 0 0 0 0
0 0 0 0 0 0 6 5 0 49 49 34 163 166 157
58 60 52 0 0 0 0 0 0 0 0 0 25 13 17
6 0 0 0 0 0 0 0 0 0 0 0 0 0 0
0 0 0 6 0 1 117 97 106 56 39 31 0 0 0
0 0 0 0 0 0 15 17 6 46 44 44 28 16 7
0 0 0 0 0 0 0 0 0 0 0 0 3 8 2
0 0 0 0 0 0 0 1 0 0 0 5 0 5 0
12 4 3 0 5 0 0 0 0 0 1 0 12 10 14
17 23 28 0 0 0 0 0 0 48 37 43 0 0 0
0 0 0 91 110 113 255 254 255 170 180 197 57 64 83
25 27 37 0 0 0 0 0 0 0 0 0 0 0 0
0 0 0 0 0 0 0 0 0 68 73 86 32 32 60
0 0 0 0 0 5 0 0 0 14 2 17 44 44 50
59 53 59 19 27 16 0 0 0 11 16 9 0 0 0
0 0 0 0 0 0 30 40 51 64 73 76 28 25 37
14 13 9 0 3 1 93 79 109 41 34 70 0 0 0
0 0 0 0 0 0 0 0 9 36 39 60 0 0 2
0 0 0 0 0 0 0 0 0 0 0 0 0 0 0
0 0 0 27 33 72 16 35 66 0 0 0 203 198 117
46 46 48 0 0 0 0 0 0 13 9 28 20 15 31
122 126 138 0 0 0 0 0 0 0 0 0 116 125 106
105 121 100 0 0 0 0 0 0 50 64 66 0 0 0
0 0 0 53 46 54 51 32 47 13 0 0 7 0 0
0 0 0 0 0 0 0 0 0 0 0 0 0 0 27
0 0 0 0 0 0 27 32 48 69 60 52 40 33 27
13 14 0 0 0 0 0 0 0 0 0 0 0 0 0
0 0 0 0 0 0 23 21 22 0 0 0 75 69 76
83 84 101 23 24 21 34 24 11 13 23 14 10 19 0
27 34 13 98 86 102 0 0 0 0 0 0 106 120 110
146 146 151 0 0 0 0 0 0 0 0 0 0 0 0
0 4 15 63 68 83 40 37 50 41 42 7 16 15 13
0 0 0 0 0 0 0 0 0 0 0 0 16 0 15
34 10 34 51 48 52 53 50 69 12 0 21 0 0 0
19 23 49 31 18 40 2 7 26 0 0 0 0 0 0
0 0 0 113 116 78 46 36 73 0 0 0 0 0 0
9 13 23 162 151 169 255 255 255 156 161 151 42 34 51
0 0 0 0 0 0 0 0 0 0 0 0 0 0 0
0 0 0 14 16 22 0 0 0 0 0 0 0 0 0
0 0 0 128 143 137 125 135 136 0 0 0 0 0 0
0 0 0 0 0 0 33 10 26 25 16 19 4 0 7
16 11 19 32 27 15 0 0 0 0 0 0 11 9 8
0 0 0 0 0 0 0 0 0 23 31 30 44 42 37
119 122 117 139 121 124 0 7 0 0 0 0 0 0 0
0 0 0 0 0 0 0 0 0 0 0 0 0 0 0
0 0 0 0 0 0 0 0 0 0 0 0 0 0 0
0 0 0 35 30 36 112 102 116 59 47 52 4 1 3
42 42 33 67 57 55 72 67 60 0 0 0 0 0 0
0 0 0 0 0 0 0 0 0 0 0 0 15 18 22
123 124 117 82 69 73 11 5 7 0 0 0 0 0 0
0 0 0 0 0 0 0 0 0 0 0 0 0 0 0
0 0 0 0 0 0 0 0 0 71 65 75 55 61 42
0 0 0 0 0 0 0 2 0 28 20 16 58 48 53
36 18 13 0 0 0 0 0 0 0 0 0 0 0 0
0 0 0 0 0 0 0 0 0 0 0 0 0 0 3
0 14 0 13 2 10 0 9 0 0 0 0 0 0 0
26 23 16 17 23 26 0 0 0 0 0 0 0 0 0
0 0 0 39 36 43 144 131 133 32 29 37 0 0 0
0 0 0 0 0 0 0 0 0 0 0 0 0 0 0
0 0 0 0 0 0 0 0 16 105 99 103 48 53 63
0 0 0 0 0 0 36 33 30 8 0 5 8 0 6
30 17 22 37 28 25 8 6 9 0 0 0 65 69 63
0 0 0 0 0 0 0 0 0 30 37 45 51 60 55
1 11 11 0 0 0 0 0 0 42 34 65 88 82 104
29 28 34 0 0 0 0 0 0 0 0 0 0 0 0
0 0 0 0 0 0 0 0 0 0 0 0 0 0 0
0 0 0 44 39 52 149 138 163 0 0 3 0 0 0
215 216 191 0 0 0 0 0 0 10 7 9 24 28 39
84 76 88 31 36 44 0 0 0 0 0 0 123 130 134
141 140 141 0 0 0 0 0 0 0 0 0 38 46 62
2 0 0 19 15 0 96 88 91 97 93 99 52 38 31
18 13 9 10 9 0 0 4 0 0 0 0 0 0 0
0 0 0 0 0 0 1 1 13 65 75 96 60 68 76
87 86 70 0 0 0 0 0 0 11 9 36 0 0 0
0 0 0 0 0 0 0 0 0 6 3 11 0 0 0
0 0 0 0 0 0 0 0 0 0 0 0 0 0 0
0 0 0 6 18 7 148 149 111 0 0 0 0 0 0
25 17 34 8 8 16 0 0 0 0 0 0 0 0 0
76 76 72 72 76 75 116 114 71 37 60 11 23 26 0
2 7 11 0 0 0 0 0 0 80 77 57 65 101 51
73 128 52 81 148 49 89 128 36 43 62 45 0 0 0
0 0 0 0 0 0 0 0 0 0 0 0 0 0 0
0 0 0 11 11 36 170 185 107 81 84 111 0 0 0
0 0 0 0 0 0 0 0 0 231 229 239 164 161 157
149 140 155 46 53 41 0 0 0 0 0 0 0 0 0
0 0 0 0 0 0 86 77 89 16 7 16 0 0 0
0 0 0 107 100 99 183 192 188 0 0 0 0 0 0
0 0 0 11 0 12 39 21 36 55 52 62 39 32 42
0 4 9 0 0 0 35 34 16 0 0 0 0 0 0
0 0 0 0 0 0 0 0 0 41 41 35 72 69 72
89 79 79 109 115 119 37 35 39 0 0 0 0 0 0
19 35 26 34 44 28 0 0 0 0 0 0 0 0 0
22 31 21 0 0 0 0 0 0 0 0 0 0 0 0
62 66 67 0 0 0 0 0 0 0 0 0 61 55 46
31 40 28 0 0 0 0 0 0 78 78 60 59 67 75
0 0 0 0 0 0 0 0 0 0 0 0 0 0 0
0 0 0 85 80 76 0 0 0 0 6 2 0 0 0
0 0 0 0 0 2 0 0 0 0 0 0 0 0 0
0 33 0 3 25 0 0 0 0 0 0 0 50 50 58
67 57 62 0 0 0 0 0 0 17 5 2 34 33 37
76 73 65 44 45 39 0 0 0 0 0 0 0 0 0
0 0 0 0 0 0 0 0 0 0 0 0 0 0 0
0 0 0 7 3 10 11 1 4 0 6 2 22 16 15
0 0 0 0 0 0 0 2 6 1 7 18 0 0 0
0 0 0 0 0 0 255 255 255 49 29 36 0 0 0
0 0 0 17 11 19 12 2 16 26 40 29 53 53 55
67 66 79 45 43 50 98 90 95 171 173 189 148 137 148
9 8 13 0 0 10 48 49 66 42 40 30 11 3 0
0 0 0 3 0 0 0 3 0 0 0 0 0 0 0
76 89 78 0 0 0 0 0 0 0 0 0 0 0 0
0 0 0 0 0 0 0 0 0 0 0 0 0 0 0
0 0 0 81 78 74 134 126 141 0 0 0 0 0 0
0 0 0 30 26 38 0 0 0 15 11 18 52 46 50
9 2 13 0 0 0 84 82 88 147 140 162 0 0 0
197 204 183 210 219 193 0 0 0 0 0 0 0 0 0
0 0 0 0 0 4 0 0 0 33 35 52 69 75 85
94 92 98 2 3 13 0 0 0 0 0 0 23 38 60
0 0 1 0 0 0 0 0 0 46 26 26 70 59 53
28 25 8 36 20 15 28 24 13 52 41 38 0 0 0
0 0 0 0 0 0 0 0 0 46 50 68 95 116 136
70 64 28 36 55 33 76 60 70 145 152 92 207 196 118
58 71 66 75 82 71 11 20 0 0 0 0 35 32 41
22 24 27 0 0 0 3 0 13 0 0 0 0 0 0
0 0 0 49 40 47 118 120 82 122 123 152 0 0 0
0 0 0 0 0 0 0 0 0 0 0 0 0 0 0
1 6 2 43 35 31 52 51 70 40 65 20 4 27 4
1 8 4 0 11 7 0 7 5 0 4 14 26 67 9
47 86 30 72 67 71 20 19 21 34 32 38 96 104 99
83 83 74 0 0 0 24 14 35 0 2 22 0 0 2
0 0 0 0 0 0 42 42 66 200 226 130 127 128 159
0 0 0 0 0 0 0 0 0 0 0 0 0 0 0
0 0 0 55 64 75 165 168 165 198 201 211 182 187 177
158 161 165 146 141 129 94 105 106 96 124 123 123 158 152
0 0 0 3 5 19 123 228 146 111 116 132 0 0 0
0 0 0 35 15 19 15 5 29 45 16 32 24 30 26
12 15 9 0 0 0 0 0 0 35 20 16 0 0 0
0 0 0 0 0 0 0 0 0 65 71 68 98 95 99
48 45 57 98 102 101 59 52 46 0 0 0 0 0 0
0 0 0 137 135 131 85 82 81 0 0 0 0 0 0
0 0 0 0 6 0 1 9 14 0 0 0 7 16 15
0 0 0 0 0 0 57 54 61 0 0 0 0 0 0
22 12 21 67 50 62 4 0 0 0 0 0 1 0 0
106 114 110 11 14 27 0 0 0 0 0 0 13 13 5
0 0 0 3 0 0 41 50 41 0 0 0 57 59 56
69 63 65 75 76 80 121 120 117 58 68 68 0 0 0
0 0 0 0 0 0 0 0 0 0 0 0 0 0 0
52 41 55 73 75 76 0 0 0 0 0 0 0 0 0
21 24 14 58 48 48 30 27 24 0 0 4 0 0 0
0 0 0 2 0 0 0 8 0 1 0 12 0 0 0
0 0 0 7 0 1 0 0 0 0 0 0 0 0 0
15 7 0 0 0 0 4 0 0 1 3 2 21 26 28
0 0 0 0 0 0 100 103 109 230 220 222 0 0 0
0 0 0 68 55 66 64 62 76 10 0 7 0 0 0
0 0 0 0 0 0 41 24 35 82 67 78 24 20 11
0 0 0 0 0 0 21 10 17 13 2 11 2 0 0
0 0 0 0 0 0 19 12 6 14 0 5 0 0 0
0 0 0 22 18 0 0 0 0 0 0 0 0 0 0
0 0 0 0 0 0 0 0 0 40 50 39 64 62 60
0 0 0 0 0 0 0 0 0 106 116 108 198 205 210
122 129 145 0 0 0 0 0 0 0 0 0 0 0 0
0 0 6 0 0 0 0 0 0 0 0 0 18 12 35
0 0 0 123 136 115 0 0 0 0 0 0 0 0 0
0 0 0 0 0 0 26 19 26 44 58 49 246 255 252
5 12 12 0 0 0 0 0 0 0 0 0 0 0 0
29 33 62 33 22 58 5 0 0 0 0 0 0 0 0
7 0 7 6 1 0 28 17 13 44 41 17 61 53 40
0 0 8 0 0 0 0 0 0 0 0 0 63 61 92
106 104 98 56 56 38 14 16 10 60 63 104 135 146 171
132 129 143 84 86 82 127 127 91 80 80 72 0 0 0
0 0 0 14 8 35 5 0 27 37 33 46 0 0 0
0 0 0 0 2 0 155 140 113 164 155 119 0 0 0
0 0 0 0 0 0 24 20 54 52 30 84 81 83 117
63 47 57 17 21 23 41 21 30 55 40 32 14 40 10
0 1 0 13 9 4 19 41 6 23 50 1 18 38 1
38 82 11 43 35 65 0 0 0 0 0 0 0 0 0
43 70 38 146 157 142 152 174 123 147 155 110 141 160 100
154 161 108 157 155 119 0 0 0 12 23 30 199 188 158
19 23 54 0 0 0 0 0 0 0 0 0 0 0 0
0 0 0 0 0 0 37 53 52 103 106 110 117 131 127
142 151 149 185 190 186 148 212 208 128 130 134 0 20 11
122 119 125 94 110 101 63 125 60 118 150 110 0 0 0
0 0 0 0 0 0 20 0 9 0 0 0 0 0 0
0 0 0 0 0 0 0 0 0 0 0 0 18 10 0
7 7 0 0 0 0 0 0 0 0 0 0 116 134 117
112 121 118 28 21 16 15 10 3 0 0 0 0 0 0
0 0 0 69 60 62 121 132 135 46 36 42 0 0 0
0 20 7 0 0 0 0 0 0 47 42 53 0 0 0
0 0 6 0 0 0 0 0 0 0 0 0 3 3 1
0 0 0 0 0 0 58 60 53 121 111 119 65 66 61
0 0 0 55 51 63 23 26 31 1 0 0 0 0 0
0 0 0 10 11 5 8 6 5 0 0 0 0 0 0
70 58 65 134 127 131 143 139 128 137 145 145 83 79 80
0 0 0 0 0 0 0 0 0 0 0 0 0 0 0
0 0 0 47 53 42 75 71 76 0 0 0 0 0 0
0 0 0 3 2 0 16 11 16 0 0 0 0 0 0
0 0 0 0 4 0 0 0 0 0 8 18 0 9 1
0 0 1 0 2 2 0 0 0 0 0 0 0 0 0
0 0 0 0 0 0 9 28 12 36 33 19 4 0 4
0 0 0 0 0 0 0 0 0 255 255 255 26 9 24
0 0 0 0 0 0 0 0 0 0 0 0 0 0 0
0 0 0 32 21 32 0 0 0 24 21 15 0 0 0
0 0 0 0 0 0 0 0 0 0 0 0 0 0 0
9 10 0 0 0 0 0 0 0 0 1 0 0 0 0
0 0 0 0 0 0 0 0 0 101 98 100 91 87 78
48 63 45 0 0 0 0 0 0 0 0 0 12 18 2
2 1 0 254 255 255 179 195 214 15 8 22 0 0 0
0 0 0 0 0 0 170 169 184 146 148 157 0 0 0
0 0 0 0 0 0 0 0 0 0 0 0 0 0 0
0 0 0 0 0 0 0 0 0 0 0 0 0 0 0
0 0 0 161 168 178 50 66 63 0 0 0 83 77 76
3 3 13 0 0 0 0 0 0 0 0 0 12 8 6
39 31 30 18 30 49 0 0 19 65 46 37 0 0 0
0 0 0 8 0 0 1 0 0 19 18 0 35 24 11
53 32 16 45 31 56 0 0 0 0 0 0 0 0 0
59 52 82 72 67 75 68 79 68 19 17 0 0 0 0
0 0 0 0 0 0 63 72 53 102 97 60 92 93 72
7 6 11 0 0 0 6 0 29 8 11 24 0 0 0
0 0 0 0 0 0 118 119 129 134 120 87 72 67 81
0 0 0 0 0 0 112 93 143 154 151 67 117 152 43
140 172 54 63 62 88 0 0 0 81 65 55 13 66 8
12 49 17 1 8 0 19 23 11 39 65 41 22 50 27
37 80 25 110 98 47 27 21 49 0 0 0 0 0 0
0 0 0 0 0 0 0 0 0 0 0 0 57 51 55
67 66 77 85 89 90 85 96 93 28 18 20 95 105 106
209 194 189 0 0 3 0 0 0 0 0 0 0 0 1
0 0 0 38 48 55 26 28 31 32 30 31 0 0 0
0 0 0 0 0 0 0 0 0 0 0 0 2 11 17
0 0 0 0 0 0 0 0 0 66 62 96 95 101 103
0 0 0 0 0 0 0 0 0 16 0 0 0 0 0
0 0 0 0 0 0 0 0 0 16 5 11 31 28 25
0 0 0 7 11 5 0 0 0 0 0 0 0 0 0
103 106 103 78 81 85 0 0 0 0 0 0 0 0 0
0 0 0 53 53 55 101 104 112 11 7 1 0 0 0
73 55 57 73 87 71 0 0 0 0 0 0 49 52 58
0 0 0 0 0 0 66 73 92 65 67 74 0 0 0
0 0 2 0 0 0 0 0 0 3 4 0 66 59 46
58 58 54 0 0 0 2 0 0 62 62 57 14 17 18
0 0 0 0 0 0 15 17 25 12 6 2 0 0 0
0 0 0 0 0 0 81 86 87 92 88 81 70 69 82
83 84 89 2 0 0 0 0 0 0 0 0 0 0 0
0 0 0 0 0 0 88 85 84 70 68 74 0 0 0
0 0 0 0 0 0 7 0 0 2 1 0 0 0 0
0 0 0 0 0 0 0 0 0 0 0 0 9 0 13
8 3 7 9 0 4 0 0 2 0 0 0 2 7 5
8 1 0 0 9 0 0 0 0 19 24 16 35 20 30
6 1 3 0 0 0 0 0 0 44 40 50 255 255 255
0 0 0 0 0 0 0 0 0 31 34 39 31 34 36
35 40 33 20 20 17 20 29 20 23 15 20 10 1 4
0 0 0 0 0 0 16 7 4 0 0 0 0 0 0
0 0 0 48 38 37 1 0 0 0 0 0 0 0 0
0 0 0 0 0 0 10 7 0 23 24 11 71 70 66
55 59 38 27 27 25 0 0 0 0 0 0 0 0 0
0 0 0 0 0 0 0 0 0 150 184 181 255 255 255
147 176 156 0 0 0 0 0 0 100 105 106 218 225 234
93 108 107 159 172 179 83 95 97 82 94 94 115 127 129
87 99 103 60 71 87 42 54 60 3 9 21 143 157 162
148 154 161 130 127 140 157 163 163 0 0 0 0 0 0
0 0 0 0 0 0 0 0 0 17 8 9 23 24 22
43 45 44 52 47 41 2 0 23 0 0 0 35 27 4
0 0 0 0 0 0 23 34 24 23 10 7 22 12 0
31 18 10 16 4 0 48 31 63 57 29 52 0 0 0
0 0 0 86 75 95 57 58 67 90 88 76 0 0 0
0 0 0 0 0 0 0 0 0 54 77 44 99 102 84
102 116 37 72 69 103 0 0 0 26 26 42 28 28 50
0 0 0 3 0 0 153 139 131 146 175 74 55 34 67
0 0 0 0 0 0 0 28 0 139 128 97 87 95 33
69 58 66 63 53 91 4 10 15 0 0 0 82 59 66
13 61 13 29 55 34 0 0 0 2 0 0 2 12 2
0 16 0 26 42 37 0 0 3 0 0 0 0 0 0
33 24 45 43 54 50 0 0 0 0 0 0 0 0 0
0 0 0 0 0 0 0 0 0 0 0 0 0 0 0
58 54 73 239 236 201 16 16 42 0 0 0 0 0 0
37 44 44 0 0 0 0 0 0 0 0 0 61 66 68
70 75 82 1 0 4 0 0 0 0 0 0 0 0 0
0 0 0 0 0 0 0 0 0 0 0 0 47 67 88
142 255 121 97 114 130 0 0 0 0 0 0 44 17 30
34 0 12 0 0 0 4 5 0 57 66 59 88 78 70
142 139 138 20 18 14 12 24 4 0 0 0 0 0 0
0 0 0 70 83 73 45 48 43 0 0 0 0 0 0
0 0 0 0 0 0 170 165 156 134 141 136 0 0 0
0 0 0 251 241 238 85 98 80 0 0 0 0 0 0
0 0 4 0 0 0 0 0 0 255 248 255 255 255 255
0 0 0 0 0 0 0 0 0 24 21 6 0 0 0
0 0 0 0 0 0 104 113 115 4 0 2 105 96 105
31 24 40 0 0 0 0 0 0 19 15 23 21 12 7
0 0 0 0 0 0 0 0 0 55 52 61 80 75 73
74 61 61 114 99 100 31 17 19 0 0 0 0 0 0
0 0 0 0 0 0 0 0 0 129 119 124 81 88 91
0 0 0 0 0 0 37 32 36 30 26 32 8 12 13
0 0 0 0 0 0 19 19 19 37 43 29 32 35 29
2 0 0 0 0 0 0 0 0 0 0 0 0 0 0
0 5 0 15 12 0 15 29 0 26 34 23 12 17 12
0 0 0 0 0 0 0 0 0 0 0 0 112 117 121
155 147 165 0 0 0 72 81 81 11 11 19 28 31 23
23 8 27 0 0 0 0 0 0 0 0 0 0 0 0
0 0 0 34 39 29 17 28 9 0 0 0 0 0 0
58 51 41 0 0 0 30 27 22 31 31 20 64 72 64
93 81 75 36 30 24 0 0 0 0 0 0 9 8 9
30 28 22 73 67 53 87 82 79 52 44 31 17 29 34
31 35 33 17 1 8 0 0 0 0 0 0 0 0 0
0 0 0 0 0 0 55 55 67 150 170 177 164 181 183
0 9 25 0 0 0 0 0 0 0 0 0 0 0 0
87 93 101 0 0 0 0 0 0 0 0 0 0 0 0
100 92 99 72 81 86 0 0 0 0 0 0 0 0 0
4 3 15 0 0 2 45 45 53 101 95 109 82 83 91
81 84 90 98 86 92 31 23 23 7 5 35 109 113 123
2 0 0 0 0 0 4 0 0 39 36 33 18 9 2
0 0 0 0 0 0 0 0 0 20 0 11 47 32 56
0 0 0 0 0 0 122 111 126 63 51 76 87 77 64
0 0 0 0 0 0 0 0 15 0 0 0 1 11 0
91 93 86 108 114 48 62 60 89 0 0 0 0 0 8
0 0 0 0 0 0 0 0 0 153 171 85 106 99 104
0 0 0 0 0 0 0 0 0 79 108 74 160 172 120
45 53 69 0 0 0 0 0 0 0 0 0 0 0 0
29 30 16 50 48 44 47 43 37 0 0 0 0 0 0
0 0 0 0 0 0 26 58 44 22 0 23 25 0 38
0 0 0 0 0 0 44 26 49 57 52 53 35 38 42
17 0 14 0 0 0 0 0 0 9 0 1 3 0 1
0 0 0 84 84 116 255 255 210 0 0 13 0 0 0
0 0 0 0 0 0 0 0 0 33 27 35 0 0 0
0 0 0 0 0 0 0 0 0 0 0 0 17 12 16
0 0 0 115 110 112 26 9 18 8 0 0 0 0 0
0 0 0 62 76 96 164 211 163 0 0 0 0 0 0
9 6 18 24 5 11 0 0 0 0 0 0 10 18 14
18 14 15 13 0 0 0 0 0 0 0 0 0 0 0
0 0 0 0 0 0 30 28 33 0 0 0 0 0 0
0 0 0 0 0 0 38 31 28 149 140 142 55 48 61
0 0 0 0 0 0 70 49 64 0 0 0 0 0 0
0 0 0 0 0 0 0 0 0 0 0 0 225 240 243
255 255 255 255 255 255 9 20 16 0 0 0 67 75 65
0 0 0 0 0 0 60 62 64 70 82 75 0 0 0
74 76 67 86 92 90 0 0 0 0 0 0 0 0 0
26 16 14 0 0 0 0 0 0 0 0 0 54 53 67
2 4 7 0 0 0 81 75 82 187 171 185 219 198 202
46 47 69 43 61 62 20 7 23 16 18 17 10 14 18
0 0 0 0 0 0 3 3 0 43 33 25 9 6 17
4 8 2 0 0 0 0 0 0 0 0 0 0 0 0
0 0 0 0 0 0 0 0 0 0 1 1 16 12 14
7 5 12 0 0 0 16 11 15 33 43 32 0 0 0
0 0 0 0 1 0 0 0 0 0 0 0 255 255 255
106 101 117 0 0 0 0 0 0 0 0 0 0 0 0
0 0 0 0 0 0 0 4 7 93 91 87 65 76 76
0 0 0 0 0 0 0 0 0 0 0 0 1 0 0
0 0 0 0 0 0 0 0 0 0 0 0 0 0 0
0 0 0 20 15 23 84 78 82 105 91 105 45 34 38
0 0 0 0 0 0 0 0 0 3 0 0 9 9 2
44 34 31 70 73 68 97 89 99 138 118 122 0 13 20
0 0 0 0 0 0 0 0 0 255 255 255 161 170 170
21 25 26 186 198 190 241 241 251 255 255 255 162 169 177
83 86 85 132 139 158 123 135 129 25 31 34 0 0 0
0 0 0 0 0 0 0 0 0 51 37 54 66 64 78
54 51 64 75 64 94 133 114 138 6 0 9 52 51 66
42 32 40 0 0 0 0 0 0 0 0 0 0 0 0
0 0 0 14 0 5 15 21 21 79 64 68 76 73 70
60 46 42 48 50 43 28 18 23 0 0 0 0 0 9
20 14 24 23 11 40 0 0 0 0 0 14 93 106 89
66 73 66 0 0 0 0 0 0 0 0 0 0 0 0
54 64 74 137 130 66 135 139 106 29 22 40 0 0 0
0 0 0 0 0 0 21 9 0 161 163 137 103 94 103
0 0 0 2 0 38 0 0 14 0 0 0 33 48 27
0 0 0 0 0 0 0 0 0 0 0 0 0 0 0
0 0 0 25 24 18 0 0 0 2 6 0 5 1 0
24 10 20 51 41 54 9 17 9 0 0 0 0 0 0
28 0 31 0 0 0 0 0 0 0 0 0 0 0 0
0 0 0 2 0 14 32 34 44 17 16 26 0 0 0
0 0 0 0 0 0 68 65 99 255 255 218 0 0 14
0 0 0 0 0 0 0 0 0 0 0 5 38 41 42
8 4 4 2 3 8 1 0 14 6 0 1 13 0 3
14 17 19 0 0 0 107 102 95 26 14 7 3 0 4
21 1 12 0 0 0 0 0 0 113 125 140 150 163 175
0 0 0 0 0 0 0 0 0 34 30 35 0 0 0
0 0 0 44 32 33 55 45 42 0 0 0 0 0 0
0 0 0 0 0 0 53 58 55 85 93 85 13 22 10
0 2 0 0 0 0 0 0 0 29 30 32 141 139 133
39 35 31 0 0 0 0 0 0 81 72 74 20 16 20
0 0 0 12 15 22 52 52 60 0 0 0 0 0 0
0 0 0 132 148 156 96 94 108 0 0 0 0 0 0
21 29 7 0 0 0 0 0 0 0 0 0 5 10 0
47 30 44 61 61 54 79 65 78 0 0 0 0 0 0
0 0 0 5 6 0 0 0 0 0 0 0 16 20 11
79 71 73 2 10 2 0 0 0 10 6 1 106 92 90
111 113 105 166 172 178 133 142 138 89 84 87 80 73 81
50 44 40 0 0 0 0 0 0 0 0 0 26 28 32
13 2 4 0 0 0 0 0 0 0 0 0 0 0 0
9 23 19 7 15 12 80 72 69 78 84 88 102 104 103
96 100 96 47 53 46 0 0 0 0 0 0 0 0 0
0 0 0 38 34 29 0 0 0 0 0 0 53 54 61
255 255 255 0 0 5 0 0 0 19 13 8 0 0 0
1 3 5 10 18 21 0 0 0 0 3 10 68 62 60
27 32 33 27 11 16 28 31 11 34 32 23 28 35 14
37 27 28 36 29 27 44 32 23 36 30 15 5 0 7
0 0 0 0 0 0 20 9 3 31 26 27 31 28 21
12 5 15 0 0 0 0 0 0 5 0 1 10 8 0
0 0 0 0 0 0 0 0 0 0 0 0 1 0 0
0 0 0 9 18 24 0 0 0 79 75 73 188 192 192
2 1 0 0 0 0 0 0 0 95 99 111 57 69 71
0 0 0 0 0 0 39 33 58 85 92 92 143 140 148
58 73 68 119 129 134 67 65 78 47 37 61 38 35 51
74 61 79 79 69 98 68 59 83 116 116 141 0 0 0
22 24 30 0 0 0 0 0 0 0 0 0 0 0 0
15 16 16 32 25 23 19 20 26 10 0 3 41 29 28
47 62 56 82 64 72 136 142 119 203 176 187 165 161 157
74 62 75 36 27 42 0 0 0 0 0 0 52 51 75
106 110 120 46 56 44 37 40 37 0 0 0 0 0 0
0 0 0 74 92 108 185 185 67 63 70 101 0 0 0
0 0 0 0 0 0 0 0 0 137 107 141 149 191 88
62 41 60 0 0 0 0 0 0 0 0 0 50 65 28
151 164 139 144 139 143 66 73 63 112 119 116 16 5 20
0 0 0 0 0 0 117 116 114 39 33 35 10 19 9
0 0 0 0 0 0 0 6 19 4 14 6 9 9 12
0 0 0 42 4 46 45 26 51 35 15 35 0 0 0
0 0 0 0 0 0 17 0 11 7 0 18 0 0 0
0 0 0 0 0 0 0 0 0 33 26 70 255 255 221
0 0 15 0 0 0 0 0 0 0 0 0 7 7 16
38 33 35 0 0 0 0 0 0 0 0 0 9 0 0
14 13 13 29 6 5 0 0 0 105 74 77 50 19 20
32 3 13 31 18 18 0 0 0 0 0 0 6 7 16
164 255 205 0 0 0 0 0 0 0 0 0 97 89 91
0 1 0 0 0 0 36 17 17 57 46 38 0 0 0
0 0 0 0 0 0 7 0 0 97 98 92 118 120 121
27 21 29 0 0 0 0 0 0 0 0 0 85 73 71
150 156 156 0 0 0 0 0 0 0 0 0 73 69 58
28 24 23 32 20 19 86 77 73 114 120 112 19 25 26
0 0 0 0 0 0 0 0 0 0 0 0 0 0 0
0 0 0 0 0 0 33 29 27 0 0 0 0 0 0
0 0 0 53 45 65 48 56 56 92 86 80 32 27 27
0 0 0 0 0 0 0 0 0 0 0 0 0 0 0
0 0 0 86 83 89 53 52 57 0 0 0 0 0 0
0 0 0 1 0 2 78 56 64 25 21 18 4 4 0
23 25 18 15 14 13 0 0 0 2 0 0 33 23 21
30 23 21 10 15 8 0 0 0 0 0 0 0 0 0
12 8 10 24 28 45 13 23 18 72 69 71 37 32 34
21 12 23 0 0 0 0 0 0 0 0 3 20 15 21
35 37 40 0 0 0 0 0 0 0 0 0 121 116 129
255 255 255 127 126 141 0 0 0 0 0 4 0 0 0
0 0 0 6 0 8 23 27 28 0 0 0 16 9 15
53 51 37 26 21 17 33 33 27 31 34 36 40 35 32
38 36 29 48 30 32 32 33 21 41 28 14 38 19 14
39 47 52 20 31 34 29 15 26 12 2 15 7 0 4
21 5 1 36 14 26 14 0 1 61 43 37 54 37 29
54 46 33 31 11 6 14 1 0 8 8 0 15 0 8
1 0 0 0 0 0 36 14 10 35 19 15 52 33 35
34 29 27 0 0 0 0 0 0 0 0 0 11 0 0
0 0 0 0 0 0 0 0 0 0 0 0 0 0 0
0 0 0 0 0 0 0 7 14 0 0 0 0 0 2
15 13 17 49 33 62 40 30 50 12 0 13 34 21 47
0 0 0 0 0 0 0 0 0 32 30 31 53 46 41
14 14 1 0 0 0 0 0 0 0 0 0 0 0 0
0 0 0 0 0 0 0 0 0 0 0 0 0 0 0
0 0 0 9 10 18 16 5 4 0 0 1 10 0 15
62 56 69 58 68 86 69 65 48 122 130 121 39 55 64
103 104 131 119 119 83 149 152 83 143 133 166 0 0 0
0 0 0 0 0 0 0 0 0 21 16 55 169 233 80
196 222 118 11 0 10 0 0 0 0 0 0 0 0 0
29 22 17 81 83 81 67 55 83 25 14 41 101 108 121
69 61 72 0 0 0 0 0 0 88 78 73 13 17 19
9 13 11 0 0 0 0 0 0 0 0 0 0 0 0
0 0 0 0 0 0 26 8 28 29 27 35 15 23 22
0 0 0 0 0 0 0 0 0 0 0 0 4 2 0
0 0 0 0 0 0 0 0 0 0 0 0 47 35 63
255 255 224 0 0 24 0 0 0 0 0 11 0 0 0
0 0 0 16 21 12 0 0 0 0 0 0 0 0 0
5 0 0 23 7 12 10 4 4 0 0 0 68 32 37
63 37 29 21 2 9 20 3 8 46 36 43 0 0 0
0 0 0 145 146 156 81 89 91 0 0 0 0 0 0
48 44 59 2 0 0 0 0 0 18 0 15 31 15 29
0 2 0 0 0 0 0 0 0 0 0 3 89 101 99
106 117 102 12 12 5 0 0 0 0 0 0 0 0 0
120 108 114 155 144 140 0 0 0 0 0 0 35 38 45
80 72 68 32 22 31 36 36 23 57 53 59 78 67 67
31 43 47 5 22 24 0 0 0 0 0 0 0 0 0
0 0 0 0 0 0 0 0 0 39 43 28 14 19 11
1 0 0 0 0 0 29 25 27 27 18 33 84 80 90
72 76 77 1 3 13 0 0 0 0 0 0 0 0 0
0 0 0 9 5 0 65 62 70 36 36 24 0 0 0
0 0 0 0 0 0 0 0 0 0 0 0 0 0 0
0 0 0 0 0 0 0 0 0 0 0 0 0 0 0
49 40 41 3 0 4 23 22 9 11 14 21 3 15 9
20 19 22 12 7 4 2 8 18 0 0 0 0 0 0
0 0 0 0 0 0 0 0 0 0 0 0 0 0 0
0 0 0 0 0 0 0 0 0 0 0 0 196 191 199
239 234 242 0 0 0 0 0 0 0 0 0 0 0 7
0 0 0 0 0 0 2 0 2 30 20 29 0 0 0
5 2 3 18 22 19 0 0 0 0 0 0 1 0 0
0 0 0 0 0 0 0 0 0 0 0 0 0 0 0
4 0 0 21 22 19 21 26 24 14 4 10 0 3 0
0 0 0 0 0 0 17 5 0 8 0 0 57 56 38
57 39 29 59 51 41 44 34 29 34 20 23 49 25 26
43 35 40 12 2 0 66 47 52 20 2 0 4 0 0
0 0 0 0 0 0 0 0 0 28 1 6 89 66 71
46 30 28 0 0 0 8 0 7 119 110 123 58 40 60
0 0 0 0 0 0 0 0 0 0 0 0 0 0 0
0 0 3 0 0 0 0 0 0 0 0 0 32 13 32
119 93 123 103 94 116 17 12 25 0 0 0 0 0 0
0 0 0 0 0 0 0 0 0 0 0 0 0 0 0
0 0 0 0 0 0 31 49 45 25 24 21 0 0 0
0 0 0 0 0 0 0 0 0 0 0 0 0 0 3
30 24 20 8 7 29 3 0 12 52 56 43 102 102 106
101 102 116 98 117 116 143 141 127 96 95 106 0 0 0
0 0 0 0 0 0 0 0 0 0 0 0 67 54 100
192 199 73 140 133 171 0 0 0 0 0 0 0 0 0
0 0 0 48 31 41 0 0 0 0 0 0 0 0 0
0 0 0 24 16 30 10 19 23 44 42 55 5 14 17
0 5 0 27 28 16 18 26 16 29 19 30 27 29 23
0 0 0 0 0 0 0 0 0 0 0 0 0 0 0
0 0 0 0 0 0 0 0 0 0 0 0 0 0 0
29 23 27 9 4 7 2 0 0 0 0 0 0 0 0
91 78 41 255 255 243 23 16 36 0 0 0 0 0 0
0 0 0 13 18 12 4 1 0 0 0 0 1 0 0
0 0 0 0 0 0 0 0 0 3 9 0 0 0 0
6 0 0 88 69 50 40 41 40 0 0 0 65 55 69
0 0 6 0 0 0 0 0 0 131 153 161 56 85 76
7 12 18 0 0 0 0 0 0 29 22 13 12 0 8
3 0 0 0 0 0 0 0 0 0 0 0 0 0 0
96 87 96 103 101 97 6 7 7 0 0 0 0 0 0
0 0 0 127 131 133 111 115 107 0 0 0 0 0 0
71 65 65 74 68 70 44 30 42 46 18 28 18 20 14
0 0 0 0 0 0 52 47 36 50 68 58 68 81 73
0 0 0 0 0 0 0 0 0 1 4 0 0 0 3
7 0 4 7 9 5 0 0 0 0 0 0 0 0 0
56 59 59 97 106 97 38 40 42 0 0 0 0 0 0
0 0 0 3 0 0 0 0 0 17 18 32 27 34 26
43 39 47 29 46 38 10 5 16 16 33 32 18 2 14
25 1 16 0 0 0 0 0 0 0 0 0 0 0 0
11 1 1 59 74 57 0 0 0 16 20 13 0 1 11
0 12 14 3 4 2 0 3 1 0 0 4 0 0 0
16 4 5 0 0 0 0 0 0 0 0 0 0 0 0
0 0 0 0 0 0 0 0 0 33 24 42 0 0 0
240 232 242 59 51 61 0 0 0 0 0 0 17 22 27
0 0 0 9 7 0 0 0 0 0 14 0 25 12 16
0 0 0 0 0 0 0 0 0 0 0 0 0 0 0
0 0 0 0 0 0 0 0 0 0 0 0 0 0 0
0 0 0 0 0 0 0 0 0 0 0 0 0 0 0
0 0 0 0 0 0 0 0 0 0 0 0 0 0 0
0 0 0 0 0 0 0 0 0 9 0 0 2 0 0
24 18 15 41 37 32 16 9 10 93 79 76 60 54 46
91 75 73 75 76 66 20 5 0 0 0 0 10 0 4
3 4 0 15 4 6 0 0 0 0 0 0 124 125 113
94 89 84 0 0 0 73 51 47 98 94 82 33 42 33
68 67 73 71 69 64 22 27 24 0 0 0 0 0 0
32 31 25 106 94 85 54 59 53 0 0 0 0 0 0
0 0 0 0 0 0 0 0 0 0 0 0 0 0 0
120 118 131 66 76 76 90 92 81 90 104 95 78 95 79
130 134 118 140 138 121 138 156 137 0 0 0 0 0 0
0 0 0 2 0 0 0 0 8 10 0 8 45 20 31
11 0 2 0 0 0 0 0 8 15 0 13 0 0 0
0 0 0 0 0 0 1 1 23 0 0 0 175 175 192
132 134 68 132 130 154 17 15 15 0 0 0 0 0 0
0 0 16 0 0 2 209 210 201 0 0 0 0 0 0
0 0 0 0 0 0 0 0 0 32 25 43 121 115 113
43 52 38 36 37 27 43 43 31 23 28 11 23 24 23
31 33 28 10 15 16 0 5 0 0 0 0 0 0 0
0 0 0 0 0 0 0 0 0 0 0 0 15 27 20
46 45 35 0 3 0 0 0 0 0 0 0 0 0 0
0 0 0 133 129 78 255 255 255 5 9 17 0 0 0
0 0 0 0 0 0 34 36 44 0 0 0 0 4 0
2 2 0 3 0 0 0 0 0 0 0 0 16 9 0
0 0 0 0 0 0 83 55 39 64 68 74 0 0 0
26 2 21 9 0 0 0 0 0 0 0 0 132 193 169
95 124 133 7 14 25 0 0 0 0 0 0 65 33 37
0 0 9 0 0 0 0 0 0 0 0 0 0 0 0
5 13 8 99 95 110 97 98 99 2 3 9 0 0 0
0 0 0 0 0 0 125 123 132 62 62 58 0 0 0
0 0 0 70 67 71 34 36 21 0 0 0 0 0 0
8 0 0 0 0 0 0 0 0 18 10 1 42 45 38
87 86 79 0 0 0 0 0 0 0 0 0 0 2 0
0 0 0 0 0 0 25 17 27 0 0 0 0 0 0
0 0 0 26 15 20 85 80 76 63 50 57 0 0 0
0 0 0 0 0 0 0 0 0 0 0 0 0 0 0
2 0 0 48 42 49 44 41 34 0 0 0 0 0 0
0 0 0 3 0 2 0 0 0 2 6 0 18 24 23
23 31 20 34 32 43 81 86 88 0 0 0 12 2 0
0 0 0 0 0 0 0 0 0 0 8 9 6 10 27
20 19 25 5 3 0 0 0 0 0 0 0 0 0 0
0 0 0 17 16 25 68 66 70 78 79 89 0 0 0
10 18 26 174 164 183 0 0 0 0 0 0 38 40 47
0 0 0 0 5 17 12 11 0 0 1 0 10 2 0
5 13 0 0 0 0 0 0 0 0 0 0 0 0 0
0 0 0 0 0 0 0 0 0 0 0 0 1 0 0
0 1 5 0 0 0 13 6 5 0 0 0 0 0 0
0 0 9 0 1 0 3 0 0 0 0 0 13 0 0
0 0 0 0 0 0 0 0 0 0 0 0 0 0 0
5 0 0 33 27 15 41 40 18 32 24 18 17 8 0
38 13 8 74 70 62 63 59 46 2 0 0 5 5 0
68 49 46 106 102 85 19 0 1 0 0 0 0 0 0
54 39 36 41 20 18 0 0 0 0 0 0 0 0 0
0 0 0 0 0 0 0 0 0 0 0 0 0 0 0
0 0 0 0 0 0 0 0 0 0 0 0 0 0 0
0 0 0 10 10 2 86 88 77 99 100 101 87 101 76
81 83 66 68 68 70 0 11 16 0 0 0 0 0 0
0 0 0 41 42 26 83 95 86 137 137 112 145 141 125
0 0 0 0 0 0 0 0 0 11 4 11 38 25 34
8 0 1 0 0 0 0 0 0 0 0 0 0 0 0
0 0 0 7 0 0 0 0 0 0 0 0 23 24 31
236 232 189 159 159 155 82 78 82 0 0 0 0 0 0
0 0 0 0 0 0 0 0 3 234 217 222 16 12 8
0 0 0 0 0 1 33 30 42 0 0 0 1 0 0
44 39 38 135 131 127 83 74 65 59 51 57 0 0 0
0 0 0 0 1 6 42 32 33 51 52 60 5 1 15
31 44 42 22 18 29 0 0 0 0 0 0 0 0 0
0 0 0 0 4 0 10 4 0 1 0 0 0 0 0
0 0 0 0 0 0 147 141 147 120 120 130 0 0 0
0 0 0 0 0 0 0 0 0 18 21 27 0 0 0
0 0 0 0 3 5 0 5 0 0 0 0 0 0 0
0 10 0 0 0 0 0 0 0 0 0 0 25 43 40
0 0 0 13 0 2 0 0 0 0 0 0 0 0 0
142 215 177 30 55 64 0 0 0 0 0 0 4 0 0
52 12 16 5 0 3 5 0 0 0 0 0 0 0 0
0 0 0 0 1 0 62 57 57 69 77 60 1 9 8
0 0 0 0 0 0 30 44 33 116 114 105 2 4 0
0 0 0 0 0 0 48 47 51 0 0 0 0 0 1
0 0 0 0 0 0 5 8 0 7 0 0 0 0 0
3 12 0 39 55 37 3 19 12 0 0 0 0 0 0
0 0 0 0 0 0 0 0 0 6 16 5 41 43 36
2 0 0 0 0 0 0 0 0 21 22 16 33 35 31
0 15 2 0 0 0 0 1 0 7 6 0 19 33 19
0 0 0 0 0 0 0 0 0 0 0 0 0 0 0
0 0 0 0 0 0 0 0 0 0 0 0 0 0 0
0 0 0 0 0 0 0 0 0 0 0 0 0 0 0
0 0 0 0 0 0 0 0 0 0 0 0 0 8 7
24 3 31 19 18 29 0 0 0 5 7 0 32 31 24
32 34 26 11 7 12 0 0 0 0 0 0 0 0 0
0 0 0 186 194 214 213 198 224 0 0 0 0 0 0
0 0 0 0 0 0 76 74 94 0 0 0 0 13 0
10 0 14 0 0 6 0 0 0 0 1 0 0 0 0
0 0 0 3 10 0 10 16 4 20 11 2 5 3 0
12 0 0 3 5 0 8 5 0 7 0 0 1 0 5
6 3 0 15 11 9 9 20 0 26 3 7 7 18 1
32 9 15 2 8 0 0 0 0 15 0 0 19 5 10
0 0 0 8 0 0 16 10 14 13 15 18 13 10 9
0 0 0 0 0 0 0 0 0 0 0 0 0 0 0
0 0 0 77 58 73 140 146 147 89 86 89 89 98 98
25 25 31 87 89 87 71 94 81 0 0 0 0 0 0
0 0 0 0 0 0 0 0 0 0 0 0 0 0 0
0 0 0 0 0 0 0 0 0 0 0 0 82 88 67
37 52 33 71 80 45 87 108 67 101 103 85 77 80 69
57 52 32 47 45 32 45 25 36 31 20 13 20 14 9
0 0 0 0 0 0 0 0 0 32 28 6 19 27 0
146 181 140 98 95 63 0 0 0 0 0 0 0 0 0
25 32 49 4 0 18 37 18 50 0 0 0 0 0 6
0 0 0 0 0 24 58 55 76 1 0 8 0 0 0
24 22 36 129 120 139 69 53 88 0 0 0 0 0 0
0 0 0 0 0 3 0 0 29 20 11 45 23 30 41
0 0 0 0 0 0 39 35 72 31 40 65 0 0 0
0 0 0 0 0 0 71 81 81 23 31 25 33 43 29
0 0 0 0 0 0 0 0 0 4 0 14 15 21 34
24 20 27 49 56 61 69 48 72 18 26 31 0 0 0
0 0 0 0 0 0 0 0 0 9 10 14 13 22 21
2 8 0 0 5 0 11 0 20 177 156 168 7 6 18
0 0 0 0 0 0 31 32 49 28 30 41 0 0 0
0 0 7 0 1 5 0 0 0 0 0 0 0 6 0
8 13 9 17 29 9 1 20 0 51 37 36 0 0 0
0 8 8 34 52 39 55 27 57 0 0 0 0 0 0
34 2 28 151 225 195 0 0 0 0 0 0 0 0 14
17 0 3 0 0 0 0 0 0 0 0 0 52 55 11
4 8 0 0 0 0 0 0 0 16 8 0 23 27 18
0 0 0 0 0 0 0 0 0 53 53 45 88 92 91
0 0 0 0 0 0 0 7 10 32 29 31 0 0 0
40 30 46 0 0 0 0 0 0 22 12 14 5 0 0
0 0 0 0 0 0 8 2 0 50 55 52 0 0 0
0 0 0 0 0 0 0 0 0 0 0 0 0 0 0
52 58 56 27 5 9 0 0 0 0 0 0 0 0 0
44 42 43 46 45 56 33 37 36 28 33 25 0 0 0
28 42 34 81 83 75 46 55 50 39 48 51 16 25 17
0 0 0 11 6 5 5 0 0 17 1 11 0 0 0
0 10 4 18 29 14 26 33 15 0 5 0 0 0 0
0 0 0 0 0 0 0 0 0 0 0 0 0 0 3
4 9 12 0 0 23 0 0 0 0 0 0 0 0 0
19 10 0 0 6 0 0 0 0 0 0 0 0 0 0
0 0 0 255 255 255 255 255 255 0 0 0 0 0 0
79 62 81 0 0 0 39 22 47 0 0 0 8 0 0
4 15 0 0 0 0 0 0 0 2 0 0 11 12 18
11 21 12 49 51 45 6 11 5 19 25 16 53 43 42
45 45 47 37 35 19 29 10 2 15 0 0 0 0 0
14 16 11 19 4 0 5 0 0 0 0 0 23 0 7
5 15 4 24 8 3 0 0 0 30 26 37 34 25 25
33 19 32 0 0 0 0 0 0 0 0 0 0 0 0
0 0 0 25 18 16 18 17 4 22 19 21 40 41 38
46 47 35 7 9 9 0 0 0 0 0 0 0 0 0
5 3 5 0 0 0 0 0 0 0 0 0 0 0 0
0 0 0 0 0 0 0 0 0 0 0 0 0 0 0
0 0 0 37 49 34 107 120 107 161 168 144 149 150 128
111 115 94 78 97 59 80 86 64 32 34 14 0 0 0
0 0 0 0 5 0 8 9 0 0 0 0 10 0 0
34 27 22 15 3 8 0 0 0 28 26 1 76 71 50
30 22 0 24 20 0 194 227 178 78 72 40 0 0 0
0 0 0 18 17 35 50 30 60 172 145 175 0 0 45
0 0 49 0 7 42 13 17 40 0 0 0 0 0 0
1 0 3 0 0 0 39 24 39 0 0 0 0 0 0
0 0 0 0 0 0 80 73 115 85 78 127 128 118 168
0 0 0 0 0 0 0 0 0 22 24 52 0 0 19
0 0 0 0 0 0 0 0 0 0 0 0 0 0 0
66 71 65 72 69 50 6 19 28 0 0 0 0 0 0
0 0 0 13 0 12 45 34 42 90 81 86 135 114 123
136 137 137 127 121 134 78 76 86 60 52 54 6 4 5
3 0 4 0 0 0 0 0 0 83 80 77 152 156 144
0 0 0 0 0 0 0 0 0 0 0 0 0 0 0
33 34 11 0 0 0 0 0 0 0 9 0 0 4 0
0 0 0 0 0 0 0 0 0 0 0 0 0 0 0
31 0 0 0 0 0 0 0 0 37 20 38 37 28 38
0 11 16 0 0 0 166 221 215 55 64 49 0 0 0
0 0 0 0 0 0 0 0 0 33 16 43 18 8 41
24 18 38 0 0 0 0 0 0 0 0 0 11 23 20
64 70 59 31 38 23 0 0 0 0 0 0 87 83 90
166 168 176 0 0 1 0 0 0 0 0 0 0 0 0
0 0 0 17 1 5 8 14 11 26 37 26 22 23 23
18 9 16 16 7 15 36 12 16 95 69 63 47 16 32
0 0 0 0 0 0 0 0 0 12 7 9 0 0 0
0 0 0 1 30 20 30 27 36 16 33 18 24 24 35
2 17 20 0 0 0 0 0 0 0 0 0 0 4 3
0 0 0 13 15 21 55 39 49 34 28 26 48 42 50
88 76 75 40 42 41 13 20 18 0 0 0 22 6 14
7 17 4 0 2 0 21 14 31 34 43 48 0 0 0
0 0 0 0 0 0 0 0 0 7 10 14 15 9 11
0 0 3 6 5 2 7 10 0 1 2 0 44 53 44
37 47 50 23 14 21 22 36 34 34 24 34 0 0 0
0 0 0 255 255 255 188 186 205 0 0 0 0 0 0
44 57 48 0 0 0 0 0 0 0 0 0 0 0 0
6 0 0 0 0 0 1 0 1 0 0 0 0 0 0
7 9 0 2 0 0 18 15 23 13 14 10 0 0 0
0 0 0 0 0 0 0 0 0 0 0 0 0 0 0
0 0 0 0 0 0 0 0 0 0 0 0 0 0 0
0 0 0 0 0 0 0 0 0 0 0 0 2 8 16
0 0 0 1 13 11 13 44 27 46 57 62 51 54 55
40 42 57 36 61 53 0 0 3 0 2 0 0 0 0
0 0 0 0 0 0 0 0 0 0 0 0 0 0 0
0 0 0 0 0 0 0 0 0 0 0 0 0 0 0
0 0 0 0 0 0 4 19 0 118 111 100 120 103 93
136 129 116 147 141 124 131 115 115 79 82 76 24 15 21
0 0 0 15 10 33 0 0 0 0 0 0 0 0 0
42 49 51 11 13 28 0 0 0 39 53 52 0 0 0
10 15 35 1 0 13 0 0 13 0 0 6 0 0 0
0 0 0 21 15 31 49 63 62 35 43 34 255 255 255
0 0 0 0 0 0 18 5 12 0 0 0 139 139 103
0 0 0 5 0 23 14 4 3 13 0 16 0 0 5
0 0 13 0 0 15 0 0 0 0 0 0 0 0 0
51 47 52 104 104 97 116 112 103 90 81 65 17 38 29
59 75 69 0 0 0 22 19 0 17 31 6 23 26 0
27 27 0 0 0 0 0 0 0 0 0 0 27 20 25
15 6 13 17 10 38 5 0 17 53 45 65 99 99 111
18 13 4 0 0 0 25 18 37 0 0 0 0 0 0
0 0 0 0 0 0 0 0 0 0 0 0 0 0 0
0 0 0 0 0 0 4 8 0 0 6 0 38 37 46
241 239 237 0 0 0 0 0 0 0 0 0 0 4 0
1 6 0 0 0 0 0 0 0 0 5 0 4 5 0
1 4 0 0 0 0 0 0 0 9 15 6 23 22 13
0 0 0 15 0 0 1 0 0 6 0 0 63 56 60
43 35 37 0 0 0 0 0 0 75 62 75 117 157 157
55 27 24 0 0 0 0 0 0 0 0 0 15 0 20
27 1 37 4 2 32 0 0 1 0 0 0 0 0 0
23 18 8 46 64 32 27 38 12 0 0 0 0 0 0
107 102 96 130 125 135 0 0 0 0 0 0 0 0 0
8 8 5 7 8 1 13 9 5 16 2 2 0 0 0
0 0 0 0 0 0 0 0 0 15 1 1 78 43 58
5 0 0 0 0 0 0 0 0 0 0 0 0 0 0
0 0 0 0 0 0 0 21 18 14 19 12 0 0 0
0 0 4 2 4 5 0 0 2 0 0 0 0 0 8
0 0 0 0 0 0 6 13 15 43 35 40 18 12 5
10 0 7 29 18 17 10 23 16 46 59 53 0 0 0
0 0 1 0 0 0 0 0 1 13 21 16 34 43 52
2 3 6 0 0 0 0 0 5 0 0 0 6 0 0
0 0 0 0 0 0 0 0 0 6 14 0 0 0 0
0 0 0 0 1 8 13 15 12 0 0 0 39 46 43
0 0 0 0 0 0 255 255 255 1 0 8 0 0 0
0 0 0 15 28 14 0 0 0 53 66 54 32 48 28
65 84 59 8 0 0 4 0 0 1 9 0 2 2 0
11 0 0 9 3 0 8 0 1 40 31 19 20 14 23
3 14 12 0 0 0 0 6 13 0 7 0 0 0 0
0 0 0 9 18 23 0 0 0 0 3 0 0 1 0
0 3 0 0 4 6 0 9 10 0 13 17 0 2 0
0 0 0 0 0 0 0 0 0 0 0 0 0 2 0
0 0 0 0 0 0 0 0 0 0 0 0 0 0 0
0 0 0 0 0 0 0 0 0 0 0 0 0 0 0
0 0 0 0 0 0 0 0 0 0 0 0 27 49 35
56 79 57 94 100 88 117 127 119 108 125 99 79 71 58
51 45 34 41 41 24 33 31 18 19 25 18 12 11 0
20 6 20 18 13 28 47 23 51 108 107 123 146 133 165
118 117 126 87 75 102 26 36 32 0 6 19 26 40 54
0 0 0 6 1 24 0 0 23 0 0 12 8 0 13
0 0 0 0 0 0 33 29 33 0 9 0 0 0 0
148 152 175 118 118 124 0 0 0 0 0 0 9 3 0
76 84 50 20 1 24 0 0 5 0 0 0 0 0 0
17 20 46 56 67 86 48 53 78 13 30 47 58 80 84
51 67 58 37 41 39 28 32 31 6 14 0 0 0 0
0 0 0 0 0 0 0 0 0 0 0 0 0 0 0
0 0 0 9 0 0 0 0 0 0 0 0 0 0 0
48 48 42 52 39 51 27 21 41 0 0 0 16 1 29
45 42 61 0 3 0 30 27 17 0 0 0 0 0 0
36 39 38 0 0 0 0 0 0 0 0 0 0 0 0
20 22 13 0 0 0 9 6 1 0 2 4 0 0 0
21 15 24 255 255 255 0 0 0 0 0 0 0 0 6
12 20 26 0 0 0 0 0 0 0 0 0 0 3 0
7 5 5 0 0 5 0 0 0 0 0 0 10 4 6
24 26 18 0 0 0 9 0 0 0 0 0 0 0 0
64 52 57 38 30 44 0 0 0 0 0 0 0 0 9
80 167 134 98 162 163 18 24 13 0 0 0 0 0 0
0 0 0 51 10 48 1 0 0 0 0 0 0 0 0
0 0 0 17 14 3 53 55 36 22 19 9 0 0 0
0 0 0 118 110 101 91 82 93 0 0 0 0 0 0
39 33 42 16 10 8 39 29 36 1 5 6 15 7 10
0 5 3 8 3 3 11 10 12 16 17 12 23 9 24
43 42 37 19 0 8 6 8 0 43 39 47 30 44 40
0 0 0 0 0 0 0 0 0 0 0 0 37 18 35
0 0 0 7 0 0 3 0 0 4 0 0 0 0 0
0 0 0 0 0 0 1 9 0 20 20 9 53 40 49
19 16 11 0 0 0 0 0 0 0 0 0 35 42 36
0 0 0 6 0 0 5 0 0 0 0 0 9 12 0
27 29 35 0 6 0 0 0 0 3 0 8 0 0 0
0 0 0 0 6 0 3 6 0 4 0 6 8 0 0
2 4 0 0 0 0 0 0 1 34 32 35 0 0 0
49 50 49 0 0 0 0 0 0 255 255 255 0 0 0
0 0 0 0 0 3 11 11 19 0 0 0 2 6 0
0 0 0 0 0 0 4 0 0 2 0 0 10 4 0
1 5 3 9 3 6 2 1 8 5 0 1 36 21 15
0 0 0 4 0 0 0 0 0 1 0 0 0 4 0
0 0 0 0 0 0 14 10 4 0 0 0 0 1 0
0 0 0 0 0 0 0 0 0 2 0 3 6 0 6
0 6 0 0 0 0 0 0 0 0 0 0 0 0 0
0 0 0 0 0 0 0 0 0 0 0 0 0 0 0
0 0 0 0 0 0 0 0 0 0 0 0 0 0 0
0 0 4 0 0 0 95 95 93 85 90 91 132 121 130
150 139 141 139 128 137 92 101 82 61 54 58 30 32 20
19 19 17 21 1 5 1 7 0 0 0 0 0 0 0
0 0 0 0 0 1 59 66 60 72 73 75 118 134 127
133 128 135 78 85 67 46 40 53 53 52 49 33 30 49
0 0 0 0 0 0 1 14 0 0 0 0 0 0 0
4 0 0 0 0 0 0 0 0 15 21 1 0 0 0
0 0 0 98 98 90 255 255 255 0 0 0 0 0 0
0 0 0 59 56 44 112 98 118 57 46 74 0 0 0
0 0 0 0 0 0 0 0 0 0 0 0 12 18 24
0 0 0 0 0 2 0 0 6 0 0 0 0 0 0
0 0 0 0 0 0 0 0 0 0 0 0 0 0 0
17 13 8 0 9 0 10 15 7 16 6 3 0 0 0
0 0 0 71 70 69 68 64 65 18 25 42 0 0 0
0 0 0 3 4 10 4 8 1 129 129 117 0 0 0
0 0 0 0 5 9 0 0 0 0 0 0 0 0 0
0 0 0 23 21 10 0 0 0 4 12 0 2 8 0
0 0 0 64 63 70 255 255 255 0 0 0 0 0 0
0 0 0 0 0 0 0 0 0 14 11 1 0 0 0
1 1 0 16 6 11 0 2 0 0 0 1 0 0 0
10 11 2 0 8 0 2 0 0 34 22 23 0 0 0
0 0 0 34 31 38 23 15 6 0 0 0 0 0 0
114 103 110 0 0 2 93 114 113 94 205 143 103 84 117
0 0 0 0 0 0 8 0 0 4 0 0 0 0 0
0 0 0 3 0 0 6 20 0 44 49 42 21 31 12
0 0 0 0 0 0 96 105 92 34 35 38 0 0 0
10 10 20 66 64 75 14 10 8 38 28 31 0 0 0
0 0 0 0 0 5 12 12 0 18 22 25 23 25 22
4 5 0 0 0 0 46 22 28 19 13 19 90 88 89
88 93 73 0 0 0 0 0 0 0 0 0 0 0 0
51 40 39 13 11 7 30 15 18 29 20 28 15 0 10
0 0 0 0 0 0 0 0 0 0 0 0 0 0 0
0 0 0 10 0 0 0 0 0 0 0 0 0 0 0
5 12 0 2 0 2 9 7 5 16 0 6 0 4 8
19 12 17 20 12 20 0 0 0 0 0 0 0 4 1
0 2 6 1 2 5 2 0 0 13 2 12 0 8 0
3 9 4 0 2 0 19 18 11 8 8 2 31 35 20
0 0 0 30 30 33 0 0 0 0 0 0 255 255 255
0 0 0 0 0 0 5 0 13 7 8 17 0 0 0
5 0 4 0 1 0 0 0 0 2 4 5 6 0 0
18 8 0 9 8 7 17 4 8 5 0 0 0 0 0
42 29 18 0 0 0 0 0 0 0 0 0 0 0 0
0 3 0 0 0 0 0 0 0 12 4 7 0 0 0
0 0 0 0 0 0 0 1 0 0 0 0 0 6 0
3 7 0 0 0 2 1 0 0 0 0 0 0 0 0
0 0 0 0 0 0 0 0 0 0 0 0 0 0 0
0 0 0 0 0 0 0 0 0 11 13 11 9 20 20
42 48 43 78 82 76 75 85 79 52 53 57 34 43 38
57 53 51 42 38 41 16 11 7 0 0 0 0 0 0
0 0 0 1 0 0 10 2 5 15 30 19 16 25 16
10 9 12 7 7 0 15 14 28 119 120 120 0 0 0
0 0 0 0 0 0 0 0 0 0 0 0 0 0 0
49 43 72 0 0 0 0 0 0 23 17 4 6 0 4
0 0 0 9 0 0 0 0 0 0 0 0 0 4 0
28 37 32 0 0 0 35 41 48 155 159 167 148 125 150
0 0 0 0 0 0 55 55 51 33 28 59 62 51 85
95 86 85 36 42 42 0 0 0 0 0 0 0 0 0
0 0 0 0 0 0 0 0 0 0 0 0 0 0 0
0 0 0 0 0 0 0 0 0 0 0 0 0 0 0
27 18 11 33 42 47 6 16 8 11 3 2 0 0 0
0 0 0 0 0 0 33 36 38 84 73 88 48 42 65
0 0 0 0 0 0 0 0 4 0 0 0 115 110 107
0 8 7 0 0 0 0 0 0 0 0 0 5 0 20
31 25 31 0 0 0 34 28 31 0 0 0 2 4 3
0 2 0 0 0 0 134 120 134 151 145 140 0 0 0
0 0 0 11 8 17 0 0 0 0 0 0 16 25 8
0 0 0 0 9 0 1 7 9 1 0 0 0 0 2
0 0 0 15 1 0 0 0 0 17 5 3 53 42 29
0 8 0 0 0 0 2 0 0 0 0 0 0 0 7
0 0 0 219 219 239 0 0 0 0 0 0 98 237 102
129 201 181 0 0 0 0 0 0 0 0 0 16 0 10
6 0 0 0 0 0 12 3 0 14 0 0 49 35 21
38 20 9 0 0 0 0 0 0 93 75 76 0 0 0
0 0 0 0 0 0 62 56 49 0 0 0 9 14 1
0 0 0 0 0 0 0 0 0 0 0 0 0 0 0
0 0 0 3 0 5 0 0 0 50 53 62 0 1 1
75 62 74 127 118 109 0 0 0 0 0 0 0 0 0
0 0 0 19 22 23 6 5 6 28 14 20 34 26 30
37 24 23 28 27 25 40 31 30 48 43 29 0 0 0
0 0 0 0 0 0 0 0 0 0 0 0 0 0 0
0 0 0 17 16 14 26 22 24 25 18 23 24 15 6
17 14 12 8 11 3 0 0 0 0 0 0 0 0 0
11 5 10 5 4 1 12 3 0 0 9 0 2 8 15
0 0 0 6 8 5 0 1 0 25 17 19 0 5 3
0 0 0 0 0 0 0 0 0 0 0 0 54 42 53
255 255 255 0 0 0 0 0 0 6 0 8 7 8 10
0 0 0 15 25 10 33 38 18 4 13 0 2 1 0
0 1 0 10 11 12 0 10 20 5 13 4 0 8 7
1 0 0 17 15 0 0 0 0 0 0 0 0 0 0
0 0 0 1 1 0 0 0 0 0 0 0 6 7 0
0 0 0 0 0 0 0 0 0 0 2 0 0 0 4
1 7 0 8 0 2 0 0 0 17 29 6 6 4 0
0 2 0 0 4 0 15 3 0 9 14 14 32 30 41
0 0 0 74 83 66 53 61 32 67 74 66 61 69 53
53 55 45 47 50 37 54 50 45 55 53 46 0 0 0
0 0 0 0 0 0 0 0 0 0 0 0 10 0 0
31 14 20 22 26 28 25 26 15 17 17 12 35 30 18
34 23 13 5 10 4 1 4 0 11 7 10 77 85 70
0 0 0 0 0 0 0 0 0 0 0 0 0 0 0
49 68 60 90 78 104 0 0 0 3 4 0 17 18 0
9 10 0 0 0 0 17 5 3 0 0 0 0 0 0
0 0 0 62 84 57 0 11 0 0 0 0 0 0 0
234 216 227 0 0 0 0 0 0 0 0 0 16 8 10
18 15 12 65 57 55 98 91 83 125 130 122 74 60 60
0 0 0 0 0 0 0 0 0 0 0 0 0 0 0
0 0 0 0 0 0 0 0 0 0 0 0 0 0 0
0 0 0 2 0 0 11 12 10 0 0 0 0 0 0
0 0 0 0 0 0 0 0 0 0 0 0 60 61 58
69 73 79 7 12 27 34 26 43 0 1 0 0 0 0
21 15 18 143 151 147 61 58 57 47 49 45 0 0 0
0 0 0 0 0 0 0 0 0 42 34 37 0 0 0
0 0 0 0 0 0 0 0 0 155 147 152 48 46 34
0 0 0 0 0 0 28 26 32 0 0 0 7 10 7
0 0 0 0 0 0 0 7 0 4 0 5 0 7 0
0 0 0 0 0 0 16 0 2 0 0 0 0 0 0
21 21 8 4 9 0 0 0 0 0 0 0 0 0 0
0 0 0 0 0 0 190 194 208 0 0 0 0 0 0
81 83 111 143 182 167 85 90 85 0 0 0 0 0 0
16 0 0 0 0 0 0 0 0 1 0 0 1 0 4
36 38 32 31 30 33 0 0 0 0 0 0 54 58 49
0 0 0 0 0 0 0 0 0 29 32 28 2 0 0
0 0 0 33 26 31 3 0 8 0 0 0 0 0 0
0 0 0 0 0 0 2 1 0 34 26 19 37 40 43
0 0 0 38 35 37 118 109 96 56 58 67 0 0 0
0 0 0 0 0 0 0 0 0 0 0 0 5 5 1
30 18 23 49 37 34 57 48 48 68 60 56 76 62 60
60 66 51 46 39 24 12 2 0 0 0 0 0 0 0
6 5 0 37 35 26 60 59 49 30 25 25 23 12 23
16 19 11 24 14 18 0 11 11 0 0 0 0 0 0
0 0 0 10 1 12 6 0 0 0 1 0 0 0 0
3 3 0 4 2 0 0 8 0 0 2 0 0 0 0
0 0 0 0 0 0 6 4 3 0 0 0 0 0 0
145 128 143 132 123 138 0 0 0 9 19 6 25 17 24
12 13 4 0 0 0 0 3 0 4 0 0 0 0 0
0 0 0 0 0 0 11 5 10 15 20 25 19 11 9
3 4 3 0 0 0 3 0 0 0 0 0 0 0 0
0 0 0 0 0 0 4 15 1 0 0 1 0 0 0
2 0 0 0 0 0 0 0 0 0 1 0 3 2 0
0 3 10 0 5 0 3 0 4 0 0 0 21 24 19
0 11 2 18 5 13 9 10 1 25 27 24 40 41 33
31 48 50 14 18 23 75 71 50 48 47 31 60 52 50
42 53 41 21 27 17 5 14 5 19 13 4 20 14 6
61 47 39 47 46 27 49 36 33 35 29 23 30 18 19
16 5 11 20 3 3 21 8 0 0 0 0 0 0 0
0 0 0 0 0 0 0 0 0 0 0 0 1 11 0
26 30 28 170 171 170 114 121 116 123 125 116 186 186 182
183 174 178 109 115 108 45 38 47 0 0 0 0 0 0
26 25 0 8 2 7 0 4 0 21 9 2 0 0 0
0 0 0 0 0 0 50 76 55 0 15 0 0 0 0
2 19 10 163 142 153 153 140 150 0 0 0 0 0 0
13 0 0 38 30 29 34 37 34 47 52 41 99 98 105
60 56 61 0 0 0 0 0 0 5 21 6 0 8 0
0 0 0 0 0 0 0 0 0 0 0 0 0 14 0
0 0 0 91 70 75 73 64 65 76 78 70 37 49 40
44 39 22 14 13 8 0 2 0 0 5 0 0 0 0
13 19 21 65 60 72 49 41 62 43 36 57 0 3 13
0 0 0 0 0 0 40 44 36 53 57 50 145 144 147
5 3 3 0 0 0 0 0 0 23 22 33 19 9 22
0 0 0 4 1 0 4 0 0 0 0 0 134 127 143
112 102 111 0 0 0 0 0 0 31 30 33 0 0 0
1 4 1 0 0 0 0 0 0 1 6 0 2 8 8
0 0 0 0 0 0 0 0 0 1 0 0 0 0 0
0 0 0 13 13 18 4 0 0 0 0 0 0 0 0
0 0 0 0 0 0 0 0 0 101 104 126 0 0 0
0 0 0 0 0 0 3 16 23 141 151 154 24 41 63
0 0 0 5 0 0 12 0 6 3 0 2 6 0 7
0 0 1 22 27 19 39 30 30 0 0 0 0 0 0
67 71 65 35 31 7 0 0 0 0 0 0 0 10 0
13 20 7 0 0 0 61 57 59 26 26 21 15 6 9
0 0 0 0 0 0 0 0 0 20 11 20 48 63 62
10 0 1 9 10 6 11 0 2 67 55 51 106 107 124
0 5 0 0 0 0 0 0 0 0 0 0 0 0 0
0 0 0 0 0 0 0 0 0 8 3 1 25 13 18
10 9 1 90 89 90 92 83 82 71 65 77 24 19 13
1 0 0 31 19 12 32 23 23 48 34 23 0 0 4
0 0 0 5 6 0 9 6 5 0 0 0 0 0 0
0 0 0 0 0 0 2 7 9 0 0 0 3 7 12
5 7 9 1 6 6 0 2 0 0 5 0 0 5 0
0 0 0 0 0 0 0 0 0 0 5 0 0 0 0
84 82 86 91 96 100 0 8 22 0 0 0 0 0 0
0 0 0 0 0 0 9 6 7 9 13 0 15 21 4
19 24 8 0 0 2 0 0 0 13 11 12 16 23 25
27 20 16 2 8 6 0 0 0 0 0 0 0 7 0
0 0 0 0 0 0 4 8 0 8 15 12 0 3 11
0 0 0 0 11 0 0 0 0 0 0 0 0 0 0
0 5 0 2 5 11 1 16 0 9 10 10 0 0 0
21 17 16 0 0 0 0 0 0 0 5 0 12 8 13
27 21 21 8 22 31 0 0 6 11 0 0 0 0 0
10 4 7 9 4 8 0 0 0 0 0 0 5 0 0
8 0 0 2 3 0 11 2 0 21 10 14 20 11 3
10 14 5 6 6 1 10 0 7 5 10 9 14 23 13
2 4 0 0 0 0 10 4 8 33 28 30 47 41 36
51 40 42 2 0 0 69 58 53 48 57 43 49 50 40
27 25 23 5 0 0 0 0 0 0 0 0 7 18 9
0 0 0 9 15 0 0 3 4 0 0 0 16 1 0
0 0 0 0 0 0 0 0 0 54 79 60 44 63 50
0 0 0 44 64 44 57 48 62 124 124 130 51 57 54
0 0 0 0 0 0 7 11 0 44 29 24 44 47 24
76 75 68 0 0 0 0 0 0 0 0 0 29 30 19
0 2 0 0 0 0 0 0 0 0 20 0 38 41 30
57 69 60 21 41 29 131 105 109 117 94 86 88 91 87
77 77 61 62 59 52 20 7 0 3 0 0 61 54 52
0 0 0 0 0 0 26 24 35 35 43 55 0 0 0
0 0 12 0 0 0 0 0 0 0 0 0 0 0 0
143 139 150 117 113 109 0 0 0 0 0 0 21 17 20
22 18 10 0 0 0 7 2 0 0 8 0 0 0 0
93 87 98 221 212 215 0 0 0 0 0 0 22 22 22
0 0 0 0 0 0 0 0 0 8 3 5 9 8 0
11 8 11 0 3 0 0 0 0 0 0 0 0 0 0
0 0 0 8 8 8 0 1 10 0 0 0 0 0 0
0 0 0 0 0 0 0 0 0 33 33 38 46 57 57
0 0 0 2 15 21 0 0 0 0 0 0 188 210 213
139 169 165 0 0 0 0 0 0 0 0 0 0 0 0
0 0 0 0 0 0 25 11 21 33 26 38 0 0 0
0 0 0 53 54 48 42 36 33 0 0 0 0 0 0
0 2 0 37 30 22 0 3 0 39 25 36 43 36 29
50 36 41 2 1 0 0 0 0 0 0 0 5 19 10
70 84 75 0 0 0 44 37 33 0 0 0 18 2 0
107 105 106 16 13 18 0 0 0 0 0 0 0 0 0
0 0 0 0 0 0 0 0 0 0 0 0 0 0 0
0 0 0 0 0 0 0 0 0 28 34 14 80 76 73
53 48 49 10 11 2 44 37 39 60 42 44 53 33 33
16 23 9 44 36 38 47 38 41 57 57 53 14 17 13
0 0 0 0 0 0 12 20 17 23 16 12 2 2 3
0 6 0 0 0 0 0 7 0 13 10 0 0 0 0
0 0 0 0 0 0 0 0 0 34 37 33 0 0 0
0 0 0 203 197 205 30 28 47 0 0 0 0 0 0
7 9 9 0 0 0 0 0 0 0 1 0 0 0 0
0 0 0 0 0 0 0 0 0 0 0 0 12 18 19
38 34 45 36 44 38 19 25 23 0 0 0 0 0 0
7 8 0 0 0 0 0 0 0 0 0 0 0 7 0
6 7 16 7 3 0 2 11 15 0 0 0 0 0 0
0 0 0 0 0 0 0 0 0 0 2 3 3 2 0
0 0 0 35 30 22 27 35 21 44 47 25 51 57 40
58 49 53 48 38 40 19 33 41 0 5 5 19 0 0
29 8 0 30 24 21 45 32 31 34 17 24 14 0 0
6 0 0 11 2 0 0 0 0 0 0 0 0 0 0
0 0 0 0 0 0 0 0 0 0 0 0 0 0 0
26 21 11 10 3 0 9 4 3 19 11 15 13 10 14
0 0 0 0 0 0 0 0 0 0 0 0 20 16 4
0 5 5 0 0 0 12 19 14 24 28 24 0 12 0
31 33 21 0 0 0 12 0 0 0 1 0 0 0 0
11 0 0 0 0 0 0 0 0 0 0 0 98 106 92
64 130 115 0 0 0 0 0 0 11 4 5 0 0 0
247 254 247 0 0 0 0 0 0 0 0 0 0 0 0
0 6 0 171 144 138 137 120 118 2 0 0 0 0 0
88 101 93 29 31 23 0 0 0 0 0 0 0 0 0
0 0 0 0 0 0 0 9 0 0 0 0 0 0 0
0 0 0 0 0 0 0 0 0 0 0 0 0 0 0
16 16 0 0 0 0 0 0 0 29 33 35 32 40 46
0 0 0 0 0 2 30 22 44 0 0 1 13 16 7
0 0 0 95 95 94 141 132 141 0 0 0 0 0 0
0 0 0 53 62 50 0 0 3 14 5 5 0 0 0
0 0 0 92 86 73 255 255 255 0 0 0 0 0 0
17 17 16 0 2 1 46 43 41 0 0 0 0 0 0
0 0 0 1 0 3 0 6 0 0 0 0 0 0 0
22 6 0 0 0 0 43 47 56 57 54 65 87 72 80
24 32 12 16 6 5 68 58 40 61 62 76 16 16 17
0 0 0 31 19 28 59 36 50 0 0 0 0 0 0
0 0 0 65 90 82 207 255 255 0 0 0 0 0 0
0 0 0 0 0 0 0 0 0 0 0 0 26 24 33
0 0 0 55 45 49 11 16 15 27 29 16 18 21 5
0 0 0 0 0 0 2 0 15 11 18 17 8 16 20
0 0 0 0 2 16 52 51 54 55 56 55 17 18 6
0 0 0 0 0 0 0 0 0 0 0 0 6 0 0
64 46 45 146 140 144 125 124 114 2 0 0 0 0 0
0 0 0 0 0 0 0 0 0 0 0 0 0 0 0
0 0 0 0 0 0 0 0 0 0 0 0 0 0 0
0 0 0 49 43 38 49 41 41 0 0 0 62 42 41
38 15 10 0 0 0 30 39 27 0 0 0 0 0 0
0 0 0 29 34 33 0 0 0 0 0 0 0 0 0
0 0 0 3 5 8 5 0 6 0 0 0 0 0 0
0 0 0 0 0 0 0 0 0 90 90 103 0 0 0
0 0 0 0 0 0 63 72 77 0 0 0 0 0 0
0 0 0 0 0 13 0 1 4 0 0 0 4 3 0
7 8 0 20 24 17 4 1 0 20 30 29 23 27 31
29 31 22 25 16 15 0 0 0 0 0 0 0 0 0
13 13 0 0 0 0 0 0 0 42 30 5 80 82 60
2 2 5 0 0 0 0 0 0 0 0 0 0 0 0
12 0 0 30 34 29 26 28 22 7 0 0 0 0 0
0 0 0 0 0 0 0 0 0 0 0 0 0 0 0
0 0 0 0 0 0 7 6 0 31 37 37 34 28 32
41 18 10 34 20 17 28 9 16 0 0 0 0 0 0
19 14 6 30 16 12 0 3 0 0 0 0 0 0 0
0 0 0 0 0 0 3 0 6 0 15 16 16 22 33
8 13 19 0 0 3 0 0 0 0 0 0 0 0 0
4 0 0 31 31 33 58 59 56 34 36 30 49 51 47
15 14 10 22 15 10 16 13 0 16 10 0 7 0 0
5 11 0 19 23 14 0 0 0 19 16 16 0 3 0
0 2 0 39 5 18 3 0 0 0 0 0 0 0 0
59 60 42 46 152 143 3 0 0 0 0 0 44 32 31
0 0 0 20 24 13 255 255 255 0 0 0 0 0 0
0 0 0 8 0 0 0 0 0 38 18 28 143 128 137
0 0 0 8 0 6 16 4 8 58 41 39 79 79 65
82 82 72 84 65 61 42 36 25 19 20 17 0 0 0
0 0 0 6 0 0 8 0 0 20 13 15 36 29 26
10 0 0 0 0 0 0 0 0 0 0 0 0 0 0
6 0 10 10 20 36 28 22 41 19 19 43 0 0 1
0 0 0 0 0 0 0 0 0 212 215 209 122 127 123
0 0 0 0 0 0 0 0 0 0 0 0 0 0 0
13 16 18 15 20 5 76 78 92 244 243 251 0 0 0
0 0 0 15 16 29 0 5 0 18 12 5 0 0 0
6 1 0 0 2 0 0 4 2 0 7 1 0 0 0
0 0 0 12 9 0 0 0 0 16 17 28 6 20 25
32 18 5 0 0 0 0 0 0 36 30 21 42 36 41
5 1 7 6 4 16 0 0 10 6 0 17 20 0 1
0 0 0 0 0 0 0 9 4 64 91 78 152 142 162
70 82 81 0 8 20 32 43 51 0 1 16 0 0 0
0 0 0 0 0 0 0 0 0 0 0 0 0 0 0
0 0 0 0 0 0 0 0 0 0 0 8 13 8 20
8 7 5 0 0 0 0 0 0 11 17 16 10 3 8
0 0 0 0 0 0 0 0 0 17 10 6 6 4 0
11 0 0 28 10 8 44 47 51 63 63 56 0 0 0
0 0 0 0 0 0 0 0 0 0 0 0 0 0 0
1 7 0 0 0 0 0 11 0 0 3 0 20 24 23
6 1 6 0 0 0 0 2 0 0 0 0 0 0 0
0 0 0 0 0 0 71 83 71 29 35 38 3 0 0
6 11 8 9 4 1 0 0 0 0 0 0 0 0 0
7 10 0 0 0 0 0 7 2 7 5 3 2 1 0
0 0 0 0 0 0 0 0 0 0 6 16 0 0 0
0 0 0 0 0 0 241 239 255 145 151 158 0 0 0
14 13 34 0 0 0 2 0 2 0 0 0 0 0 0
0 0 0 0 0 0 0 0 6 0 0 0 0 5 9
0 0 0 12 14 18 14 6 15 0 0 6 0 0 0
0 0 0 0 0 0 0 0 0 0 0 0 13 6 0
44 53 45 4 5 4 0 0 0 0 0 0 0 0 0
0 0 0 0 0 0 0 2 3 18 19 18 34 35 31
28 26 31 41 27 32 27 36 30 0 0 0 0 0 0
0 0 0 0 0 0 0 0 0 1 3 0 6 4 9
0 0 0 39 18 14 33 22 18 52 31 45 17 17 6
15 0 0 11 5 2 9 0 0 0 0 0 12 4 13
0 0 0 0 0 0 0 0 0 0 0 0 0 0 0
0 0 0 0 0 0 26 16 17 6 0 1 0 0 3
2 6 12 22 8 15 24 18 15 18 12 6 0 0 0
7 5 6 0 0 3 10 7 10 9 14 10 1 5 1
0 0 0 1 0 0 4 15 4 6 0 0 11 5 23
6 0 0 0 0 0 29 0 4 0 0 0 2 0 0
0 0 0 89 76 62 48 149 146 8 0 0 0 0 0
52 51 40 0 0 0 0 0 0 144 147 144 50 53 63
0 0 0 0 0 0 28 32 23 24 12 24 12 0 5
77 55 76 30 5 22 31 15 9 7 0 0 0 0 0
0 0 0 16 3 13 29 22 25 20 2 7 7 0 0
64 55 66 127 127 128 169 169 176 158 169 157 132 120 127
107 112 111 111 103 83 86 94 84 71 58 49 0 4 0
6 0 0 12 14 29 13 11 27 22 26 39 25 33 44
0 0 0 0 0 0 0 0 0 0 0 0 91 87 96
164 162 170 113 108 110 83 83 79 0 0 0 0 0 0
0 0 0 0 0 0 0 0 0 93 76 88 166 155 163
0 0 0 0 0 0 0 1 7 0 6 13 0 0 0
0 0 0 0 0 0 0 0 0 0 0 0 0 0 4
11 0 7 10 2 5 25 25 11 0 0 0 25 12 34
0 5 21 12 4 2 3 4 7 32 20 15 65 58 47
45 45 49 15 9 6 7 0 2 0 0 0 8 0 0
11 4 0 0 0 0 0 0 0 0 0 0 0 0 0
143 216 199 98 132 133 61 63 75 125 141 133 166 170 195
115 120 120 97 96 105 0 0 0 8 9 16 11 14 17
44 47 51 54 60 57 16 21 24 24 25 34 38 49 70
51 57 77 14 17 19 12 0 0 0 5 5 10 17 15
12 6 9 0 0 0 0 0 0 0 0 0 35 39 40
14 2 14 25 20 26 10 5 12 0 0 0 52 37 41
47 36 30 0 0 0 0 0 0 0 2 0 0 0 0
0 0 0 0 0 1 0 0 0 0 0 0 0 0 1
0 0 0 0 0 0 0 0 0 0 0 0 0 0 0
20 37 28 15 5 9 36 31 30 0 0 0 0 0 0
0 0 0 0 0 0 0 0 0 0 0 0 0 0 0
13 23 18 37 19 30 8 8 0 9 6 16 13 8 12
0 0 0 1 0 8 0 0 0 0 0 0 0 0 0
0 0 0 149 145 159 255 255 255 221 219 229 0 0 0
0 0 0 3 4 15 0 0 0 0 0 0 0 0 0
0 0 0 0 0 0 0 0 0 0 0 0 0 0 0
10 3 6 0 0 0 18 14 9 3 0 0 0 0 0
0 0 0 0 0 0 0 0 0 14 3 0 0 0 0
30 12 12 58 56 49 18 8 5 0 0 0 0 0 0
0 13 7 1 0 0 0 0 0 0 0 0 0 0 0
32 29 29 30 40 41 43 21 30 32 31 27 7 3 0
16 9 0 0 0 0 0 0 0 0 0 0 0 0 0
0 0 0 0 0 0 6 0 0 4 0 0 30 28 21
3 13 7 11 7 16 8 6 5 11 8 12 0 0 0
42 27 30 22 16 12 28 15 14 15 9 7 9 12 0
0 0 0 0 0 0 0 0 0 15 16 4 0 5 0
0 0 0 0 2 0 1 0 0 5 9 14 0 2 2
0 0 0 0 0 0 0 0 0 0 0 0 0 2 0
0 0 0 0 0 0 0 0 0 0 2 0 4 0 4
4 5 19 0 0 0 0 0 0 26 0 8 0 0 0
0 0 0 0 0 0 91 102 81 54 147 133 0 0 0
0 0 0 66 46 50 0 0 0 13 24 0 65 78 65
255 255 255 0 0 0 0 0 0 0 0 0 61 45 34
13 0 3 0 0 0 68 42 56 73 57 81 26 11 14
0 0 0 0 0 0 16 1 18 29 18 26 13 3 4
3 0 3 0 0 0 0 0 0 0 0 0 0 0 0
0 0 0 0 0 0 0 0 0 0 0 0 58 46 42
23 25 19 23 20 25 16 21 21 0 0 2 14 9 23
0 6 17 0 0 0 11 18 17 0 0 0 0 0 0
0 0 0 0 0 0 100 99 113 163 160 163 147 144 139
0 0 0 8 8 7 0 0 0 0 0 0 103 94 103
63 60 63 0 0 0 0 0 0 0 0 0 3 18 21
0 0 0 9 12 15 0 0 0 0 4 0 0 0 0
0 2 0 2 3 0 1 6 12 20 15 15 0 0 0
5 8 20 0 0 2 0 0 1 11 18 10 39 19 25
45 36 33 49 43 48 43 39 40 0 0 0 22 24 21
26 11 23 0 0 0 0 0 0 0 0 0 6 0 0
0 0 0 130 163 147 28 52 59 0 0 0 0 0 0
0 0 0 25 15 26 159 147 175 143 154 162 79 77 77
81 82 92 101 100 112 88 88 95 53 49 72 33 41 47
24 23 57 29 26 40 10 6 6 18 8 0 0 0 1
0 0 0 8 12 15 0 6 0 1 9 15 11 7 15
31 25 23 14 6 10 36 36 34 12 0 0 0 0 0
30 31 29 76 66 61 14 10 0 0 0 0 0 0 6
0 0 0 0 0 0 0 0 0 0 0 0 0 0 0
0 0 0 0 0 0 0 0 0 0 0 0 0 0 0
0 0 0 0 0 0 0 0 0 0 0 0 0 0 0
0 0 0 0 0 0 0 0 0 28 38 34 6 1 19
0 0 0 9 31 15 7 13 3 7 17 0 13 14 14
8 9 0 0 0 0 0 0 0 25 9 4 7 0 0
79 83 87 161 168 194 242 232 236 70 60 73 0 0 0
0 0 0 2 0 8 12 8 18 0 0 0 0 0 4
4 0 8 0 0 0 0 0 0 0 0 0 0 0 3
0 0 0 15 23 7 3 10 7 21 24 26 18 13 10
5 3 3 0 0 0 3 0 0 10 11 0 14 3 0
0 0 0 16 19 10 62 55 50 7 6 2 0 0 0
0 0 0 0 3 0 13 12 5 0 0 0 0 0 0
0 0 0 18 15 21 54 50 59 36 23 21 32 39 48
3 0 2 33 31 27 11 0 3 0 0 0 0 0 0
0 0 0 0 0 0 0 0 0 0 0 0 0 0 0
4 0 0 0 13 2 16 10 14 17 14 8 37 45 36
49 41 32 37 26 38 7 14 11 19 10 4 23 13 18
30 19 22 26 22 20 20 21 16 22 11 14 14 10 9
4 0 0 0 0 0 0 0 0 2 7 0 9 2 8
5 2 2 0 0 0 13 0 1 0 0 0 1 0 5
0 0 2 0 0 0 0 0 0 0 0 0 0 0 0
7 0 10 16 9 9 0 0 0 0 1 0 18 0 0
0 0 0 0 0 0 0 0 0 99 99 101 60 139 122
0 0 0 0 0 0 47 38 20 0 0 0 8 13 0
31 36 25 117 134 130 192 187 187 0 0 0 0 0 0
0 0 0 36 25 33 0 0 0 28 20 28 91 65 71
25 11 27 17 0 0 16 0 0 22 11 4 26 9 20
18 0 2 0 0 2 0 0 0 0 0 0 0 0 0
0 0 0 0 0 0 0 0 0 0 0 0 0 0 0
0 0 0 0 0 0 4 3 3 34 24 42 8 18 27
0 0 1 0 0 9 0 0 20 0 1 0 0 0 0
60 56 74 0 0 0 0 0 0 0 0 0 0 0 0
140 136 137 2 8 8 24 23 24 0 0 0 0 0 0
133 124 133 0 0 0 0 0 0 0 0 0 0 0 0
16 31 34 0 0 0 31 32 36 0 0 0 0 1 0
0 0 0 0 0 0 0 0 0 0 3 0 11 3 0
0 0 0 3 6 14 0 0 0 5 0 0 0 11 0
14 0 0 3 0 0 26 22 27 44 47 43 22 10 13
35 24 25 32 16 5 0 0 0 6 9 5 36 31 15
29 1 22 0 0 0 77 108 96 90 136 114 0 0 0
0 0 0 0 0 0 0 0 0 0 0 2 0 0 0
27 16 20 18 9 24 0 3 0 0 0 0 0 0 0
0 0 0 0 0 0 0 0 0 0 0 0 17 0 0
0 0 6 3 2 1 6 13 7 15 19 20 11 14 12
33 35 29 0 0 0 6 6 5 34 40 36 17 0 5
0 0 0 21 23 24 78 59 60 27 18 10 0 0 0
14 0 8 0 0 0 0 0 0 0 0 0 0 0 0
0 0 0 0 0 0 0 0 0 172 168 189 255 255 255
176 185 187 69 75 85 62 67 74 8 11 17 117 117 118
236 230 252 243 235 246 48 40 59 0 0 0 0 0 0
0 0 0 0 0 0 40 46 45 1 0 0 13 7 5
32 18 26 15 4 16 0 0 0 0 0 4 55 44 36
64 71 73 219 215 224 72 78 94 0 0 5 0 0 0
0 0 0 0 0 0 60 63 59 0 0 0 0 0 0
0 3 4 14 4 0 8 4 14 0 0 0 0 0 0
0 6 2 0 0 0 13 8 0 9 7 9 7 2 9
0 4 6 0 0 4 0 0 0 0 0 0 12 14 9
5 0 0 0 0 0 19 7 6 67 46 45 14 0 0
0 0 0 0 0 0 0 0 0 0 3 11 0 0 0
0 0 0 0 0 0 58 48 45 88 90 101 86 85 75
95 101 100 0 0 0 26 25 22 15 10 19 0 5 0
0 0 0 0 0 0 0 0 0 11 19 9 0 0 0
0 0 0 0 0 0 0 0 0 0 0 0 0 7 0
23 37 33 35 33 31 19 29 23 0 3 0 2 1 1
0 7 0 3 0 0 0 0 0 0 0 0 0 0 0
0 5 0 0 0 0 0 0 3 0 0 5 0 0 2
0 0 0 0 0 0 0 0 0 12 16 17 0 7 10
14 9 11 11 13 16 13 9 10 0 0 10 0 7 5
9 2 13 9 5 3 21 14 15 3 0 1 0 7 0
21 2 4 0 0 0 0 0 0 0 0 0 129 126 134
62 145 142 0 0 0 0 0 0 51 31 27 0 0 0
5 4 0 25 32 4 0 0 0 225 230 215 125 126 101
0 0 0 0 0 0 0 0 0 3 5 0 0 0 7
39 24 39 18 24 19 43 26 39 40 35 35 21 9 7
5 0 1 0 0 0 0 0 0 89 79 77 86 97 89
124 125 126 144 135 136 146 146 151 144 140 133 96 99 89
87 85 68 0 0 0 0 0 0 0 0 0 15 6 3
67 59 77 25 36 38 0 0 0 0 0 2 10 15 21
0 0 0 63 64 62 22 15 12 0 0 0 0 0 0
0 0 0 0 0 0 6 11 21 6 3 0 0 0 0
0 0 0 178 169 174 0 0 0 0 0 0 0 0 0
0 0 0 13 28 31 0 0 0 23 40 36 0 0 0
0 1 0 0 0 0 0 0 0 0 0 0 0 0 0
0 0 0 0 0 0 8 4 8 0 0 0 0 0 0
3 0 0 0 0 0 0 0 0 3 0 0 36 32 29
64 52 56 0 0 0 0 0 0 27 30 20 40 36 30
19 9 14 10 0 0 0 0 0 82 118 107 170 255 225
47 38 50 0 0 0 0 0 0 0 0 0 0 0 10
14 7 18 7 12 11 0 0 0 0 0 0 0 0 0
0 0 0 0 6 9 0 6 11 33 36 41 0 0 0
0 0 0 0 0 7 1 0 4 15 24 24 32 28 34
14 15 28 38 31 23 0 0 0 16 0 0 20 26 22
10 0 0 0 0 0 21 16 23 51 37 38 37 14 12
0 0 0 5 2 10 0 0 0 0 0 0 0 0 0
0 0 0 0 0 0 0 0 0 0 0 0 127 119 131
255 255 255 196 190 203 182 173 199 203 210 223 255 255 255
255 255 255 255 255 255 97 109 123 0 0 0 0 0 0
0 0 0 0 0 0 26 20 19 0 0 0 0 0 0
0 12 2 21 21 23 0 3 0 0 0 0 0 0 0
41 38 43 106 95 95 0 0 0 0 0 0 6 8 10
89 95 100 27 20 12 0 0 0 0 0 0 0 0 0
3 1 0 4 8 19 25 20 20 9 11 18 0 0 0
2 4 0 4 5 18 0 0 0 0 0 2 0 0 0
2 0 7 0 0 0 0 0 0 0 0 0 0 0 0
8 18 4 0 0 0 0 0 0 9 12 4 57 51 43
0 0 0 0 0 0 0 0 0 0 0 0 1 12 6
0 0 2 0 0 0 0 0 0 20 15 22 34 37 47
35 34 30 56 51 49 0 0 0 0 12 12 25 29 21
29 35 27 17 20 22 7 18 6 21 16 21 61 56 62
0 0 0 0 0 0 0 0 0 0 0 0 0 0 0
0 0 0 0 0 0 0 0 0 43 52 62 20 13 13
14 14 18 9 12 15 8 0 2 0 0 0 0 0 0
0 0 0 0 0 0 0 0 0 5 0 0 7 3 0
0 0 0 0 0 0 0 0 2 0 0 0 22 13 29
2 10 9 16 8 13 9 18 4 10 3 15 5 2 5
3 8 16 14 14 8 7 2 0 20 12 20 0 4 0
0 0 0 37 2 10 0 0 0 0 0 0 0 0 0
129 157 157 64 169 152 0 0 0 0 0 0 59 50 52
0 0 0 6 10 5 13 16 11 8 0 0 39 40 26
189 191 182 83 92 77 0 0 0 0 0 0 48 45 38
10 16 20 0 0 0 2 0 0 41 25 39 52 39 37
27 3 13 0 0 0 0 0 0 0 0 0 30 19 21
65 53 64 113 119 131 112 106 115 75 79 83 70 68 54
56 59 48 85 84 71 71 64 50 0 0 0 0 0 0
0 0 0 71 71 80 77 77 91 5 7 21 0 0 0
36 28 28 0 0 0 32 28 34 0 0 0 0 0 0
41 35 39 32 25 37 33 19 14 23 32 31 6 0 0
0 0 0 0 0 0 231 220 231 0 0 0 0 0 0
0 0 0 0 0 0 6 22 20 0 0 0 0 15 11
5 1 0 0 0 0 0 0 0 0 0 0 12 1 7
10 3 4 15 8 10 0 0 0 13 14 10 0 0 0
0 0 0 14 13 13 0 0 1 0 0 0 0 0 0
0 0 0 16 25 9 0 0 0 6 0 0 26 16 3
0 0 0 0 0 0 0 0 4 0 0 0 0 0 0
164 196 188 28 0 17 0 0 0 31 18 25 0 0 0
10 0 0 0 0 0 63 56 43 38 22 30 0 0 0
0 0 0 32 31 22 41 39 41 24 28 41 37 37 49
0 0 0 5 2 0 5 4 13 0 0 0 6 19 12
23 28 25 16 2 14 4 0 0 0 0 0 12 2 0
0 3 0 0 0 0 0 0 0 8 14 0 16 3 4
41 22 19 0 0 0 1 12 10 0 0 0 0 0 0
0 3 0 0 4 0 0 6 12 0 0 0 0 0 0
223 236 255 134 132 122 1 0 10 8 0 15 0 0 1
92 79 80 117 115 113 0 0 0 0 0 0 0 0 0
45 52 56 7 15 14 0 9 1 21 32 26 0 0 0
12 7 0 0 2 0 13 4 0 3 0 0 0 0 9
0 0 3 7 0 27 43 35 56 0 0 0 0 0 0
0 0 0 0 0 0 0 0 0 0 0 0 35 35 36
14 14 26 12 6 21 0 8 14 22 16 21 14 15 11
0 0 0 0 0 0 0 12 8 0 0 0 37 28 21
16 10 0 10 0 10 0 0 0 0 0 0 0 0 0
0 5 6 37 47 38 0 0 0 0 0 0 27 18 9
66 53 53 19 12 0 0 0 0 0 0 0 0 0 0
0 7 18 0 0 0 0 0 0 0 0 0 0 0 0
0 0 0 0 0 0 0 0 0 0 0 0 0 0 0
24 18 21 42 38 41 51 37 38 26 29 15 11 18 16
47 52 50 18 16 19 6 1 0 0 0 0 0 0 0
0 0 0 0 0 0 0 0 0 0 0 0 35 29 31
9 1 0 3 0 0 11 12 0 21 16 6 18 11 0
11 6 0 1 9 0 0 0 0 0 0 0 6 0 0
0 0 0 0 0 0 0 0 0 0 0 8 0 0 0
6 0 7 0 0 0 16 0 0 8 9 2 6 3 0
0 1 0 0 4 0 6 0 0 1 0 0 13 0 8
0 0 0 0 0 0 31 0 0 0 0 0 0 0 0
0 0 0 136 145 158 77 153 151 0 0 0 0 0 0
54 32 43 0 0 0 7 2 16 0 0 4 44 37 20
0 0 0 100 97 87 182 193 189 0 13 0 0 0 0
0 0 0 0 26 2 0 0 0 0 0 0 8 3 0
20 9 8 2 0 0 0 0 0 0 0 0 0 0 8
0 0 0 0 0 0 0 0 0 0 0 0 0 0 0
0 0 0 0 0 0 0 0 0 68 56 43 34 22 20
0 0 0 0 0 0 35 20 29 71 78 76 15 27 36
0 0 0 0 0 0 0 3 6 68 63 83 0 0 1
0 0 0 35 27 37 49 54 71 41 41 48 13 10 16
19 14 7 15 18 18 21 16 12 255 239 246 0 0 0
0 0 0 0 0 0 0 0 0 2 18 22 1 0 0
0 0 0 14 11 4 0 0 0 0 0 0 0 0 0
0 8 3 0 4 0 0 0 0 0 0 0 0 0 0
0 0 0 0 0 0 0 0 0 0 0 0 0 0 0
0 0 0 0 0 0 0 0 0 0 0 0 15 0 0
0 0 0 0 0 0 0 0 0 0 0 0 0 0 0
0 0 0 161 252 231 16 0 3 0 0 0 0 0 0
0 0 0 0 0 0 18 0 12 72 57 56 7 5 4
0 0 0 0 0 0 15 11 7 0 2 0 0 0 0
0 0 0 51 44 52 26 23 30 5 7 21 0 0 0
18 20 21 52 65 59 44 35 41 32 26 25 14 5 1
33 24 24 0 0 0 0 0 0 0 17 0 35 39 27
29 4 0 53 39 28 0 0 0 0 0 0 0 0 0
0 0 0 0 2 12 0 0 0 0 4 5 0 0 0
11 11 29 255 255 255 64 66 59 0 0 0 49 51 14
13 15 15 60 51 58 0 0 0 0 0 0 0 0 0
0 0 0 10 6 22 0 0 0 0 0 0 37 58 30
12 24 9 20 23 9 0 0 0 0 0 0 0 0 0
12 10 25 0 0 13 0 0 0 0 0 0 35 20 55
0 0 0 0 0 0 0 0 0 0 0 0 22 14 16
24 19 35 0 0 0 26 24 26 30 20 23 48 53 46
49 45 55 23 24 16 0 2 0 0 0 0 0 0 0
58 56 60 25 26 24 24 30 32 16 22 27 4 1 3
1 1 8 10 24 29 69 78 79 0 0 0 0 0 0
37 19 25 72 60 57 17 24 17 0 0 0 0 0 0
0 8 0 0 4 7 0 5 20 0 2 7 0 0 6
0 0 0 0 0 0 0 0 0 0 0 0 0 0 0
0 0 0 18 15 10 18 29 11 0 5 0 0 0 0
0 0 0 0 0 0 8 12 12 0 0 0 0 0 0
0 0 0 0 0 0 0 0 0 0 0 0 0 0 0
0 0 0 0 0 0 3 0 0 50 44 32 69 64 52
70 68 57 59 65 53 56 48 42 0 0 0 3 0 0
11 6 7 22 4 19 13 4 16 4 6 5 11 6 27
16 6 6 0 0 1 0 0 0 19 15 14 12 18 4
11 9 0 1 0 0 0 0 0 0 6 0 1 0 0
16 4 5 0 8 0 0 11 0 34 7 15 2 0 0
0 0 0 0 0 0 104 122 132 103 154 146 0 0 0
0 0 0 44 25 35 0 0 0 0 0 0 0 0 0
0 0 0 81 72 61 6 5 0 83 91 90 192 226 219
0 0 0 0 0 0 0 0 0 8 17 20 11 2 0
9 0 0 15 0 0 6 2 0 15 4 6 21 25 20
18 22 29 0 0 0 5 0 0 0 0 0 0 0 0
12 3 0 38 36 23 36 21 3 0 0 0 0 0 0
90 87 71 72 55 48 0 0 0 0 0 0 11 26 17
7 0 8 0 0 0 0 0 0 6 8 13 52 41 54
1 0 1 0 0 0 0 0 0 10 0 16 22 21 27
0 0 0 12 2 17 34 16 33 28 31 32 241 230 240
0 0 0 0 0 0 0 7 13 14 18 30 0 0 0
16 12 2 0 0 0 0 0 0 0 1 0 0 5 0
0 0 0 0 0 2 29 21 20 67 60 60 115 109 107
0 0 0 16 7 0 31 27 24 15 27 16 9 0 3
0 0 1 9 7 5 0 0 0 0 0 0 41 51 53
92 80 75 22 9 4 0 0 0 36 24 30 78 58 78
0 0 0 45 40 29 132 203 188 20 10 14 0 0 0
0 0 0 0 0 0 53 37 44 67 64 67 30 32 29
55 77 60 29 46 30 0 0 0 0 0 0 0 0 0
45 38 24 0 0 0 0 0 0 34 32 37 64 61 66
73 70 64 91 88 96 15 29 20 0 0 0 0 0 0
0 0 0 1 0 0 18 24 25 14 18 17 7 0 2
0 0 0 0 0 0 35 24 20 5 6 10 7 6 0
54 26 48 0 0 0 19 0 30 11 0 7 0 0 0
0 0 0 232 217 220 142 149 139 67 62 56 0 0 0
31 21 35 35 35 35 23 14 31 29 34 41 222 218 233
47 48 51 0 0 0 0 0 0 0 0 0 25 15 25
17 5 16 0 0 1 0 0 0 0 0 0 10 12 5
7 15 3 4 0 0 0 0 0 5 12 0 1 13 0
0 4 0 5 9 0 5 11 0 10 12 0 0 0 0
0 0 0 0 0 0 0 0 0 11 15 13 0 0 0
0 0 0 0 0 0 0 0 0 0 0 0 23 12 16
11 14 11 29 27 17 35 42 32 18 15 7 0 0 0
0 0 0 0 0 0 0 0 0 69 64 47 0 0 0
0 0 0 65 38 39 51 30 20 0 0 0 0 0 0
0 0 0 0 0 5 0 3 0 0 4 0 0 1 0
0 0 3 3 3 0 0 0 4 0 0 0 0 0 0
0 0 0 0 0 0 0 0 0 110 110 120 74 76 92
0 0 0 0 0 8 114 107 116 24 21 32 0 0 0
0 1 6 28 35 39 0 0 0 0 0 5 12 25 22
0 16 18 0 0 0 0 0 0 0 0 0 0 0 0
0 0 0 0 0 0 10 1 24 74 70 100 57 65 47
42 36 26 17 13 15 0 2 0 0 0 0 0 0 0
0 0 0 0 0 0 27 26 16 1 8 0 4 1 0
0 0 2 1 1 6 26 13 26 29 23 40 31 27 38
10 15 16 33 38 33 0 0 0 0 0 0 21 17 21
0 0 0 0 0 0 0 0 0 141 180 187 0 0 0
0 0 0 0 0 0 0 0 0 0 0 0 4 7 0
15 17 10 2 0 0 0 0 0 0 7 0 46 51 32
191 190 184 106 111 72 0 0 0 0 0 0 0 0 0
0 0 0 28 31 40 63 72 77 16 16 13 0 0 0
0 0 0 0 0 0 12 0 0 25 10 1 41 21 14
11 0 0 0 0 0 0 0 0 0 0 0 0 0 0
0 0 0 0 0 0 0 0 0 0 0 0 26 11 20
74 74 99 44 35 69 2 0 27 0 0 0 3 20 0
18 26 13 0 0 0 0 0 0 0 0 0 19 27 8
19 25 11 0 0 0 0 0 0 0 0 0 0 0 0
181 177 184 0 0 0 0 0 0 0 0 0 12 14 34
0 0 0 4 0 0 0 2 0 0 0 0 0 0 0
5 0 0 0 0 0 0 0 0 0 10 0 14 18 34
41 47 34 8 8 0 9 11 0 0 0 1 3 12 8
45 28 45 40 47 42 51 43 55 9 23 25 19 16 10
41 48 34 52 55 45 1 0 0 0 0 0 14 8 19
37 25 36 0 0 0 0 0 0 115 163 147 102 90 89
17 42 46 0 0 0 0 0 0 0 0 0 0 0 0
11 22 8 34 47 38 35 40 33 0 0 0 0 0 0
0 0 0 20 9 0 0 0 0 0 0 0 0 0 0
0 2 0 1 9 9 49 40 50 11 6 7 0 0 0
0 0 0 0 0 8 0 0 0 1 6 21 0 0 1
0 0 0 0 0 0 0 0 0 35 7 12 0 0 0
10 15 0 31 1 30 0 0 0 0 0 0 0 0 0
0 0 0 0 0 0 255 255 255 60 46 54 31 15 12
0 0 0 0 0 0 0 0 0 14 2 31 164 157 168
129 122 145 0 0 0 0 0 0 9 7 16 0 0 0
0 0 0 0 0 0 0 0 0 0 0 0 0 0 0
5 7 10 5 14 1 0 12 0 0 10 0 0 3 0
12 12 0 0 5 0 0 4 0 3 6 0 0 9 0
0 0 0 0 7 0 11 3 0 0 0 0 3 0 0
0 3 0 14 0 14 0 0 0 0 0 0 0 0 0
17 2 13 1 0 4 20 28 21 36 35 22 4 0 6
0 0 0 0 0 0 3 0 0 0 0 0 47 45 45
0 0 0 0 0 0 66 39 39 57 28 34 0 0 0
0 0 0 0 0 0 0 0 21 0 5 0 0 0 0
0 1 0 0 0 2 0 11 0 0 9 4 0 9 5
0 5 5 18 25 15 0 0 0 0 0 0 85 94 103
101 96 100 48 44 51 33 14 36 100 90 114 52 47 60
0 0 0 0 0 0 9 24 28 22 30 32 26 46 44
29 38 47 0 0 0 0 0 0 0 0 0 0 0 0
0 0 0 0 0 0 0 0 0 0 0 9 0 0 20
45 31 27 19 28 6 34 20 28 31 36 32 25 16 12
9 13 0 2 0 0 0 2 0 0 3 0 0 0 0
0 0 2 0 0 0 0 0 0 1 0 0 11 0 14
0 0 3 1 4 1 21 26 23 0 0 0 0 0 0
20 12 29 0 0 0 0 0 0 0 0 0 137 174 184
3 12 11 0 0 0 0 0 0 0 0 5 1 0 0
0 0 0 9 11 4 10 8 0 12 12 0 4 9 7
0 0 0 59 59 37 107 114 97 0 0 0 0 0 0
0 0 0 0 0 0 24 16 26 69 72 89 34 27 33
6 9 16 59 48 40 70 59 58 32 16 22 40 28 33
51 37 40 42 24 28 14 10 11 3 0 0 4 4 0
20 17 8 0 0 0 32 38 1 0 0 0 0 0 0
8 1 14 68 67 87 43 20 55 4 0 19 0 0 0
11 22 0 36 43 38 0 0 0 0 0 0 0 0 0
30 44 18 37 38 23 0 0 0 0 1 2 2 0 0
0 0 0 129 128 124 115 108 112 0 0 0 0 0 0
13 18 31 0 3 0 0 0 0 12 18 13 0 0 0
0 0 0 9 0 0 0 1 0 0 0 0 0 6 0
10 6 13 12 8 3 60 48 47 5 0 0 0 0 0
0 0 0 47 36 39 71 83 70 87 74 81 59 69 64
37 30 16 8 11 3 0 0 0 0 0 0 14 5 14
17 13 19 9 0 3 0 0 0 0 0 0 123 187 171
68 132 102 92 113 113 99 75 95 0 0 0 0 0 0
0 0 0 0 7 0 22 35 22 48 50 46 18 17 4
0 0 0 0 0 0 0 0 0 0 0 0 0 0 0
0 0 0 2 0 0 0 0 2 11 8 8 0 0 0
0 0 0 0 0 0 34 41 46 23 26 8 15 17 21
9 0 3 5 0 0 0 0 0 4 0 0 42 42 30
0 0 0 32 46 25 28 17 30 0 0 0 0 0 0
0 0 0 0 0 0 97 105 102 255 255 255 2 1 3
16 8 1 0 0 0 0 0 0 17 23 26 77 68 78
238 235 242 8 7 14 0 0 0 0 0 0 5 0 0
3 2 0 12 8 5 0 0 0 39 33 27 0 0 0
3 0 0 8 0 16 11 7 4 3 0 10 0 0 0
0 0 0 0 0 0 0 10 5 0 2 9 8 4 2
0 0 0 0 0 8 0 0 0 3 0 0 0 3 8
0 0 0 0 1 0 16 2 25 0 0 0 0 0 0
0 0 0 5 0 5 0 0 0 50 40 40 14 23 10
0 0 4 0 0 0 0 0 6 21 16 24 1 5 0
26 39 38 0 0 0 0 0 0 83 61 48 62 54 36
0 0 0 0 0 0 0 0 0 0 2 2 0 8 3
0 0 3 0 1 3 5 2 10 0 0 0 0 0 0
0 0 0 0 0 0 9 9 0 0 0 0 0 0 0
86 75 87 162 159 157 179 175 177 145 142 147 159 152 168
0 0 0 0 0 0 17 11 22 49 53 54 0 0 0
0 0 0 28 26 22 37 29 25 30 32 30 0 0 0
0 0 0 0 0 0 0 0 0 0 0 0 0 0 0
0 0 0 0 0 0 0 0 0 26 24 26 53 51 54
49 40 45 39 30 22 13 3 19 0 0 0 0 0 0
0 0 0 0 0 0 0 0 0 0 0 0 0 0 0
0 0 0 0 0 0 2 0 0 0 7 1 0 0 0
0 0 0 2 0 0 0 0 0 0 0 0 0 0 0
140 139 147 0 0 0 0 0 0 0 0 0 0 2 0
0 0 0 0 0 0 7 0 2 13 13 5 8 3 0
4 2 0 0 0 0 12 13 3 144 150 144 125 122 122
0 0 0 0 0 0 0 0 0 0 0 0 15 18 24
0 0 0 0 0 0 49 31 37 113 90 98 38 35 24
52 45 47 48 44 43 36 38 37 13 5 19 0 0 9
4 5 0 13 4 0 0 0 0 22 29 3 0 0 0
0 0 0 8 13 17 65 70 93 26 16 53 0 0 19
0 0 0 22 25 8 30 33 42 0 0 0 0 0 0
0 0 0 36 42 33 40 32 37 0 0 0 0 3 0
0 0 0 0 0 1 56 58 64 234 231 243 0 0 0
0 0 0 7 0 17 8 24 32 0 0 0 18 25 11
0 0 0 0 8 0 0 0 0 0 0 0 0 0 0
0 0 0 8 0 13 0 0 0 53 54 52 0 0 0
0 0 0 0 0 0 0 0 0 26 36 26 56 52 45
55 74 55 14 7 0 0 0 0 0 0 0 0 0 0
17 11 14 1 5 3 8 0 11 0 0 0 0 0 0
159 208 188 98 101 111 2 5 11 86 62 79 37 9 40
60 49 62 76 73 69 0 6 9 17 26 27 48 40 43
33 35 28 0 0 0 0 0 0 0 0 0 0 0 0
12 11 12 16 22 24 13 7 14 0 0 0 0 0 0
0 0 0 0 0 0 0 0 0 39 49 47 37 34 36
19 17 22 15 16 15 0 8 0 0 10 15 23 5 3
73 67 59 0 0 0 29 34 21 11 15 21 38 39 37
0 0 0 0 0 0 0 0 0 255 255 255 76 67 71
0 0 0 38 31 38 0 0 0 0 0 15 191 197 111
110 101 129 52 51 55 0 0 0 0 0 0 0 0 8
0 0 0 0 0 5 38 45 29 0 0 0 0 3 0
0 0 0 3 11 0 10 12 19 6 13 0 0 0 6
0 0 0 0 0 8 0 0 0 17 11 13 0 7 0
0 0 0 0 0 0 6 0 0 0 1 0 5 0 3
1 6 0 5 0 1 11 10 11 16 14 14 0 0 0
0 0 0 0 0 0 0 0 0 0 0 0 49 47 49
12 10 8 0 0 0 0 0 0 6 13 8 31 44 27
0 12 7 13 8 5 0 0 0 0 0 0 92 80 70
64 47 43 0 0 0 0 0 0 0 0 0 0 0 4
0 0 5 0 0 4 0 2 5 0 5 13 0 0 0
1 0 0 4 0 0 0 0 0 0 0 0 0 0 0
0 0 0 0 0 0 6 4 0 8 12 4 0 0 0
0 0 0 0 0 0 0 0 0 76 75 64 64 61 63
0 0 0 0 0 0 34 25 32 30 40 44 70 66 69
0 0 0 0 0 0 0 0 0 0 0 0 0 0 0
0 0 0 0 0 0 0 0 0 0 0 0 5 0 0
20 24 28 44 20 24 30 24 21 22 23 7 30 15 13
1 0 0 10 4 3 0 0 0 0 0 0 0 3 0
1 0 0 0 8 10 0 0 0 3 0 0 7 0 0
0 0 0 0 0 0 0 0 0 0 0 0 0 0 0
8 5 6 104 116 119 0 3 0 0 0 0 0 0 0
10 5 14 1 0 0 4 4 6 11 15 16 0 8 0
0 11 6 0 6 0 37 44 40 0 8 0 63 64 47
145 134 132 101 102 91 0 0 0 0 0 0 0 0 0
0 0 0 0 0 0 0 0 0 0 0 0 43 27 32
0 10 0 11 10 18 12 17 23 10 15 5 4 0 7
3 1 13 13 7 0 0 0 0 0 1 0 21 40 0
0 0 0 0 0 0 0 8 6 71 64 88 24 29 45
0 0 20 0 0 0 16 16 0 26 29 38 0 0 0
0 0 0 0 0 0 36 38 34 32 30 22 0 0 0
0 0 0 0 0 4 0 0 0 5 0 3 255 255 255
15 13 36 0 0 0 0 0 0 14 34 35 0 0 0
28 26 28 0 0 0 3 1 0 0 0 6 0 1 0
0 0 0 0 0 0 0 0 0 0 0 0 53 46 34
29 23 11 23 16 9 0 0 0 0 0 0 0 0 0
26 15 11 47 58 44 33 28 21 0 0 0 0 0 0
9 9 0 26 29 34 15 3 5 32 0 13 0 0 0
0 0 0 158 188 174 17 39 39 0 0 0 0 0 0
0 0 0 53 47 46 158 154 157 0 19 15 0 13 12
12 8 0 31 21 31 12 11 14 0 0 0 0 0 0
22 23 14 0 0 0 0 0 0 0 0 0 0 0 0
0 0 0 0 0 0 0 0 0 14 2 0 0 0 0
0 0 0 0 0 0 0 0 0 0 0 0 0 0 0
12 0 0 51 45 32 0 0 0 0 0 0 5 11 15
53 50 54 0 0 0 0 0 0 0 0 0 255 255 255
0 0 0 0 0 0 32 26 27 0 0 0 32 29 48
153 159 162 0 0 0 0 0 0 0 0 0 0 0 0
25 21 28 0 0 0 0 0 0 0 0 0 2 0 8
6 5 0 0 0 0 11 5 3 9 7 14 5 0 0
3 1 3 0 0 0 0 0 0 0 0 0 7 10 10
0 5 0 7 0 8 0 0 9 0 0 1 0 4 1
2 1 15 0 0 0 5 3 13 0 3 10 0 0 0
0 0 0 0 0 0 0 0 0 11 0 0 21 24 17
37 34 22 0 1 5 0 0 0 0 0 0 20 7 19
50 45 43 21 18 26 0 0 0 0 0 0 0 0 0
109 93 96 67 57 49 0 0 0 0 0 0 0 0 0
0 8 2 0 5 0 9 0 0 0 0 0 0 0 0
10 0 0 0 0 0 0 0 0 4 0 0 0 0 0
0 0 0 0 0 0 0 0 0 0 0 0 0 0 0
0 0 0 0 0 0 0 0 0 0 0 0 96 102 104
65 65 56 0 0 0 37 34 31 87 72 69 0 3 0
51 38 46 0 0 0 0 0 0 0 0 0 0 0 0
0 0 0 0 0 0 0 0 0 0 0 0 0 0 0
0 0 0 0 0 0 0 0 0 0 11 13 45 23 37
39 34 46 16 15 17 22 12 12 13 19 14 14 8 12
4 16 6 14 7 0 7 13 10 0 0 0 32 24 27
12 11 8 0 0 0 2 0 0 0 0 0 0 0 0
0 0 0 34 34 38 86 82 78 0 0 6 0 0 0
0 6 6 21 13 23 0 8 0 14 7 11 24 19 22
0 0 0 34 27 35 0 0 0 26 30 5 25 22 6
0 1 0 67 51 45 126 135 107 13 7 0 0 0 0
0 0 0 0 0 0 0 0 0 0 0 0 0 0 0
0 0 0 0 0 0 0 0 0 0 0 0 0 0 0
0 0 0 0 0 13 0 5 0 0 0 0 1 0 0
25 18 0 0 0 0 0 0 0 12 11 20 71 73 92
24 29 47 0 0 3 0 0 0 21 16 2 27 26 36
0 0 0 0 0 0 0 0 0 39 35 37 17 19 17
0 0 0 5 7 0 4 8 10 3 9 0 0 0 0
255 255 241 55 60 90 0 0 0 0 0 0 7 12 15
0 0 0 12 30 22 0 0 0 0 5 0 0 3 0
0 0 0 0 0 0 0 0 0 6 0 0 0 0 0
0 0 0 3 7 0 24 21 28 0 0 0 0 0 0
0 0 0 0 0 0 0 6 0 45 37 23 0 0 0
0 0 0 33 15 15 6 4 0 0 0 0 0 0 0
0 0 0 0 21 1 160 189 176 0 0 0 0 0 0
0 0 0 0 0 0 0 0 0 73 66 73 20 28 14
0 7 11 8 0 0 16 4 6 22 23 9 13 17 17
8 12 0 47 51 45 0 0 0 0 0 0 0 0 0
3 7 0 0 0 0 15 12 1 43 34 35 64 73 72
0 0 0 0 0 0 0 0 0 0 0 0 0 0 0
0 4 0 15 4 0 57 43 36 0 0 0 0 0 0
9 18 4 31 37 23 0 0 0 0 0 0 151 153 156
196 210 214 20 9 20 0 0 0 0 0 0 0 1 0
2 0 8 0 0 0 0 0 0 0 0 0 0 0 0
0 0 0 107 107 117 124 121 130 0 0 0 0 0 0
69 72 69 0 0 0 2 5 1 9 6 14 5 6 2
7 3 5 0 0 2 0 0 0 0 0 0 0 0 0
15 3 17 0 9 0 0 0 0 0 3 0 0 0 0
2 0 0 0 0 0 8 4 0 0 0 0 0 0 0
0 0 0 0 0 0 0 0 0 10 8 5 31 35 42
62 59 68 9 16 10 0 0 0 0 0 0 1 0 0
11 20 6 46 57 45 23 18 25 0 0 0 0 0 0
1 0 0 129 111 104 70 49 41 0 0 0 0 0 0
0 0 0 0 18 25 0 0 0 0 0 0 3 3 3
0 0 1 9 0 0 12 0 0 0 0 0 3 0 0
0 0 0 10 8 0 9 7 0 0 0 0 0 0 0
0 0 0 6 23 11 40 44 22 0 0 0 5 6 0
137 123 134 100 105 100 0 0 0 4 2 0 51 47 42
10 8 0 36 16 22 0 0 0 0 0 0 19 28 18
0 4 7 0 7 1 16 23 29 6 22 15 0 0 0
0 0 0 0 0 0 0 0 0 0 0 0 0 0 0
26 13 15 18 34 11 29 15 22 0 0 0 2 2 0
4 4 4 0 0 1 0 6 0 0 0 0 0 0 0
30 26 20 2 5 0 10 11 10 18 17 14 0 0 0
0 0 0 6 0 0 59 58 63 57 64 58 0 0 0
0 0 0 0 6 0 20 3 19 6 11 0 0 0 0
1 21 7 0 0 0 58 57 57 0 0 0 0 0 0
17 19 0 34 39 6 13 10 0 42 26 13 150 159 144
53 56 35 0 0 0 0 10 15 0 14 19 0 9 18
0 0 0 0 0 0 0 0 0 0 0 0 0 0 0
0 0 0 0 0 0 0 3 12 0 4 0 0 0 0
0 10 0 21 31 0 0 0 0 0 0 0 14 7 20
61 69 81 26 25 46 0 0 3 0 0 0 14 25 3
27 22 33 0 0 0 0 0 0 0 0 0 30 40 41
10 8 14 0 0 3 3 3 0 3 2 0 3 1 3
0 0 0 255 247 240 83 76 89 0 0 0 0 0 0
0 0 2 0 0 0 8 16 15 0 0 0 0 1 0
0 7 0 0 0 0 0 0 0 0 0 0 10 5 11
16 7 9 0 0 0 0 0 0 0 0 0 0 0 0
0 0 0 0 0 0 0 0 0 0 0 0 20 12 0
0 0 0 0 1 0 15 0 0 0 0 0 0 0 0
0 0 0 0 0 0 51 58 54 156 224 213 0 0 0
0 0 0 40 27 44 0 0 0 0 0 0 0 0 0
8 18 19 3 2 9 19 3 13 11 0 12 6 11 6
4 9 9 0 0 0 54 43 42 0 0 0 0 0 0
12 10 3 22 26 15 0 1 0 25 19 17 37 49 51
59 60 52 0 0 0 15 8 10 11 4 5 12 4 5
22 15 13 24 20 16 29 11 13 47 27 26 0 0 0
0 0 2 9 15 15 14 23 23 0 0 0 0 0 0
255 255 255 100 95 97 46 42 48 0 0 0 0 0 0
40 43 32 0 0 0 0 0 0 0 0 0 0 0 0
0 0 0 0 0 0 178 177 181 204 199 206 42 41 50
68 70 66 46 45 47 0 0 0 0 0 0 7 9 12
6 4 0 1 4 0 0 0 3 0 0 0 1 0 13
0 1 0 14 13 8 0 11 5 0 0 10 0 5 5
0 0 0 0 3 0 0 0 8 0 5 3 0 0 3
0 0 0 0 0 0 0 0 0 24 20 16 44 36 25
32 38 37 40 28 28 3 2 0 0 0 0 0 0 1
7 7 12 9 11 14 32 38 41 34 26 39 0 0 0
0 0 0 11 4 0 133 114 121 63 50 35 0 0 0
0 0 0 0 0 0 18 38 31 0 0 0 3 5 7
1 1 1 0 0 0 0 0 0 0 0 0 0 0 0
3 0 0 0 0 0 27 25 16 0 5 0 0 0 0
0 0 0 0 0 0 0 0 0 0 0 0 0 0 0
0 0 0 66 57 67 103 107 94 0 0 0 0 0 0
2 0 9 57 67 69 8 1 4 0 0 0 5 4 6
64 65 63 39 39 49 31 46 36 52 61 65 36 49 42
0 9 10 9 17 10 0 0 0 0 0 0 0 0 0
0 0 0 0 0 0 0 0 0 46 33 50 0 0 0
0 0 0 0 0 0 0 0 0 0 0 0 0 0 0
0 0 0 1 0 6 0 0 0 0 5 12 18 19 23
0 0 0 0 0 0 0 2 2 71 69 74 32 29 31
0 0 0 0 0 0 0 0 0 18 2 15 0 0 0
0 0 0 0 0 3 0 0 0 21 16 4 14 7 0
0 0 0 13 0 0 66 43 33 0 0 0 0 0 0
122 110 118 35 23 21 0 0 0 0 1 4 0 11 8
0 25 15 0 15 2 0 0 0 0 0 0 0 0 0
0 0 0 0 0 0 0 0 0 3 13 6 0 8 7
0 0 0 6 5 0 20 12 0 0 0 0 0 0 0
18 17 24 73 69 83 31 15 38 0 0 0 4 0 0
14 20 0 24 12 25 0 0 0 0 0 0 0 0 0
35 42 31 11 15 2 0 0 0 0 0 0 0 0 6
0 4 0 0 0 0 217 211 217 85 82 88 0 0 0
0 0 0 0 0 0 0 0 0 0 10 0 0 0 0
1 0 0 8 2 2 0 4 1 0 5 0 4 3 0
7 11 0 26 28 15 0 0 0 0 0 0 0 0 0
0 0 0 0 0 0 0 0 0 0 0 0 0 0 0
0 0 0 0 0 0 0 0 0 0 0 0 0 0 0
19 13 24 69 54 70 41 33 54 0 0 0 128 255 245
39 14 29 0 0 0 0 0 0 0 0 0 0 0 0
0 0 0 0 0 0 17 18 12 46 35 43 27 21 35
0 1 0 0 0 0 0 0 0 25 19 6 0 0 0
0 0 0 0 3 0 18 15 23 0 0 0 0 0 0
0 2 0 0 0 0 0 0 0 0 0 0 0 0 0
0 0 0 0 4 0 10 11 8 0 0 0 0 0 0
0 1 0 19 17 19 35 35 38 10 4 8 0 0 0
0 8 22 255 255 255 65 110 34 0 0 0 0 0 0
1 4 4 12 15 2 0 0 0 66 71 73 216 206 226
0 0 0 0 0 0 159 155 166 189 184 191 0 0 0
0 0 0 0 0 0 0 0 0 12 15 13 10 14 8
14 12 8 23 25 30 14 13 15 0 0 11 0 0 0
0 0 11 0 0 2 0 0 0 0 0 0 0 0 0
0 0 0 0 0 0 0 0 0 4 0 0 0 0 0
3 3 2 0 0 0 0 0 0 7 6 14 70 59 71
75 80 75 32 33 47 0 0 0 0 0 0 0 0 0
0 0 0 0 0 0 0 0 0 24 29 14 30 21 26
0 0 0 0 0 0 0 0 0 128 107 103 56 41 14
0 0 0 0 0 0 0 0 0 4 31 19 0 0 0
0 0 4 8 3 6 6 0 3 0 0 0 0 0 0
0 0 0 0 0 0 0 0 0 3 2 0 0 0 0
0 0 0 21 32 14 21 32 14 0 1 0 0 1 0
0 0 0 0 0 0 26 20 19 204 210 191 170 155 160
59 66 50 79 69 75 192 176 185 32 27 30 0 0 0
0 0 0 31 24 25 0 0 7 0 0 0 25 22 33
0 15 3 35 33 38 20 35 43 0 4 4 0 0 0
0 0 0 0 0 0 7 3 0 0 0 0 142 138 120
43 51 47 18 23 14 12 7 0 8 19 11 23 22 13
13 10 15 0 5 0 0 0 0 0 0 0 8 14 31
21 36 23 0 0 0 0 0 0 2 1 5 87 87 78
22 18 29 1 0 0 0 0 0 10 19 8 32 32 39
23 17 9 1 2 4 4 8 0 0 0 0 0 0 0
54 54 35 28 29 11 27 9 3 59 33 27 5 0 0
90 70 55 88 75 74 60 47 41 0 0 0 0 0 0
0 0 0 0 0 0 0 0 0 0 0 0 2 22 30
0 0 0 0 0 0 0 0 0 17 26 0 18 27 31
9 6 8 0 0 0 6 7 0 10 8 0 0 0 0
0 0 0 0 0 0 63 68 75 40 31 55 0 0 2
9 4 1 26 29 10 16 28 33 0 0 0 0 0 0
0 0 0 41 47 44 26 26 26 0 0 0 0 0 0
0 0 2 0 0 0 0 0 0 130 124 126 177 176 193
0 0 0 0 0 0 5 18 22 0 0 0 8 11 11
0 0 0 0 0 0 5 7 0 0 0 0 0 0 0
0 0 0 0 0 0 0 0 0 0 0 0 0 0 0
0 0 0 0 0 0 0 0 0 27 31 40 68 58 66
52 63 65 73 67 75 25 19 35 38 38 42 98 83 93
82 81 90 24 22 34 5 0 9 0 0 0 0 0 0
115 93 88 136 218 204 70 59 60 0 0 0 0 0 0
4 0 0 0 7 2 1 0 0 47 41 56 38 12 18
11 0 12 31 30 29 0 0 0 0 0 0 69 61 58
0 0 0 7 13 0 0 0 0 0 0 0 0 0 0
0 0 0 0 0 0 3 0 4 0 0 0 16 7 8
12 23 8 7 13 1 0 0 0 0 0 0 0 0 0
0 0 0 44 38 41 0 0 0 2 7 0 0 0 0
0 0 0 220 222 243 134 120 133 0 0 12 0 0 0
0 0 14 0 0 0 0 0 2 37 34 42 77 81 68
60 58 59 62 60 61 255 255 255 50 52 58 0 0 0
0 0 0 0 0 0 0 0 0 0 0 0 21 18 25
0 0 0 0 0 0 0 0 0 0 0 0 0 0 0
0 0 0 0 0 0 0 0 0 33 33 44 17 22 18
5 0 12 0 0 1 1 0 0 0 0 2 9 11 20
0 0 0 0 0 0 51 56 61 101 91 99 27 22 24
0 0 0 0 0 0 0 0 0 0 0 0 1 3 0
9 20 19 0 0 0 54 49 52 61 60 69 9 9 11
18 13 27 0 0 0 0 0 0 46 39 29 123 106 116
67 59 45 0 0 0 0 0 0 0 12 0 26 39 42
15 17 25 0 0 0 0 0 0 0 0 0 0 0 0
11 16 5 18 16 5 0 0 0 2 0 0 0 0 0
0 0 0 0 0 0 0 0 0 0 0 0 0 1 0
0 0 0 31 37 8 0 0 0 0 0 0 0 0 0
152 163 175 255 255 255 193 191 188 101 111 102 0 0 0
3 0 0 77 72 71 28 30 16 12 0 3 16 18 7
0 0 0 0 0 0 0 0 0 12 28 15 5 11 13
0 0 0 0 0 0 0 0 0 0 0 0 0 0 0
0 0 0 0 0 0 35 38 42 32 36 36 0 0 0
0 0 0 0 0 0 42 49 45 44 26 48 0 0 0
0 0 0 0 0 0 0 0 0 0 0 0 34 33 26
42 50 48 24 19 15 4 0 0 0 0 0 0 0 0
0 0 0 0 0 0 4 0 0 20 15 0 0 0 0
0 0 0 25 7 7 0 0 0 0 0 0 97 89 97
144 122 123 120 107 123 0 0 0 0 0 0 0 0 0
0 3 0 7 14 22 0 0 0 0 4 0 40 45 25
0 15 3 12 26 16 0 0 0 0 0 0 0 0 0
0 0 0 0 0 0 27 21 3 46 43 25 0 0 0
9 0 8 64 63 56 54 41 53 27 27 46 0 0 0
28 33 56 0 0 0 16 15 0 20 29 35 0 0 0
0 0 0 11 0 14 36 39 34 0 0 0 0 0 0
0 0 1 0 0 0 0 0 0 0 0 0 139 139 138
221 227 236 0 0 0 0 0 0 4 21 13 0 0 0
0 3 0 0 0 0 0 5 0 8 6 0 1 1 0
3 0 3 5 7 0 19 8 4 10 16 7 0 0 0
0 0 0 1 5 0 35 24 38 56 46 64 67 68 83
92 79 102 81 98 88 75 66 82 73 72 77 72 75 81
64 52 61 0 0 0 0 0 0 0 0 0 0 0 1
0 0 0 0 0 0 131 119 127 135 234 234 72 70 71
0 0 0 0 0 0 16 16 24 0 0 0 20 0 6
0 0 0 0 0 0 14 31 35 0 7 0 0 0 0
60 49 61 0 0 0 4 11 2 0 0 0 0 0 0
0 0 0 16 9 0 2 9 14 9 17 3 0 0 0
0 0 0 13 3 2 10 21 0 1 3 12 0 0 0
4 0 0 0 6 0 0 0 0 10 18 24 34 34 32
0 0 0 0 0 0 199 207 239 74 87 51 0 0 4
7 0 8 3 0 16 21 11 19 70 73 40 126 123 91
130 133 136 123 120 127 168 164 175 80 74 92 0 0 0
0 0 0 0 0 0 8 5 7 10 2 6 7 5 0
11 8 7 0 0 0 9 9 0 2 0 6 3 0 0
5 0 0 0 0 0 5 0 10 0 0 0 16 22 22
0 7 0 0 0 0 0 0 0 0 0 0 0 8 0
4 0 0 0 0 0 0 0 0 35 39 29 34 23 27
0 0 0 0 0 0 8 1 6 10 7 22 0 1 0
0 0 1 0 15 0 0 0 0 21 15 18 34 41 32
7 13 1 6 16 17 0 0 0 0 0 0 20 16 11
129 97 102 71 50 32 0 0 0 0 0 0 0 0 0
0 15 11 0 8 4 0 0 0 0 0 0 0 0 0
0 0 0 0 0 0 24 19 12 0 0 0 0 0 0
2 0 0 4 0 0 0 0 0 3 0 0 0 0 0
0 0 0 0 0 0 0 0 0 0 0 0 0 0 0
0 0 0 0 0 0 0 0 0 0 0 0 0 0 0
0 0 0 31 28 24 126 128 131 51 40 38 0 0 0
50 35 33 45 32 39 0 0 0 0 0 0 25 29 31
8 5 23 0 0 0 0 0 0 0 0 0 3 11 0
0 0 0 0 0 0 0 0 0 26 23 29 46 51 39
49 40 49 25 19 23 6 0 0 0 0 0 21 16 30
0 0 0 0 0 0 2 1 7 0 0 0 0 0 0
27 34 34 46 49 35 0 0 0 10 8 7 22 17 17
33 26 23 29 22 16 7 9 1 0 0 0 0 0 0
74 53 47 24 0 1 59 42 30 131 119 115 142 121 131
94 74 87 7 0 0 0 0 0 0 0 0 0 0 0
0 0 0 0 0 0 0 14 0 0 0 0 0 0 0
0 0 0 0 0 0 0 9 0 0 0 0 0 0 0
0 2 0 8 4 0 0 0 0 19 15 0 0 0 0
0 0 0 27 14 10 28 21 32 5 0 4 26 22 29
0 0 8 20 21 39 0 0 0 30 28 8 20 29 35
0 0 0 0 0 0 3 15 0 39 36 41 0 0 0
2 6 10 0 7 0 13 0 0 2 0 0 0 0 0
164 153 140 255 255 255 0 0 0 0 0 0 5 16 31
0 0 0 0 0 0 0 0 0 0 0 0 0 0 2
0 0 0 0 0 0 0 0 9 10 21 10 0 0 0
59 67 68 70 67 75 97 94 94 88 91 102 58 48 56
13 15 20 9 0 13 0 0 4 0 0 0 0 0 2
0 0 4 0 0 0 0 0 0 0 0 0 3 10 15
41 29 51 14 0 0 0 0 0 0 0 0 143 182 176
178 185 187 0 0 0 0 0 0 61 65 65 7 0 0
29 11 14 0 0 0 0 0 0 39 62 52 33 49 53
0 0 0 7 0 0 24 21 24 23 12 9 0 0 0
0 0 0 0 0 0 0 0 0 0 0 2 0 0 0
0 0 0 0 0 0 0 7 0 12 7 0 3 12 13
10 19 0 30 1 7 21 13 7 2 0 0 89 90 105
0 0 0 0 0 0 118 125 126 148 140 171 45 43 16
18 29 0 16 51 0 19 41 0 56 62 15 78 82 90
17 14 26 0 0 0 0 0 0 0 0 12 0 0 0
0 0 0 0 0 0 4 6 0 20 23 21 18 25 19
11 12 1 0 0 0 0 0 0 0 2 0 1 0 9
1 9 0 5 10 7 0 5 0 4 10 10 0 3 0
10 12 7 0 3 0 0 0 6 0 0 1 0 0 0
0 1 0 3 0 9 0 0 0 19 19 30 26 40 38
0 0 7 0 0 0 0 0 0 2 0 0 14 14 13
9 22 9 29 15 26 8 17 6 0 0 0 34 24 30
58 51 57 19 11 16 17 24 18 0 0 0 0 0 0
34 31 19 134 113 111 60 43 35 0 0 0 0 0 0
0 0 0 0 0 0 24 37 37 25 47 42 0 0 0
0 0 0 0 0 0 0 0 0 19 21 14 0 4 0
0 0 0 0 0 0 0 0 0 0 0 0 12 0 0
0 0 0 0 0 0 0 0 0 8 11 14 13 18 19
0 6 15 0 0 0 0 0 0 0 0 0 0 0 0
0 0 0 0 0 0 66 58 47 142 152 150 42 34 34
0 0 0 1 0 0 43 40 42 60 48 43 3 6 5
27 30 19 3 13 9 0 0 0 0 0 0 0 5 5
47 37 43 28 29 23 0 0 0 0 0 0 0 0 0
5 11 1 55 52 51 50 55 49 12 16 18 0 0 0
10 0 0 0 0 0 0 0 0 0 0 0 0 0 0
7 10 0 34 23 11 27 24 13 0 0 0 8 0 0
0 0 0 5 0 0 19 6 0 33 21 15 46 19 20
48 28 11 92 71 76 38 26 15 79 64 71 110 115 113
34 39 38 0 0 0 0 0 0 0 0 0 0 0 0
0 0 0 0 0 0 0 0 0 0 0 0 0 0 0
0 0 0 0 0 0 0 0 0 0 0 0 0 0 0
0 0 0 6 18 0 1 15 1 0 0 0 0 0 0
0 0 0 0 0 0 81 68 77 43 34 46 0 0 0
25 15 43 0 0 10 0 0 10 0 0 0 26 23 2
26 33 40 0 0 0 0 0 0 6 12 5 46 34 49
0 0 0 5 5 9 0 4 3 0 3 6 0 5 0
0 0 0 153 145 120 255 255 255 0 0 0 0 0 0
1 16 24 0 0 0 0 0 0 9 1 2 1 0 0
0 0 0 0 0 0 0 0 0 0 0 0 0 0 0
0 0 0 42 39 48 0 3 12 11 15 22 3 0 3
0 0 0 0 0 0 0 0 0 0 0 0 0 0 0
0 0 0 0 0 0 0 0 0 0 0 0 33 20 33
33 35 49 10 18 29 28 3 3 34 1 0 0 0 0
0 0 0 154 169 168 55 71 75 0 0 0 0 0 0
18 6 11 28 0 15 0 0 0 0 0 0 99 113 114
92 108 103 0 0 0 0 0 0 36 38 28 18 17 8
0 0 0 0 0 0 0 0 0 5 3 0 0 0 5
0 0 0 0 0 0 0 0 0 0 0 0 0 3 0
11 3 0 0 16 3 17 2 12 0 0 0 4 15 20
0 0 0 0 0 0 0 0 0 202 212 231 70 78 86
0 0 3 0 0 0 13 24 0 37 57 18 108 99 83
81 85 104 0 0 0 0 0 0 0 0 0 97 98 102
0 0 0 0 0 0 0 0 0 7 11 12 15 0 9
0 5 0 22 11 7 3 13 0 1 0 0 0 0 0
9 0 0 0 5 0 13 0 7 0 7 3 14 3 10
13 9 13 1 0 2 0 2 3 5 3 0 1 0 0
0 0 0 2 0 0 2 9 0 0 0 0 18 15 10
22 23 16 0 0 0 0 0 0 13 5 11 3 14 11
3 0 6 0 0 0 20 20 32 12 17 12 0 0 0
22 26 11 45 54 59 23 24 11 13 19 17 0 0 0
0 0 0 33 36 14 150 127 122 72 53 33 0 0 0
0 0 0 0 4 0 0 0 0 72 78 88 107 102 117
0 0 0 0 0 0 6 12 0 0 0 0 8 7 0
4 7 0 0 0 0 0 0 0 7 0 0 0 0 0
0 0 0 0 0 0 8 0 0 0 0 0 11 7 25
0 0 0 0 0 0 0 0 6 0 0 0 0 0 0
13 10 0 29 20 0 0 0 0 9 12 0 114 107 99
93 97 88 35 29 30 0 0 0 0 0 0 15 0 9
101 105 105 1 0 0 0 0 0 0 0 0 0 0 0
15 25 16 44 45 41 20 31 23 0 0 0 0 0 0
0 0 0 0 0 0 7 1 0 20 21 25 41 24 28
14 7 16 0 0 0 0 0 0 0 0 0 0 0 0
0 0 0 28 29 27 45 41 32 31 35 17 0 0 0
0 0 0 0 0 0 0 0 0 6 0 0 33 23 17
46 30 5 65 37 37 54 32 29 31 9 4 7 7 0
0 0 0 0 0 0 0 0 0 0 0 0 0 0 0
22 35 7 0 9 0 13 17 25 19 17 6 2 17 2
12 10 5 0 1 0 14 1 0 0 0 0 0 0 0
0 0 0 0 0 0 14 11 0 0 3 0 0 0 0
0 0 0 0 0 0 6 15 0 112 110 117 41 41 44
0 0 0 23 19 29 7 8 29 0 0 0 0 0 0
33 25 5 23 26 34 0 0 0 0 0 0 7 10 7
33 42 36 0 0 0 10 6 19 4 5 0 6 3 3
0 3 0 0 0 0 133 123 120 218 217 233 0 0 0
0 0 0 2 20 25 8 0 2 1 5 5 0 0 0
0 0 0 0 0 0 0 0 0 0 0 0 0 0 5
0 0 0 0 0 0 2 7 6 0 0 0 0 0 0
0 0 0 0 0 0 0 0 0 4 0 0 0 10 0
0 0 0 2 8 0 0 0 0 0 0 0 28 21 16
63 66 58 68 71 57 35 41 32 0 0 0 72 54 48
0 0 0 0 0 0 130 131 145 162 160 169 0 0 0
0 0 0 0 0 0 0 0 0 0 0 0 0 0 0
84 112 101 125 140 136 0 0 0 0 0 0 37 31 30
10 6 10 0 0 0 0 0 0 0 0 0 11 0 0
0 0 4 0 0 0 0 0 7 0 7 0 0 0 0
0 8 0 12 8 12 0 6 0 2 0 0 0 0 0
45 55 57 0 0 0 0 0 0 79 77 77 213 212 244
73 80 29 8 0 12 58 52 36 119 100 72 153 140 158
127 128 142 57 64 68 16 13 10 0 10 8 34 10 19
94 93 107 0 0 0 0 0 0 0 0 0 0 7 0
0 0 0 0 0 0 15 4 0 0 0 0 1 0 0
0 0 0 9 0 0 0 9 0 19 6 10 0 16 5
13 5 2 15 19 6 0 0 0 0 3 8 1 5 7
0 2 5 0 0 0 0 0 0 0 12 4 0 0 0
1 8 6 0 9 4 0 0 0 0 0 0 25 27 26
8 3 0 0 0 0 1 1 0 17 16 14 3 14 13
0 0 0 23 17 14 35 36 53 15 1 0 10 9 12
0 0 0 0 0 0 43 39 30 166 135 146 74 48 46
0 0 0 0 0 0 0 2 0 0 0 0 127 134 142
138 144 138 0 0 0 0 0 0 25 27 15 0 0 0
0 2 0 0 0 0 7 0 5 0 0 3 9 0 3
1 0 0 9 0 13 0 0 9 8 0 7 0 0 0
29 27 39 0 0 0 0 0 0 0 0 5 0 0 0
9 11 0 0 0 0 0 0 0 0 0 0 0 0 0
23 27 34 109 121 113 152 138 149 98 96 86 30 20 24
0 1 0 152 163 156 0 0 0 0 0 0 0 2 1
27 21 33 26 29 26 28 28 37 2 2 3 0 0 0
0 0 0 0 0 0 0 0 0 0 0 0 0 0 0
16 20 33 51 50 66 3 3 0 0 10 0 0 0 0
0 0 0 0 0 0 49 46 28 47 31 37 35 41 20
4 0 0 15 10 2 9 19 13 32 24 28 24 28 26
0 16 4 0 0 0 0 0 0 55 60 69 0 0 0
0 0 0 0 0 0 0 0 0 0 0 0 0 0 0
0 0 0 90 84 74 25 41 48 30 32 26 12 21 13
5 0 2 0 3 0 15 0 7 7 5 1 0 0 0
3 11 0 0 4 0 0 0 0 18 28 23 7 5 0
0 0 0 0 0 0 0 0 0 37 39 33 106 94 123
34 31 43 0 0 7 18 9 30 21 24 39 0 0 0
0 3 0 20 25 6 29 28 37 0 0 0 0 0 0
10 8 9 36 42 39 0 0 0 8 12 5 5 4 9
0 3 0 2 3 0 0 0 0 111 100 109 197 204 206
0 0 0 0 0 0 0 9 11 20 15 15 0 0 0
0 0 0 0 0 0 0 0 0 7 1 0 12 14 16
35 37 26 49 37 44 23 19 36 69 62 52 26 32 35
16 20 21 11 22 31 29 6 19 13 15 20 1 0 0
0 0 0 0 0 0 0 0 0 0 0 2 8 4 1
7 0 3 17 12 15 4 10 0 0 1 0 0 0 0
8 0 0 0 0 0 0 0 0 0 0 4 132 145 138
144 149 142 35 47 44 0 0 0 0 0 0 0 0 0
0 0 0 23 46 52 76 85 95 0 0 0 0 0 0
44 27 35 13 4 1 0 0 0 0 0 0 0 0 0
0 17 0 7 0 13 2 5 0 7 3 6 0 8 0
6 0 0 0 0 0 16 10 11 0 12 14 0 0 0
0 0 0 15 14 21 0 0 0 0 0 0 255 255 255
148 162 140 108 119 110 84 86 126 160 169 196 122 111 135
113 114 136 20 19 9 0 0 0 0 0 0 0 0 0
0 0 0 0 0 0 0 0 0 0 0 0 0 0 2
0 0 0 0 0 0 0 0 0 5 4 0 0 0 0
0 0 0 0 0 0 1 0 0 6 6 5 6 3 3
6 7 2 0 1 2 0 9 0 0 0 0 0 0 0
18 8 3 0 2 5 0 0 0 0 0 0 0 0 3
0 1 0 32 16 24 0 0 0 0 0 0 0 0 0
27 16 19 0 0 0 0 0 0 39 44 37 2 6 9
12 15 2 0 0 0 19 18 17 44 36 34 1 0 0
0 6 9 0 0 0 0 0 0 47 55 43 168 149 141
71 65 38 0 0 0 0 0 0 0 11 0 0 0 0
129 115 139 119 113 123 0 0 0 0 0 0 9 20 6
0 0 0 0 3 0 0 1 0 0 4 3 0 0 0
6 0 0 0 0 0 4 0 6 3 0 0 1 0 0
0 0 0 11 11 27 0 2 0 0 0 0 0 0 7
4 1 2 2 0 6 0 0 0 0 0 0 0 0 0
0 0 0 0 0 0 0 0 0 1 0 0 116 129 130
173 169 184 213 219 222 98 84 92 0 0 0 0 0 0
64 63 58 62 65 69 25 30 16 12 14 20 0 0 0
0 0 0 10 8 12 0 2 0 0 0 0 0 0 0
0 0 0 8 0 17 18 21 34 21 21 12 0 2 1
0 0 0 0 0 0 36 23 29 63 53 39 30 17 12
30 26 11 13 0 0 23 7 15 5 0 0 7 7 11
7 12 10 0 10 11 0 0 0 1 1 0 73 78 87
0 0 0 0 0 0 0 0 0 0 0 0 0 0 0
0 0 0 0 0 0 92 90 84 27 35 25 6 4 0
0 0 0 0 0 0 0 0 0 8 0 3 0 0 6
0 0 0 18 20 21 7 0 0 0 0 0 3 12 6
0 6 0 0 0 0 0 0 0 39 38 34 59 66 63
61 59 82 18 12 27 0 0 13 3 5 23 23 26 45
0 0 0 0 5 0 23 25 6 34 30 39 0 0 0
0 0 0 10 6 8 36 42 40 0 0 0 0 3 4
3 0 0 0 0 0 0 0 0 0 0 0 105 98 90
228 225 223 0 0 0 0 0 0 5 2 10 16 17 14
0 0 0 0 0 0 0 0 0 0 0 0 0 8 15
19 18 36 31 29 35 31 19 53 0 7 21 5 0 4
0 0 0 11 6 5 21 22 18 39 6 24 26 19 33
33 20 24 32 46 37 0 0 0 0 0 0 0 4 0
8 12 5 0 0 0 0 0 0 0 0 0 0 0 0
21 0 9 0 0 0 0 0 3 0 0 0 0 0 0
14 22 38 165 197 194 104 138 138 14 41 37 9 32 16
0 0 1 0 0 0 64 84 76 93 110 106 0 0 0
0 0 0 37 23 11 26 8 0 0 0 0 0 0 0
1 0 0 0 2 0 2 0 1 0 0 0 11 1 6
0 0 0 0 0 0 0 0 0 17 6 0 10 16 0
15 0 0 0 0 0 0 0 0 0 0 0 202 198 192
241 255 255 88 78 89 27 35 31 0 0 0 16 18 18
0 0 0 0 0 0 0 0 0 0 0 0 0 0 0
9 12 19 43 8 33 13 0 10 0 0 3 0 0 0
7 0 16 0 0 3 0 0 0 0 0 0 22 23 12
0 0 0 0 0 0 0 0 0 0 3 0 0 8 1
0 8 1 0 7 0 0 0 0 0 2 0 0 0 0
0 0 0 16 9 10 0 1 8 0 0 0 0 0 0
4 6 16 0 10 1 30 19 31 2 3 10 0 0 0
0 0 0 18 9 12 0 0 0 0 0 0 78 67 66
0 0 0 21 24 13 0 0 0 29 29 32 41 35 35
0 0 0 5 0 9 0 0 0 0 0 0 60 49 54
183 150 164 79 59 59 0 0 0 0 0 0 0 19 7
0 0 0 66 62 82 44 49 54 0 0 0 0 0 0
2 0 0 0 0 0 0 0 0 0 5 0 0 0 4
0 0 3 0 0 3 0 0 0 0 0 13 0 0 9
0 0 9 0 0 2 0 0 0 0 0 0 0 0 4
0 1 0 0 0 0 0 2 3 0 4 0 0 0 0
34 43 32 0 0 0 0 0 0 0 0 0 0 0 0
0 0 0 87 83 83 215 227 212 0 0 0 0 0 0
0 0 0 130 128 128 77 65 75 18 3 13 29 23 43
19 18 13 0 0 0 7 4 9 15 12 2 7 0 0
2 0 0 0 0 0 0 0 0 0 0 0 0 19 6
0 0 0 0 0 0 0 0 0 72 64 60 67 55 43
5 0 0 10 4 0 24 0 0 9 0 0 0 0 0
0 0 0 0 0 0 3 10 27 5 4 12 122 128 141
0 0 0 0 0 0 0 0 0 0 0 0 0 0 0
0 0 0 20 25 23 122 124 126 43 45 48 0 5 0
0 0 0 0 0 0 0 0 0 0 0 0 0 0 0
4 4 4 11 15 12 26 19 15 0 0 0 0 0 0
12 11 3 19 5 8 19 0 6 0 0 0 187 159 182
95 73 100 33 2 35 0 0 19 22 8 35 0 0 8
20 3 25 0 0 0 7 2 0 24 28 4 30 34 41
0 0 0 0 0 0 8 4 6 34 42 40 0 0 0
0 0 0 0 0 0 0 0 0 0 0 0 0 0 0
92 95 82 255 255 255 0 0 0 0 0 0 0 7 12
0 0 0 0 0 0 0 0 0 0 0 0 0 0 0
4 1 2 17 11 27 6 0 17 0 0 4 0 0 0
0 0 0 0 0 0 15 0 17 0 0 0 0 0 0
0 0 0 0 0 0 11 17 12 0 0 0 0 0 0
0 0 0 28 33 28 78 75 78 56 54 60 0 5 0
0 0 0 0 0 0 0 0 0 79 75 87 83 87 104
0 0 0 0 0 0 24 59 52 0 0 0 243 255 255
211 233 230 196 214 208 115 116 125 104 228 225 147 152 150
0 0 0 0 0 0 40 16 22 18 0 0 0 0 0
0 0 0 0 0 0 0 0 0 0 0 0 0 0 0
3 0 5 7 0 0 0 0 0 0 0 0 1 0 0
12 2 0 21 1 0 0 0 0 0 0 0 0 0 0
255 255 255 89 88 87 0 0 0 0 0 0 0 0 0
0 0 0 0 0 0 0 0 0 0 0 0 0 0 0
0 0 0 0 0 0 0 0 0 0 0 0 71 69 87
34 34 55 15 7 26 0 0 0 0 0 0 0 0 0
12 15 10 0 0 0 0 0 0 5 0 0 5 0 0
12 8 0 14 1 8 0 0 0 0 0 0 0 0 0
0 0 0 0 0 0 7 0 8 0 0 0 0 0 0
0 0 0 4 8 1 16 9 12 0 0 0 0 0 0
0 0 0 2 2 8 27 17 21 0 0 0 0 0 0
79 70 76 0 5 0 39 45 40 19 19 9 49 45 46
59 48 48 3 3 1 23 23 27 0 0 0 0 0 0
48 42 43 170 153 141 48 44 30 0 0 0 0 0 0
0 19 7 0 0 0 0 0 0 0 0 0 0 0 0
0 0 0 0 0 0 0 12 0 0 0 0 0 10 4
0 8 0 0 4 0 0 0 0 0 0 0 0 0 0
0 0 0 0 0 0 0 0 0 0 9 19 0 7 11
0 0 0 0 0 0 1 13 6 0 9 5 5 10 6
0 0 0 0 0 0 0 0 0 30 27 4 45 48 28
0 0 0 0 0 0 0 0 0 0 0 0 0 0 0
0 0 0 7 0 0 176 171 178 37 37 33 0 0 0
46 33 45 35 26 26 0 0 0 0 0 0 0 0 0
0 0 0 0 0 0 1 7 0 1 0 4 0 0 0
0 21 3 0 0 0 0 0 0 37 28 18 142 134 126
110 93 70 30 3 0 25 6 0 28 5 2 19 0 0
0 0 0 0 0 0 0 1 4 25 50 60 100 98 108
237 246 252 0 0 0 0 0 0 0 0 0 0 0 0
0 0 0 0 10 25 54 54 69 80 75 80 27 10 4
0 0 0 0 0 0 0 0 0 14 19 2 0 0 0
0 6 4 37 28 31 9 0 1 11 8 6 0 0 0
0 0 0 18 8 0 1 0 0 0 0 0 0 0 0
139 129 138 48 30 44 0 0 0 0 0 10 42 19 46
0 0 0 1 0 1 0 0 0 11 11 0 18 24 8
26 29 29 0 0 0 0 0 0 3 10 0 43 44 26
0 0 0 0 0 0 0 0 0 0 0 0 0 1 0
0 0 0 94 90 69 255 253 255 0 0 0 0 0 0
0 0 5 0 0 0 34 25 35 0 3 0 1 14 3
0 2 0 0 0 0 0 0 0 0 0 0 0 4 0
0 0 0 0 1 0 0 0 0 0 0 0 0 17 3
0 0 0 0 0 0 0 0 0 18 22 0 2 0 0
0 0 0 0 0 0 0 0 0 24 21 18 58 54 38
54 66 33 68 77 52 34 39 11 0 0 0 0 0 0
0 0 0 0 0 0 66 49 72 18 3 25 0 0 0
0 0 0 0 0 0 0 0 0 57 46 41 91 76 83
148 172 178 209 236 241 0 0 0 0 0 0 7 0 2
0 4 21 0 0 0 38 33 34 0 0 0 0 0 0
0 0 0 0 0 0 0 0 0 0 0 0 0 0 0
59 66 71 37 53 55 0 0 0 0 0 0 0 0 0
255 255 255 174 176 186 55 36 55 124 132 142 48 47 61
14 13 15 37 28 36 0 0 0 0 0 0 0 0 0
0 0 0 0 0 0 0 0 0 0 0 6 0 0 0
0 0 0 3 15 16 20 25 22 0 0 0 26 20 28
68 63 78 39 35 49 0 0 0 0 0 0 0 0 0
0 6 8 0 5 0 0 0 6 0 5 4 6 5 9
12 15 28 2 0 0 1 5 0 20 12 11 2 15 14
0 0 0 0 0 0 0 0 0 0 0 0 36 34 35
0 0 0 0 0 0 32 37 22 28 15 20 0 0 0
14 12 15 71 71 73 0 0 0 0 0 3 0 0 0
84 95 98 12 24 10 0 0 0 27 33 29 0 0 0
0 0 0 52 37 29 164 156 134 125 106 88 0 0 0
0 0 0 0 0 0 0 5 18 50 34 42 213 195 188
128 119 116 0 0 0 0 0 0 9 17 0 39 29 22
0 0 0 15 0 0 5 0 0 13 0 0 16 0 0
21 0 0 10 0 0 25 3 0 20 0 0 9 7 8
12 7 0 5 9 0 4 0 0 2 0 0 0 0 0
0 5 0 0 0 0 0 10 0 0 0 0 0 0 0
0 0 0 0 0 0 7 10 0 0 0 0 0 0 0
0 0 0 0 0 0 23 30 22 173 187 199 220 219 231
84 89 99 0 0 0 0 0 0 8 9 19 0 0 0
0 0 0 0 0 0 3 5 9 0 0 0 0 0 0
0 0 0 0 0 0 0 0 0 0 0 0 46 34 37
132 130 138 77 66 80 0 0 0 0 0 0 15 13 30
0 0 0 0 0 0 74 87 93 170 191 200 132 152 152
28 24 33 0 0 0 0 0 0 0 0 0 0 0 0
0 0 0 0 0 0 99 86 79 57 37 34 117 95 101
0 0 0 7 0 8 0 0 0 0 0 0 0 0 0
0 0 0 0 0 0 0 0 0 18 17 6 12 20 9
0 0 0 0 0 0 0 0 0 0 0 0 0 0 0
112 112 111 255 255 255 35 51 45 0 0 7 0 0 0
0 0 0 0 0 0 35 28 42 0 0 0 24 21 9
21 25 16 24 28 25 0 0 0 0 0 0 0 0 1
46 34 35 21 29 30 16 4 3 7 6 0 5 2 0
0 0 0 0 0 0 100 106 51 206 192 222 0 0 0
0 0 0 0 0 0 0 0 5 3 10 23 0 0 0
2 6 0 2 0 0 0 9 0 0 5 0 0 3 3
3 5 0 0 12 0 0 2 0 0 0 0 0 3 6
9 20 3 0 4 0 0 0 0 4 4 0 14 25 11
29 16 7 1 0 0 0 0 0 5 0 0 28 28 15
40 41 15 16 23 4 38 45 17 0 0 0 0 0 0
14 17 0 31 20 24 8 3 6 86 78 83 131 109 136
0 0 0 47 35 49 4 0 9 0 0 0 0 0 0
0 0 0 0 0 0 158 169 187 125 144 160 0 0 0
10 1 2 45 39 59 0 0 0 23 15 12 0 0 0
47 38 28 54 55 31 68 59 42 0 0 0 16 16 21
106 104 102 54 60 62 0 0 0 0 0 0 0 0 0
153 165 189 255 255 255 218 255 174 139 114 138 129 118 123
52 32 42 21 0 2 0 0 0 40 28 50 46 39 51
44 37 48 11 17 26 1 2 9 0 6 3 17 25 26
22 42 29 25 25 28 28 40 37 24 30 42 0 0 8
1 0 3 37 43 42 26 32 27 0 0 0 0 0 0
0 0 0 3 2 0 2 5 4 0 1 0 0 5 0
0 0 3 0 0 0 0 0 0 0 6 0 10 9 3
0 7 0 0 0 0 0 0 0 0 1 8 0 0 0
43 39 41 0 0 0 0 0 0 20 23 7 2 2 5
0 0 0 0 0 0 37 36 45 0 0 2 3 6 10
0 0 0 80 89 79 11 11 15 0 0 0 42 42 52
0 0 0 0 0 0 28 16 16 141 140 113 96 88 68
0 0 0 0 0 0 0 0 0 0 0 3 0 0 0
132 127 125 255 255 255 28 12 0 0 0 0 0 0 0
14 12 5 0 9 0 0 0 0 0 0 0 10 0 0
13 0 0 9 0 0 0 0 0 18 0 0 1 2 0
0 0 0 0 0 0 0 0 0 0 0 0 0 0 0
0 0 0 0 0 0 0 0 0 0 0 0 0 0 0
0 0 0 0 0 0 0 0 0 6 9 0 0 0 0
0 0 0 13 36 31 0 0 0 0 0 0 10 20 15
148 147 152 147 140 146 82 81 85 88 90 96 0 0 0
0 0 0 3 6 0 0 0 0 0 0 0 0 0 0
0 0 0 17 13 11 5 0 3 0 0 0 0 0 0
0 0 0 0 0 0 13 1 10 0 0 10 0 0 0
0 0 0 5 11 23 128 149 160 164 173 187 0 0 0
0 0 0 0 0 0 0 0 0 0 0 0 0 0 0
0 0 0 0 0 0 32 10 0 63 61 38 37 12 2
80 53 46 0 0 0 0 0 0 0 0 0 0 0 0
3 0 18 0 0 0 0 0 2 0 0 0 40 27 17
0 0 0 43 30 29 0 0 0 0 0 0 0 0 0
74 87 81 86 99 92 158 174 179 0 0 0 0 0 0
0 9 13 0 0 0 0 6 14 22 19 32 0 0 0
0 3 0 20 21 5 26 30 34 0 0 0 0 0 0
0 0 0 35 28 42 2 3 1 7 0 5 6 0 5
0 0 0 0 0 0 0 0 4 128 137 76 127 115 132
4 13 7 0 0 0 0 0 0 30 24 33 0 1 8
0 0 0 0 9 0 4 6 0 0 0 0 4 0 2
0 0 11 0 3 2 6 13 11 0 0 0 0 0 0
0 0 5 15 8 7 0 2 0 0 0 0 8 1 1
21 13 10 42 24 24 8 10 6 0 0 0 0 0 0
18 10 22 26 23 22 17 3 21 18 22 12 0 0 0
0 0 0 20 22 20 0 0 0 0 0 0 0 0 0
41 36 50 0 0 0 58 46 60 26 31 26 25 22 29
0 0 0 0 0 0 0 0 0 39 44 52 197 245 245
23 18 20 0 0 0 0 0 0 73 67 73 68 67 57
0 0 0 0 0 0 0 0 0 0 0 0 0 0 0
0 0 0 62 69 62 4 10 7 0 0 0 0 0 0
0 0 0 176 165 198 195 194 228 158 157 182 0 0 0
0 0 0 0 0 0 0 0 0 0 0 0 52 39 42
30 39 39 37 35 41 0 0 0 0 0 0 0 0 0
0 0 6 28 26 37 39 28 38 37 40 40 31 31 38
0 0 0 9 0 6 27 35 24 24 14 20 0 0 0
0 0 0 0 0 0 6 3 0 5 11 5 6 0 6
0 0 0 0 0 17 0 2 8 16 0 0 16 8 7
20 8 17 0 1 5 0 0 0 0 0 0 0 2 0
0 0 0 49 45 41 0 0 0 0 1 0 20 14 18
0 0 0 0 0 0 0 0 0 6 5 6 7 11 7
0 1 11 0 0 0 79 81 78 0 0 8 0 0 0
41 45 44 0 0 0 0 0 0 11 2 3 150 129 114
101 88 82 0 0 0 0 0 0 0 0 0 0 7 20
0 0 0 46 53 54 255 255 255 60 51 26 0 0 0
0 7 0 0 11 0 0 0 0 0 0 0 0 0 0
3 0 4 0 0 0 5 0 0 0 1 0 1 1 0
0 2 0 0 0 0 0 0 0 0 0 0 0 0 0
0 0 0 0 0 0 0 0 0 0 0 0 0 0 0
0 2 0 0 0 0 0 0 0 0 0 0 0 2 0
0 0 0 0 0 0 48 58 43 0 0 0 0 0 0
0 0 0 0 0 0 0 0 0 95 93 85 194 186 182
93 95 94 119 119 119 106 103 101 18 23 14 0 0 0
6 0 5 18 9 10 3 0 0 12 14 17 0 0 0
0 0 0 13 17 8 0 0 0 0 0 0 0 0 0
18 3 5 156 151 161 93 87 86 185 196 197 148 141 150
0 0 0 0 0 0 0 0 0 0 10 0 0 0 0
0 0 0 0 0 0 31 40 29 89 80 79 64 69 62
27 17 19 34 33 32 0 0 0 0 0 0 0 0 0
0 0 0 27 24 16 17 26 14 7 16 14 0 0 0
0 3 0 0 0 0 60 60 54 0 0 0 0 0 0
33 13 29 255 255 255 113 110 123 95 78 98 0 0 0
0 0 0 0 0 0 0 0 0 0 0 0 16 0 22
0 0 0 0 0 0 7 14 0 15 20 8 0 0 0
0 0 0 0 0 0 27 26 34 0 0 0 0 8 0
0 0 0 2 7 5 2 3 0 5 0 20 119 128 128
28 16 22 0 2 0 0 0 0 0 0 0 56 50 60
0 0 7 0 0 0 6 9 7 4 0 0 0 0 0
4 0 0 1 0 11 3 0 4 0 4 2 0 0 0
0 0 0 0 0 0 0 7 0 10 5 0 0 0 0
9 0 0 27 19 25 27 29 27 9 0 0 0 0 0
0 0 0 8 0 0 19 14 4 15 10 14 12 7 2
13 3 0 12 21 4 35 24 29 0 0 0 0 0 0
0 0 0 0 0 0 0 0 0 22 13 25 21 21 26
74 75 73 38 28 21 0 0 0 0 0 0 0 0 0
165 156 166 200 191 190 0 0 0 0 0 0 0 0 0
7 10 3 0 0 0 0 0 0 0 0 0 0 0 0
17 11 8 1 0 0 0 0 0 0 1 8 0 0 0
0 0 0 16 16 7 0 0 0 0 0 0 39 31 29
0 0 0 0 0 0 0 0 0 0 0 0 0 0 0
0 0 0 4 0 4 0 0 0 0 0 0 0 0 0
0 0 0 0 0 0 21 21 12 0 0 0 9 8 16
0 0 0 0 0 0 0 0 0 4 8 9 0 0 0
0 0 0 8 10 13 0 0 1 0 3 0 0 8 0
3 1 7 0 4 0 0 0 10 0 4 0 10 2 3
6 7 0 7 2 1 0 0 0 0 0 0 0 0 0
3 9 4 0 0 0 38 28 27 0 0 1 1 1 11
7 3 0 0 0 0 0 0 0 0 0 0 0 0 0
32 20 34 0 6 4 0 0 0 75 79 64 0 0 0
0 0 0 63 65 76 0 0 0 0 0 0 7 4 4
141 132 115 116 102 85 0 0 0 0 0 0 0 0 0
0 0 1 0 0 0 69 56 66 240 238 243 5 0 0
0 0 0 0 0 0 3 0 0 0 0 0 4 0 1
2 4 0 0 0 4 0 1 0 1 0 1 4 5 1
0 3 0 0 0 0 24 12 12 26 3 21 3 9 13
15 15 12 12 2 20 21 6 12 0 5 18 25 34 33
0 0 0 0 0 0 0 0 0 0 0 0 0 5 0
0 0 0 0 0 0 0 0 0 0 0 0 0 0 0
0 0 0 0 0 0 0 0 0 0 0 0 0 0 0
0 0 0 198 209 198 185 188 183 110 114 121 2 8 4
0 0 0 62 64 59 65 61 64 0 0 0 17 8 11
10 9 8 113 99 107 152 153 143 51 49 46 24 9 0
100 94 84 249 239 235 140 145 136 0 0 0 0 0 0
0 0 0 0 0 0 0 0 0 0 12 0 0 0 0
0 0 0 0 0 0 0 0 0 65 59 58 106 105 96
40 34 26 32 17 26 13 22 20 0 0 0 0 0 0
0 0 0 0 4 7 20 21 19 25 22 32 0 18 4
4 1 0 0 0 0 0 0 0 30 25 26 0 0 0
0 0 0 111 98 121 166 255 194 13 44 15 89 74 58
0 0 0 0 0 0 0 0 0 0 0 0 0 0 0
8 6 26 0 0 0 0 0 0 12 21 0 15 15 15
0 0 0 0 0 0 0 0 0 23 21 12 0 0 0
0 1 1 2 2 1 4 0 4 3 0 0 0 0 6
96 108 115 0 0 0 0 0 0 0 0 0 0 0 0
55 49 60 0 0 6 0 0 0 2 10 0 0 1 0
0 8 6 0 0 7 0 0 0 0 0 0 0 3 4
0 0 0 0 0 0 0 0 0 13 6 14 15 13 12
0 0 4 18 11 4 30 27 25 17 9 16 0 0 0
0 0 0 0 0 0 3 0 4 15 13 12 6 0 14
0 0 0 29 33 24 29 27 6 29 21 30 0 0 0
0 0 0 6 9 5 48 39 44 0 0 0 0 0 0
0 0 0 0 0 0 0 0 0 0 0 0 0 0 0
0 0 0 97 89 85 182 194 201 0 0 0 0 0 0
0 0 0 0 0 0 0 0 0 5 4 17 0 0 0
98 88 97 159 155 170 66 69 87 7 13 21 47 48 52
0 0 0 0 0 0 45 33 23 0 0 0 0 0 0
88 79 101 50 46 63 0 0 0 12 9 22 20 10 19
17 21 25 0 0 10 0 0 0 0 0 0 0 2 1
23 10 26 34 31 30 23 18 18 25 31 37 0 0 0
0 0 0 0 0 0 0 0 0 0 0 0 0 3 0
0 0 0 0 0 0 14 0 1 0 1 0 19 3 6
7 5 0 4 0 3 0 0 0 0 1 8 10 7 15
2 0 0 3 0 0 3 1 0 0 0 0 0 0 0
0 0 0 0 1 8 0 4 12 20 13 9 0 0 0
2 0 0 6 1 1 0 0 0 0 0 0 0 0 0
0 0 0 42 31 34 2 5 11 16 5 16 79 83 78
0 0 0 0 0 0 82 78 79 0 0 0 0 0 0
25 8 5 146 136 121 138 118 113 0 0 0 0 0 0
0 0 0 0 0 0 76 86 80 137 135 146 90 95 93
0 0 0 0 0 0 0 0 0 0 0 0 5 17 11
8 0 5 0 0 0 0 0 10 0 4 0 0 1 11
14 0 4 0 12 5 1 0 0 26 10 21 24 11 10
25 8 9 7 13 0 18 7 11 16 18 3 15 16 16
31 36 31 0 0 0 0 0 0 6 7 5 0 0 0
0 0 0 0 0 0 0 0 0 0 0 0 0 0 0
8 12 0 39 27 21 35 20 21 2 0 0 0 0 0
0 0 0 0 0 0 0 0 0 0 0 0 0 0 0
0 0 0 0 0 0 179 178 178 254 255 255 234 241 239
124 133 136 253 255 255 250 255 251 12 25 12 0 0 0
131 134 131 255 255 255 255 244 241 0 0 0 0 0 0
0 0 0 0 0 0 0 0 0 5 3 5 0 0 0
0 0 0 0 0 0 0 0 0 0 0 0 72 70 68
106 94 89 24 12 7 8 0 0 0 0 0 0 0 0
0 0 0 22 17 6 25 23 23 15 4 0 0 4 0
1 7 0 3 15 0 2 0 0 5 2 0 0 0 0
0 0 0 0 0 0 180 150 198 129 180 111 37 0 10
64 137 27 91 80 73 83 80 89 22 29 27 0 0 0
0 0 0 10 14 22 0 0 0 0 0 0 12 8 19
19 17 23 0 0 0 0 0 0 0 0 0 25 32 22
0 0 0 0 0 0 0 0 0 0 0 0 0 0 0
0 0 0 92 82 94 54 48 44 0 0 0 0 0 0
0 0 0 36 28 46 15 12 35 0 0 0 4 5 0
2 0 4 0 0 0 2 0 0 0 0 7 0 0 7
0 5 0 0 19 0 0 0 0 0 0 5 0 10 0
14 15 9 0 0 9 0 0 0 21 13 13 7 0 0
0 0 0 0 0 0 0 0 0 2 0 0 21 6 4
15 9 7 14 0 9 18 14 0 14 6 0 0 0 0
0 0 0 0 0 0 45 39 42 54 47 39 0 0 0
63 46 33 0 0 0 0 0 0 0 0 0 0 0 0
15 8 19 0 0 0 0 0 0 255 255 255 240 247 255
255 255 255 169 174 177 215 216 215 167 161 172 216 219 229
255 255 255 139 148 151 20 26 25 0 0 0 43 45 54
11 9 24 0 0 0 2 0 0 14 19 0 0 0 0
0 0 0 114 107 116 105 109 114 0 0 0 0 0 0
0 0 0 0 0 0 1 0 4 0 0 0 0 0 0
7 18 8 42 34 35 50 53 50 17 26 19 12 18 8
0 0 0 0 0 0 0 0 0 0 0 0 16 11 8
12 15 6 10 5 8 0 0 0 8 6 7 0 6 0
7 5 0 0 5 0 0 0 0 0 1 0 0 7 3
3 13 5 0 0 0 0 1 0 0 0 7 0 0 0
0 0 0 0 0 0 12 0 4 0 0 2 0 0 0
0 1 0 5 1 0 0 0 3 0 0 0 0 0 0
15 0 12 5 11 15 30 28 39 6 7 3 25 11 10
83 79 82 0 0 0 0 0 0 101 106 112 0 0 0
0 0 0 13 3 0 140 139 126 148 131 114 0 0 0
0 0 0 0 0 0 0 0 7 0 0 1 0 0 0
0 0 0 0 0 0 0 0 0 0 0 0 1 3 0
0 0 0 0 0 1 0 0 0 0 1 0 7 0 0
10 3 14 6 6 0 0 7 9 13 12 0 7 0 0
8 0 0 5 0 0 0 0 0 9 0 8 1 0 1
0 0 0 13 3 18 0 0 0 7 9 10 4 14 23
0 0 6 0 0 0 0 0 0 0 0 0 9 0 0
0 0 0 0 0 0 0 0 0 0 0 0 0 0 0
0 0 0 0 0 0 0 0 0 0 0 0 0 0 0
0 0 0 0 0 0 0 0 0 0 0 0 30 35 21
49 45 57 2 10 12 128 134 148 81 70 73 0 0 0
0 0 0 10 14 0 31 26 18 0 0 0 0 0 0
0 0 0 0 0 0 55 51 56 0 0 1 0 0 0
0 0 1 0 0 0 0 0 0 0 0 0 36 33 33
100 100 93 81 71 58 7 0 0 0 0 0 0 0 0
0 0 0 6 12 16 37 39 38 26 26 27 0 0 0
0 0 0 0 0 0 0 18 0 0 0 0 0 0 0
0 0 0 0 0 0 29 26 32 118 108 140 69 55 86
0 0 15 68 59 75 81 73 55 122 125 95 48 54 54
0 0 0 0 0 0 20 17 22 0 0 0 0 0 0
14 18 6 26 24 27 0 0 0 0 0 0 0 0 2
28 30 30 4 4 3 0 0 0 3 2 0 0 0 0
0 0 0 0 0 0 87 82 102 201 198 205 0 0 0
0 0 0 0 0 0 0 0 0 48 49 53 0 0 0
0 8 0 0 0 0 0 2 0 0 0 0 0 0 0
0 0 0 0 0 0 7 11 1 0 0 0 0 0 0
0 2 3 0 5 7 0 0 0 0 0 0 0 0 0
0 5 0 0 0 0 0 0 0 0 0 0 10 0 5
1 0 0 0 1 2 1 0 0 0 0 0 0 0 0
0 0 0 0 0 0 0 0 0 26 17 21 13 5 1
0 0 0 73 57 59 63 60 38 35 37 17 0 0 0
0 0 0 0 0 0 0 0 0 0 0 0 62 73 88
0 0 11 0 0 0 20 16 11 237 247 249 0 0 11
0 0 0 105 102 110 12 6 19 0 0 0 0 0 0
0 0 0 0 0 0 0 0 0 12 14 9 0 0 0
34 33 54 0 0 0 64 44 57 98 105 104 0 0 0
0 0 0 0 2 7 0 0 0 0 3 0 0 0 0
0 0 0 0 0 0 8 0 1 0 0 0 0 0 0
0 0 0 10 5 13 0 0 0 0 0 0 0 0 0
23 16 21 13 26 8 12 11 6 0 0 0 17 6 0
5 6 1 13 1 6 3 5 1 3 0 1 1 0 0
6 5 8 8 10 4 0 0 0 11 0 8 13 18 3
0 15 4 0 0 0 0 0 0 11 1 5 4 18 15
0 0 0 0 2 5 19 13 4 0 0 7 0 0 0
0 0 0 7 18 9 21 25 18 17 13 15 12 8 14
7 12 13 72 77 70 0 0 0 0 0 0 112 106 106
0 0 0 0 0 0 0 0 0 150 129 111 144 139 130
0 0 0 0 0 0 0 0 0 14 14 24 0 0 0
0 0 0 0 0 0 0 0 0 0 0 0 8 18 0
0 0 0 0 0 0 2 0 0 0 0 4 1 0 0
4 0 0 10 0 16 7 0 1 5 7 14 20 13 2
0 0 0 0 3 0 2 0 0 0 0 0 0 0 0
0 0 0 0 0 0 0 0 0 7 9 3 25 12 5
21 20 20 18 13 10 14 0 0 0 0 0 8 0 0
17 0 0 0 0 0 0 0 0 7 9 5 0 0 0
0 0 0 3 0 0 0 0 0 0 0 0 12 4 0
0 13 0 0 0 0 0 0 0 0 0 0 0 0 0
0 0 0 0 0 0 0 0 0 0 0 0 0 0 0
0 0 0 0 0 0 0 0 0 0 0 0 0 0 0
0 0 0 0 0 0 0 0 0 0 0 11 0 0 0
0 0 0 0 0 8 0 0 0 0 0 0 7 0 0
113 100 110 100 83 87 43 24 17 0 0 0 0 0 0
0 0 0 0 0 0 21 32 18 45 34 36 10 7 1
0 0 0 0 0 0 0 8 0 0 8 0 0 0 0
0 0 0 0 0 0 16 13 21 63 52 66 32 41 47
5 0 23 0 0 0 0 0 0 0 0 0 81 81 70
72 71 82 0 0 0 0 0 0 16 20 9 0 0 0
0 0 6 25 26 33 34 30 54 0 0 5 0 0 0
4 0 2 38 42 40 8 9 5 0 0 0 9 10 1
8 1 0 4 0 0 0 0 0 79 72 114 255 255 222
0 0 12 0 0 0 0 0 0 0 0 0 70 73 85
0 0 0 4 6 0 18 5 15 20 14 5 18 8 22
12 14 18 18 2 17 15 17 15 14 18 6 0 0 0
0 0 0 0 0 0 0 0 0 0 0 0 0 0 0
0 0 0 31 30 23 12 0 4 17 8 17 20 22 7
28 18 28 28 18 21 17 3 17 5 15 14 0 0 0
0 0 0 0 0 0 0 0 0 14 9 0 78 72 74
57 55 40 10 2 0 0 0 0 23 16 13 10 10 4
0 0 0 0 0 0 0 0 0 18 11 0 0 0 0
85 92 116 0 0 0 0 0 0 0 0 0 255 255 255
14 11 17 0 0 0 0 0 0 35 43 48 0 0 0
0 0 0 0 0 0 0 0 0 0 0 0 13 8 1
0 0 0 56 59 66 0 0 0 0 0 3 77 73 78
0 0 0 0 0 0 42 36 38 22 22 27 45 38 45
42 39 36 48 40 37 11 19 9 1 1 0 0 0 0
0 0 0 0 0 0 27 22 8 0 0 0 0 0 0
0 1 0 3 0 0 11 10 6 0 0 0 0 0 0
0 0 0 0 3 6 1 5 6 0 16 11 0 0 0
0 0 0 0 7 0 0 7 3 0 0 0 0 0 0
0 0 0 0 0 0 0 0 0 0 0 0 15 0 5
16 34 25 6 0 2 8 18 19 30 18 18 3 15 12
0 0 0 0 0 0 30 36 32 49 39 40 19 9 20
10 16 3 21 5 14 72 82 74 0 0 0 0 0 0
106 107 119 0 0 0 0 0 0 0 0 0 147 128 118
148 125 120 0 0 0 0 0 0 0 0 0 0 0 2
0 0 0 108 135 131 255 255 255 105 114 107 0 0 0
0 0 0 0 0 0 46 54 49 0 0 0 0 0 2
7 4 3 5 0 0 3 2 0 8 7 4 9 1 0
6 2 0 2 0 7 1 0 3 1 8 10 4 5 8
10 5 5 7 3 10 23 10 14 8 15 6 11 1 16
8 9 12 13 2 3 0 0 2 0 0 0 0 0 0
0 0 0 13 0 0 34 30 32 50 55 48 46 40 39
9 13 11 23 14 27 23 43 30 3 3 6 0 0 0
0 0 0 0 0 0 0 0 0 16 33 15 47 47 47
0 0 0 0 0 0 0 0 0 10 21 38 0 0 1
0 0 0 0 0 0 23 5 0 0 0 0 0 0 0
80 68 52 0 7 2 38 47 50 0 0 0 0 0 8
17 10 25 0 0 0 28 35 54 0 0 0 0 0 0
0 0 0 140 138 130 84 69 67 0 0 0 0 0 0
0 0 0 9 12 1 0 0 0 13 28 16 33 29 24
19 15 0 0 0 0 9 5 3 0 13 0 0 0 0
0 0 0 0 0 0 0 0 0 144 135 139 79 82 93
56 54 59 57 41 58 0 0 0 0 0 0 0 0 0
109 112 92 118 124 95 0 0 0 0 0 0 0 0 0
0 0 0 0 0 0 0 0 0 0 0 0 0 0 0
0 0 0 0 0 0 0 0 0 0 0 0 0 0 0
0 0 6 5 9 1 11 20 5 0 0 0 65 58 121
255 255 171 140 124 167 0 0 0 0 0 0 31 37 43
0 0 0 0 0 0 0 0 0 0 0 0 0 0 0
0 0 0 0 0 0 9 0 0 0 14 5 0 0 0
6 0 0 0 3 0 2 0 9 0 0 1 4 0 0
0 0 0 0 0 0 3 2 15 0 0 0 0 0 0
0 1 0 0 0 5 0 0 0 0 0 2 0 0 0
16 4 0 0 3 0 2 0 0 0 0 0 2 0 0
7 6 8 4 8 5 32 30 40 17 11 9 0 0 0
0 0 0 0 0 0 0 0 0 0 0 0 0 0 0
0 0 0 134 133 158 49 38 74 0 0 0 0 0 0
119 125 127 255 255 255 0 0 0 0 0 0 46 55 51
31 27 33 0 5 9 0 2 0 13 15 12 0 0 0
0 0 0 0 0 0 20 15 17 0 0 0 0 0 0
0 0 0 0 0 0 3 12 0 23 18 14 16 27 22
0 0 0 0 1 3 0 0 0 0 0 3 0 0 0
0 0 0 0 0 0 0 0 0 43 28 33 0 0 0
0 0 0 17 13 7 27 20 23 0 2 0 0 0 0
17 34 14 0 0 0 31 29 23 0 0 0 0 0 0
0 0 0 0 0 0 21 24 14 3 7 1 0 0 0
19 17 24 68 60 63 19 23 31 1 0 3 14 33 24
18 2 11 0 0 0 0 0 0 4 16 4 18 8 6
0 0 0 0 0 0 0 8 3 17 14 17 0 0 0
1 0 0 20 24 19 45 35 43 74 81 81 0 0 0
0 0 0 116 109 126 0 0 0 0 0 0 0 0 0
128 113 84 159 150 128 0 0 0 0 0 0 0 0 0
36 25 31 0 0 0 0 0 0 107 97 102 255 255 255
0 0 0 0 0 0 31 34 28 18 12 14 0 0 0
0 0 6 0 0 0 0 0 0 6 0 2 10 9 13
12 8 2 15 13 13 3 10 4 3 10 2 3 8 1
2 6 0 2 6 0 0 0 0 0 0 0 0 0 0
7 0 1 10 12 6 23 15 8 19 24 21 42 43 35
59 57 49 31 10 18 0 0 0 28 21 20 0 1 0
0 0 0 0 0 0 0 0 0 0 0 0 21 14 26
54 55 54 0 0 0 0 0 0 0 0 0 0 0 0
0 0 0 0 0 3 0 10 0 0 1 0 0 0 0
0 4 20 0 3 14 0 0 0 0 0 0 0 0 0
0 0 0 0 0 0 0 0 0 3 0 24 0 0 1
0 0 0 0 0 0 0 0 0 0 0 16 0 0 0
53 24 13 180 155 140 51 46 37 0 0 0 64 51 36
88 70 75 0 0 0 57 61 55 10 21 15 25 26 29
0 0 0 25 10 19 0 0 0 0 0 0 24 40 16
20 32 11 0 0 0 0 0 2 246 240 253 156 158 151
0 0 0 0 0 0 0 0 0 0 0 0 0 0 0
0 0 0 0 0 13 120 119 73 138 145 109 36 38 51
0 0 0 0 0 0 0 0 0 0 0 0 0 0 0
0 0 0 0 0 0 0 0 0 12 13 11 61 63 56
27 21 21 28 27 30 0 0 0 0 0 0 0 0 0
63 59 109 255 255 160 81 71 117 0 0 0 0 0 0
39 40 52 5 9 21 0 0 0 0 12 0 0 0 0
0 0 0 0 0 3 10 1 14 7 3 0 19 15 23
0 0 0 3 2 0 0 4 8 6 6 4 0 1 13
0 7 7 5 7 6 0 0 0 6 15 15 0 0 0
1 0 10 6 3 0 17 10 21 3 11 0 18 0 19
0 3 0 40 28 24 0 6 0 0 0 0 0 0 0
17 2 15 15 14 12 18 12 18 20 13 12 43 29 24
2 12 9 0 0 0 0 0 0 0 0 4 0 0 0
10 6 0 0 0 0 137 131 174 85 69 113 0 0 0
0 0 0 0 0 0 255 255 255 60 56 60 0 0 0
0 0 0 0 1 8 0 0 0 0 10 1 25 18 24
6 27 8 13 9 16 22 13 25 0 5 0 0 5 0
0 0 0 0 0 0 0 0 0 0 0 0 0 0 0
11 5 0 0 10 0 3 8 7 1 0 3 0 9 0
3 0 0 0 3 0 4 0 5 0 0 0 20 23 11
0 0 0 0 0 0 2 5 0 14 13 5 4 13 1
0 0 0 19 9 10 0 0 0 38 47 40 0 0 0
1 11 3 9 10 4 0 9 0 57 62 59 0 0 0
0 0 0 14 25 24 56 49 55 4 6 0 0 0 0
0 0 0 22 13 27 0 0 0 0 0 0 2 6 2
18 18 23 0 0 0 0 0 0 4 4 12 25 16 26
14 8 19 10 12 19 16 22 27 46 29 29 69 76 79
0 0 0 0 0 0 117 114 116 0 0 0 0 0 0
0 0 0 109 101 82 152 143 131 4 0 0 0 0 0
0 0 0 0 0 0 0 0 0 0 0 0 92 83 92
255 255 255 0 0 0 0 0 0 0 0 0 0 0 0
0 0 0 0 2 0 3 0 7 0 0 0 0 0 0
8 0 1 8 4 2 19 7 16 1 0 4 3 0 8
0 0 6 0 0 3 0 0 0 1 3 0 0 0 9
1 0 6 0 0 0 0 0 2 0 0 0 0 0 0
9 0 11 22 4 19 9 0 2 0 0 0 11 4 6
0 0 0 0 0 0 0 0 0 0 0 0 0 0 0
0 4 3 5 12 15 0 0 0 0 0 1 0 0 0
0 0 0 0 0 0 0 5 15 0 11 3 0 0 0
0 0 20 0 0 0 7 16 25 1 0 1 0 0 0
0 0 0 0 0 0 0 0 0 0 0 13 0 6 12
0 0 0 0 0 0 5 1 2 0 0 0 0 0 0
0 0 0 108 98 81 117 106 69 39 20 16 0 0 0
48 28 23 11 7 7 0 0 0 22 12 19 50 63 40
15 26 17 0 0 0 40 35 25 0 0 0 14 0 0
0 11 0 0 0 0 0 0 0 64 51 85 163 164 171
48 51 49 0 4 9 3 8 11 0 0 0 0 0 0
0 0 0 0 0 0 0 0 0 74 84 91 108 111 86
120 132 131 246 254 207 242 241 219 232 231 219 170 178 202
201 187 212 99 107 127 0 0 0 25 27 36 80 80 89
0 9 8 0 0 0 21 30 30 0 0 0 0 0 0
0 0 0 80 85 105 255 255 185 37 33 64 0 0 0
0 0 0 37 34 54 41 47 41 0 0 0 7 7 0
2 0 0 0 0 0 0 0 8 13 4 15 5 10 0
17 16 9 0 0 0 2 3 0 1 2 1 6 2 0
0 3 2 6 0 0 4 0 6 0 0 0 2 2 6
0 0 0 0 0 0 0 0 0 0 0 5 0 13 2
0 0 5 0 0 0 22 15 6 0 5 0 0 0 0
0 0 0 0 0 0 8 0 19 4 0 5 0 0 0
26 32 34 6 10 7 0 0 0 0 0 4 0 0 0
0 0 0 0 0 0 0 0 0 145 151 169 70 66 92
0 0 0 0 0 0 0 0 0 188 182 187 255 255 255
0 0 0 0 0 0 0 0 0 0 0 0 0 0 0
1 2 0 0 0 0 0 0 0 4 5 0 0 0 0
0 4 0 0 0 0 0 0 0 0 0 0 0 0 0
0 0 0 0 0 0 0 0 0 0 0 0 0 0 0
0 0 0 2 0 2 0 0 0 0 1 0 0 0 0
4 0 4 0 1 0 1 0 3 0 0 0 0 0 0
1 7 16 5 7 15 10 13 9 0 0 0 0 2 0
0 0 0 2 0 0 15 3 6 0 0 0 11 5 0
0 0 0 0 0 0 36 23 45 65 67 62 16 26 24
0 0 0 0 0 0 16 4 17 1 14 8 0 0 0
0 3 0 9 9 13 0 0 2 0 0 0 0 0 0
15 23 12 11 17 8 0 0 0 15 26 25 14 9 13
55 61 49 0 0 0 0 0 0 115 113 124 0 3 14
0 0 0 0 0 0 95 80 65 154 145 120 36 31 34
0 0 0 0 0 0 0 0 0 0 0 0 0 0 0
105 85 102 255 255 255 0 0 0 0 0 0 0 0 0
0 0 0 8 4 6 0 0 0 7 0 11 0 0 0
0 0 5 15 8 15 23 3 11 33 27 20 0 0 0
0 3 0 8 0 0 2 4 0 6 4 0 3 8 0
0 0 0 3 3 0 0 0 0 0 0 0 0 0 0
0 0 0 0 4 0 16 23 14 3 0 0 0 0 0
0 0 0 0 2 0 0 1 3 3 10 0 13 0 2
0 0 4 0 0 0 0 0 0 24 28 31 17 20 23
0 0 0 0 0 0 0 0 0 1 0 5 0 18 4
0 0 0 0 0 9 0 0 5 0 0 0 0 0 0
11 2 3 114 121 109 0 0 0 0 0 0 26 42 36
0 0 0 0 0 0 0 0 0 14 16 0 0 0 0
0 0 0 0 0 0 239 211 196 79 59 48 0 0 0
0 0 0 34 13 9 0 0 0 0 0 0 5 10 5
93 110 108 0 0 0 0 0 0 31 37 31 0 0 0
11 4 14 0 0 0 0 0 0 0 0 0 207 199 236
134 130 132 0 0 0 42 27 25 0 0 0 0 0 0
0 0 0 4 0 0 0 0 0 0 0 0 65 72 66
0 0 0 0 0 0 55 63 62 28 45 34 107 97 123
175 174 164 221 215 153 223 239 172 234 231 236 109 103 111
0 0 0 0 0 0 0 0 0 8 18 15 5 4 3
0 0 0 0 0 0 96 89 123 245 235 224 6 13 1
0 0 0 0 0 0 23 24 31 53 52 56 0 0 0
0 5 0 0 0 0 0 0 0 0 0 0 3 2 19
1 3 0 4 12 7 1 0 0 0 0 9 0 0 0
0 6 0 0 4 4 0 7 0 1 3 11 0 0 0
5 0 8 0 0 0 0 0 0 0 5 0 2 0 0
0 0 0 0 3 0 0 0 0 9 10 7 0 0 0
0 0 0 2 0 3 2 0 1 0 0 0 0 0 5
0 0 0 14 16 20 4 3 9 0 0 0 0 0 0
0 0 0 0 0 0 2 1 0 0 0 0 0 0 1
0 0 0 0 0 0 47 49 44 0 0 0 148 138 154
255 255 255 0 0 0 0 0 0 0 0 0 0 0 0
0 0 0 0 0 0 0 0 0 0 0 0 0 0 0
0 3 0 6 15 0 5 0 0 0 0 0 0 0 0
0 0 0 0 0 0 0 0 0 0 0 0 0 0 0
0 0 0 0 0 0 0 0 0 0 0 0 3 7 0
0 0 0 0 0 0 4 5 0 8 0 6 0 0 0
0 0 0 5 18 10 29 12 22 0 0 0 0 0 0
0 0 0 0 0 0 4 13 10 0 2 1 0 0 0
0 0 0 0 0 0 4 0 0 30 31 24 46 51 47
19 22 14 0 0 0 0 0 5 13 4 5 0 4 0
2 0 5 0 10 0 8 0 15 0 0 0 0 0 0
0 0 0 12 6 16 20 19 24 0 0 0 25 21 15
3 0 0 24 29 30 0 0 0 0 0 0 112 109 109
15 12 22 0 0 0 0 0 0 79 56 48 146 133 119
65 59 59 0 0 0 0 0 0 0 0 0 11 13 29
16 35 27 123 117 132 235 232 221 0 0 0 0 0 0
0 0 0 0 0 0 0 0 0 0 0 0 0 0 0
0 1 0 2 0 5 19 16 0 27 5 18 32 32 30
0 0 0 0 0 0 0 0 2 0 0 2 7 0 3
6 0 0 2 0 8 0 0 0 4 0 0 0 4 0
0 0 9 0 0 0 0 0 3 16 13 18 3 0 0
0 0 0 0 0 0 0 0 0 0 0 3 9 19 15
19 13 22 1 0 0 0 0 0 0 0 0 35 29 39
37 33 32 19 20 27 0 0 0 0 0 0 0 0 0
0 0 0 0 0 0 0 1 17 0 2 17 0 0 0
0 0 0 136 134 138 241 248 248 0 0 0 0 0 0
2 23 9 0 0 0 0 0 0 0 0 0 0 2 0
0 0 0 0 0 0 58 75 78 219 197 181 9 0 0
0 0 0 24 19 18 38 21 28 0 0 0 0 0 0
23 19 12 90 92 84 0 0 0 0 0 0 27 24 14
0 0 0 2 0 10 0 0 0 0 0 0 0 0 0
250 241 255 72 65 63 0 0 0 95 86 98 0 0 0
0 0 0 0 0 9 3 3 15 0 0 0 18 9 20
139 145 152 16 12 11 0 0 0 0 0 0 0 0 0
0 0 0 0 0 0 0 0 0 0 0 12 151 144 150
134 152 152 0 0 0 0 0 0 0 0 0 9 16 4
19 12 19 0 0 0 0 0 0 76 72 90 227 218 221
0 1 0 0 0 0 0 0 0 13 19 28 20 31 40
0 0 0 0 3 0 0 0 0 0 0 0 0 0 9
0 3 4 0 1 0 0 12 2 0 0 0 0 0 0
0 0 2 3 0 4 0 0 5 2 9 1 0 0 1
0 0 0 15 14 23 0 7 0 0 0 2 0 0 0
0 2 2 2 6 8 7 3 10 0 0 0 0 0 0
0 0 0 0 4 0 0 9 12 8 4 15 1 0 9
1 0 2 19 16 27 0 0 0 2 13 8 0 0 0
0 0 0 0 0 0 0 0 0 2 4 0 0 0 0
0 0 0 17 7 20 28 18 27 20 17 14 0 0 0
28 30 49 255 255 255 0 0 0 0 0 0 0 0 0
0 0 10 27 31 33 46 40 45 12 22 11 0 0 0
0 0 0 0 0 0 0 13 0 1 0 1 0 0 0
0 0 0 0 0 0 12 7 5 13 19 11 0 0 3
2 0 0 0 0 1 0 0 0 0 3 0 0 1 5
0 2 7 0 0 0 0 0 0 4 5 7 10 0 10
0 0 0 0 0 0 0 4 4 30 21 18 9 16 18
0 4 7 0 2 9 5 5 7 2 2 0 6 0 5
0 0 3 15 7 17 44 50 62 5 0 0 16 17 23
20 7 27 0 0 0 2 0 0 0 4 9 4 0 0
0 0 0 22 4 27 0 0 0 1 0 13 0 2 0
0 0 2 0 0 0 2 0 0 25 24 16 0 0 0
21 24 29 0 0 0 9 15 20 0 0 0 0 0 0
94 105 115 8 27 20 0 0 0 0 0 0 42 31 18
145 137 113 106 107 94 0 0 0 0 0 0 0 0 0
0 4 27 62 72 75 93 86 100 54 52 36 0 0 0
5 0 0 13 9 0 0 0 0 0 7 0 0 0 0
0 0 0 0 3 0 0 0 5 3 8 0 15 12 23
34 35 37 0 0 0 0 0 0 0 0 0 0 0 0
0 0 0 0 0 0 0 0 0 0 0 0 24 31 21
8 13 0 15 2 8 0 0 0 3 4 9 12 22 15
0 0 0 0 0 0 0 0 0 0 0 0 0 0 0
11 19 3 22 19 24 0 0 0 0 0 0 0 0 0
12 9 0 53 27 34 59 36 52 4 0 0 0 0 0
0 0 0 0 0 0 1 4 0 0 7 15 0 4 12
0 0 0 0 0 0 198 191 181 255 255 255 0 0 0
0 0 0 0 0 0 0 0 0 0 1 0 12 15 0
0 0 0 0 0 0 0 0 0 160 167 162 97 83 72
0 0 0 0 0 0 74 69 63 66 62 51 0 0 0
0 9 11 66 60 69 49 52 46 0 0 0 0 0 0
6 23 10 0 0 0 0 0 0 0 0 0 0 0 0
71 61 90 207 207 217 22 24 20 26 31 17 127 116 113
0 0 0 12 6 12 0 0 11 4 0 10 0 0 0
6 0 0 138 136 144 56 48 44 0 0 0 0 1 0
0 0 0 0 0 0 0 0 0 0 0 0 0 0 0
0 0 0 233 241 248 206 187 192 0 0 0 0 0 0
0 0 0 7 6 6 6 14 0 0 0 0 55 51 70
226 216 219 13 19 0 0 0 0 0 0 0 30 33 42
4 10 22 0 0 0 0 0 0 0 0 0 0 0 0
0 0 0 8 1 16 0 0 0 0 0 0 0 0 0
0 0 0 6 1 0 0 0 0 0 0 1 0 0 5
0 6 0 0 0 0 25 22 33 0 6 4 0 3 10
0 0 0 0 0 7 0 0 0 2 6 2 0 3 0
0 0 0 0 0 0 8 1 12 1 6 9 15 9 14
0 14 7 3 9 14 24 30 33 0 0 0 0 14 0
0 2 0 0 0 0 0 0 0 0 0 0 0 12 0
0 0 0 44 41 53 52 49 73 1 12 0 0 0 0
0 0 0 0 0 0 255 255 255 6 9 14 0 0 0
0 0 0 0 0 0 17 23 18 50 52 44 26 31 29
0 0 6 0 0 5 0 0 0 0 2 0 0 0 0
0 0 0 0 0 0 0 0 0 7 0 6 0 2 0
4 3 11 1 12 4 18 4 19 6 6 0 5 0 1
3 0 0 0 0 0 0 0 0 9 0 0 2 1 0
9 0 0 0 0 0 0 0 0 0 7 6 22 8 13
3 9 20 0 0 0 0 0 0 20 5 18 0 0 0
0 0 0 74 78 77 60 58 62 33 41 39 0 0 0
0 2 0 0 0 0 0 0 0 3 0 1 0 4 8
6 0 1 0 0 0 31 16 22 0 0 0 4 0 6
1 7 3 0 0 0 0 0 0 3 0 0 29 13 28
3 0 11 29 35 26 0 0 0 2 8 3 0 0 0
0 0 0 94 106 106 0 10 22 0 0 0 0 0 0
20 0 0 138 120 109 135 130 132 0 0 0 0 0 0
0 0 0 4 15 23 22 41 43 0 0 0 0 0 0
0 0 0 0 0 0 0 0 0 2 0 0 0 0 0
0 0 0 0 0 0 0 0 0 2 0 0 7 0 0
6 12 19 13 13 0 0 0 0 0 0 0 2 0 0
0 0 0 6 0 0 5 0 0 4 4 13 0 0 0
39 27 34 15 22 10 16 7 18 0 4 0 2 14 18
27 27 30 0 2 8 0 0 9 0 0 0 0 0 0
0 0 0 18 16 11 24 17 32 0 0 0 0 0 0
10 0 4 3 0 0 23 17 16 57 54 45 45 38 38
0 0 0 0 0 0 0 0 0 0 0 0 0 0 13
0 0 0 0 0 0 0 0 0 172 172 162 190 192 179
0 0 0 0 0 0 0 0 0 0 0 0 25 24 8
2 7 0 0 0 0 0 0 0 40 35 21 171 173 152
5 0 0 0 0 0 16 6 8 84 84 83 61 59 57
46 39 34 54 53 58 83 81 77 21 30 26 0 0 0
21 14 26 3 8 0 0 0 0 0 0 0 0 0 9
0 0 0 124 136 143 78 86 101 0 0 0 13 31 16
79 66 68 0 0 0 0 0 0 0 0 0 20 26 31
0 0 0 0 0 0 42 45 34 21 10 12 0 0 0
0 0 1 0 0 0 0 0 0 0 0 0 39 34 50
0 0 0 0 0 0 116 121 121 233 227 241 145 138 153
0 0 0 0 0 0 0 0 0 0 0 0 0 0 0
35 38 41 243 234 239 39 49 19 0 0 0 0 0 0
40 51 50 0 0 0 0 0 0 0 0 0 0 0 0
0 0 0 0 0 5 3 6 9 1 0 0 6 0 0
1 0 0 0 0 0 0 0 0 0 0 0 0 0 0
0 0 0 0 0 2 0 0 0 16 36 26 0 2 0
1 0 1 0 0 0 0 0 0 0 0 0 9 0 0
5 0 0 0 0 0 0 0 0 2 5 2 0 13 8
6 0 11 2 0 1 0 0 0 24 14 13 0 0 0
2 6 0 7 0 0 0 0 0 0 0 0 16 3 16
19 15 14 0 0 0 19 17 42 0 0 0 0 0 0
0 0 0 0 0 0 0 0 0 255 255 255 222 225 232
0 0 0 0 0 0 0 0 0 0 0 0 0 7 0
0 17 0 0 0 0 0 0 0 0 0 0 0 18 0
0 0 0 0 0 0 0 0 0 0 0 0 0 1 0
0 9 0 0 19 0 0 15 0 0 14 2 0 14 0
0 12 0 0 12 0 0 13 0 0 8 0 10 17 0
0 0 0 0 0 0 0 4 0 0 0 0 0 0 0
11 15 0 0 9 0 73 75 55 0 0 0 0 0 0
0 0 0 0 0 0 92 103 96 14 11 22 0 0 0
0 0 0 0 0 0 0 0 0 0 0 0 0 0 1
0 2 8 5 0 8 0 0 0 40 24 35 0 0 0
3 0 0 12 17 6 1 0 0 0 0 0 4 0 0
14 20 10 17 20 12 43 45 45 0 0 0 1 9 1
0 0 0 0 0 0 94 98 94 0 0 0 0 0 0
0 0 0 0 0 0 112 114 82 156 151 142 0 9 0
0 0 0 0 0 0 0 1 15 0 0 14 0 0 0
0 0 0 0 0 0 0 0 0 0 0 0 17 24 4
0 2 0 0 0 0 0 0 0 0 0 0 0 0 0
7 0 0 12 4 16 0 0 0 27 11 20 3 1 0
0 0 0 0 10 1 2 2 4 11 8 9 3 11 6
0 0 0 25 28 34 11 14 11 12 7 21 7 12 11
17 21 22 40 34 33 6 19 11 15 16 12 0 3 0
0 0 0 0 0 0 16 28 21 20 22 18 0 0 0
3 0 0 44 37 31 0 0 0 18 0 7 47 39 36
76 67 74 27 40 38 0 0 0 0 0 0 0 0 0
0 0 0 0 0 0 0 0 0 44 37 34 197 196 183
110 96 90 0 0 0 0 0 0 0 0 0 0 0 0
17 17 0 0 0 0 0 0 0 47 36 30 135 126 124
86 82 75 0 0 0 8 0 0 50 59 43 36 30 15
0 0 0 8 3 0 40 35 32 37 27 25 0 0 0
0 0 0 21 38 0 0 0 0 0 0 0 0 0 0
121 111 148 59 37 69 61 57 73 0 0 3 0 0 0
0 0 0 43 25 25 0 0 0 0 0 0 0 0 0
18 7 23 10 0 25 0 0 0 8 5 28 52 47 72
0 0 0 0 0 20 0 3 26 0 0 0 9 1 1
0 0 0 0 0 0 0 0 0 0 0 0 35 28 24
255 255 255 23 11 10 0 0 0 0 0 0 0 0 0
0 0 0 10 12 24 202 200 211 0 0 0 0 0 0
0 0 0 51 64 68 0 0 0 0 0 0 0 0 0
0 0 0 0 0 0 0 0 11 7 0 0 0 0 0
0 0 0 1 0 0 3 0 0 14 0 0 0 6 0
0 6 0 1 16 5 0 6 0 0 0 0 29 35 46
6 17 6 0 8 6 0 0 0 0 0 0 0 0 0
0 0 0 0 0 0 0 0 0 0 0 0 0 0 0
0 0 0 0 0 5 0 0 0 0 0 0 0 1 0
0 0 0 1 0 0 5 16 0 0 0 0 3 0 0
42 35 37 57 51 56 38 39 40 0 0 7 27 20 46
0 0 10 0 0 0 0 0 0 0 0 0 146 129 144
77 57 85 255 255 255 162 156 164 0 0 0 0 0 0
0 0 0 0 0 0 0 0 0 0 12 0 0 0 0
0 0 0 0 10 1 0 4 0 0 0 0 0 0 0
0 0 0 0 0 0 0 0 0 0 0 0 0 0 0
0 0 0 0 0 0 0 1 0 0 0 0 0 0 0
10 2 0 0 0 0 0 0 0 0 0 0 0 0 0
0 0 0 0 0 0 0 0 0 229 234 224 0 0 0
0 0 0 0 0 0 24 26 16 67 81 69 0 0 0
0 0 0 0 0 0 0 0 0 0 0 0 0 0 0
0 0 0 0 0 0 0 0 0 0 0 0 2 0 4
0 0 0 2 1 0 28 19 19 2 5 0 0 0 0
0 0 0 15 0 6 41 38 39 51 65 57 0 0 0
0 0 0 0 0 0 0 0 0 93 104 101 0 0 0
0 0 0 0 0 0 2 0 0 136 122 118 146 144 127
0 0 0 0 0 0 0 0 0 0 0 0 2 28 49
85 88 95 255 255 255 255 255 255 0 0 0 0 0 0
0 0 0 0 3 0 0 0 0 0 0 0 4 0 0
2 0 0 15 11 2 13 15 25 0 0 0 61 49 50
25 13 9 10 5 5 8 10 0 0 0 3 0 16 10
10 16 13 6 5 2 3 8 16 2 8 9 8 10 11
0 10 0 6 6 23 30 31 19 0 0 6 0 0 0
0 0 0 0 0 0 0 0 0 14 12 19 10 13 18
0 0 0 0 0 0 69 64 69 19 0 3 3 0 0
27 21 40 84 78 67 24 31 40 0 0 0 0 0 0
0 0 0 0 0 0 0 0 8 0 0 0 29 23 27
251 245 232 62 57 50 0 0 0 0 8 0 0 0 0
0 0 0 0 0 0 0 0 0 0 0 0 91 82 83
208 189 182 7 0 0 0 0 0 37 22 19 95 90 89
10 3 3 0 0 0 0 0 0 4 11 6 0 0 0
0 0 0 0 0 0 6 16 0 0 0 0 0 0 0
0 0 0 133 118 144 183 169 205 0 0 0 0 0 0
0 0 0 0 0 0 46 50 46 54 52 51 0 0 0
4 5 17 0 0 2 8 15 23 0 0 0 0 0 0
52 51 56 0 0 0 0 0 0 0 0 5 42 40 51
0 0 0 0 0 0 37 31 50 0 0 0 0 0 0
0 0 0 125 116 125 255 255 255 0 0 0 0 0 0
0 0 0 0 0 0 0 0 0 255 255 216 255 255 255
0 0 0 0 0 0 70 67 81 0 0 0 0 0 0
1 0 0 0 0 0 0 0 0 0 5 0 0 7 0
3 6 0 0 11 0 0 0 0 0 0 0 0 0 0
0 0 0 0 5 3 0 0 0 0 0 0 17 17 13
0 0 0 0 0 0 0 0 6 0 0 0 3 0 0
0 7 9 28 37 40 10 28 24 68 71 65 47 59 58
65 62 60 36 36 27 10 3 8 0 0 0 0 0 0
6 12 19 10 16 13 12 17 14 0 0 6 0 0 0
0 3 0 0 0 0 0 0 0 0 0 0 0 0 0
0 0 0 27 48 24 0 0 0 0 0 0 133 146 145
75 78 86 0 0 0 0 0 0 246 239 251 255 255 255
0 0 0 0 0 0 0 0 0 0 0 0 0 0 0
97 110 100 0 0 0 16 2 12 0 0 0 0 0 4
87 64 83 0 0 0 0 0 0 6 0 4 60 36 50
58 46 52 0 0 0 0 0 0 0 0 0 3 0 13
5 6 7 0 0 0 0 0 0 10 0 0 19 10 17
5 0 10 0 0 0 0 0 0 170 152 188 0 0 0
0 0 0 0 0 0 24 21 33 76 59 88 0 0 0
0 0 0 0 0 0 0 0 0 0 0 0 0 0 0
0 0 0 0 0 0 0 0 0 0 0 0 38 28 36
12 18 24 11 14 21 0 0 0 0 0 0 0 0 0
1 0 0 11 5 18 8 5 17 28 28 43 0 3 1
23 10 28 19 32 20 0 0 0 0 0 0 0 0 0
98 93 118 0 0 0 0 0 0 0 0 0 55 58 41
147 143 130 112 101 79 0 0 0 0 0 0 0 0 0
0 0 0 0 0 0 0 0 0 255 255 255 255 255 255
0 0 0 0 0 0 10 0 0 1 0 0 0 0 0
0 0 0 0 0 0 0 0 0 0 4 4 0 0 0
0 4 0 12 4 10 3 15 12 6 10 11 50 38 43
33 19 20 0 0 0 4 0 0 0 0 0 0 0 0
3 0 0 10 1 0 24 10 24 20 20 4 20 14 18
49 38 37 44 35 34 14 0 0 0 0 0 0 0 0
20 19 11 13 19 8 6 9 2 18 13 9 0 0 0
0 0 0 18 0 9 16 10 0 102 92 106 87 80 64
0 0 0 0 0 0 0 0 0 2 11 14 0 0 0
0 0 0 250 255 255 133 126 137 0 0 0 0 0 0
0 0 0 56 38 0 0 0 0 0 0 0 36 28 2
154 155 147 82 94 70 0 0 0 37 19 22 79 79 60
16 11 20 0 0 0 0 0 0 6 4 9 0 8 5
37 30 30 0 0 0 0 0 0 0 0 0 9 1 31
0 0 0 65 58 64 255 255 255 70 73 32 17 28 5
39 45 38 74 77 80 87 85 91 58 61 82 51 32 58
84 84 91 158 166 168 110 104 99 47 63 43 0 0 0
0 0 0 0 0 0 0 3 0 1 6 0 5 6 0
36 39 11 1 10 0 1 0 0 0 0 0 0 0 0
0 0 0 0 0 0 0 0 0 186 188 187 255 255 255
0 0 0 0 0 0 0 0 0 0 0 0 219 216 164
198 195 228 0 0 0 0 0 0 67 59 68 0 0 0
0 0 0 1 0 2 0 0 0 0 0 0 0 4 0
1 3 0 0 11 0 0 0 0 0 1 10 0 0 0
0 0 0 2 0 12 14 3 3 0 0 0 0 0 0
20 6 24 1 0 0 3 0 4 18 8 15 0 4 10
0 0 4 0 0 6 9 5 5 0 0 0 51 48 59
15 23 24 36 42 39 18 40 28 10 21 26 0 11 12
8 7 10 37 36 36 0 1 2 8 12 10 0 0 11
0 0 5 0 8 7 9 13 6 0 21 0 6 30 0
0 0 0 12 17 0 0 0 0 0 0 0 0 0 0
192 201 208 155 155 161 0 0 0 0 0 0 0 0 0
189 185 203 255 255 255 255 255 255 116 91 116 0 0 0
0 0 0 0 0 0 0 0 0 32 25 42 0 0 0
0 0 0 0 0 0 0 0 0 40 19 28 0 0 0
5 3 5 24 8 17 26 16 18 66 56 71 57 61 63
38 19 41 31 32 46 55 33 27 19 4 0 0 0 0
0 4 0 12 0 12 0 0 0 13 0 19 147 143 168
0 0 0 0 0 20 132 118 146 235 228 255 161 145 181
5 0 6 19 2 45 196 177 214 119 109 127 134 139 144
134 125 146 132 123 137 131 127 140 104 110 109 113 114 113
134 144 148 0 0 3 0 0 8 0 0 10 0 0 1
0 0 4 3 0 0 15 11 7 0 0 6 34 35 48
2 10 12 17 18 33 17 18 12 0 0 0 0 0 0
0 0 0 70 82 100 0 0 0 0 0 0 0 0 0
54 48 46 133 132 124 87 88 66 0 0 0 0 0 0
43 22 38 0 0 0 0 0 0 0 0 0 86 83 80
255 255 255 0 0 0 0 0 0 0 0 0 0 0 0
0 0 0 0 0 0 0 0 0 0 1 0 0 7 13
0 0 0 2 8 13 7 7 3 0 8 1 0 0 0
26 16 21 10 7 7 0 0 0 14 5 7 0 0 0
0 0 0 0 0 0 0 0 0 16 7 7 11 9 8
10 0 0 2 0 0 16 6 14 0 0 0 0 0 0
0 0 0 0 0 0 0 6 3 2 2 3 0 2 0
0 0 0 0 6 1 18 11 11 14 0 0 54 44 43
80 62 65 0 0 0 0 0 0 0 0 0 0 0 0
2 0 7 255 255 255 202 189 206 0 0 0 0 0 19
0 0 0 0 0 0 6 0 0 0 0 0 0 0 0
85 70 53 128 119 106 9 8 0 0 0 0 27 5 6
57 49 37 8 21 22 0 0 0 0 0 0 0 7 6
0 0 0 6 12 16 0 0 0 17 5 33 0 0 39
0 0 0 0 0 0 90 70 78 144 220 191 23 32 0
14 14 0 0 0 0 0 0 0 36 37 34 19 11 25
0 0 0 0 0 0 0 0 0 35 37 38 0 2 0
0 0 0 0 14 0 19 13 0 7 12 0 5 0 0
9 9 0 0 10 0 0 3 0 8 12 0 7 13 0
0 0 0 0 0 0 9 10 15 0 0 0 10 8 10
194 194 201 38 38 47 0 0 0 0 0 0 0 0 0
215 208 149 194 181 226 0 0 0 0 0 0 49 43 52
8 6 16 0 0 0 0 1 0 0 0 0 0 0 0
9 0 5 0 6 0 0 7 0 0 0 0 15 5 16
0 0 0 0 0 0 0 6 0 6 2 1 0 0 0
0 0 0 1 8 0 4 8 6 0 0 7 3 0 0
0 0 0 0 0 0 0 0 0 6 0 0 0 0 0
36 30 39 9 12 12 32 29 29 20 26 22 21 13 11
11 1 0 5 9 13 40 26 32 0 0 0 0 0 0
0 0 0 0 0 0 0 0 0 0 0 0 0 0 0
0 0 0 0 0 0 47 41 47 0 0 0 0 0 0
0 0 0 217 217 232 241 232 246 0 0 0 0 0 0
0 0 0 0 0 0 41 39 34 131 119 127 242 251 249
102 90 108 0 0 0 0 0 0 0 0 0 0 0 0
0 0 0 37 33 43 5 3 13 3 0 16 0 0 0
65 66 70 0 1 0 0 0 0 0 0 0 0 0 0
0 0 0 10 9 21 0 0 0 59 46 52 0 0 0
0 0 0 0 0 0 0 0 0 0 0 0 0 0 0
0 0 0 156 142 161 255 255 255 255 255 255 113 116 118
37 37 47 141 149 143 192 195 223 188 188 202 0 0 0
0 0 0 0 0 0 0 0 0 0 0 0 0 0 0
0 0 0 0 0 0 0 0 0 0 2 0 1 3 8
1 14 4 10 15 10 5 12 14 9 9 11 8 0 0
20 23 35 3 12 2 4 0 9 12 11 0 0 0 0
0 0 0 0 0 0 60 65 74 11 0 9 0 0 0
0 0 0 17 11 1 125 126 117 121 126 111 6 0 0
0 0 0 0 0 0 0 0 0 8 2 8 0 0 0
19 12 24 255 255 255 91 92 102 0 0 0 0 0 0
0 0 0 0 0 0 0 1 0 0 0 0 0 0 0
0 0 1 0 0 0 0 0 3 4 2 0 0 0 0
0 0 0 18 18 19 14 7 11 0 0 0 28 16 19
0 0 0 0 0 0 0 0 0 0 0 0 24 17 18
17 37 29 26 18 19 12 9 2 38 29 35 35 33 37
14 11 12 0 0 0 0 0 0 7 19 12 19 22 21
0 0 0 6 0 1 32 27 31 11 0 3 0 0 0
14 11 13 94 98 95 81 73 75 0 0 0 0 0 0
0 0 0 122 133 136 255 255 255 48 55 51 0 0 0
8 14 23 0 0 0 0 0 0 0 0 0 0 0 0
0 0 0 177 173 175 103 101 101 0 0 0 0 0 0
43 40 37 77 70 61 25 19 29 0 0 0 0 0 0
11 14 14 17 15 0 32 43 26 0 0 0 85 83 81
18 13 28 0 0 0 0 0 0 185 161 168 87 161 110
15 39 30 30 28 13 0 0 0 0 0 0 0 2 3
16 14 39 0 0 0 0 0 0 0 0 0 0 0 2
0 0 0 0 0 0 10 10 12 16 21 11 0 3 2
0 0 0 14 10 18 0 0 0 0 0 0 4 4 14
19 22 15 1 0 7 0 0 0 0 0 8 0 0 0
0 0 0 202 201 197 220 220 226 223 223 226 0 0 0
0 0 0 179 185 137 171 180 217 0 0 0 0 0 0
0 0 0 65 69 73 0 0 0 0 9 10 0 0 0
0 5 0 3 5 0 1 2 0 3 0 8 0 0 0
12 18 20 0 9 0 0 3 0 4 0 1 0 1 1
0 0 0 3 0 0 0 0 0 20 6 20 0 6 0
6 0 0 0 0 0 0 0 0 0 0 0 0 0 0
0 0 0 0 0 0 0 0 0 0 0 0 0 0 0
0 0 0 0 0 0 0 0 0 0 0 0 0 0 0
0 0 0 0 0 0 0 0 0 1 0 5 0 0 1
0 0 0 0 0 0 0 0 0 46 44 34 0 0 0
0 0 0 0 0 0 125 128 137 255 255 255 0 0 0
0 0 0 0 2 9 0 0 0 0 0 0 0 0 0
129 127 126 255 255 255 130 120 137 99 115 101 30 40 35
0 0 0 0 0 0 0 0 0 0 0 0 34 27 41
6 0 5 0 0 0 0 0 0 0 0 0 0 7 0
22 9 21 24 16 14 0 0 0 0 0 0 0 0 0
0 0 0 0 0 0 0 0 0 92 93 100 110 117 128
132 125 137 164 168 179 0 0 0 0 0 0 0 0 0
0 0 0 0 0 0 0 0 0 0 0 0 0 0 0
0 0 0 0 0 0 0 0 0 0 0 0 0 0 0
0 0 0 0 0 0 0 0 0 11 0 5 0 0 0
14 0 15 18 15 21 33 22 20 19 10 13 18 10 11
13 5 8 13 16 27 11 12 22 0 0 0 6 7 0
0 0 0 0 0 0 0 0 0 40 53 53 46 34 36
0 0 0 0 0 0 0 0 0 122 122 112 160 158 147
36 31 22 0 0 0 0 0 0 0 0 0 23 27 26
0 0 0 1 3 10 255 255 255 0 2 0 0 0 0
0 0 0 0 0 0 5 6 0 0 0 0 0 0 0
0 0 0 0 0 0 6 0 0 0 0 0 0 0 0
0 0 0 0 0 0 34 20 20 15 16 18 3 7 4
33 18 25 4 0 3 0 0 0 0 0 0 0 0 0
21 15 19 33 27 31 15 12 15 0 2 0 29 19 32
57 57 57 35 34 31 0 0 0 0 0 0 0 9 6
26 22 26 0 0 0 6 0 0 21 19 20 0 0 0
0 0 0 0 0 0 38 37 35 101 91 95 5 0 0
0 0 0 0 0 0 59 54 63 0 0 0 0 0 0
0 0 0 0 0 0 0 0 0 0 0 0 0 0 0
0 0 0 66 72 73 169 169 164 31 21 27 0 0 0
16 0 0 46 36 39 70 78 71 22 31 13 0 0 0
0 0 0 19 26 12 33 28 17 52 61 38 0 0 0
80 76 79 0 0 6 0 0 0 0 0 4 189 174 199
42 53 33 34 17 25 49 69 48 9 8 7 0 0 0
0 0 0 26 21 35 20 18 23 0 0 0 0 0 8
0 0 0 0 0 0 0 0 0 16 16 9 4 6 0
0 0 0 0 0 0 21 11 10 0 0 0 0 0 0
9 9 13 7 9 3 0 0 0 0 0 0 0 0 0
0 0 2 0 0 0 0 0 0 0 0 0 101 98 101
0 0 0 0 0 0 149 147 146 193 195 135 2 0 44
0 0 0 0 0 0 69 68 72 0 0 0 4 2 6
4 0 0 0 0 0 4 0 2 0 14 0 0 0 1
0 0 0 13 7 6 12 12 2 5 10 7 2 0 2
0 0 0 3 0 0 0 0 0 0 0 0 14 10 1
0 0 0 0 0 0 0 0 0 0 0 0 0 0 0
0 0 0 0 0 0 0 0 0 0 0 0 0 0 0
0 0 0 0 0 0 0 0 0 0 0 0 0 0 0
18 9 14 0 0 0 0 0 0 0 0 0 0 0 0
0 8 0 1 0 0 0 0 0 28 32 16 15 7 3
0 0 0 25 23 20 0 0 0 0 0 0 255 255 255
24 24 34 0 0 0 0 0 0 63 49 59 62 67 57
0 0 0 0 0 0 79 70 71 255 255 255 253 255 255
255 255 255 255 255 255 249 245 251 23 25 34 0 0 0
0 0 0 0 0 0 0 0 0 26 24 22 0 0 0
0 0 0 0 0 0 0 0 0 0 0 0 46 47 47
56 48 72 21 12 35 67 64 79 155 152 171 179 173 180
101 96 111 5 0 16 0 0 0 0 0 0 0 0 0
0 0 0 0 0 0 0 0 0 0 0 0 0 0 0
0 0 0 0 0 0 0 0 0 0 0 0 7 11 7
22 19 18 6 7 15 11 12 19 18 33 27 0 0 0
0 0 0 2 12 7 13 24 26 27 22 14 16 23 20
10 9 3 2 6 0 13 17 29 12 22 28 0 0 0
0 0 1 6 18 8 0 0 0 0 0 0 23 30 40
59 50 63 0 0 0 0 0 0 0 0 0 89 89 75
159 159 152 65 47 38 0 0 0 0 0 0 0 0 0
15 18 19 0 0 0 0 0 0 160 158 168 67 64 74
0 0 0 0 0 0 0 8 10 0 0 0 0 0 0
0 0 0 0 0 0 3 0 0 8 23 10 0 0 0
1 1 0 0 0 0 0 0 0 32 18 18 12 16 17
17 0 4 16 13 16 19 21 19 0 0 0 0 0 0
0 1 0 0 3 0 6 18 12 0 7 0 0 0 0
13 0 10 46 46 43 28 29 32 0 0 0 0 0 0
0 0 0 25 23 24 0 0 0 21 8 10 7 5 4
0 0 0 15 5 12 0 0 0 0 0 0 75 68 71
102 84 93 0 0 0 0 0 0 89 92 92 0 0 0
0 0 0 0 0 0 0 0 0 0 0 0 0 0 0
0 0 0 28 23 24 167 171 173 86 89 76 0 0 0
0 0 0 42 42 19 13 8 6 37 33 37 0 0 0
0 0 0 0 0 0 0 0 0 1 0 0 33 37 29
0 0 0 37 27 21 0 0 0 0 0 0 68 59 75
130 133 133 0 0 0 0 0 0 42 113 33 92 102 69
2 4 7 0 0 0 0 0 0 45 32 48 6 6 15
0 0 0 0 0 2 5 0 9 0 4 0 13 13 15
0 1 0 0 0 0 0 0 0 29 33 31 0 0 0
2 2 10 9 9 13 0 0 0 0 0 0 0 0 0
0 0 3 10 8 14 0 0 0 0 0 0 0 0 0
0 0 0 0 0 0 0 0 0 90 84 138 189 189 88
124 117 177 0 0 0 0 0 0 1 9 18 0 0 0
3 11 9 0 6 0 1 0 0 0 5 2 0 8 0
10 0 9 0 0 0 6 5 7 12 17 5 0 7 3
0 0 0 0 0 0 2 10 0 6 1 0 0 0 0
18 20 12 0 0 0 0 0 0 0 0 0 5 3 2
0 1 1 1 0 0 0 0 0 0 0 0 0 0 0
0 0 2 0 0 0 0 0 1 0 0 0 0 0 0
0 0 0 12 19 28 0 0 6 0 0 1 0 3 4
3 0 3 6 15 12 10 5 5 0 0 0 25 23 16
0 0 0 0 0 0 11 25 9 0 0 0 0 0 0
121 111 130 243 232 238 0 0 0 0 0 0 0 0 0
0 6 11 0 0 0 0 0 0 0 0 0 122 126 129
0 0 0 0 4 23 178 181 183 255 255 255 255 255 255
231 218 236 164 168 164 206 194 204 0 0 0 0 0 0
0 0 0 0 0 0 0 0 0 0 0 0 118 112 125
255 255 255 255 255 255 255 255 255 169 151 181 63 69 93
0 0 0 0 0 0 0 0 0 0 0 0 0 0 0
42 33 52 37 30 29 0 0 0 0 0 0 0 0 0
2 0 1 10 2 4 11 6 8 0 0 0 0 0 0
6 8 10 12 6 7 0 0 0 0 0 0 0 0 0
1 0 0 0 0 0 1 0 1 13 14 14 3 6 1
17 6 3 13 0 0 0 0 0 5 18 15 13 12 25
0 0 0 0 0 0 17 18 23 0 0 0 0 0 0
2 19 11 56 49 59 0 0 0 0 0 0 0 0 0
50 45 24 143 143 138 73 69 41 32 37 17 0 0 0
0 0 0 34 21 17 12 10 16 0 0 0 59 67 66
255 255 255 227 218 235 0 0 0 21 17 23 1 0 0
0 0 0 0 0 0 0 0 0 6 0 0 25 31 21
0 0 0 0 0 0 0 0 0 0 0 0 8 10 10
4 9 9 13 0 3 0 0 0 59 45 49 13 8 9
7 9 7 0 0 0 0 0 0 0 0 0 0 0 0
0 2 0 0 0 0 26 14 17 26 28 27 0 3 0
0 0 0 0 0 0 6 3 2 0 0 0 36 40 39
12 0 4 16 2 6 35 35 35 6 0 0 0 0 0
36 19 22 159 152 159 0 0 0 0 0 0 255 255 255
163 172 165 0 0 0 0 0 0 43 43 49 0 0 0
0 0 0 0 0 0 113 111 105 205 208 204 15 3 11
0 0 0 4 0 0 22 19 11 9 2 9 28 36 44
0 0 0 0 0 0 0 0 0 4 3 4 7 0 0
32 20 20 0 0 0 0 0 0 0 0 0 0 0 0
123 122 133 58 66 82 0 0 0 0 0 0 47 38 39
67 114 49 50 33 61 0 0 0 0 0 0 8 10 20
0 0 0 0 0 0 20 13 29 14 8 14 0 0 2
5 3 5 0 0 0 0 0 0 0 0 0 23 17 5
0 0 0 17 17 27 13 13 23 0 0 0 0 0 0
0 0 0 4 7 11 16 20 18 66 62 81 38 35 46
13 10 25 0 0 0 0 0 0 0 0 0 9 0 28
104 102 101 197 182 146 79 88 112 0 0 0 0 0 0
0 0 0 2 4 8 6 0 9 0 0 0 0 0 6
3 13 1 7 0 5 0 0 0 6 7 0 12 10 12
8 8 2 0 0 0 0 0 0 9 12 18 15 3 3
0 0 0 27 11 9 0 0 0 0 0 0 0 0 0
12 11 1 11 20 11 19 10 5 5 13 13 0 0 0
14 4 5 0 6 0 4 5 0 4 12 3 5 11 0
5 11 12 0 6 1 7 17 8 0 0 0 0 0 0
0 0 0 12 3 11 0 9 6 12 5 8 0 2 0
16 16 0 0 0 0 13 10 3 0 0 0 0 0 0
0 0 0 16 27 20 152 161 172 202 202 204 44 42 49
0 0 0 0 0 0 26 16 13 0 0 0 0 0 0
9 14 9 0 0 0 0 0 0 0 0 0 0 0 0
109 106 114 255 255 255 255 255 255 255 255 255 246 246 249
48 57 59 95 81 97 255 255 255 255 255 255 255 255 255
255 255 255 162 150 150 0 0 0 0 0 0 0 0 0
0 0 0 0 0 0 11 4 11 22 16 17 14 6 9
0 0 0 0 0 0 0 0 0 6 12 4 41 44 38
0 0 0 0 0 0 41 44 43 0 10 4 0 0 0
1 0 0 6 7 1 4 5 6 0 0 0 0 0 0
0 0 0 9 7 5 0 0 0 0 0 0 0 0 0
0 0 0 0 0 1 0 0 0 2 0 0 10 15 24
16 22 35 0 0 0 0 0 0 24 38 28 0 0 0
0 0 0 6 15 17 31 24 40 0 0 0 0 0 0
0 0 0 6 6 0 109 107 101 77 74 52 83 66 51
0 0 0 0 0 0 0 1 8 38 32 26 0 0 0
0 0 0 255 255 255 255 255 255 0 0 0 13 23 14
9 12 2 0 0 0 0 0 0 0 0 0 1 8 4
7 12 5 0 0 0 10 9 0 0 0 0 0 0 0
10 8 9 1 4 4 11 0 2 0 0 0 70 65 66
19 12 16 24 29 28 19 6 11 0 0 0 0 0 0
0 0 0 29 26 19 0 0 5 0 0 0 27 13 20
54 47 49 20 4 10 0 0 0 0 0 0 12 4 7
40 28 35 0 0 0 23 20 24 15 3 10 26 12 17
0 7 2 0 0 0 137 127 138 0 0 0 0 0 0
255 255 255 176 168 164 0 0 0 0 0 0 2 2 0
0 0 0 0 0 0 0 0 0 148 143 142 122 119 114
0 0 0 0 0 0 35 20 11 5 0 0 21 12 17
45 46 50 0 0 0 0 0 0 0 0 0 21 15 9
7 13 14 26 36 27 0 0 0 0 0 0 0 0 11
12 10 30 127 127 134 6 2 21 2 0 21 0 0 0
0 0 0 70 89 56 91 68 66 0 0 0 0 0 0
7 19 22 0 0 0 0 0 0 18 3 18 0 0 0
0 0 0 8 6 0 0 4 0 0 0 0 0 0 0
0 9 0 0 0 1 25 25 27 18 17 24 0 0 0
0 0 0 0 0 0 12 9 11 6 4 1 0 0 0
0 0 0 3 3 6 0 0 0 0 0 0 0 0 0
0 0 0 0 2 40 179 181 73 133 137 180 0 0 0
0 0 0 0 0 0 0 0 3 0 0 0 0 0 0
3 4 0 0 5 5 0 0 0 0 0 0 0 0 0
7 5 4 0 0 7 0 0 0 0 0 0 0 4 4
0 2 10 0 0 0 0 0 0 0 0 0 1 0 0
17 20 21 14 20 7 2 17 8 0 0 0 0 8 0
0 0 0 0 0 0 0 0 0 0 0 0 0 0 0
0 0 0 0 0 0 0 0 0 3 5 10 0 0 0
0 0 0 0 0 0 0 0 0 0 0 0 0 0 0
0 0 0 0 0 0 0 0 0 112 98 104 0 0 0
0 0 0 15 6 23 113 106 124 38 38 42 176 167 173
74 82 86 33 33 30 25 35 48 18 15 25 0 0 0
0 0 0 2 0 0 182 182 193 0 0 0 0 0 0
0 0 0 0 0 0 0 0 0 0 0 0 0 0 0
126 111 123 255 255 255 255 255 255 69 73 76 0 0 0
0 0 0 0 0 0 0 0 0 0 0 0 0 0 0
0 0 5 15 4 28 0 0 0 0 0 0 4 3 13
19 8 8 4 11 1 60 57 53 33 29 22 0 0 0
0 0 0 18 24 9 1 4 0 0 0 0 0 0 0
0 0 0 0 0 0 29 23 13 38 30 34 15 4 1
9 4 0 11 12 4 33 23 23 5 2 0 0 0 0
0 0 0 0 0 0 2 3 0 16 10 2 19 10 0
15 30 40 17 24 36 0 0 0 0 0 0 36 36 42
0 0 0 0 0 0 0 1 15 30 20 25 3 2 7
0 0 0 0 0 0 40 30 22 117 111 97 73 71 51
69 58 54 0 0 0 0 0 0 0 0 0 18 7 12
54 53 65 0 0 0 205 203 215 0 0 0 0 0 0
19 33 39 0 0 0 0 0 0 0 0 0 3 0 0
14 5 3 0 1 0 0 0 1 8 7 4 0 0 0
0 0 0 45 34 39 29 25 28 30 12 17 0 0 0
95 91 91 29 29 30 34 23 27 0 0 0 0 0 0
0 0 0 0 7 3 62 50 47 6 0 6 0 0 0
14 16 17 87 79 83 19 20 19 0 0 0 0 0 0
15 10 14 21 9 10 0 0 0 11 7 6 0 0 0
12 7 12 24 19 20 0 0 0 49 41 36 0 0 0
39 41 46 255 255 255 0 0 0 0 0 0 36 42 28
0 0 0 0 0 0 0 0 0 9 16 1 129 117 127
24 33 18 0 0 0 0 0 0 57 48 33 40 29 19
0 0 0 26 33 37 0 0 0 0 0 0 0 0 0
0 0 0 0 0 0 0 0 0 0 0 0 0 0 0
0 0 0 15 4 27 109 108 135 0 0 7 70 60 66
0 0 0 0 0 0 88 111 74 58 132 31 43 20 67
0 0 5 0 0 0 0 0 0 0 0 0 0 0 0
0 0 0 0 0 0 0 0 0 0 0 0 0 0 0
0 0 0 0 0 0 0 0 0 0 0 0 0 0 0
0 0 0 0 0 0 0 0 0 0 0 0 0 0 0
23 23 32 0 0 0 0 0 0 4 4 7 0 0 0
0 0 0 0 0 0 60 58 77 58 59 62 144 151 170
229 218 229 0 0 0 0 0 0 0 0 0 0 0 0
10 11 4 0 0 0 0 0 0 4 3 0 34 29 19
0 1 2 15 23 9 21 26 24 11 19 20 2 0 1
0 0 0 6 0 0 48 51 40 0 0 0 8 2 5
0 0 0 0 0 0 4 0 0 55 49 59 59 56 51
24 34 21 21 7 19 25 17 19 7 13 7 0 0 0
0 0 0 0 0 0 0 0 0 13 13 7 0 0 0
0 0 0 0 0 0 0 8 0 22 10 11 11 18 11
14 10 2 0 2 0 23 13 0 0 0 0 0 0 0
1 20 9 40 34 52 10 19 14 0 0 0 0 0 0
0 0 0 0 0 0 0 0 0 0 0 0 0 0 0
0 0 0 0 0 0 0 0 0 0 0 0 0 0 0
16 1 13 0 0 0 0 0 0 0 0 0 0 0 0
0 0 0 0 0 0 32 32 26 56 40 54 0 0 0
0 0 0 0 0 0 0 0 0 0 0 0 0 0 0
0 0 0 0 0 0 0 0 0 0 0 0 24 17 4
4 11 0 0 0 0 0 0 0 0 0 0 0 0 0
0 6 0 0 0 0 0 0 0 0 7 8 11 11 4
23 13 24 4 8 2 0 0 0 0 0 0 0 0 0
0 0 0 0 0 0 0 0 0 0 0 0 0 0 0
0 0 0 0 0 0 0 0 0 0 0 0 0 0 0
0 0 0 10 9 33 14 26 22 0 0 0 0 0 0
9 11 10 0 6 0 0 0 0 0 0 0 91 95 99
0 0 0 0 0 0 0 0 0 0 0 0 64 57 49
136 129 106 83 84 63 34 33 45 0 0 0 0 0 0
0 0 0 26 21 23 174 181 177 99 92 109 0 0 0
0 0 0 16 20 18 49 39 37 56 64 49 0 0 0
0 0 0 0 0 0 5 22 2 36 23 29 22 15 10
3 0 0 0 0 0 0 0 0 0 0 0 24 22 22
0 0 0 76 69 70 0 0 0 42 35 38 58 60 58
0 0 0 0 0 0 0 0 0 0 0 0 14 16 21
15 9 9 0 0 0 0 0 0 51 57 54 25 29 27
0 0 0 0 0 0 12 6 6 0 0 0 20 8 14
0 5 1 0 0 0 0 0 0 6 0 10 15 12 12
0 0 0 80 76 77 68 66 64 0 0 0 0 0 0
0 0 0 0 0 0 0 0 0 54 49 42 207 201 187
122 117 107 0 0 0 0 0 0 26 25 21 0 0 0
51 45 35 0 0 0 56 55 71 0 0 0 0 0 0
8 0 9 10 5 2 0 0 0 0 0 0 0 0 0
0 0 0 155 154 180 85 74 84 0 0 0 0 0 0
0 0 0 25 12 34 0 7 0 23 24 23 50 57 28
81 135 30 88 68 102 11 21 19 10 0 11 0 0 0
0 0 0 0 0 0 0 0 0 21 9 23 18 27 16
54 49 51 78 90 72 114 131 118 23 7 22 13 16 10
8 7 8 18 23 9 29 32 31 14 16 4 0 0 0
0 0 0 0 0 0 0 0 0 0 0 0 0 0 0
0 0 0 0 0 0 0 0 0 55 40 74 70 68 67
10 17 26 30 18 29 0 0 0 0 0 0 0 0 0
0 0 0 19 18 18 0 0 0 0 0 0 15 0 0
2 4 0 0 0 0 10 12 0 10 9 7 2 3 0
0 0 0 0 0 0 1 5 16 57 62 66 0 0 0
3 5 0 0 0 0 0 0 0 0 0 0 11 12 12
14 14 20 19 27 11 0 0 0 11 0 5 0 3 1
0 0 0 0 0 4 0 0 0 0 1 4 9 12 14
0 0 0 0 0 0 0 0 0 1 0 2 9 0 10
6 10 18 17 10 17 0 0 0 29 31 21 19 11 15
10 5 6 0 5 4 13 3 12 5 9 5 5 0 12
0 0 0 69 63 61 0 0 0 0 0 0 0 0 1
0 5 0 10 3 10 17 10 3 51 40 41 5 0 4
10 4 20 15 17 20 10 1 7 10 6 25 5 8 16
10 3 14 0 0 0 0 0 0 0 0 0 165 148 156
68 61 61 0 0 0 0 0 0 81 74 78 4 2 14
0 0 0 1 0 0 11 12 20 12 11 9 3 0 0
0 0 0 0 0 0 36 28 21 0 0 0 3 4 0
0 6 0 4 13 0 0 3 0 7 3 2 0 13 0
0 0 0 0 9 0 1 0 0 6 0 7 3 2 0
0 0 0 4 1 0 1 0 0 0 0 0 0 0 0
0 0 0 14 5 14 14 4 4 11 8 0 5 0 0
9 0 0 0 0 0 24 28 42 27 27 39 5 1 0
0 0 0 12 2 5 0 3 11 0 0 0 0 0 0
78 70 81 0 0 1 0 0 0 0 0 0 0 0 0
60 55 53 116 108 102 82 81 71 0 0 0 0 0 0
0 0 0 5 0 0 11 12 6 70 73 86 25 22 18
0 0 0 0 0 0 0 0 0 0 0 0 34 43 36
59 55 52 0 0 0 0 0 0 0 0 0 15 12 12
6 13 1 1 0 2 0 0 0 0 0 0 13 8 6
41 27 34 0 0 0 105 87 92 9 7 9 37 29 33
30 36 33 0 0 0 0 0 0 0 0 0 0 0 0
0 1 5 10 2 2 0 0 0 3 0 0 27 33 30
0 0 0 0 0 0 0 0 0 11 1 2 0 0 0
9 1 5 6 2 4 0 0 0 0 0 0 7 0 1
0 0 0 0 0 0 100 85 87 76 69 67 0 0 0
0 0 0 0 0 0 0 0 0 0 0 0 84 75 59
89 91 82 51 53 55 0 0 0 0 0 0 55 38 43
5 2 1 0 0 0 12 10 15 55 38 63 0 0 0
0 0 0 29 34 33 1 12 0 0 0 0 0 6 1
0 0 0 0 13 16 126 116 144 33 45 52 0 0 0
7 15 30 22 3 14 75 68 79 0 0 0 0 4 0
63 54 63 70 90 27 2 0 36 0 0 0 97 90 103
100 95 104 0 0 0 36 29 47 16 26 36 34 18 25
27 36 31 47 46 37 34 42 43 53 55 50 82 75 69
81 80 79 70 74 65 71 71 62 71 69 77 77 73 77
75 78 81 80 81 81 10 10 4 19 19 18 12 12 12
11 11 11 0 0 0 79 76 88 31 14 43 79 75 46
126 130 65 0 0 18 0 0 0 0 0 0 0 0 0
12 13 18 39 49 49 28 36 42 0 0 0 0 0 0
21 14 0 0 0 0 0 0 0 0 0 0 4 0 8
0 3 0 0 0 0 1 0 0 17 10 16 89 91 78
0 0 0 0 1 0 7 0 2 4 0 0 0 0 0
0 0 0 0 0 0 21 28 25 0 0 0 3 5 4
7 9 8 7 6 5 8 8 5 10 11 6 2 5 0
2 8 0 0 0 0 0 0 0 0 0 0 1 0 0
13 13 5 13 24 13 25 17 13 6 12 0 33 30 27
22 35 13 23 22 11 0 8 0 0 0 0 0 0 0
0 0 0 0 0 0 104 87 88 0 0 0 0 0 0
0 0 0 20 17 17 14 21 17 14 21 11 24 28 23
0 0 0 0 0 1 0 0 0 7 4 0 5 1 6
0 2 0 0 0 0 0 0 0 0 0 0 0 0 0
37 34 57 175 183 199 62 59 71 0 0 0 0 0 0
0 0 1 0 0 0 0 0 0 0 0 0 0 0 0
1 5 12 8 16 6 1 6 1 0 0 0 0 0 0
4 2 0 6 6 0 12 3 12 0 4 4 7 4 0
10 6 8 0 0 4 0 4 0 1 5 4 0 0 0
0 3 0 0 6 7 0 5 0 0 0 0 0 0 0
0 2 0 0 0 0 7 16 9 16 24 26 11 15 11
0 0 7 0 0 0 0 0 0 22 20 21 12 26 24
0 0 2 0 0 0 6 8 4 0 0 6 0 0 0
0 0 0 34 28 41 0 0 0 12 4 4 0 0 0
0 0 0 8 4 0 90 95 75 127 121 100 57 54 62
0 0 0 0 0 0 0 0 0 0 0 0 0 0 0
0 0 0 0 0 0 0 0 0 89 91 93 0 0 0
0 0 0 0 0 0 0 0 0 0 0 0 0 0 0
5 0 0 0 0 0 5 10 8 0 0 0 0 0 0
0 0 0 21 11 17 0 0 0 70 62 64 20 22 20
38 21 28 20 19 18 22 9 13 0 0 0 0 0 0
18 6 5 0 0 0 0 5 5 0 0 0 15 9 12
31 37 34 3 5 4 0 0 0 0 0 0 6 8 10
1 1 0 17 9 12 8 10 9 0 0 0 0 0 0
7 0 5 0 0 0 6 9 12 55 45 61 19 7 18
0 0 0 0 0 0 0 0 0 0 0 0 0 0 0
199 202 188 33 42 30 0 0 0 0 0 0 9 10 17
73 60 70 27 25 13 0 0 0 26 14 25 22 14 28
0 0 0 0 0 0 56 59 53 0 6 1 0 0 0
0 10 0 31 23 29 0 0 0 91 80 98 17 27 31
0 0 0 0 0 0 0 0 0 0 0 0 0 0 0
0 0 0 27 22 52 92 98 46 0 0 3 0 0 0
47 46 50 140 142 146 0 0 9 35 25 36 0 0 0
0 0 0 0 0 0 11 6 7 5 10 0 0 0 0
6 0 0 2 0 5 0 0 0 0 0 0 2 7 0
6 7 2 3 1 1 9 12 7 12 13 6 23 23 17
26 26 23 17 17 14 56 39 57 144 158 114 80 68 51
66 127 37 118 154 62 91 85 111 0 0 0 0 0 0
0 0 0 3 0 0 51 41 62 27 38 34 0 0 0
0 0 0 32 28 12 0 0 0 0 0 0 0 10 0
12 0 9 0 0 0 0 0 0 0 3 0 13 21 21
71 78 76 0 0 2 0 0 0 0 0 0 5 4 5
0 0 9 0 0 0 0 0 0 14 19 13 0 0 0
2 3 7 6 8 14 6 10 13 2 11 10 4 0 4
0 0 2 0 0 0 17 2 14 6 0 4 0 0 0
0 0 0 10 18 15 2 17 12 22 16 18 8 14 5
0 0 0 0 3 0 3 0 0 0 0 0 0 0 0
0 0 0 1 0 0 0 0 0 114 119 116 0 0 0
0 0 0 0 0 0 11 17 11 12 26 14 0 0 0
0 0 0 0 0 0 0 0 0 0 0 0 0 0 0
0 4 14 2 0 0 0 0 0 0 0 0 0 0 0
0 0 0 0 0 0 107 105 105 212 201 194 74 61 75
0 0 0 0 0 0 0 0 0 0 0 0 0 0 0
0 0 0 0 0 0 14 12 10 4 1 2 0 0 0
0 1 0 3 0 0 5 7 7 1 0 0 0 6 0
0 0 0 0 0 4 0 0 0 10 13 12 0 0 3
0 0 0 3 6 1 0 0 0 0 0 0 9 0 4
0 0 0 32 26 35 5 0 2 23 17 20 31 25 34
24 12 14 5 17 4 11 0 2 0 0 0 6 15 9
14 33 25 0 3 0 0 0 0 8 6 8 0 0 4
0 0 0 0 0 0 0 0 0 9 7 23 27 27 32
0 0 0 0 0 0 0 0 0 54 53 48 143 155 133
124 112 120 0 0 0 0 0 0 0 0 0 0 0 0
0 0 0 0 0 8 1 17 12 134 132 136 255 255 255
201 201 198 0 0 0 0 0 0 0 0 0 26 24 13
0 0 0 0 0 0 0 0 0 13 7 10 0 2 0
0 0 0 0 0 0 16 16 12 0 0 0 6 3 3
4 13 9 13 8 11 0 0 0 46 49 47 38 30 32
0 0 0 70 70 62 0 0 0 0 0 0 0 0 0
18 14 16 23 33 28 15 19 17 0 0 0 0 0 0
5 1 4 0 1 0 23 13 16 9 13 11 2 0 0
0 0 0 0 3 3 0 0 0 37 28 44 52 41 59
12 13 13 0 0 0 0 0 0 0 0 0 0 0 0
86 80 70 198 192 176 0 0 0 0 0 0 5 0 0
0 0 5 49 52 52 47 47 48 0 0 0 10 8 17
0 0 0 0 0 0 0 0 0 89 87 80 0 2 0
0 0 0 0 6 3 161 165 173 2 7 15 55 50 67
0 0 0 0 0 0 0 0 0 0 0 0 0 0 4
11 27 20 0 0 0 0 0 0 122 144 76 61 52 76
0 0 0 0 0 0 0 0 0 0 0 0 0 7 3
0 0 0 0 0 0 0 0 0 0 0 0 0 0 0
0 0 0 0 0 0 0 0 0 0 0 0 0 0 0
0 0 0 0 0 0 0 0 0 0 0 0 0 0 0
2 5 0 0 0 0 0 1 0 138 175 106 110 115 119
41 32 63 96 83 109 64 38 79 137 131 142 161 165 169
0 0 0 0 0 0 0 0 0 20 10 29 30 27 25
0 0 0 0 0 0 38 19 22 0 0 0 0 0 0
0 1 0 7 0 4 0 0 0 0 0 0 0 0 0
3 0 3 33 25 22 40 29 33 0 0 0 0 0 0
0 0 0 4 4 4 0 0 0 0 0 0 2 3 0
0 0 0 0 0 0 3 0 0 7 8 0 0 0 7
4 0 0 0 0 0 0 0 0 16 17 14 0 1 0
0 0 0 3 0 0 12 3 6 9 3 5 3 0 1
0 2 0 0 0 0 0 0 0 0 0 0 0 0 0
0 0 0 0 0 0 0 5 8 0 0 0 95 93 82
0 0 0 0 0 0 0 0 0 32 26 34 23 25 17
0 0 0 0 0 0 0 0 0 0 0 0 0 0 0
4 2 0 3 10 13 5 8 2 2 0 2 0 0 0
25 29 22 0 0 0 0 0 0 0 0 0 25 23 24
131 137 145 112 120 127 41 52 63 0 0 0 0 0 0
7 12 14 10 15 12 0 0 0 0 0 0 0 0 0
47 43 35 0 0 0 0 0 0 0 0 0 0 0 0
0 0 0 1 0 2 0 0 2 0 0 0 9 13 14
0 0 0 3 1 1 0 4 0 0 0 0 2 4 1
0 2 0 0 0 0 48 54 57 10 16 13 12 18 15
13 16 20 10 4 3 0 5 0 14 0 10 9 8 10
0 2 0 21 15 16 5 0 0 0 0 0 7 6 10
0 4 2 0 0 0 0 7 0 0 0 0 7 6 25
30 29 36 0 0 0 0 0 0 0 0 0 0 16 0
123 130 111 114 102 106 0 0 0 0 0 0 0 0 0
16 4 7 0 0 0 13 4 16 76 79 72 10 19 11
183 187 199 255 255 255 255 255 255 0 0 0 0 0 0
77 74 71 0 0 0 0 0 0 0 6 0 13 18 14
0 18 9 0 0 0 0 0 0 7 0 5 0 0 0
0 0 0 4 1 4 20 13 14 0 0 0 45 40 43
41 44 42 15 5 8 89 80 75 0 0 0 0 0 0
2 2 2 15 13 14 26 22 24 32 22 27 0 3 1
0 0 0 4 0 1 0 6 3 23 13 15 10 20 16
0 0 0 2 0 0 0 4 0 0 0 0 33 5 23
44 22 49 63 58 72 0 0 0 0 0 0 0 0 0
52 50 44 179 192 183 65 76 66 0 0 0 0 0 0
28 23 23 0 0 0 36 25 39 50 60 61 0 0 0
0 0 0 0 0 0 0 0 0 0 0 0 99 92 91
0 0 0 0 0 0 6 9 6 255 255 255 87 88 98
136 131 140 79 78 83 41 44 46 40 38 38 0 0 0
0 0 0 14 12 12 0 0 0 0 0 0 92 104 109
117 121 65 48 61 80 9 7 18 0 0 0 0 0 0
13 11 26 27 15 21 20 9 24 5 12 10 12 0 1
14 5 2 26 22 17 0 0 3 2 1 1 2 5 8
5 2 0 15 16 14 13 17 5 8 7 2 11 15 10
0 0 0 0 0 0 0 0 0 0 0 0 95 84 108
0 0 0 0 0 0 0 0 0 0 0 0 51 53 37
250 255 255 80 75 88 0 0 0 0 0 0 0 0 0
42 38 39 0 0 0 0 0 0 20 20 13 3 0 0
0 0 0 5 11 8 8 9 21 0 0 0 0 0 0
0 0 0 0 0 2 0 0 0 49 50 52 0 0 0
0 0 0 0 0 0 0 0 12 12 3 6 0 0 8
0 0 0 0 0 0 0 0 0 0 0 0 0 0 0
5 0 9 2 0 1 0 0 0 0 0 0 21 13 17
8 2 3 0 0 1 0 0 0 0 0 0 0 0 0
0 0 0 0 0 0 0 0 0 0 1 0 4 0 0
0 0 0 0 0 1 0 0 0 0 0 1 0 0 0
37 47 39 0 0 0 0 0 0 0 0 0 28 35 29
9 24 21 0 2 3 0 0 0 0 0 1 0 0 0
0 0 0 0 6 0 15 2 15 12 15 10 1 3 10
0 0 0 21 28 34 29 33 28 0 0 0 0 0 0
0 0 0 0 0 0 16 10 18 183 182 192 46 30 27
0 0 0 0 0 0 16 6 8 48 39 50 0 0 0
0 0 0 27 17 24 0 0 0 0 0 0 0 0 0
0 3 0 0 0 0 0 0 0 0 0 0 0 0 0
14 20 21 2 2 5 0 0 0 0 0 7 3 5 5
0 0 0 0 0 0 0 0 0 57 53 53 16 9 6
12 4 4 15 3 13 0 1 0 0 0 0 3 0 13
14 26 9 0 0 0 17 25 13 0 0 10 0 0 0
6 5 18 0 3 4 0 0 0 0 10 15 0 0 0
12 13 23 24 25 22 1 7 0 0 0 0 0 0 0
0 0 0 52 53 38 163 149 149 60 49 46 0 0 0
0 0 0 0 0 0 0 0 0 0 0 0 58 48 58
0 0 0 0 0 0 84 78 80 255 255 255 223 215 225
0 0 0 0 0 0 2 7 0 0 0 0 0 1 0
0 5 0 18 17 18 0 0 2 0 0 0 8 0 0
0 0 0 0 0 0 18 14 14 31 34 32 9 13 10
5 14 12 24 25 26 2 9 6 46 33 30 0 0 0
0 0 0 2 4 4 17 17 17 9 9 9 34 30 32
11 21 16 0 0 0 0 0 0 0 0 0 29 21 22
21 17 21 15 9 8 2 0 0 0 0 0 0 0 0
15 7 25 35 21 32 100 98 101 15 7 19 0 0 0
0 0 0 102 104 83 196 208 186 0 0 0 0 0 0
0 0 0 0 0 0 0 0 0 28 34 24 53 47 62
0 0 0 0 0 0 0 0 0 0 0 0 0 0 0
90 90 79 0 0 0 0 0 0 0 0 1 123 108 127
0 0 0 93 80 90 102 103 115 99 104 99 87 88 96
0 0 0 0 0 0 0 0 0 0 0 0 0 0 0
0 0 0 40 38 55 114 155 62 141 130 140 0 0 0
0 0 0 0 0 0 0 1 1 0 0 12 0 0 0
0 0 0 0 0 0 1 8 3 0 0 0 0 0 0
0 0 0 0 0 0 0 0 0 0 0 0 0 0 0
1 4 0 0 0 0 0 0 0 0 0 0 0 0 0
0 0 0 0 0 0 0 0 0 0 0 0 0 0 0
0 0 0 171 164 177 191 202 197 0 0 0 0 0 0
0 0 0 65 67 68 8 9 3 0 0 0 1 9 0
12 7 0 0 0 0 11 11 0 17 12 3 10 9 0
0 0 0 0 0 0 0 0 0 0 0 0 42 46 36
14 14 8 0 0 0 0 0 0 0 0 0 23 15 5
7 19 15 4 19 7 0 0 0 0 0 0 1 4 0
0 3 0 0 2 0 0 0 0 4 0 1 13 4 5
4 0 0 1 0 0 0 0 0 3 0 0 0 1 1
5 0 1 0 1 0 0 0 0 26 22 19 0 0 8
0 0 1 0 3 4 11 0 9 8 3 16 0 0 7
0 0 0 9 4 18 0 0 0 0 0 0 17 14 13
29 17 28 2 6 4 0 0 0 0 0 10 3 0 0
0 0 0 0 0 0 0 0 0 5 12 14 25 21 15
6 16 4 0 0 0 11 1 12 26 23 15 0 0 0
0 0 7 53 40 60 0 0 0 0 0 0 98 107 107
109 104 121 0 3 17 0 0 0 0 0 0 26 36 27
32 43 31 0 6 0 0 0 0 3 0 0 10 3 0
3 0 0 6 0 0 9 0 0 4 1 0 11 2 0
0 0 0 6 14 16 0 1 4 0 0 0 3 1 10
0 3 0 0 0 1 3 3 9 0 0 0 9 18 33
0 0 4 1 10 4 7 10 15 0 0 0 1 0 0
3 0 7 4 10 0 7 0 0 20 21 0 5 1 0
0 0 0 10 3 6 0 1 0 0 0 0 4 5 14
0 0 0 12 4 11 0 0 5 3 12 0 20 15 20
0 0 0 0 0 0 0 0 0 177 164 144 129 123 111
18 6 15 0 0 0 0 0 0 0 0 0 0 0 0
13 28 30 22 42 40 0 0 0 0 0 0 255 255 255
226 227 242 0 0 0 0 0 0 40 44 28 0 0 0
0 0 0 0 0 0 5 9 1 6 4 0 0 0 0
0 0 0 0 0 0 0 0 0 0 0 0 41 42 45
26 21 21 0 0 0 5 0 0 21 23 16 21 33 17
0 0 0 1 0 0 0 4 2 3 3 0 0 0 0
33 31 30 26 22 24 0 0 0 0 0 0 0 1 0
26 18 20 18 12 17 14 8 7 0 0 0 0 0 0
0 0 0 19 0 29 9 0 13 80 78 73 13 8 12
0 0 0 14 25 21 123 125 110 85 95 81 0 0 0
14 20 3 0 0 0 0 0 0 0 0 0 52 42 44
12 5 25 0 0 0 0 0 0 11 12 3 0 0 0
0 0 0 70 70 60 0 0 0 0 0 0 0 0 0
27 29 42 0 0 0 0 0 0 0 0 0 0 0 10
45 57 67 0 6 3 3 14 18 0 0 14 18 22 59
0 0 0 0 0 0 0 0 0 64 62 74 124 130 79
40 52 72 0 0 0 0 0 0 0 0 0 0 0 0
0 0 0 0 0 0 0 0 0 0 0 0 0 0 0
2 11 0 0 2 5 7 10 5 7 10 0 9 14 0
0 0 0 12 13 0 0 0 0 12 9 0 12 7 4
0 0 0 0 0 0 30 37 44 0 0 0 15 18 16
20 26 27 0 0 0 64 61 65 174 182 183 0 0 0
0 0 0 0 0 0 72 71 64 15 29 3 0 0 0
0 0 0 0 0 0 0 0 0 0 0 0 23 17 13
26 22 12 0 2 0 0 0 0 0 0 0 0 0 0
29 34 36 28 28 28 9 8 9 0 0 0 0 0 0
36 25 20 40 55 50 44 39 36 0 0 0 0 0 0
0 0 0 0 0 0 0 0 0 0 0 0 6 0 3
13 10 11 0 0 0 0 0 0 0 0 0 0 0 0
0 0 0 10 4 8 0 4 0 0 0 0 22 18 16
0 0 0 0 0 0 0 0 0 0 0 8 22 5 15
20 8 23 2 0 0 59 37 51 18 15 28 31 26 20
44 35 34 13 16 25 0 0 0 0 0 0 0 0 0
13 5 12 0 0 0 0 0 0 0 0 0 24 17 22
28 38 38 14 11 8 0 6 2 0 0 13 0 0 0
0 0 0 45 59 49 0 8 5 13 6 0 43 42 49
0 0 0 109 103 112 124 121 127 62 57 59 0 0 0
0 0 0 0 0 0 28 24 17 0 5 0 0 0 0
0 0 0 0 0 0 0 0 0 4 0 0 15 5 0
18 10 1 4 6 5 17 11 13 0 10 11 4 3 0
0 4 9 0 4 0 1 5 0 0 0 0 0 0 0
0 0 0 0 0 0 9 4 4 4 3 14 0 0 0
0 0 0 0 0 0 0 0 0 5 1 0 19 24 19
0 0 0 0 0 0 0 0 2 0 0 0 0 0 0
0 0 0 0 0 4 20 23 22 3 0 10 36 36 36
70 53 53 0 0 0 0 0 0 0 0 0 155 125 103
150 139 118 66 53 61 0 0 0 9 0 13 43 30 36
0 0 0 0 0 0 49 56 67 67 72 86 14 18 21
174 173 183 26 41 41 0 0 0 0 0 0 11 6 0
0 0 0 0 0 0 0 0 0 14 10 8 16 24 17
2 5 7 0 0 0 0 0 0 0 0 0 0 0 0
85 83 92 48 43 45 0 0 0 0 0 0 42 34 43
11 16 15 0 0 0 0 0 0 0 0 0 0 0 0
0 0 1 27 36 23 17 26 17 0 0 0 0 0 0
0 0 0 5 12 5 7 9 9 0 0 0 0 0 0
0 0 0 0 0 0 24 9 31 1 0 9 44 43 40
0 0 0 0 0 0 47 52 29 137 152 125 0 15 0
0 0 0 84 88 74 27 22 14 0 0 0 12 12 1
96 91 92 0 0 12 0 0 0 8 13 3 30 42 22
0 0 0 0 0 0 36 40 33 0 0 0 0 0 0
0 0 0 63 73 93 0 0 0 0 0 0 0 0 0
17 29 40 90 120 116 46 73 71 57 86 49 71 68 40
115 116 67 75 82 87 23 14 6 0 0 0 0 0 0
98 118 59 172 163 114 0 0 0 0 0 0 0 0 0
0 0 0 0 0 0 0 0 0 16 10 2 28 22 7
0 0 0 0 1 0 0 2 0 5 11 7 5 7 0
3 2 0 0 0 0 16 2 6 0 0 0 0 0 0
0 0 0 0 0 0 0 0 0 0 0 0 0 0 0
0 0 0 0 0 0 0 0 0 0 0 0 163 151 169
112 94 119 0 0 0 0 0 0 4 0 10 32 27 46
0 0 0 0 0 23 42 40 62 17 20 20 12 23 8
0 0 0 0 0 0 0 0 0 12 6 13 12 25 21
7 9 3 0 0 0 0 0 0 30 30 26 35 29 29
0 4 0 0 0 0 0 0 0 3 0 17 54 56 50
47 36 34 39 37 44 42 35 43 33 31 28 21 24 17
9 15 19 2 15 9 0 0 0 5 2 5 11 12 12
10 13 12 6 8 10 5 1 1 0 0 0 0 0 0
0 0 0 0 0 0 55 45 53 86 85 75 64 70 62
37 39 33 0 20 12 0 4 0 0 0 0 0 0 0
0 4 0 8 13 17 22 24 9 5 7 0 0 0 0
0 0 0 0 0 0 0 2 4 11 11 6 0 5 0
0 0 0 0 0 0 11 0 0 58 62 37 0 0 0
1 0 0 6 0 0 0 0 0 0 0 0 0 0 0
0 0 0 0 0 0 0 0 0 0 3 4 171 176 172
139 144 138 0 0 0 0 0 0 5 6 26 25 37 42
11 6 31 13 18 42 43 49 57 28 35 37 0 0 0
0 0 0 1 8 0 0 0 0 0 0 0 0 0 6
12 0 0 0 1 1 0 0 0 0 0 5 0 0 0
0 0 0 29 34 29 0 0 0 0 0 0 29 34 26
52 50 49 21 14 21 4 0 0 6 19 9 1 8 16
1 7 2 0 0 0 0 0 2 3 12 0 16 18 13
23 21 12 19 14 11 0 0 0 0 0 0 0 0 0
13 13 18 0 0 5 0 0 0 0 0 0 0 0 0
62 61 45 120 112 87 156 158 139 0 0 0 0 0 0
0 0 0 52 50 37 0 0 0 0 0 0 0 0 0
93 96 90 82 83 80 0 0 0 0 0 0 0 0 0
0 0 0 0 0 0 0 0 0 0 0 0 0 0 0
6 7 6 0 0 0 0 0 0 7 0 5 47 47 50
0 0 0 0 0 0 3 0 0 35 38 36 18 15 17
13 7 18 58 66 64 0 0 0 28 23 22 7 0 17
0 0 0 0 0 0 6 0 0 10 1 6 31 22 29
0 0 0 3 0 9 27 32 22 12 21 14 13 11 13
24 30 29 0 8 0 0 0 0 0 0 0 30 22 39
13 17 34 0 0 0 114 106 111 214 228 224 16 5 0
0 0 0 24 37 11 0 0 0 0 0 0 0 6 14
24 34 49 60 68 79 12 19 45 0 0 0 0 5 16
0 0 0 0 0 2 20 12 14 0 0 0 12 6 1
60 34 42 0 0 0 0 0 0 0 0 0 43 33 22
48 25 23 59 57 43 89 80 74 79 82 87 25 98 78
3 0 17 24 33 29 18 26 30 0 0 0 0 0 0
0 0 0 63 56 79 117 190 62 45 26 68 85 75 77
0 0 0 0 0 0 0 0 0 0 0 0 0 0 0
0 0 0 0 0 0 0 0 0 0 0 0 0 0 1
23 24 23 42 34 50 0 2 13 0 0 0 0 2 2
6 0 0 6 7 0 8 8 6 7 1 0 18 18 1
1 0 0 0 0 0 0 0 0 0 0 0 3 0 7
68 57 78 156 159 166 163 152 171 0 0 0 0 0 0
0 0 0 26 24 26 0 0 0 63 65 93 0 0 0
0 1 0 0 0 4 3 6 10 13 16 14 4 5 0
0 0 0 0 0 0 0 1 0 4 8 0 16 18 18
10 4 1 0 0 0 0 0 0 0 0 14 0 0 1
31 13 19 8 0 1 4 0 0 5 0 4 5 0 0
7 1 0 9 3 12 5 4 2 0 0 0 0 0 0
0 0 4 0 0 0 0 0 0 0 0 0 0 0 0
0 0 0 13 7 5 28 24 22 31 25 31 26 26 13
0 9 0 0 0 0 0 0 0 0 0 0 0 0 0
2 2 2 10 7 13 18 20 10 29 21 6 0 10 0
0 0 0 0 0 0 0 0 0 0 4 0 9 1 0
0 4 0 0 0 0 0 0 0 2 14 5 41 44 31
0 0 0 0 6 0 5 0 0 0 3 0 8 2 0
0 3 0 7 5 0 0 0 0 0 0 0 0 0 0
34 31 42 205 204 208 170 171 179 42 36 60 0 0 0
0 0 0 0 0 0 0 0 0 0 0 0 29 26 41
13 11 24 21 20 28 19 22 21 0 0 0 1 0 0
0 0 2 0 0 0 9 0 1 0 2 0 4 0 7
5 5 0 0 0 0 12 12 11 0 0 0 0 0 0
24 20 19 18 33 28 0 7 8 0 0 0 0 3 8
14 8 9 0 6 11 0 0 0 0 0 0 4 2 0
0 5 1 0 0 0 0 5 2 0 0 0 0 0 0
0 4 2 26 20 30 1 11 22 0 0 0 0 0 30
0 0 0 32 24 4 93 93 56 159 166 156 17 23 20
0 0 0 0 0 0 11 0 0 1 5 4 8 0 3
35 33 26 107 105 108 7 25 17 0 0 0 0 0 0
0 0 0 0 0 0 0 0 0 0 0 0 0 0 0
3 2 1 43 38 55 0 0 8 4 6 0 0 0 0
55 51 39 0 0 0 6 5 0 27 16 16 16 14 8
24 18 9 18 10 24 13 22 21 13 5 10 24 24 25
11 11 12 0 0 0 12 12 14 36 36 39 24 24 32
38 38 30 0 0 0 0 0 0 14 11 20 3 9 0
0 5 0 9 18 6 0 4 0 0 0 0 0 0 0
18 19 25 17 22 32 0 0 0 35 26 37 119 120 127
0 0 0 0 0 0 52 38 20 0 0 0 0 0 0
0 0 9 16 18 40 32 47 57 19 22 39 0 0 0
3 0 0 5 3 0 2 0 12 0 0 0 0 0 0
15 20 9 62 42 46 27 7 1 0 0 0 4 0 0
24 10 7 30 10 5 0 0 0 0 0 0 0 0 0
80 37 32 16 66 52 49 50 33 4 3 14 0 0 0
0 0 0 0 0 0 31 27 45 34 25 32 74 70 83
157 162 110 127 140 131 122 130 133 89 100 116 101 105 113
165 162 200 139 132 166 23 18 18 7 0 0 0 0 0
0 0 0 0 0 0 0 0 0 0 0 0 0 0 0
0 0 0 0 0 0 0 0 0 0 0 0 0 0 0
8 23 21 7 0 1 0 0 0 0 0 0 0 0 0
0 0 0 17 10 32 162 155 165 233 233 238 151 164 171
0 0 0 0 0 0 0 0 0 0 0 0 0 0 0
0 0 0 0 1 0 0 0 4 10 10 14 13 9 12
3 7 0 0 0 0 0 0 0 6 6 0 9 3 0
9 16 0 4 3 0 0 0 0 0 0 0 0 0 0
0 0 0 2 3 3 0 0 0 0 0 0 0 3 0
0 2 0 7 13 0 8 14 15 0 3 0 53 47 52
32 33 30 17 21 17 11 19 17 12 18 13 28 34 39
31 40 28 58 52 60 67 51 62 59 41 38 25 26 26
7 1 3 0 0 0 0 0 0 0 0 0 0 0 0
0 0 0 0 0 0 3 3 11 13 20 9 18 16 17
1 12 10 4 10 2 0 0 0 0 0 0 0 0 0
8 0 6 0 4 1 0 0 0 0 0 0 8 9 3
25 17 7 17 6 11 1 10 2 12 0 0 0 1 0
0 0 1 0 5 1 8 1 0 0 2 0 0 0 0
0 0 0 0 0 0 0 0 5 79 79 78 144 147 145
81 75 95 0 0 0 37 27 40 0 0 0 0 0 0
1 1 0 0 0 0 0 0 0 5 8 0 0 2 0
0 0 0 0 0 0 0 0 0 2 0 0 0 3 0
10 4 13 11 8 2 15 24 21 0 0 0 0 0 0
0 0 0 17 8 11 16 25 22 5 5 8 3 0 0
3 9 12 16 7 4 5 14 17 0 0 0 0 0 0
1 0 0 0 0 0 0 0 0 0 0 0 0 3 9
0 0 0 0 0 0 19 4 10 16 12 18 4 0 0
0 1 21 0 0 0 0 0 0 35 36 12 179 182 165
146 136 144 0 0 0 0 0 0 0 0 0 27 24 29
61 59 62 59 61 62 24 23 38 0 0 0 0 0 0
0 0 0 122 119 114 255 255 255 191 216 201 0 0 0
0 0 0 0 0 0 15 21 24 6 7 6 0 0 0
0 0 0 34 18 18 25 13 13 40 31 42 8 13 2
0 0 0 7 15 11 25 22 31 10 6 8 38 27 28
18 16 17 0 0 0 0 0 0 5 5 9 24 24 20
10 10 10 10 10 13 0 0 0 0 0 0 12 11 10
15 13 15 11 8 15 17 14 19 0 0 0 0 0 0
0 0 0 0 0 0 12 14 32 0 0 0 12 10 11
40 50 38 0 0 0 24 27 2 29 42 20 0 0 0
0 0 0 0 0 0 5 4 18 0 9 4 1 0 5
0 0 0 0 0 0 12 23 8 10 13 20 0 0 0
0 0 0 32 42 25 74 53 68 62 62 65 61 49 60
6 0 0 0 0 0 0 0 0 4 3 2 0 0 0
0 0 0 67 38 44 58 136 145 34 79 48 19 15 23
0 0 0 0 0 0 8 13 13 10 14 12 0 0 0
0 0 0 44 51 46 118 118 136 183 179 98 65 76 76
36 40 38 153 144 165 152 141 147 222 213 210 168 164 170
57 53 54 0 0 0 0 0 0 0 0 0 0 0 0
0 0 0 0 0 0 7 10 3 1 5 0 9 11 4
0 0 0 19 25 20 11 0 2 0 0 0 2 0 12
0 0 0 0 0 0 15 15 31 16 10 24 36 24 40
196 188 198 180 181 195 0 0 0 0 0 0 18 0 23
0 0 0 25 38 14 0 18 9 0 0 0 0 0 0
0 0 0 0 0 0 0 0 0 0 0 0 0 0 0
0 0 0 11 9 7 0 10 0 0 0 0 0 0 0
0 0 0 0 0 0 8 7 3 0 0 0 0 0 0
0 1 0 2 0 0 6 0 1 4 0 0 0 0 0
51 42 49 26 24 26 27 16 18 17 18 23 29 16 17
28 36 37 44 37 32 49 54 44 33 16 23 14 19 15
1 0 6 0 0 0 0 0 0 0 0 0 0 0 0
4 7 6 0 0 0 0 4 0 7 0 0 7 10 8
12 7 14 11 4 7 8 0 4 0 0 0 0 2 0
0 0 0 21 4 20 6 1 10 0 0 0 0 0 0
8 5 13 0 3 0 32 33 44 3 6 14 3 2 6
2 0 5 1 0 0 0 0 0 9 0 7 4 0 0
0 0 0 14 14 15 0 0 0 0 0 0 0 0 0
0 0 0 47 47 58 255 255 255 144 142 144 34 32 28
0 0 0 0 0 0 0 0 0 0 0 0 0 0 0
0 0 0 0 0 0 0 0 0 0 0 0 8 0 2
0 5 2 7 1 10 11 8 2 14 23 20 0 0 0
0 0 0 0 0 0 13 4 7 9 18 15 12 12 15
8 2 2 0 3 6 20 11 8 0 9 12 0 0 0
0 0 2 4 0 0 0 3 0 0 0 1 0 0 0
15 17 19 0 0 0 0 0 0 0 0 0 7 13 7
7 18 4 6 5 21 0 0 0 0 0 0 0 0 0
114 106 96 192 187 184 116 110 106 0 0 0 0 0 0
0 0 0 0 0 0 0 0 0 0 0 0 0 0 0
63 73 80 141 150 152 169 168 169 179 185 189 255 255 255
147 164 147 0 0 0 0 0 0 0 0 0 28 34 22
0 0 0 0 0 0 0 0 0 24 27 17 59 51 57
0 0 0 0 0 0 14 16 14 47 42 52 13 25 21
28 31 38 5 0 0 0 0 0 0 0 0 10 4 0
24 18 14 3 0 0 0 0 0 0 0 0 0 0 0
9 2 9 17 10 0 27 19 30 23 16 5 6 1 9
0 0 0 0 0 0 0 0 0 0 0 3 3 0 4
9 5 13 0 7 7 0 0 0 36 35 10 14 14 3
0 0 0 0 0 0 0 0 0 16 8 20 0 0 0
0 0 0 0 0 0 0 0 0 25 25 14 4 0 6
0 0 0 0 2 11 0 0 0 6 8 20 56 53 46
61 62 74 33 27 20 0 0 0 0 0 0 17 13 16
0 0 0 12 0 5 0 0 0 143 125 152 63 86 87
81 72 80 0 0 0 0 0 0 48 54 55 17 19 21
0 0 0 0 0 0 0 0 0 0 0 0 83 73 92
10 16 31 0 0 0 0 0 0 0 0 0 0 0 0
0 0 0 135 124 128 255 244 254 255 255 255 244 241 236
122 120 129 94 98 96 0 0 0 19 27 28 21 8 8
14 16 8 0 0 0 0 4 4 0 0 0 0 0 0
0 0 3 0 0 0 0 0 5 24 25 22 0 0 0
0 0 0 0 0 0 44 54 70 63 67 63 3 16 9
0 0 4 21 22 26 35 40 33 4 18 8 4 0 0
0 0 0 0 0 0 0 0 0 0 0 0 0 2 0
0 0 0 0 12 0 4 6 5 5 0 2 2 0 0
0 1 0 0 10 2 7 6 0 21 24 20 16 13 6
0 0 0 5 0 0 0 0 0 0 0 0 0 0 0
0 0 0 0 0 0 0 0 0 0 0 0 0 0 0
0 0 0 0 0 0 0 0 0 0 0 0 0 0 0
0 0 0 0 0 0 0 0 0 0 0 0 10 7 11
12 24 13 17 22 27 3 6 9 0 4 2 18 1 8
0 5 2 0 4 9 0 0 0 0 0 0 0 0 0
1 0 0 0 1 3 7 9 5 0 9 0 0 0 0
0 0 0 3 0 0 0 0 0 44 36 44 7 8 5
15 4 5 0 2 0 0 0 0 0 5 0 0 0 4
0 15 5 11 6 10 4 7 0 0 0 0 13 16 15
48 47 52 0 0 0 0 0 0 57 58 64 85 80 99
0 0 0 0 0 0 23 23 25 32 32 35 13 13 14
0 0 0 0 0 0 14 8 6 6 6 12 0 0 0
9 0 3 0 0 0 3 0 6 7 4 0 4 13 10
0 0 0 0 0 0 0 0 0 2 0 0 0 6 3
17 17 20 13 7 7 1 7 10 17 8 5 4 13 16
0 0 0 0 0 0 5 0 0 0 0 0 0 0 0
0 0 0 15 9 11 0 0 2 0 0 0 0 0 0
15 0 19 20 10 12 0 9 30 0 0 0 0 0 0
0 0 0 0 0 0 147 141 144 192 191 187 80 84 76
0 0 0 0 0 0 0 0 0 0 0 0 0 0 0
0 0 0 84 75 89 102 108 104 0 0 2 0 0 0
51 69 59 105 114 96 25 29 32 0 0 0 0 0 0
20 19 7 14 25 22 0 0 0 0 0 0 6 9 1
38 48 40 0 0 0 0 0 0 11 8 2 60 45 66
48 49 57 48 46 41 14 18 20 0 0 0 0 1 7
20 26 32 21 27 33 3 9 18 0 2 0 0 1 0
0 0 0 0 0 0 5 19 4 19 23 32 17 31 16
0 2 8 0 0 0 0 0 0 0 0 0 0 0 0
18 5 17 20 9 7 8 3 5 15 12 3 5 15 0
15 19 11 0 0 0 0 0 0 33 41 36 29 27 31
0 2 9 0 0 0 0 0 0 13 9 2 0 9 0
0 0 0 0 0 0 14 27 9 0 0 0 0 0 0
0 0 0 24 28 40 45 34 35 18 16 32 0 0 0
0 0 0 0 0 0 0 0 0 0 0 0 42 40 53
54 48 54 89 113 117 52 56 48 23 26 46 48 66 47
22 24 32 0 0 0 13 18 23 0 0 0 0 0 0
53 63 58 153 155 157 0 0 0 0 0 0 0 0 0
0 0 0 0 0 0 0 0 0 0 0 0 0 10 6
9 12 21 11 16 4 68 60 68 0 0 0 0 1 0
0 0 0 0 0 0 0 0 0 0 0 0 0 0 0
0 0 0 0 0 0 0 0 0 0 0 0 0 0 0
0 0 0 0 0 0 0 0 0 0 0 0 0 0 0
0 0 0 0 0 0 0 0 0 0 1 0 0 9 1
18 4 4 9 16 25 19 14 19 2 9 0 1 0 1
0 0 0 0 0 0 3 5 0 10 0 7 0 10 0
0 1 0 1 0 0 13 6 17 11 18 11 26 24 21
21 9 0 17 7 5 8 1 0 0 0 0 0 0 0
0 0 0 0 0 0 0 0 0 0 0 0 0 0 0
0 0 0 0 0 0 0 0 0 0 0 0 0 0 0
0 0 1 0 0 0 0 0 0 0 0 0 5 2 1
3 0 0 6 11 14 0 0 0 16 16 15 2 9 2
3 0 10 0 1 0 1 0 0 0 0 0 0 0 0
0 0 0 0 0 2 4 0 10 16 1 15 6 3 14
0 0 0 0 0 0 0 0 1 0 0 0 40 32 34
0 7 0 0 4 17 0 0 0 5 0 12 0 0 0
3 0 6 0 0 3 0 0 0 31 28 33 60 61 60
14 10 16 0 0 9 0 0 0 0 0 0 0 0 0
86 77 86 0 0 0 0 0 0 0 0 0 0 0 0
0 0 0 7 11 0 0 0 0 21 16 9 8 9 13
1 1 0 12 3 6 0 4 1 0 0 3 0 0 0
0 0 0 0 0 0 0 0 5 0 0 0 0 0 0
0 0 0 16 16 19 15 9 9 0 0 3 11 2 0
0 5 8 0 0 0 0 0 0 9 0 0 1 1 0
5 0 0 0 0 0 3 10 0 2 9 6 0 0 0
0 0 0 5 0 0 20 16 2 10 12 26 0 0 0
0 0 0 0 0 0 0 0 0 30 37 31 160 162 151
148 148 143 11 0 0 0 0 0 0 0 0 0 0 0
0 0 0 0 0 0 13 16 6 41 51 64 27 22 36
0 0 0 21 46 26 33 44 39 59 61 63 0 0 0
0 0 0 0 0 0 31 28 14 0 0 0 0 0 0
0 0 0 19 7 15 4 0 0 0 0 0 0 0 0
36 24 33 81 86 101 13 12 13 0 0 0 0 0 0
3 3 0 8 8 2 4 4 0 0 0 0 0 0 0
33 33 37 0 0 0 0 0 0 0 0 0 26 24 36
23 22 10 0 1 12 0 0 0 23 25 24 10 1 4
0 0 0 3 0 15 0 0 5 24 34 35 58 46 41
0 0 0 1 0 4 0 0 0 0 0 0 38 45 30
29 25 44 0 0 1 0 0 0 0 0 0 22 12 10
0 0 0 0 0 0 1 9 6 6 13 6 0 0 0
0 0 0 0 0 0 59 65 56 8 7 0 0 0 0
16 21 30 76 55 58 0 0 0 0 0 0 0 0 0
0 0 0 0 0 0 58 52 52 69 67 70 27 44 38
37 41 13 8 13 34 25 32 35 62 57 72 0 0 0
0 0 0 0 0 0 170 168 174 187 183 173 0 0 0
0 0 0 0 0 0 0 0 0 0 0 0 0 0 0
0 0 0 0 0 0 0 0 0 0 0 0 0 0 0
0 2 0 0 0 0 0 0 0 0 0 0 14 17 0
0 0 0 0 0 0 1 0 0 1 14 3 0 0 0
0 0 0 0 0 0 9 4 11 42 36 45 0 0 0
0 0 0 0 0 0 0 0 0 0 0 0 0 0 0
0 0 7 10 0 14 11 11 14 28 17 30 11 24 10
4 0 8 5 10 9 0 0 0 0 12 0 7 10 0
8 11 5 0 0 0 0 1 0 4 12 0 5 14 0
12 7 12 0 11 0 0 10 11 0 4 0 0 0 0
0 0 0 0 0 0 0 0 0 20 19 9 12 6 10
5 11 3 7 17 0 4 12 0 0 0 0 0 2 0
0 0 0 15 14 9 0 0 0 0 0 0 0 0 0
0 0 0 0 3 0 0 0 0 0 0 0 18 18 6
0 1 0 0 0 0 0 0 0 0 0 0 0 0 0
2 0 0 0 0 0 3 0 8 0 1 0 11 13 5
3 18 5 0 0 0 0 0 0 0 0 0 0 0 0
13 20 13 0 0 0 5 0 11 0 4 0 1 0 9
0 9 0 0 0 5 8 11 0 50 37 28 0 0 0
0 0 0 0 0 0 0 0 0 0 0 0 0 0 0
8 14 18 109 102 117 0 0 0 0 0 0 0 0 0
0 0 0 0 0 0 11 7 12 4 14 13 19 6 13
7 9 11 5 5 0 11 2 5 0 0 0 0 0 3
0 0 0 0 3 0 0 0 0 10 7 16 0 0 0
0 0 0 0 0 0 13 13 16 19 13 13 0 0 0
6 0 0 0 6 9 0 0 0 0 0 0 0 0 2
0 10 15 6 8 11 8 7 15 0 0 0 8 4 0
8 2 10 0 0 0 0 0 0 12 0 2 15 17 26
0 0 0 0 0 0 0 0 0 0 0 0 0 0 0
25 28 26 136 125 130 77 64 64 58 43 37 0 0 0
0 0 0 0 0 0 6 0 6 0 0 5 42 43 47
53 66 75 33 41 54 47 62 56 42 63 54 45 56 46
0 0 0 0 0 0 0 0 0 29 28 17 0 0 0
0 0 0 0 0 0 0 0 0 1 10 0 0 0 0
0 0 0 0 0 0 102 90 112 0 0 0 0 0 0
0 0 0 0 0 0 0 0 0 0 0 0 0 0 0
0 0 0 52 52 62 0 0 0 0 0 0 0 0 0
21 21 35 18 18 10 5 5 19 0 0 0 28 26 14
30 37 28 0 0 0 0 0 0 0 0 0 48 52 55
103 89 84 0 0 0 0 0 0 0 0 0 7 1 17
10 17 22 1 0 6 0 0 2 5 11 7 0 0 0
0 3 0 0 0 0 3 0 14 8 6 11 0 0 0
0 2 0 9 3 1 0 0 0 77 62 69 3 4 6
0 0 0 17 13 23 162 145 159 85 90 94 0 0 0
49 35 34 0 0 0 0 0 0 0 0 0 37 28 29
38 55 66 17 20 12 0 4 14 69 77 63 56 57 69
0 0 0 0 0 0 0 0 0 18 13 28 227 218 218
0 0 0 0 0 0 0 0 0 20 14 37 31 32 42
47 41 41 41 44 55 40 44 53 23 33 40 25 29 27
31 27 35 27 22 26 5 1 6 0 0 0 12 16 13
46 58 38 35 27 34 0 0 0 14 18 8 41 46 40
19 10 15 0 0 0 26 20 24 8 8 9 0 3 6
0 0 0 46 48 36 180 192 195 139 127 136 28 25 30
0 0 0 0 0 0 0 0 0 0 9 14 19 10 16
27 34 32 29 16 24 22 33 24 0 0 0 0 0 0
15 9 11 9 21 11 0 6 0 0 0 0 8 5 0
0 13 0 0 0 0 0 0 0 0 0 0 0 0 0
0 0 0 0 0 0 4 7 2 2 1 0 37 32 29
21 17 10 0 6 3 0 0 0 0 0 0 0 0 0
0 0 0 0 0 0 25 19 26 0 0 0 0 0 0
0 0 0 1 0 0 5 4 0 0 0 0 0 0 0
2 4 0 0 0 0 0 0 0 0 0 0 0 0 0
0 0 0 0 0 0 0 9 0 0 0 0 0 0 0
14 0 12 6 4 1 0 0 0 0 0 0 2 0 10
3 5 0 26 20 32 11 23 14 14 12 20 18 23 12
28 13 24 8 8 0 13 4 15 0 0 0 0 0 0
15 14 5 47 44 39 7 8 0 0 0 0 9 8 17
21 21 25 0 0 0 60 54 56 11 10 19 41 37 56
29 30 30 0 0 0 0 0 0 20 18 30 0 5 0
0 0 0 0 0 0 0 0 0 0 0 0 0 0 0
4 0 7 10 7 1 0 8 5 0 0 0 10 7 16
0 3 0 0 0 0 0 0 0 12 12 15 26 20 20
2 8 11 28 19 16 0 8 9 0 0 0 0 0 0
0 0 0 2 6 6 20 14 13 17 25 18 0 0 0
20 15 19 9 10 23 0 0 0 0 0 0 15 10 18
19 31 23 9 8 17 0 0 0 1 10 0 0 0 0
0 0 0 20 24 12 187 193 188 177 166 154 113 113 112
16 0 0 0 0 0 0 0 0 0 0 0 0 0 0
8 9 8 32 36 48 0 0 0 0 0 0 18 36 30
0 0 0 0 0 0 0 0 0 65 69 60 37 36 42
0 0 0 1 12 0 0 0 0 0 0 0 49 46 40
16 18 27 0 0 0 18 0 15 136 129 129 24 22 19
0 0 0 1 0 0 16 13 13 3 0 0 0 0 0
0 0 0 29 26 20 74 71 67 0 0 0 0 0 0
0 0 0 17 14 12 8 5 1 0 0 0 0 0 5
13 0 2 50 38 48 7 0 2 0 0 0 0 0 0
46 47 48 113 116 116 0 0 0 0 0 0 11 16 7
24 17 27 5 10 17 0 0 0 0 0 0 13 5 7
0 0 0 0 0 0 0 0 0 17 12 7 0 4 0
0 12 0 117 123 129 115 113 113 0 0 0 0 0 2
76 70 65 34 28 32 0 0 0 87 80 82 65 62 55
0 0 0 7 0 0 10 1 20 0 0 0 0 0 0
36 28 40 82 83 92 11 40 31 20 36 4 62 115 24
143 146 162 0 0 0 0 0 0 0 0 0 0 0 0
221 218 221 0 0 0 0 0 0 0 0 0 1 6 29
4 7 13 13 20 11 32 17 40 31 26 25 24 17 34
27 33 24 88 85 92 73 72 56 38 33 26 10 0 0
0 6 0 0 2 0 22 29 15 44 40 33 32 28 35
21 20 12 12 0 3 0 0 0 0 0 0 0 0 0
0 0 0 3 0 0 156 141 139 220 234 232 204 189 186
255 255 255 0 0 0 0 0 0 0 0 0 0 0 0
0 0 0 0 0 0 0 0 0 18 24 30 64 50 66
0 7 0 0 0 0 0 0 0 3 0 2 12 25 13
0 0 0 0 0 0 46 33 38 31 25 21 32 25 32
41 29 33 28 34 33 20 25 22 0 0 0 0 0 0
31 43 34 0 0 0 0 0 0 13 11 2 58 62 56
59 60 53 24 19 7 0 0 0 7 8 19 10 5 7
5 9 11 2 0 4 0 0 0 0 0 0 2 0 0
18 16 17 0 0 0 1 0 0 0 0 0 0 0 0
6 0 0 0 2 0 0 1 0 0 0 0 18 5 14
0 10 0 15 17 26 8 25 7 10 9 18 0 4 0
1 0 2 0 0 0 0 0 0 0 0 0 0 0 0
0 0 0 0 0 13 0 2 0 0 0 3 0 0 0
4 9 5 0 0 0 0 0 0 0 0 0 0 0 0
0 0 0 0 0 0 0 0 0 22 16 17 0 0 0
12 11 3 19 16 22 24 27 19 11 12 14 15 14 21
23 28 37 2 0 0 18 21 21 23 23 17 30 21 24
6 15 12 6 0 9 0 0 0 0 0 0 0 0 0
0 0 1 0 6 0 0 0 0 0 1 0 25 25 28
11 7 6 0 0 0 0 0 0 0 0 0 6 6 10
16 16 26 6 6 2 0 0 0 0 0 0 0 0 0
0 0 0 0 0 0 0 0 0 3 2 4 0 4 7
6 1 0 0 0 0 0 0 0 6 0 3 0 1 0
0 0 0 0 0 0 0 0 0 0 0 0 55 49 44
255 255 255 59 47 43 60 56 43 0 0 0 0 0 0
0 0 0 41 34 45 46 31 50 26 29 29 14 24 29
13 36 24 0 0 0 0 5 2 66 78 79 36 42 42
0 0 0 5 7 7 0 0 1 0 0 0 0 0 0
0 0 0 0 0 0 0 0 0 8 0 6 0 0 0
80 80 83 29 32 32 8 11 11 7 10 10 21 24 24
19 22 18 11 14 24 0 0 0 0 0 2 19 22 28
0 0 0 0 0 0 40 43 49 46 49 55 0 0 0
16 24 21 52 56 42 0 0 0 0 0 0 0 0 0
0 0 0 66 59 69 64 60 68 0 0 0 12 5 25
0 0 0 0 0 0 16 25 25 22 15 10 0 0 0
0 0 0 14 11 17 0 0 0 0 0 0 26 33 36
60 57 65 0 0 0 0 0 0 0 0 0 225 225 220
0 0 0 25 17 11 34 18 28 0 0 0 0 0 0
0 0 0 0 0 0 11 13 0 28 3 27 63 34 67
25 15 17 20 20 17 144 124 144 68 144 132 36 34 48
0 0 0 141 149 118 71 89 79 95 99 99 0 0 0
0 0 0 145 140 142 41 34 29 0 0 0 0 0 0
0 0 0 0 0 0 5 8 8 0 0 12 0 0 0
0 0 10 66 62 64 0 0 0 0 0 0 0 0 0
0 0 0 0 0 0 0 0 0 0 8 4 0 3 0
5 8 3 2 7 0 0 0 4 0 0 0 0 0 0
0 0 0 0 0 0 71 77 86 114 120 113 70 69 68
49 46 52 185 179 167 201 201 211 86 92 103 17 6 15
45 50 61 20 9 18 0 0 0 43 34 45 36 43 39
47 34 48 12 14 15 0 0 0 0 0 0 0 0 0
0 0 0 0 0 0 0 0 0 0 0 0 0 0 0
0 0 0 1 0 0 14 9 5 5 16 14 6 15 11
16 15 11 48 45 41 0 2 0 0 0 0 6 8 2
37 43 33 27 25 17 0 0 0 0 0 0 3 7 0
2 8 10 5 12 0 0 0 0 0 0 0 0 0 0
0 0 0 8 21 9 2 0 0 4 2 0 6 0 0
0 0 0 0 0 0 1 0 0 0 0 0 0 0 0
9 5 2 3 1 8 16 4 14 10 12 14 9 0 5
0 0 0 0 4 5 12 8 10 0 0 0 0 3 0
0 0 12 15 12 0 13 0 18 5 7 0 5 0 10
0 0 0 8 8 24 3 0 0 0 0 5 0 0 2
0 0 0 3 3 0 1 1 10 0 0 0 15 9 18
4 5 8 9 11 5 14 16 13 4 5 3 3 3 3
7 7 12 14 20 26 0 0 0 0 0 0 0 0 0
0 0 0 0 0 0 0 0 0 0 0 0 0 0 0
0 0 0 5 2 11 0 0 0 0 0 0 0 0 0
18 18 21 13 11 9 0 0 0 0 0 0 0 0 0
0 0 0 1 0 6 4 0 0 3 0 0 1 0 0
0 0 0 5 0 3 0 1 3 0 0 9 0 2 0
4 3 1 9 5 13 0 0 11 0 0 0 11 21 13
0 5 0 4 4 14 0 0 0 0 0 0 0 0 0
39 44 31 96 87 87 169 163 156 72 72 62 0 0 0
0 0 0 0 0 0 21 23 26 34 18 36 16 10 21
0 0 0 0 0 0 0 0 0 0 0 0 52 57 58
48 59 52 0 0 0 0 0 0 15 26 19 0 0 0
0 0 0 6 0 5 6 2 0 1 7 0 43 24 29
9 4 12 51 39 52 11 8 11 8 8 8 7 7 7
0 0 0 0 0 0 0 0 3 3 3 7 0 0 2
31 31 31 0 0 0 0 0 0 25 25 25 23 23 23
0 0 0 13 15 23 19 14 10 0 0 0 15 5 21
0 0 0 0 0 0 27 38 52 54 42 45 46 61 50
0 0 0 0 0 0 0 0 0 0 0 4 6 1 5
0 0 0 0 0 0 4 1 3 0 0 0 0 0 0
27 30 36 39 41 27 0 0 0 0 0 0 0 0 0
98 93 90 0 0 0 83 77 80 64 68 73 56 54 45
93 82 85 0 0 0 0 0 0 59 66 58 0 0 0
0 0 0 0 0 0 0 0 0 0 0 0 50 46 57
71 59 60 0 0 0 60 69 64 0 0 0 51 53 44
23 28 19 0 0 0 182 175 160 211 198 204 62 56 52
0 0 0 0 5 10 0 0 0 0 0 0 0 0 0
0 0 0 0 0 0 0 0 0 0 0 0 0 0 0
0 0 0 0 0 0 0 0 0 0 0 0 0 0 0
0 0 0 0 0 0 0 0 0 0 0 8 0 0 0
0 0 0 18 9 25 63 50 60 30 27 24 0 0 0
0 0 0 0 0 0 0 0 0 0 0 6 0 0 0
0 0 0 0 0 0 0 0 0 0 0 0 0 0 0
0 0 0 7 11 8 0 0 4 0 0 4 0 0 0
0 0 0 2 0 4 27 14 22 42 29 41 16 4 16
30 21 31 38 27 45 29 32 36 16 18 28 6 0 3
9 0 5 15 30 23 0 0 0 4 3 6 17 15 9
36 26 22 20 15 14 0 0 0 0 0 0 0 0 0
15 10 10 2 5 9 8 2 6 1 0 0 0 0 0
0 0 0 0 0 0 7 20 14 0 0 0 0 9 2
2 0 0 0 0 0 0 0 0 4 0 0 0 4 0
0 0 0 17 5 11 0 7 0 7 7 1 0 7 0
0 4 0 3 3 0 3 0 0 0 11 5 0 0 0
3 7 0 5 1 10 0 10 0 9 6 16 0 9 0
0 0 11 0 1 0 1 0 12 3 0 0 2 0 10
0 0 0 0 0 0 0 2 0 0 3 0 4 13 0
0 0 0 0 0 0 0 0 4 0 0 1 1 0 0
0 0 6 6 5 18 6 11 22 0 0 0 0 0 0
0 0 0 0 0 0 0 0 0 0 0 0 0 0 0
0 8 5 0 0 0 5 2 11 1 7 0 1 0 0
0 0 0 12 12 15 7 7 4 0 0 0 0 0 0
0 0 0 0 0 0 0 0 0 0 0 0 0 0 0
0 0 4 0 0 0 4 9 22 6 0 0 4 2 8
13 0 7 0 0 0 0 0 0 0 0 0 0 0 0
29 18 23 10 0 0 3 11 12 0 0 0 0 0 0
0 0 0 0 0 0 0 0 0 229 225 216 156 145 140
120 121 111 33 20 17 0 0 0 0 0 0 0 0 0
0 0 0 0 0 0 0 0 0 0 0 0 0 0 0
69 79 79 66 75 66 0 8 8 0 0 0 27 35 34
0 1 0 0 0 0 0 0 0 0 0 0 0 0 0
22 11 0 31 24 20 0 0 0 0 0 0 35 35 35
30 30 30 0 0 0 0 0 0 0 0 0 14 14 4
1 1 5 37 37 37 0 0 0 0 0 0 20 20 20
1 1 1 0 0 0 19 20 22 0 0 0 6 10 12
23 28 25 0 0 0 0 0 0 0 0 0 24 8 28
159 171 176 0 0 0 0 0 0 0 0 0 0 1 4
0 0 0 0 0 0 10 5 8 0 0 0 9 14 5
0 0 0 0 0 0 0 0 0 13 12 16 32 34 33
0 0 0 0 0 0 0 0 0 0 0 0 3 0 0
23 32 22 152 146 151 94 95 85 0 0 0 0 0 0
0 0 0 0 0 0 0 0 0 0 0 0 0 0 0
0 0 0 70 85 88 22 31 34 16 25 18 0 0 0
0 0 0 6 20 10 0 0 0 27 37 54 159 149 128
21 27 39 0 0 0 0 0 0 0 0 0 0 0 0
0 0 0 0 0 2 0 0 3 0 0 0 0 0 0
0 0 0 0 0 0 0 0 0 0 0 0 0 0 0
0 0 0 0 0 0 0 2 0 12 4 6 6 4 4
0 0 0 85 68 77 106 107 113 103 102 107 3 4 9
0 0 0 0 0 0 0 0 0 0 0 0 32 22 30
0 0 0 0 0 0 0 0 0 0 0 0 0 0 0
0 0 0 0 0 0 34 28 42 20 16 23 37 27 30
29 26 26 37 21 40 22 34 20 32 36 42 34 38 30
51 57 69 25 34 43 1 8 4 0 0 0 0 0 0
0 0 0 0 0 0 0 0 0 0 0 0 0 0 0
0 0 0 0 0 0 0 0 0 0 0 0 0 0 0
17 0 11 0 2 1 0 13 10 6 0 0 0 0 0
0 0 0 0 0 0 0 0 8 3 13 0 0 0 0
0 9 0 6 0 0 0 0 0 0 0 0 4 0 0
0 4 0 0 0 0 9 9 16 1 0 0 7 0 4
4 4 10 4 0 7 0 0 6 0 2 7 0 0 0
0 0 0 0 0 0 0 1 0 2 2 2 15 0 8
8 11 0 0 0 4 0 0 0 4 0 9 1 0 0
0 0 3 3 4 1 0 0 5 2 1 0 0 0 5
6 11 10 0 0 0 0 0 0 0 0 0 0 0 0
0 2 0 0 0 0 0 0 0 0 4 0 0 0 0
0 0 0 0 0 0 4 0 0 0 0 0 11 5 14
12 9 3 34 43 40 0 0 0 8 5 14 1 7 0
7 0 1 0 0 0 1 1 4 0 0 0 0 0 0
0 1 0 0 0 0 0 3 0 4 0 5 0 4 0
0 0 0 0 0 4 0 0 0 12 7 18 0 8 14
3 0 4 1 0 0 0 0 0 0 0 0 0 0 3
0 0 0 25 17 19 0 0 0 6 11 8 0 3 3
0 0 0 0 0 0 0 0 0 0 0 0 33 29 25
86 79 88 201 205 201 141 155 139 20 3 7 0 0 0
0 0 0 0 0 0 0 0 0 0 0 0 0 0 0
10 13 0 57 53 49 29 35 39 0 10 20 3 11 7
20 18 19 0 0 0 0 0 0 0 0 0 0 0 0
0 0 0 17 13 7 68 59 61 0 0 0 5 0 3
79 70 79 79 70 79 14 5 14 0 0 0 0 0 0
22 13 12 0 0 0 29 20 27 8 0 4 0 0 0
15 6 9 0 0 0 0 0 0 28 22 23 0 0 0
27 27 23 23 23 26 0 0 0 18 6 14 0 0 0
0 0 0 171 180 176 0 0 0 0 0 0 0 0 0
71 74 77 26 23 20 0 0 0 30 23 26 0 8 8
0 0 0 22 29 21 55 47 58 2 7 3 0 0 0
15 23 20 47 44 50 19 15 12 0 0 0 0 0 0
0 0 0 0 0 0 0 0 0 61 61 53 57 62 45
0 0 0 0 0 0 8 0 9 28 27 20 0 0 0
0 0 0 9 0 0 51 53 51 54 63 53 75 87 80
0 0 0 0 0 0 0 0 0 0 0 0 0 4 24
155 139 101 71 70 115 0 0 0 0 0 0 1 4 1
11 1 11 15 10 20 2 2 9 0 0 0 0 0 0
0 0 0 5 5 1 0 4 0 2 6 0 0 7 0
6 4 9 0 0 0 7 0 0 0 0 0 13 13 15
21 22 27 2 3 0 63 48 53 0 0 0 0 0 0
0 0 2 4 2 7 0 0 0 25 19 22 82 79 83
121 108 125 125 129 133 155 154 145 126 135 124 81 75 89
35 52 48 0 0 10 0 0 0 0 0 0 0 0 0
0 0 0 0 0 0 0 0 0 0 0 0 0 0 0
0 0 0 0 0 0 0 0 0 0 0 0 0 0 0
0 0 0 0 0 0 0 0 0 0 0 0 80 79 87
51 45 41 2 7 15 0 0 0 0 0 0 0 0 0
0 0 0 55 32 54 0 0 0 0 11 5 3 0 0
0 0 4 0 0 0 0 0 0 0 1 0 0 0 4
2 0 0 0 3 4 6 0 0 0 0 0 0 0 0
2 0 0 0 0 0 0 0 0 10 6 11 0 3 6
0 0 0 0 5 0 0 1 0 1 9 0 7 2 0
1 0 1 5 0 0 0 6 0 0 0 0 0 7 4
0 0 8 0 7 0 0 4 10 0 3 0 5 0 12
8 0 0 0 0 11 2 0 0 0 0 1 4 9 0
5 1 9 8 10 9 0 0 0 0 0 0 4 3 0
0 0 0 0 0 0 0 0 0 0 0 0 0 0 0
0 0 0 0 0 0 4 4 0 34 25 28 23 32 29
35 29 38 25 22 16 49 58 55 0 0 0 5 2 11
0 5 0 6 0 0 0 3 0 0 0 0 0 0 0
0 0 0 14 20 21 6 0 10 0 6 0 5 0 4
7 13 14 3 3 7 6 6 8 0 0 0 7 13 16
1 0 6 0 7 4 0 0 0 0 0 0 0 0 0
0 0 0 0 0 0 0 9 7 0 0 0 5 7 4
14 26 24 8 2 8 0 0 0 0 0 0 0 0 0
0 0 0 0 0 0 105 103 107 157 158 149 149 142 143
95 86 84 0 0 0 0 0 0 0 0 0 0 0 0
0 0 0 0 0 0 0 0 0 0 0 0 0 0 0
0 19 18 0 0 0 0 3 0 0 2 10 0 0 0
0 0 0 0 0 0 17 16 10 82 86 87 0 0 0
3 0 0 76 85 76 92 101 92 37 46 37 0 0 0
0 0 0 0 6 1 0 0 0 9 18 5 1 10 11
0 0 0 0 5 2 0 0 0 0 0 0 12 27 20
0 0 0 39 39 41 15 15 16 0 0 0 16 28 20
0 0 0 0 0 0 90 95 99 185 182 188 0 0 0
0 0 0 0 0 3 35 31 33 0 0 0 0 0 0
28 38 33 0 0 0 25 31 21 26 28 33 0 0 0
0 0 0 9 10 0 31 45 41 0 0 0 112 114 113
0 0 0 3 12 13 15 12 10 0 0 0 0 0 0
0 0 0 0 0 0 5 0 0 38 48 56 10 6 0
2 0 0 18 14 14 0 0 0 0 0 0 119 121 127
81 86 83 4 12 16 0 0 0 0 0 0 0 0 0
20 19 45 174 175 115 231 227 157 0 0 0 0 0 0
0 0 0 0 0 0 0 0 0 0 0 0 0 0 0
0 0 9 0 0 0 0 0 0 0 0 0 0 0 0
14 10 15 4 11 3 0 8 0 0 5 14 2 12 10
18 17 15 17 9 23 3 2 0 0 0 2 0 0 0
0 0 0 0 0 0 0 0 5 13 21 21 0 9 13
0 0 0 0 0 0 0 0 0 34 27 25 68 70 69
85 73 86 70 66 66 0 0 0 0 0 0 0 0 0
0 0 0 0 0 0 0 0 0 0 0 0 36 34 30
44 63 58 64 60 67 55 42 57 47 41 48 64 56 70
74 82 89 88 87 104 89 89 85 75 59 70 48 47 57
17 9 16 0 0 0 0 0 0 0 0 0 0 0 0
0 0 0 11 9 30 73 60 70 0 0 0 0 8 0
7 0 8 0 0 0 0 0 3 0 0 7 5 4 5
0 4 3 4 0 0 0 5 3 6 0 3 0 0 0
0 0 0 0 1 0 0 0 0 0 0 0 17 9 18
0 0 4 1 0 0 0 0 0 2 0 0 0 0 0
10 0 7 0 0 0 0 4 0 0 0 0 0 0 3
0 2 0 1 0 0 0 2 0 6 2 7 0 7 8
0 0 0 6 2 0 1 0 11 3 7 0 7 9 3
0 0 0 3 5 0 6 14 0 0 0 0 4 7 0
7 3 14 3 0 7 0 0 0 0 0 0 0 0 0
0 0 0 11 5 4 0 0 0 15 15 9 46 37 40
37 46 43 41 35 44 25 22 16 29 38 35 0 0 0
0 0 4 0 4 0 18 9 12 0 5 2 0 0 0
0 0 0 0 0 0 28 34 31 13 4 13 4 13 4
13 7 10 7 13 10 5 4 2 9 7 3 0 0 0
4 5 8 0 6 6 3 1 0 0 0 3 0 0 7
0 0 0 7 0 7 1 0 0 0 0 0 0 0 0
0 0 0 15 19 13 22 10 21 0 4 0 0 0 0
1 8 0 0 0 0 0 0 0 0 0 0 45 45 34
193 194 191 249 247 249 130 123 99 59 43 29 0 0 0
0 0 0 0 0 0 0 0 0 0 0 0 0 0 0
0 0 0 0 0 0 0 0 0 0 0 0 0 8 5
7 13 10 0 0 0 0 0 0 0 10 0 40 53 50
0 0 0 1 0 0 54 51 60 77 75 81 51 50 53
7 7 3 0 0 0 0 0 0 0 0 0 2 2 0
15 15 25 6 6 10 2 2 4 0 0 0 0 0 0
9 16 10 9 0 0 32 26 24 5 0 0 1 0 0
20 27 21 0 0 0 0 0 0 11 15 8 120 114 108
110 128 119 0 0 0 0 0 0 0 0 0 0 0 0
0 0 0 0 0 0 77 70 78 5 8 0 0 0 0
0 0 0 0 0 0 91 96 91 77 66 83 0 0 0
16 30 28 44 34 39 74 87 78 103 85 91 52 62 50
5 0 0 0 0 0 0 0 0 39 55 52 67 74 66
0 0 0 0 0 0 20 7 16 0 0 0 0 0 0
167 168 169 70 81 86 92 99 90 38 27 56 0 0 0
0 0 0 0 0 0 31 22 77 138 141 149 184 178 172
66 80 77 0 0 0 0 0 0 0 0 0 2 0 6
4 0 12 0 0 9 0 0 0 0 0 0 0 0 0
0 0 0 0 10 0 0 2 0 0 1 0 0 4 0
0 4 0 10 0 0 0 1 0 0 0 0 39 34 45
59 49 60 63 42 53 1 2 5 12 0 4 44 27 35
31 18 27 0 0 0 18 2 4 0 0 0 0 0 0
1 5 1 17 20 7 18 20 35 45 42 56 61 66 80
117 115 139 98 111 119 79 79 107 30 37 44 0 0 0
0 0 0 0 0 0 0 0 0 0 0 0 0 0 0
0 0 0 0 0 0 0 0 0 0 0 0 0 0 0
0 0 0 0 0 0 0 0 0 0 0 0 0 0 0
0 0 4 3 6 1 9 0 26 46 36 56 0 0 0
0 17 0 1 0 8 0 0 0 0 0 0 0 6 9
1 0 7 0 0 1 5 0 6 0 7 0 8 0 0
0 0 0 7 0 0 7 0 0 0 0 0 0 0 1
20 19 7 0 0 0 0 0 0 0 0 0 0 0 0
0 16 3 13 0 1 0 0 0 0 0 3 1 0 0
4 0 0 0 0 0 4 0 6 2 6 0 10 2 0
1 13 3 0 0 0 10 0 0 3 0 3 11 3 7
5 0 3 5 2 3 3 3 3 0 3 0 0 0 0
0 0 0 6 8 6 6 9 2 0 1 0 1 5 0
0 0 8 0 0 0 37 33 39 2 2 12 16 13 10
32 20 24 19 23 24 13 5 17 0 0 0 0 0 0
0 0 0 0 0 0 0 0 0 17 5 9 0 4 3
0 0 0 1 0 0 12 2 7 29 30 29 20 8 18
10 14 7 9 1 5 5 7 6 5 1 0 0 0 5
0 0 0 0 0 0 0 0 1 5 0 10 0 1 4
10 3 7 1 5 0 7 7 12 12 13 12 0 0 0
0 0 0 0 0 0 0 5 3 7 12 14 7 3 0
14 0 2 25 17 8 0 0 0 0 0 0 0 0 0
0 0 0 34 22 17 148 127 129 142 117 96 139 109 102
33 34 33 4 0 0 0 0 0 0 0 0 0 0 0
0 0 0 0 4 0 0 0 0 0 0 0 0 0 0
0 0 0 0 0 1 1 0 0 0 0 0 1 0 0
0 0 0 42 2 21 0 0 0 0 0 0 19 19 10
31 25 38 26 24 28 8 7 6 0 0 0 0 0 0
1 1 0 17 15 12 10 8 0 0 0 0 0 0 0
0 0 0 0 2 0 0 0 0 6 6 26 0 0 0
0 0 0 6 6 5 3 0 8 0 0 0 0 0 0
0 0 0 108 131 125 99 93 94 0 0 0 0 0 0
0 0 0 12 6 9 0 0 0 33 28 26 7 5 0
0 0 0 0 0 0 0 0 0 0 12 0 48 56 50
65 79 66 0 0 0 0 0 0 28 27 19 7 19 19
34 14 25 81 85 82 101 73 81 11 0 0 24 35 31
32 51 47 0 0 0 0 0 0 5 0 3 0 0 0
0 0 0 30 38 57 115 118 136 82 139 85 154 161 102
24 28 53 0 0 0 0 0 0 0 0 0 0 0 0
255 255 184 199 213 176 158 147 162 18 28 30 0 0 0
0 0 1 0 0 0 0 0 0 2 10 0 10 14 0
4 25 0 0 17 0 15 12 17 7 12 7 12 11 6
11 9 0 14 8 7 6 10 0 7 7 7 0 0 0
7 2 1 0 0 0 0 0 0 0 0 0 0 0 0
0 0 0 0 0 0 77 64 69 21 11 8 0 0 0
0 0 0 17 8 11 0 0 0 0 0 0 15 13 33
157 148 158 202 198 214 173 177 192 137 128 141 28 28 42
0 0 0 0 0 0 0 0 0 0 0 0 0 0 0
0 0 0 0 0 0 0 0 0 0 0 0 0 0 0
0 0 0 0 0 0 0 0 0 0 0 5 145 144 166
250 243 255 210 203 207 56 68 66 0 0 0 0 0 0
0 0 0 0 0 0 0 0 0 0 0 0 0 0 1
9 4 19 2 0 18 0 0 0 11 0 7 9 0 7
0 0 0 3 0 0 3 0 0 1 0 0 0 0 0
0 0 4 19 19 14 0 0 0 0 0 0 0 0 0
0 0 0 1 0 0 0 0 0 0 0 0 0 0 0
0 0 0 0 0 0 0 0 0 0 6 0 9 5 0
1 10 3 19 15 17 11 0 0 15 8 7 20 22 18
15 18 10 13 21 27 20 6 17 17 8 17 7 5 9
0 0 0 0 0 0 0 0 7 0 0 0 0 1 14
3 12 0 13 26 27 11 4 5 100 95 96 91 85 89
99 87 95 75 82 86 51 45 58 10 10 7 0 0 0
0 0 0 0 0 0 0 0 0 0 0 0 0 0 0
0 0 0 0 0 0 0 0 0 16 11 14 25 15 22
6 15 22 5 4 1 0 6 3 4 0 0 0 0 0
0 0 0 0 0 0 0 0 0 0 0 0 0 0 0
0 0 0 0 0 2 21 11 11 20 16 14 35 40 42
0 5 0 0 0 0 0 0 0 6 4 0 30 32 14
22 11 16 17 18 11 20 28 18 6 1 5 29 31 13
0 0 0 0 0 0 0 0 0 0 0 0 185 164 147
255 255 255 255 250 255 112 104 110 2 0 11 0 0 0
0 0 0 0 0 0 0 0 0 0 0 0 0 0 0
0 0 0 0 0 0 16 8 8 49 30 42 16 9 13
0 0 0 0 0 0 98 64 88 0 0 0 0 0 0
1 0 2 67 57 59 72 72 64 35 29 43 0 0 0
0 0 5 0 0 0 14 3 10 9 17 6 0 0 0
0 0 0 0 0 0 0 0 0 0 0 0 4 0 3
23 10 15 4 0 2 0 0 0 4 6 4 18 19 10
0 0 0 41 39 35 0 0 0 142 131 123 199 212 204
0 0 0 0 0 0 0 0 0 49 59 41 43 46 41
0 6 0 0 0 0 0 0 0 0 0 0 0 0 0
0 0 0 0 0 0 0 0 0 0 0 0 111 100 108
169 175 175 6 0 0 0 0 0 69 50 43 40 35 33
0 0 0 0 5 6 0 0 0 0 0 0 0 0 0
0 0 0 0 0 0 0 0 0 117 119 133 73 90 122
153 149 146 42 38 58 0 0 0 0 0 0 0 0 0
0 0 0 0 0 0 112 125 105 214 215 219 33 25 32
0 0 0 0 0 0 0 0 0 0 0 0 0 0 0
0 14 1 0 10 0 0 13 0 0 0 0 0 0 0
0 0 1 0 0 0 0 0 0 0 0 0 0 0 0
0 0 0 8 9 11 2 9 0 33 29 30 23 27 19
6 0 0 2 0 0 5 13 0 30 27 26 0 0 12
0 0 0 17 16 19 40 46 41 13 19 11 0 0 0
0 0 0 40 44 30 57 53 44 25 32 31 11 6 0
5 10 7 24 20 16 64 59 55 128 129 125 184 180 185
171 162 147 194 178 181 103 105 100 0 0 0 0 0 0
126 126 135 255 255 255 255 255 255 185 191 175 241 242 247
255 255 210 255 255 255 30 33 32 0 0 0 0 0 0
0 0 0 131 139 146 52 62 70 29 29 32 31 39 41
24 12 15 0 0 0 0 0 0 0 0 0 0 0 0
0 0 0 0 0 0 0 0 6 0 0 0 0 7 4
0 12 6 5 2 0 0 2 0 9 0 2 14 6 0
14 16 5 10 1 0 8 6 6 0 5 3 6 0 7
10 4 0 4 7 6 0 8 4 2 0 0 0 0 1
0 0 3 0 0 1 0 0 0 11 15 5 0 0 0
0 0 0 0 0 0 0 10 1 0 0 0 0 0 0
0 0 0 0 0 0 0 0 0 7 3 13 7 12 0
8 0 6 0 0 0 0 0 0 0 0 0 0 0 0
0 0 0 0 0 0 0 0 0 0 0 0 0 0 0
0 0 0 0 0 0 87 84 79 34 46 38 11 11 10
0 0 0 0 0 0 0 2 0 9 14 12 20 25 28
0 0 0 8 9 5 13 3 6 6 4 5 0 0 0
0 0 0 0 0 0 0 2 0 29 30 34 18 32 11
24 17 26 8 16 3 0 3 2 0 0 0 0 0 0
0 0 0 0 0 0 0 0 0 0 0 0 0 0 0
0 0 0 0 0 0 0 0 0 19 13 14 0 0 0
0 0 7 21 19 30 7 12 15 0 0 0 0 0 0
0 0 0 0 0 0 112 111 104 183 164 154 251 240 226
216 199 190 64 61 39 0 0 0 0 0 0 0 0 0
13 7 0 0 5 0 0 0 0 0 0 0 0 0 0
0 0 0 0 13 2 0 0 0 52 45 36 26 3 11
51 44 39 0 0 0 0 0 0 0 0 0 66 57 61
16 13 1 0 6 4 15 21 8 15 13 17 0 8 0
20 7 20 28 25 27 14 7 10 0 0 0 0 11 0
0 2 0 0 9 0 5 11 10 18 26 26 16 6 1
2 3 0 0 0 0 54 47 56 0 0 0 1 0 0
149 145 149 185 175 190 38 29 42 0 0 0 0 0 0
14 19 22 0 0 0 0 0 0 45 44 44 0 2 0
0 0 0 45 55 53 0 16 24 73 67 62 0 0 0
0 0 0 0 0 0 41 45 40 15 5 11 0 0 0
0 0 0 0 0 0 0 0 0 38 29 13 38 39 19
5 3 10 0 0 0 0 0 0 0 0 0 0 0 0
34 35 14 72 62 63 0 0 0 0 0 0 32 31 52
0 0 20 0 0 0 0 0 0 0 0 0 187 182 196
156 143 155 0 0 0 0 0 0 15 13 11 0 0 0
0 0 0 0 0 0 1 0 0 0 0 4 22 7 5
27 12 18 20 15 23 25 28 19 27 24 34 18 24 30
20 26 32 0 0 0 41 43 37 22 19 23 32 36 16
30 34 37 17 20 10 5 4 5 24 21 12 22 17 12
36 34 34 4 2 16 22 20 17 37 42 48 21 25 18
0 0 0 6 12 1 76 72 75 34 25 15 35 42 29
32 22 14 6 18 12 8 14 5 22 29 15 46 49 60
88 83 75 65 52 54 94 82 76 94 81 101 85 81 88
91 80 94 84 95 82 53 43 53 0 0 0 0 0 0
13 19 31 131 140 81 135 139 143 0 0 0 0 0 0
0 0 0 0 0 0 76 92 87 0 3 5 0 0 0
0 0 0 0 0 0 0 0 0 0 0 0 4 2 0
2 0 0 0 0 0 0 0 5 0 0 0 0 0 3
0 0 0 0 6 2 4 1 0 0 3 0 3 0 2
0 0 0 0 8 1 0 0 0 3 3 3 0 1 0
0 4 4 4 0 0 0 0 0 0 0 0 0 6 2
6 2 3 1 9 5 0 0 7 0 3 0 13 11 21
0 0 0 0 0 0 2 7 7 15 15 14 0 4 0
0 0 0 0 0 0 29 20 23 14 20 15 34 28 29
25 32 27 7 2 0 0 0 0 0 0 0 0 0 0
0 0 1 0 0 0 0 0 0 0 0 0 0 7 0
3 2 1 0 6 2 0 0 0 11 24 20 0 0 0
0 0 0 0 0 0 0 0 0 1 0 0 7 15 11
30 40 41 0 0 0 8 4 6 4 8 6 0 10 5
0 0 0 0 0 0 0 0 0 0 0 0 4 9 0
0 0 0 0 4 0 0 5 0 4 0 0 0 5 4
2 0 12 0 8 12 8 9 8 3 0 4 6 0 11
0 0 0 0 0 0 0 2 15 0 13 11 10 19 24
2 17 12 12 13 16 4 12 11 0 0 0 0 0 0
0 0 0 0 0 0 0 0 0 0 0 0 10 0 0
78 71 61 107 93 74 66 62 49 25 13 0 4 8 0
49 56 28 0 0 0 0 6 0 0 0 0 0 0 0
0 0 0 0 14 0 0 26 7 0 0 0 0 0 0
14 1 0 74 73 83 39 38 39 0 0 0 10 14 2
69 62 64 53 57 49 0 0 0 12 16 8 19 17 23
0 16 3 0 1 11 0 14 13 16 3 10 0 0 0
0 14 0 0 1 0 0 5 0 0 6 0 0 4 0
2 12 1 8 6 0 9 0 0 23 8 11 37 27 28
0 0 0 0 0 0 45 39 42 136 140 139 65 42 56
0 0 0 0 0 0 0 0 0 0 0 0 43 55 61
11 18 13 0 0 0 0 0 0 16 11 22 58 55 47
0 0 0 0 0 0 0 0 0 17 12 3 2 0 0
0 0 0 19 21 14 0 0 0 0 0 0 0 0 0
10 3 0 0 0 0 4 0 0 0 0 0 0 0 0
0 0 0 174 174 159 226 226 222 2 20 19 0 0 0
0 0 0 0 0 0 0 0 0 0 0 0 0 0 0
116 117 122 227 217 231 148 130 135 26 14 26 0 0 0
6 5 17 0 0 0 3 1 5 1 0 10 0 0 0
0 0 0 0 0 0 0 0 0 0 0 0 2 0 0
1 0 0 4 0 0 0 0 0 23 26 31 9 7 0
24 29 33 28 26 20 15 14 17 0 7 6 0 2 0
0 0 0 18 6 24 0 0 0 0 0 0 19 16 23
18 15 10 0 0 0 0 0 0 69 76 77 0 0 0
0 0 0 0 0 0 0 0 0 17 7 11 39 28 26
38 30 45 49 49 45 0 0 0 0 0 0 0 0 0
25 19 33 46 32 54 2 13 6 0 0 3 0 0 0
13 19 28 29 16 38 147 146 118 46 53 57 0 0 0
0 0 0 0 0 2 53 42 67 33 35 33 0 5 0
0 0 0 0 0 0 0 4 0 6 3 2 1 4 0
0 0 0 5 9 8 0 0 0 0 0 3 0 0 0
0 0 1 0 4 0 7 0 0 0 2 0 0 4 0
1 0 1 0 0 0 0 1 8 0 0 0 3 3 3
0 0 0 0 6 5 3 0 0 0 0 9 0 0 0
0 0 0 3 0 0 0 1 0 2 0 8 3 9 0
10 4 13 0 0 0 0 0 0 0 1 1 17 14 14
0 1 0 2 0 0 0 0 0 25 16 19 13 19 16
37 31 34 38 44 44 27 21 21 7 9 8 3 3 2
0 0 0 0 2 9 3 0 0 15 18 16 31 21 30
12 16 9 13 4 8 7 7 5 4 0 0 0 0 0
0 0 0 1 3 1 22 9 16 21 22 19 18 24 21
22 24 23 40 46 49 0 0 0 11 3 7 10 8 9
4 10 7 8 2 2 0 0 0 0 5 1 3 5 10
13 13 7 2 5 5 7 7 6 0 3 0 7 0 0
0 3 1 9 0 12 5 16 12 14 3 11 0 10 0
0 0 0 0 0 0 0 0 0 0 0 0 1 1 0
3 0 0 3 7 4 3 1 7 13 7 3 15 9 1
0 0 0 0 0 0 0 0 0 0 0 0 0 0 0
0 0 0 0 0 0 18 6 6 26 21 13 12 14 13
22 7 17 53 59 48 0 0 0 0 8 0 0 0 0
0 0 0 0 0 0 0 0 0 2 4 0 1 4 0
0 0 0 0 0 0 36 38 33 14 23 6 0 0 0
16 4 0 61 56 62 79 68 70 0 0 0 29 18 20
39 28 39 16 19 14 7 4 0 12 13 0 20 6 16
6 2 11 1 6 0 0 9 6 0 0 0 0 0 0
0 0 0 0 0 3 5 0 6 10 14 18 0 0 0
16 9 17 0 5 9 0 0 0 32 25 36 119 117 123
109 108 120 138 127 149 9 24 12 0 0 0 0 0 0
70 74 77 41 38 32 0 0 0 0 0 0 4 7 15
57 58 49 0 0 0 0 0 0 0 0 0 0 0 0
9 0 1 34 28 23 86 78 87 0 0 0 0 0 0
0 0 0 7 3 0 19 19 25 9 0 10 0 0 0
0 0 0 0 0 0 161 161 144 164 181 184 0 0 0
0 0 0 0 0 0 0 0 4 16 16 21 0 0 0
0 0 0 0 0 0 30 33 28 241 246 241 207 222 211
0 0 0 0 0 0 0 0 0 0 2 0 0 0 0
0 0 0 0 0 0 0 0 0 0 0 0 0 0 0
0 0 0 0 0 0 0 0 0 0 0 0 0 0 0
0 0 0 0 0 0 6 9 8 19 0 20 0 0 0
0 0 0 0 0 0 0 0 0 0 0 0 0 0 0
0 0 0 0 0 0 0 0 0 0 0 0 56 46 59
0 0 0 0 0 0 0 0 0 0 0 0 0 0 0
0 0 0 0 0 0 0 0 0 0 0 0 0 0 0
0 0 0 23 35 26 11 1 3 0 0 0 0 0 0
0 0 0 78 77 68 30 38 11 159 166 130 11 20 23
0 0 0 0 0 0 0 0 11 77 76 97 0 0 0
0 0 0 0 0 0 6 0 0 20 12 14 3 7 0
0 0 0 0 0 0 24 12 10 0 0 0 0 1 0
0 0 0 0 0 0 0 9 0 8 3 0 0 3 0
11 0 0 0 2 0 0 0 0 0 3 5 0 0 0
3 3 1 0 0 0 0 8 5 0 0 0 0 0 0
0 0 0 0 1 0 2 0 0 0 0 0 0 0 3
3 9 0 0 0 1 0 0 0 0 0 0 5 1 3
22 14 15 0 0 0 3 0 0 0 0 0 23 6 12
1 0 0 23 10 16 17 17 19 26 14 15 18 12 12
30 22 22 6 10 5 20 13 23 18 18 17 38 28 31
21 30 33 9 8 3 0 0 0 0 1 0 9 1 4
0 0 0 0 0 0 15 13 12 28 29 37 29 42 32
22 24 23 10 10 10 11 15 19 0 0 0 0 0 0
1 0 0 0 1 0 0 0 0 0 0 0 10 4 7
8 15 18 6 10 3 1 9 8 0 0 0 2 0 0
0 0 0 0 0 0 6 0 4 0 4 0 31 13 12
16 14 4 0 2 2 0 0 0 0 0 0 0 0 0
0 0 0 0 0 0 0 0 5 2 1 0 19 11 11
15 27 23 18 12 8 7 9 10 14 18 4 7 12 5
7 0 0 0 0 0 0 0 0 0 0 0 0 0 0
0 0 0 0 0 0 0 7 0 0 0 0 0 19 0
0 7 0 0 0 0 0 0 0 0 0 0 4 3 0
1 12 0 0 0 0 0 0 0 0 0 0 0 0 0
0 0 0 20 13 7 54 37 48 31 31 26 0 0 0
28 17 25 45 42 56 24 20 26 0 0 0 0 0 0
2 0 9 5 9 18 0 0 0 0 5 0 0 0 0
0 0 0 0 0 0 0 0 0 0 0 0 0 3 0
0 0 0 0 0 0 0 6 0 31 36 26 0 0 0
0 0 0 16 9 12 209 205 212 131 141 125 0 0 0
0 0 0 64 73 77 25 25 21 0 0 4 0 0 0
0 0 0 43 45 36 0 2 8 15 9 6 8 5 12
0 0 0 0 0 0 35 24 26 69 65 58 74 70 68
13 10 6 0 0 0 32 19 23 41 45 43 20 21 6
0 0 0 0 0 0 0 0 0 0 0 0 46 45 55
30 30 35 77 76 101 112 104 116 47 40 62 0 0 15
0 0 0 0 0 0 0 0 0 0 0 0 46 42 52
255 255 255 124 114 127 0 0 0 0 0 0 7 6 13
0 0 0 0 0 0 26 24 24 22 20 18 20 16 12
6 7 0 0 0 0 0 0 0 0 0 0 0 0 0
0 0 0 0 0 0 0 0 0 0 0 0 0 0 0
0 0 0 0 0 0 0 0 0 0 0 0 0 0 0
0 0 0 0 0 4 11 12 3 6 1 9 16 12 5
61 58 57 8 4 8 26 12 22 13 16 7 17 19 16
39 29 47 28 17 30 0 0 0 0 0 0 52 56 38
23 19 0 2 3 14 17 17 17 0 0 4 0 0 0
0 0 0 46 44 70 57 85 24 13 44 0 139 150 112
37 32 41 0 0 0 0 0 0 0 0 0 48 28 55
0 0 0 0 8 6 12 16 14 11 18 19 0 1 0
0 0 0 0 0 0 0 0 0 14 15 20 6 0 7
0 3 12 0 0 4 8 0 7 5 0 4 1 2 6
0 4 4 8 0 0 0 3 0 0 0 0 0 3 4
0 0 0 3 3 8 0 0 0 0 8 5 0 0 0
0 0 0 0 0 0 0 4 11 2 0 0 0 5 2
3 0 9 13 19 10 0 0 0 0 0 0 0 0 0
0 2 0 13 9 11 0 0 0 0 0 0 0 0 0
24 26 26 0 17 11 11 9 9 0 7 3 0 0 0
0 0 0 0 0 0 0 0 0 43 40 46 16 30 25
22 27 25 5 5 11 0 0 0 0 0 0 0 0 0
2 0 0 0 0 0 0 0 0 33 23 23 29 24 33
26 35 26 9 9 9 0 0 0 0 0 0 0 0 0
0 0 0 0 0 0 0 0 0 0 0 0 0 0 0
0 0 0 11 5 15 0 0 0 0 0 0 6 0 0
0 0 0 0 0 0 0 0 0 0 0 0 0 0 0
22 23 19 1 7 7 0 1 7 6 0 0 0 0 0
0 0 0 0 0 0 0 0 0 0 0 1 0 0 0
0 6 3 13 12 3 4 0 0 0 0 0 0 0 0
0 0 0 20 22 20 9 1 0 9 6 5 42 36 38
56 49 53 47 37 46 0 0 0 0 0 0 0 0 0
4 11 6 8 3 3 0 0 0 0 0 0 0 0 0
0 0 0 0 0 0 12 19 18 0 0 0 0 0 0
0 0 0 0 0 0 0 0 0 2 0 7 10 19 11
0 0 0 25 11 3 47 41 44 15 15 5 0 0 0
0 0 0 0 0 0 6 2 0 0 0 0 0 0 0
2 0 3 0 0 6 9 0 4 0 0 0 0 0 0
0 0 0 21 18 27 0 0 0 0 0 0 0 0 0
0 0 0 0 0 0 0 0 8 30 7 19 213 216 207
0 0 0 0 0 0 68 64 69 10 21 10 78 89 88
3 0 0 0 0 0 0 0 0 0 0 5 62 51 50
56 44 54 0 4 0 0 0 0 0 0 0 0 0 0
85 88 80 10 16 10 0 0 0 2 16 0 50 31 42
29 22 22 1 1 6 0 0 0 0 0 0 0 0 0
0 0 0 99 110 102 123 125 147 59 57 80 0 0 2
0 0 0 16 30 16 6 0 0 3 0 1 0 0 0
0 0 0 125 134 124 245 234 236 0 0 0 0 0 0
22 28 28 18 31 25 21 23 22 29 23 29 4 16 22
14 5 11 0 2 7 1 0 0 0 0 0 0 0 0
0 0 0 0 0 0 0 0 0 0 0 0 5 0 0
0 0 0 0 4 13 0 16 5 0 8 13 40 11 21
21 5 25 33 26 28 34 42 40 34 23 19 20 23 29
48 41 35 74 80 80 37 24 37 31 37 28 33 27 36
45 40 36 79 70 69 79 89 73 79 65 63 82 83 83
0 0 0 0 0 0 0 0 0 0 0 0 0 0 0
11 1 16 64 64 62 111 111 85 61 43 62 30 30 44
118 118 93 88 97 88 0 0 0 0 0 0 0 0 0
0 0 0 0 0 0 19 28 31 30 23 25 0 0 0
0 0 0 0 0 0 17 4 5 30 32 20 7 0 0
9 10 5 9 0 7 0 1 0 0 0 0 0 1 0
0 2 0 0 0 0 6 0 0 0 3 0 0 0 0
0 3 3 0 0 0 3 3 5 0 0 0 0 5 0
1 0 0 0 0 0 0 0 0 0 1 2 5 0 0
0 6 0 3 0 7 14 20 11 0 0 0 0 0 0
0 0 0 0 3 1 20 5 10 1 0 0 1 0 0
3 5 3 0 0 0 0 0 0 1 0 0 0 0 0
0 0 0 0 0 0 9 1 5 1 1 0 31 44 45
15 16 15 15 9 10 0 0 0 0 0 0 0 0 0
0 0 0 0 0 0 19 26 21 0 4 3 12 14 15
15 6 16 2 9 1 0 0 0 0 0 0 0 0 0
11 6 2 0 0 0 0 4 1 0 0 0 0 0 0
0 0 0 0 0 0 9 13 21 0 0 0 0 0 0
0 0 0 0 0 0 0 0 0 0 0 0 0 0 0
0 0 0 14 10 13 6 7 8 4 0 7 0 0 0
0 1 0 4 0 0 0 0 0 0 0 0 0 0 0
0 0 0 1 0 0 0 7 19 10 13 16 13 20 12
9 22 17 15 11 19 14 15 7 18 0 0 14 18 6
39 38 42 57 54 46 47 41 40 0 5 2 0 0 0
0 17 13 9 10 13 4 7 9 0 0 0 0 0 0
0 0 0 0 0 0 0 0 0 19 27 23 9 8 10
0 0 0 0 0 0 0 0 0 0 0 0 0 0 0
31 25 30 0 0 0 0 0 0 38 17 38 9 3 6
0 0 0 0 0 0 0 0 0 0 5 0 0 0 0
0 0 0 0 6 4 1 16 11 13 7 9 3 3 3
0 0 0 0 0 0 23 23 23 0 0 0 0 0 0
0 0 0 0 5 1 3 10 8 0 0 5 0 0 0
171 171 178 71 83 65 0 0 0 22 21 29 19 20 13
108 104 109 79 78 74 0 0 0 0 0 0 17 10 20
92 87 81 80 79 85 32 28 24 0 0 0 0 0 0
0 0 0 11 8 10 0 0 0 0 0 0 0 0 0
9 0 0 6 10 0 21 11 10 1 0 0 0 0 0
0 0 0 17 8 17 165 167 179 50 45 60 0 0 0
0 0 0 0 0 0 0 0 0 0 0 0 56 52 50
25 18 28 0 0 0 48 54 59 255 254 255 0 0 0
0 0 0 10 3 4 0 0 0 0 6 0 0 0 0
0 0 0 0 0 0 0 0 0 0 0 0 0 0 0
0 1 0 0 11 0 4 7 6 7 16 0 0 13 0
0 0 0 0 0 0 0 0 0 13 23 11 25 50 27
31 17 33 44 19 33 45 32 28 19 25 24 2 0 0
0 0 0 17 7 0 31 34 32 0 0 0 0 0 0
0 0 0 0 0 0 18 6 18 23 36 35 52 33 43
37 45 55 0 0 0 0 0 0 0 0 0 8 17 17
55 59 60 93 89 85 69 72 79 16 24 27 0 0 0
0 0 0 76 66 77 153 147 148 39 30 42 0 0 0
0 0 0 0 0 0 0 0 0 21 31 42 23 20 29
0 0 0 0 0 0 0 0 0 11 14 0 23 40 33
3 5 11 0 10 12 0 2 1 0 0 0 8 0 5
0 0 0 3 0 1 0 4 5 4 0 0 0 3 0
0 0 0 0 3 3 0 0 0 3 3 4 0 0 2
0 1 3 11 0 0 0 0 0 0 0 0 0 6 5
9 0 7 3 9 16 7 3 6 15 20 9 6 0 4
0 3 0 0 0 0 6 9 8 11 17 15 0 6 1
0 0 0 6 13 12 0 0 0 0 0 0 0 0 0
0 0 0 0 0 0 8 0 2 16 11 12 24 10 8
12 13 18 0 0 0 0 0 0 0 0 0 0 0 0
8 3 5 13 0 2 0 0 0 26 22 20 0 0 0
7 1 4 0 0 2 0 0 0 0 0 0 0 0 0
0 0 0 37 45 34 8 12 10 13 15 14 4 4 4
0 0 0 0 0 0 4 0 0 31 24 31 0 0 0
5 0 1 11 8 9 8 8 8 9 9 9 0 0 0
0 1 0 0 0 0 0 8 9 0 3 0 8 4 14
1 1 0 0 0 10 0 0 0 0 5 12 0 0 0
1 7 12 0 0 0 2 0 0 0 0 0 16 9 5
29 26 29 44 37 44 32 35 40 18 21 17 0 2 0
0 0 0 0 0 0 0 0 0 0 0 0 0 0 0
0 0 0 28 26 35 0 4 10 0 0 3 0 0 0
0 0 7 0 3 0 1 7 5 0 0 0 12 10 13
3 3 5 0 0 0 0 1 0 0 0 3 0 0 0
0 0 0 14 20 6 0 0 0 0 0 0 4 0 0
15 3 0 2 0 1 11 10 7 16 14 7 18 15 18
8 0 12 8 5 9 17 9 12 7 1 3 9 6 7
1 1 1 1 1 1 0 0 0 0 0 0 0 0 0
8 8 8 35 32 33 23 17 19 0 0 0 0 0 0
16 5 8 50 54 57 139 147 134 0 0 0 0 0 0
0 0 0 49 53 55 156 158 153 0 0 0 0 0 0
0 8 13 49 54 45 49 39 51 30 32 26 34 23 28
10 9 11 0 0 0 0 0 0 0 0 0 5 0 0
0 0 0 0 0 0 0 0 0 30 16 18 5 3 0
0 0 0 0 0 0 42 39 45 246 239 255 76 83 95
0 0 0 0 0 0 0 0 0 0 0 0 0 0 0
10 0 11 0 0 6 0 0 0 42 40 53 255 246 244
0 0 0 0 0 0 0 0 0 0 0 0 0 0 0
0 0 0 0 0 0 0 0 0 0 0 0 0 0 0
1 12 0 27 31 29 52 69 51 19 15 0 34 45 25
27 20 18 0 0 0 0 0 0 0 0 0 42 53 43
54 83 71 0 0 0 0 0 1 4 5 1 0 0 0
0 0 0 0 0 0 0 0 0 0 0 0 16 14 16
0 0 0 0 0 0 0 0 0 0 0 0 0 0 0
0 0 0 0 0 0 24 14 1 103 113 98 152 154 147
97 99 91 61 54 61 73 63 69 26 28 17 0 0 0
0 0 0 0 0 0 71 76 61 203 212 188 40 46 40
0 0 0 0 0 0 0 0 0 0 0 8 29 39 31
49 41 41 0 0 6 0 0 0 0 0 0 2 3 0
0 0 0 36 24 26 23 31 30 21 22 36 5 14 1
0 2 0 0 12 0 0 1 0 0 1 0 0 0 0
0 3 0 3 0 0 4 7 7 4 1 1 4 4 4
0 0 0 0 0 0 11 1 0 0 0 0 0 0 0
0 2 0 4 0 0 0 2 3 0 0 0 0 9 12
12 0 4 0 0 0 0 0 0 7 5 0 8 7 1
0 0 0 0 0 0 1 0 0 0 0 0 0 0 0
13 18 8 28 21 17 3 3 0 0 0 0 0 0 0
0 0 0 0 0 3 0 0 0 0 0 0 15 8 16
32 18 17 16 24 22 21 17 19 3 6 2 43 51 50
34 32 34 2 10 6 0 0 0 0 0 0 0 0 0
0 0 0 0 0 0 33 36 27 14 14 14 20 20 20
22 22 22 19 19 19 13 13 13 7 7 7 29 29 35
0 0 0 3 3 3 5 5 5 18 18 18 11 11 11
7 7 7 0 0 0 0 0 0 0 0 0 0 0 0
0 0 0 0 0 0 7 0 14 6 2 5 2 5 16
0 0 0 24 27 23 0 4 0 0 0 0 0 0 0
0 0 0 0 0 0 0 0 0 0 0 0 50 30 32
31 28 13 21 11 8 25 12 12 0 0 0 0 0 0
0 0 0 0 0 0 28 27 24 3 7 0 0 0 0
0 0 0 0 0 3 3 7 5 0 8 0 0 0 0
19 20 14 0 0 0 0 0 0 0 4 0 63 66 72
3 20 20 0 0 0 17 5 5 0 0 0 7 2 7
62 49 58 53 46 52 55 39 39 49 38 54 36 32 37
23 22 15 0 0 0 0 0 1 0 0 0 0 0 0
0 0 3 0 0 2 2 0 8 0 0 5 0 0 0
12 9 18 13 10 19 0 0 0 0 0 5 25 25 33
35 15 38 0 0 0 0 0 0 160 175 162 94 94 92
0 0 0 0 0 0 44 41 45 241 241 239 35 39 43
0 0 0 0 0 0 0 0 0 20 5 15 27 21 14
45 50 46 28 24 26 0 0 6 0 0 0 58 57 50
59 54 51 0 0 0 0 0 0 0 0 0 33 23 23
29 11 4 18 23 12 0 0 0 2 5 17 243 232 240
126 137 146 0 0 1 0 3 7 0 0 4 12 24 0
21 31 22 0 0 0 0 6 0 0 0 0 18 25 36
255 255 251 80 85 97 0 0 0 0 0 0 0 0 0
0 0 0 0 0 0 0 0 0 0 0 0 18 18 13
0 0 0 32 36 23 71 71 68 0 0 0 25 19 9
0 0 0 0 0 0 4 19 8 19 8 5 0 0 0
5 7 0 15 29 7 108 92 104 25 13 33 14 14 17
0 0 0 0 0 0 0 0 0 24 30 30 61 68 58
0 0 0 0 0 0 0 0 0 0 0 0 0 0 0
0 0 0 0 0 0 161 160 163 109 104 99 58 67 57
36 44 39 0 0 0 0 0 0 0 0 0 0 0 0
0 0 0 7 3 2 0 0 0 0 0 0 79 77 71
90 85 92 22 11 17 0 0 0 0 0 0 41 57 49
0 0 5 0 0 0 0 0 0 0 0 0 13 10 0
3 8 7 0 2 0 0 0 0 0 0 0 0 0 0
1 0 0 0 0 5 0 0 0 0 0 0 28 26 20
0 0 1 0 1 8 0 0 0 0 0 0 0 0 0
0 0 0 5 5 5 0 11 7 7 0 0 3 0 8
2 4 0 0 7 4 19 10 13 11 17 16 25 19 30
18 30 27 20 7 5 9 9 12 0 0 2 0 0 0
9 7 13 9 12 17 12 18 22 0 3 4 5 1 9
7 10 16 12 19 23 29 22 33 22 19 28 7 6 14
0 0 0 0 0 0 16 14 16 0 0 0 0 0 0
0 0 0 36 33 28 20 27 22 5 1 0 0 0 0
0 0 0 0 0 0 0 0 0 0 0 0 14 22 16
33 35 35 31 32 32 6 3 12 41 44 35 24 24 24
27 27 27 13 13 13 0 0 0 0 0 0 0 0 0
17 17 23 0 0 0 0 0 0 11 11 11 9 9 9
13 13 13 11 11 11 2 2 2 3 0 0 0 10 22
2 10 12 5 12 17 2 14 7 7 7 7 0 0 0
0 0 0 0 0 0 19 22 16 5 11 12 16 8 22
12 10 10 1 0 3 0 0 0 0 0 0 0 0 0
10 18 21 0 7 0 15 9 19 26 19 18 23 33 35
44 45 43 44 47 41 57 58 62 0 0 0 8 9 14
14 14 23 20 18 17 8 16 20 10 5 4 2 7 16
0 0 8 0 0 0 15 11 9 33 42 35 0 5 0
0 0 0 0 0 0 0 0 0 0 0 0 40 28 28
0 0 0 0 0 0 0 0 0 23 18 11 69 60 60
73 62 58 64 52 62 0 0 3 38 29 31 38 44 34
0 0 0 0 0 0 0 1 0 18 21 12 11 14 5
18 21 12 9 12 3 19 22 13 39 42 33 50 53 44
43 49 39 37 15 26 29 27 36 12 0 0 151 163 153
143 135 136 0 0 0 0 0 0 0 0 0 26 36 30
191 185 195 0 0 0 0 0 0 0 0 0 0 0 0
8 2 0 25 30 30 30 18 23 49 50 57 0 0 0
0 0 0 0 0 0 0 8 0 40 27 25 39 35 30
12 6 0 0 0 0 68 54 49 0 0 0 0 0 0
115 102 115 144 134 153 0 0 8 0 0 0 15 21 45
5 3 0 30 32 17 7 0 0 24 18 20 22 9 7
0 0 0 0 0 0 255 255 255 174 183 172 0 0 0
0 0 0 0 0 0 6 15 0 0 1 0 72 67 68
65 70 61 11 19 22 59 61 58 111 119 111 49 52 52
20 10 2 0 0 0 0 0 0 0 0 0 0 0 0
0 0 0 0 0 0 0 0 0 65 53 57 65 55 62
152 152 143 122 124 108 0 0 0 0 0 0 0 0 0
11 11 0 0 0 0 31 37 29 17 23 13 0 0 0
0 0 0 166 166 164 255 255 255 28 27 30 0 9 0
35 29 18 62 61 53 41 35 34 0 0 0 0 0 0
0 0 0 0 0 0 16 25 15 0 0 0 0 0 0
57 59 49 101 106 108 28 25 14 0 0 0 0 0 0
37 41 46 0 9 2 0 0 0 0 0 0 0 0 0
0 0 0 9 2 11 11 7 4 0 0 7 0 0 0
0 0 1 10 14 6 4 2 8 0 0 0 0 0 0
19 23 9 0 0 0 1 7 8 4 0 0 0 0 0
2 0 0 0 0 0 3 3 3 0 9 3 5 0 0
0 0 0 3 8 0 0 3 0 7 0 0 2 8 5
9 3 12 0 12 5 11 0 10 0 0 0 0 0 0
0 0 0 7 2 2 10 7 7 2 0 0 0 0 0
5 0 0 5 0 0 19 12 14 21 16 17 14 11 11
0 0 0 7 0 0 0 0 0 7 17 13 0 0 0
0 0 0 0 0 7 25 27 17 2 14 13 0 0 0
2 0 2 0 0 0 0 0 0 0 0 0 7 0 6
1 5 0 7 4 5 13 7 9 0 0 0 33 29 21
13 9 9 7 5 5 0 0 0 0 0 0 0 0 0
0 0 0 11 17 20 0 2 0 1 5 3 7 9 8
3 3 3 1 1 1 0 0 0 0 0 0 0 0 0
0 1 2 0 0 8 0 0 5 0 1 13 6 0 0
4 0 4 0 0 0 0 0 0 1 0 0 0 0 5
0 0 0 0 0 0 0 0 0 0 0 0 0 0 0
0 0 0 0 3 0 0 2 0 0 0 0 4 0 0
0 3 0 2 0 0 0 0 0 1 3 0 0 0 0
0 13 0 0 0 0 1 0 0 0 3 11 0 3 0
0 0 2 0 1 3 0 0 0 0 0 0 0 0 0
5 13 13 23 27 22 9 25 14 4 2 16 0 0 0
3 0 4 0 0 0 0 0 1 24 13 25 11 10 15
0 0 0 28 32 27 81 75 68 28 22 23 36 31 40
32 25 33 0 0 0 0 0 0 0 0 0 0 0 0
0 0 0 14 14 20 6 6 12 0 0 4 0 0 4
16 10 18 19 12 20 14 0 16 26 10 30 0 0 0
137 153 138 99 86 91 0 0 0 0 0 0 0 0 0
22 29 22 152 149 159 0 0 0 6 3 11 0 0 0
0 0 0 0 0 0 0 10 4 15 13 12 52 51 59
0 0 0 0 0 0 0 0 0 0 4 0 18 8 0
11 12 4 8 9 0 0 0 0 12 15 0 0 0 0
0 0 0 50 48 49 63 64 84 7 4 22 0 0 0
4 6 31 0 0 0 6 23 8 0 0 0 0 0 0
8 13 16 0 0 0 0 0 0 62 67 74 244 250 240
0 0 0 0 0 0 0 0 0 0 0 0 44 56 44
151 152 158 82 76 80 0 0 0 0 0 0 4 3 8
0 0 7 28 26 22 0 6 6 0 0 0 0 0 0
0 0 0 0 0 0 0 0 0 0 0 0 0 0 0
0 0 0 143 143 147 119 123 120 0 0 0 0 0 0
0 0 0 73 78 81 34 24 30 0 0 0 0 0 0
0 0 0 40 43 43 179 184 176 59 65 72 0 0 0
0 0 0 16 8 6 68 70 70 29 40 37 0 0 0
0 0 0 0 0 0 0 0 0 0 0 0 0 0 0
0 0 0 25 20 31 144 148 150 90 93 88 0 0 0
0 0 0 17 22 26 4 9 0 0 0 0 0 0 0
0 1 0 0 3 0 4 12 5 10 20 3 0 0 0
0 0 0 0 0 0 2 0 14 3 2 5 0 0 0
0 0 0 13 9 17 0 0 0 0 1 0 0 0 0
0 0 10 1 0 0 0 0 0 3 3 3 0 9 3
6 0 0 0 0 0 1 0 3 0 0 7 8 1 0
0 6 3 2 0 5 0 0 0 10 0 5 1 0 0
0 0 0 0 0 0 4 6 6 7 10 10 0 0 0
0 0 0 1 5 3 0 0 0 2 11 8 1 10 7
2 11 8 0 4 0 10 0 0 0 1 0 11 10 9
0 0 0 0 0 0 0 0 2 27 19 11 1 3 4
0 0 0 0 0 0 11 15 13 2 2 2 15 9 12
10 16 16 8 10 6 15 9 11 0 12 7 0 4 8
22 29 22 0 0 0 0 0 0 0 0 0 0 0 0
0 0 0 8 0 3 12 6 15 13 7 4 9 1 5
0 2 0 0 1 0 0 0 0 0 0 0 0 0 0
0 0 0 1 0 11 0 0 0 3 1 1 0 0 0
0 1 2 0 0 1 0 0 0 0 0 3 0 2 0
0 0 0 0 0 0 0 0 2 0 0 0 0 0 0
5 0 5 0 6 0 0 0 0 0 0 0 0 0 0
0 0 0 0 0 0 0 0 0 0 0 0 0 0 0
2 0 0 0 2 0 2 0 0 0 7 0 0 0 4
0 0 0 0 0 0 0 0 0 14 0 0 0 0 0
0 0 0 7 6 6 21 29 26 5 19 15 0 1 0
0 0 0 0 8 8 0 0 0 0 0 0 0 0 0
0 0 0 0 0 0 12 0 0 46 42 40 101 96 110
65 70 69 67 74 70 26 41 32 13 6 7 6 5 2
10 8 8 6 5 2 3 1 1 0 0 0 4 0 0
13 4 3 1 13 7 0 0 0 0 0 0 0 0 0
0 0 0 116 116 109 73 63 67 0 0 0 0 0 0
0 0 0 0 0 0 84 87 90 85 84 79 41 40 51
0 0 0 0 0 0 0 0 0 0 0 0 0 0 0
0 12 13 0 0 0 0 0 0 0 0 0 0 0 0
2 4 0 14 7 4 0 0 0 10 1 0 0 0 0
0 0 0 0 0 0 0 0 0 0 0 0 1 4 12
17 17 41 8 5 34 21 26 1 36 45 25 2 0 0
0 0 0 12 11 11 0 0 0 0 0 0 0 0 0
178 180 182 123 124 118 40 37 44 0 0 0 0 0 0
35 29 15 105 117 110 15 23 8 0 0 0 0 0 0
0 0 0 0 0 0 16 18 20 14 14 16 20 11 18
0 0 2 16 3 14 21 30 16 11 4 8 0 0 0
0 0 0 2 5 6 155 163 161 149 163 153 0 0 0
0 0 0 0 0 0 49 57 47 46 57 41 0 0 0
0 0 0 190 190 181 255 255 255 74 67 73 0 0 0
0 0 0 0 0 0 31 39 27 73 66 64 19 18 11
0 0 0 0 0 0 0 0 0 0 0 0 23 30 36
14 25 24 0 0 0 4 3 1 166 161 128 124 126 129
0 0 0 0 0 0 6 0 12 3 6 5 0 0 0
0 0 0 0 0 0 6 0 0 9 8 3 30 20 25
0 0 0 0 0 3 0 0 0 0 4 11 6 11 5
0 0 0 0 0 0 12 12 14 0 1 0 0 3 0
2 0 0 0 0 0 0 0 0 0 0 0 4 5 2
0 10 4 8 0 0 1 1 1 0 0 0 0 0 0
0 0 0 0 4 0 2 0 4 0 0 0 0 5 8
3 0 0 7 0 1 14 8 10 15 12 13 4 4 4
0 0 0 0 0 0 16 11 11 2 0 0 10 7 7
5 2 2 1 0 0 0 0 0 0 0 0 0 4 3
9 8 9 0 0 0 0 0 0 0 7 12 18 17 13
5 0 3 0 0 0 0 0 0 33 29 31 15 7 11
9 15 12 11 10 13 8 2 1 17 2 7 0 6 4
8 6 13 26 22 18 0 0 0 0 0 0 0 0 0
0 0 0 0 2 0 2 2 2 0 0 3 9 13 5
6 6 6 4 0 0 0 0 0 0 0 0 0 0 0
0 0 0 0 0 0 1 2 0 0 4 0 3 0 17
0 5 0 1 0 11 0 0 0 0 0 6 2 0 11
5 5 0 13 10 10 12 9 9 2 2 0 7 7 2
1 4 0 11 10 5 10 15 6 0 0 0 0 0 0
0 0 0 0 0 0 0 0 0 0 0 0 0 0 0
0 0 0 0 0 0 0 0 0 0 0 0 0 0 0
0 0 0 4 3 0 1 0 20 0 3 0 0 0 3
0 9 1 2 11 8 0 0 0 0 0 0 0 0 0
0 0 0 0 0 0 58 59 66 0 0 0 0 0 0
0 0 0 14 0 12 0 0 0 1 1 2 0 0 0
102 85 94 44 45 38 58 48 65 33 35 26 33 14 34
10 10 0 15 7 25 20 25 11 0 0 1 5 8 0
21 9 27 22 30 19 31 31 44 14 6 1 0 0 0
0 0 0 0 0 0 99 112 98 22 17 22 0 0 0
0 0 0 0 0 0 0 0 0 0 0 5 60 67 56
27 24 29 8 6 2 9 15 19 23 16 13 0 4 3
0 0 0 0 0 0 4 0 0 0 0 0 0 0 1
12 10 5 22 19 21 7 11 7 0 0 0 2 1 0
0 0 0 0 0 0 0 0 0 0 0 0 3 5 10
13 13 38 3 0 40 6 4 29 25 28 9 54 68 51
19 22 12 0 0 0 0 0 0 0 0 0 0 0 0
0 0 0 0 0 0 194 195 188 196 195 201 0 0 0
0 0 0 29 29 19 27 21 26 0 0 0 0 0 0
34 22 25 38 31 40 0 0 0 0 0 0 0 0 0
19 15 19 0 0 0 0 0 0 0 0 0 0 0 0
0 0 0 0 0 0 0 0 0 0 0 0 0 0 0
0 0 0 0 0 0 0 0 0 0 0 0 0 0 0
0 0 0 41 38 45 172 175 178 44 50 45 0 0 0
0 0 0 0 0 0 21 19 19 36 48 43 31 37 39
0 0 0 0 0 0 0 0 0 0 0 0 0 0 0
109 98 92 51 47 33 29 15 22 9 19 29 114 119 118
135 126 137 0 0 0 0 0 0 0 0 0 0 0 13
0 0 0 0 0 0 0 4 0 10 10 0 0 12 0
21 26 20 0 0 0 0 0 0 0 0 0 6 7 10
17 9 24 0 0 0 0 0 0 10 4 5 0 2 0
0 3 0 4 0 1 0 1 1 5 0 6 0 0 6
6 8 2 0 4 0 12 0 3 0 0 0 0 0 0
0 1 0 3 0 0 0 0 0 0 0 0 0 0 0
4 4 7 0 0 0 1 10 7 0 14 9 12 6 8
1 1 1 0 0 0 0 0 0 3 5 5 0 0 0
1 4 4 0 0 0 0 0 0 0 0 0 0 2 2
15 13 14 19 10 13 0 0 0 0 0 0 2 13 14
20 26 17 4 8 6 0 0 0 0 0 0 22 32 27
6 10 8 7 9 8 14 8 13 0 4 0 0 0 0
0 0 0 2 0 6 11 21 10 0 0 0 0 0 0
0 0 0 5 9 6 13 11 12 12 0 6 0 0 2
1 0 0 0 1 0 0 0 0 0 0 0 1 0 0
0 1 0 2 0 0 15 21 23 0 0 0 4 5 0
1 2 9 0 2 0 0 0 2 2 5 0 3 6 0
19 19 13 0 0 0 4 7 7 0 1 1 0 0 0
0 0 6 0 0 1 0 0 1 11 4 2 1 0 14
0 7 10 5 0 13 0 0 0 0 0 0 0 0 0
5 0 0 4 13 0 0 0 0 0 0 0 0 0 0
0 0 0 0 0 0 3 0 0 0 0 11 0 0 0
0 0 1 4 0 0 4 3 3 0 0 0 0 0 0
0 0 0 0 0 0 2 8 3 19 21 18 0 4 0
0 0 0 0 0 0 0 9 0 24 24 16 7 16 13
0 0 0 5 0 2 0 0 0 0 0 0 0 9 0
1 0 6 0 0 0 0 0 0 22 24 13 14 15 17
21 18 8 12 18 23 14 21 6 26 16 25 18 15 7
23 15 20 0 0 0 71 82 79 101 113 105 0 0 0
0 0 0 4 6 3 24 32 33 0 0 0 0 0 0
0 7 0 0 0 0 0 0 0 18 18 25 52 59 49
54 57 58 0 0 0 0 0 0 2 0 5 0 0 0
4 14 4 16 15 5 7 19 9 9 7 0 10 3 1
14 8 0 14 9 0 0 0 0 0 0 0 67 58 62
106 107 126 6 10 31 0 0 0 0 0 15 0 0 0
35 44 16 30 18 11 0 0 0 0 0 0 0 3 6
5 0 0 0 0 0 0 0 0 167 165 159 148 144 148
0 0 0 0 0 0 33 37 23 5 6 14 0 0 0
0 0 0 0 0 0 0 0 0 0 0 0 0 0 0
0 0 0 43 39 39 0 1 9 0 0 0 0 0 0
0 0 0 10 0 4 0 0 0 0 0 0 0 0 0
0 0 0 0 0 0 58 58 52 78 81 68 15 25 23
36 31 30 66 67 61 45 51 37 0 0 0 0 0 0
0 0 0 0 0 0 0 0 0 43 36 29 27 26 27
0 0 0 0 0 0 0 0 0 0 0 0 0 0 0
0 0 0 157 146 161 19 17 23 29 25 27 23 13 8
21 23 28 118 113 116 50 49 69 0 0 0 0 0 0
18 17 15 2 0 0 0 0 0 2 0 0 7 8 11
10 4 0 23 18 15 10 0 11 0 0 0 0 0 0
0 2 1 10 9 17 0 3 0 0 0 0 10 7 7
0 4 0 0 4 1 6 0 3 0 0 0 2 0 0
0 0 0 0 4 0 0 10 0 8 0 0 0 0 0
0 0 0 0 0 0 6 0 0 0 0 0 1 0 0
0 0 0 16 13 15 2 2 0 9 9 9 4 10 8
12 0 2 7 0 1 4 0 0 0 0 0 14 5 8
6 0 2 4 1 2 0 0 0 0 0 0 0 0 0
7 7 7 23 17 19 7 17 14 0 0 0 0 0 0
16 18 23 24 24 18 6 4 5 0 0 0 0 0 0
17 21 19 4 1 2 10 4 6 8 0 1 0 0 0
0 0 0 0 0 0 2 0 5 7 13 4 0 3 0
1 0 0 3 15 13 21 9 13 13 17 15 7 1 4
0 0 0 0 0 0 0 0 0 0 0 0 0 0 0
8 0 2 7 14 11 9 12 15 28 31 40 0 0 0
0 1 3 0 1 5 0 1 3 0 0 0 5 5 1
0 0 10 27 23 30 0 0 0 0 0 0 0 0 0
0 0 0 0 0 0 0 0 0 0 0 0 0 0 0
0 8 6 0 0 0 6 0 6 0 0 1 2 0 8
2 1 0 2 0 0 8 1 0 0 0 0 3 0 0
3 0 0 2 0 1 1 0 0 4 1 8 0 4 11
0 0 7 0 2 0 0 0 0 0 0 0 0 0 0
12 26 21 22 24 22 0 0 0 0 0 0 0 0 0
0 0 0 5 2 5 0 0 0 0 0 0 0 0 0
10 4 18 0 0 0 0 0 0 0 0 0 0 0 0
21 14 22 25 19 25 1 9 10 18 11 18 38 42 44
52 56 59 32 26 31 0 0 0 0 0 0 0 0 0
5 4 7 29 29 35 48 33 38 128 147 132 64 89 76
0 0 0 0 0 0 0 0 0 35 45 45 0 0 0
0 0 4 0 0 0 0 0 0 0 0 0 0 0 0
43 44 34 70 67 68 23 39 33 0 0 0 0 0 0
8 0 0 17 13 12 26 25 18 14 15 20 8 2 11
0 1 0 0 2 0 47 35 11 0 0 0 0 0 0
111 115 115 160 152 172 34 25 42 0 0 0 0 0 16
0 0 0 14 22 0 0 2 8 0 0 0 0 0 0
0 0 0 0 8 6 0 0 0 0 0 0 44 51 38
8 14 10 0 0 0 0 0 0 20 24 10 8 0 18
0 0 0 0 0 0 0 0 0 0 0 0 0 0 0
209 210 224 190 194 193 172 165 171 69 72 87 0 0 0
0 0 0 0 0 0 0 0 0 0 0 0 0 0 0
102 104 110 182 188 188 221 227 227 255 255 255 255 255 255
176 174 184 255 255 255 240 247 246 84 78 78 0 0 0
21 23 20 48 55 50 24 18 16 20 22 9 38 48 37
4 1 0 0 0 0 0 0 0 3 0 0 0 0 0
0 0 0 0 0 0 169 161 173 0 0 0 0 0 0
0 0 0 0 0 0 110 111 103 144 146 156 0 0 0
0 0 0 12 12 20 1 0 0 0 0 0 3 0 0
0 5 0 3 5 0 13 17 0 7 7 5 0 0 0
0 0 0 6 0 5 9 10 17 7 10 3 0 0 0
4 1 0 2 8 0 3 7 5 3 0 0 0 2 1
2 0 0 0 0 0 0 0 4 0 6 16 6 0 0
4 0 1 1 0 0 0 4 3 5 0 0 0 0 2
2 0 3 0 0 0 22 19 17 1 1 0 6 6 0
2 5 0 0 3 0 0 0 0 0 1 0 0 9 2
0 2 0 0 2 0 0 0 0 0 0 0 0 0 0
0 0 0 9 6 7 31 19 23 7 9 9 0 0 0
0 0 0 10 11 12 16 16 8 5 1 1 0 0 0
0 0 0 15 17 16 2 0 0 3 18 13 0 3 4
0 0 0 0 0 0 0 0 0 0 0 2 0 9 0
0 9 4 17 15 17 3 15 13 15 3 7 0 4 2
5 0 2 0 0 3 0 0 0 4 0 1 3 5 4
5 13 9 18 11 13 5 13 7 0 1 1 9 26 6
0 0 0 13 7 0 12 8 0 6 1 0 0 4 0
0 0 0 7 7 5 26 23 16 0 0 0 5 13 0
0 0 0 0 0 0 0 0 0 0 0 0 0 0 0
0 0 0 14 11 28 0 2 10 0 0 0 0 0 0
0 0 2 0 4 0 0 6 1 0 8 0 0 4 0
1 15 0 0 3 4 0 14 10 11 0 0 5 0 5
8 0 12 0 0 0 15 21 12 0 0 0 0 0 0
0 8 5 40 34 35 46 37 41 8 12 13 17 19 15
0 0 0 0 0 0 0 0 0 0 0 0 0 0 0
0 0 0 0 0 0 0 0 0 7 0 0 0 0 0
5 0 0 52 34 34 44 32 27 13 0 0 17 0 0
42 12 19 56 26 33 17 0 0 0 0 0 0 0 0
0 0 0 0 0 0 25 0 0 58 15 32 83 71 66
3 0 0 0 0 0 0 0 0 0 0 0 26 16 14
8 0 0 18 21 23 5 0 0 0 0 0 0 0 0
0 0 0 0 0 0 47 34 36 28 35 30 0 4 2
0 0 0 0 0 0 0 0 7 5 4 9 0 6 0
2 0 0 2 0 0 2 0 0 35 14 0 0 0 0
0 0 0 29 25 24 92 72 104 47 34 68 0 0 24
0 0 18 0 0 0 9 9 0 1 6 20 0 0 0
0 0 0 1 0 19 0 0 32 0 0 0 0 0 3
0 0 0 0 0 4 0 0 3 1 1 10 0 0 0
0 0 0 9 3 14 225 211 234 255 255 255 255 255 255
255 255 255 153 160 173 91 90 96 76 76 88 144 153 155
255 255 255 255 255 255 233 223 236 132 127 136 255 255 255
255 255 255 255 255 255 65 64 60 0 0 0 0 0 0
0 0 0 0 0 0 0 0 0 0 0 0 0 0 0
76 81 72 7 14 3 0 0 0 2 1 0 57 61 57
73 73 79 0 0 0 0 0 0 0 0 0 28 25 34
0 0 0 0 0 0 0 0 15 179 171 179 0 0 0
0 0 0 0 0 0 0 0 0 157 168 166 231 234 230
0 0 0 0 0 0 0 0 0 0 0 0 0 0 0
0 0 0 1 4 0 11 7 0 14 19 0 19 20 20
6 0 5 0 0 0 0 0 1 13 20 22 12 21 6
0 0 0 6 4 0 12 13 0 19 13 11 3 3 1
1 0 0 0 0 0 0 0 0 0 0 0 0 0 3
0 0 0 0 0 0 0 0 0 3 0 0 0 0 2
10 0 8 19 10 18 0 0 0 35 34 24 21 24 19
21 24 21 9 12 9 0 0 0 0 0 0 6 8 10
18 22 6 4 10 16 0 9 0 4 0 8 0 0 0
0 0 0 0 0 0 19 13 9 49 61 51 28 26 21
21 30 14 33 28 41 59 61 50 57 55 57 26 17 11
0 2 0 0 0 0 18 14 8 0 0 0 3 10 5
1 0 2 0 0 0 0 0 0 0 0 0 0 0 0
0 0 0 0 1 0 6 14 9 8 5 1 0 0 0
0 0 0 0 0 0 0 0 0 0 0 0 0 0 0
10 12 11 23 17 18 17 19 13 0 15 0 0 0 3
0 8 1 0 0 0 0 9 0 0 0 0 0 0 0
0 0 0 0 0 0 0 0 0 6 8 0 2 0 3
0 1 0 0 0 0 0 0 0 0 0 0 0 0 0
0 0 0 0 0 0 0 0 12 0 0 0 0 0 0
0 0 0 0 0 0 0 0 0 0 1 1 12 21 0
1 0 0 3 2 3 1 0 0 0 1 0 0 0 0
0 0 4 3 0 10 0 0 0 14 19 15 1 8 0
13 9 15 0 13 8 24 7 14 9 9 10 3 11 11
44 47 41 0 0 0 0 0 0 0 0 0 0 2 0
45 34 29 0 0 0 0 0 0 0 0 0 38 7 23
23 2 7 58 47 51 96 83 91 75 61 63 3 0 0
0 0 0 0 0 0 51 24 31 27 3 12 11 0 0
0 0 0 0 0 0 0 0 0 0 0 0 71 40 44
35 20 25 0 0 0 0 0 0 45 18 12 0 0 0
0 0 0 0 0 0 0 0 0 0 0 5 7 11 13
6 0 0 0 0 0 0 0 0 41 27 34 19 24 27
14 18 18 0 0 0 25 7 19 34 30 28 35 19 15
9 3 1 0 0 0 0 0 0 10 7 0 9 3 0
0 0 0 0 0 0 0 0 0 0 0 31 50 44 61
24 0 54 0 0 0 0 0 0 0 0 0 0 0 0
0 0 0 0 0 0 0 0 18 0 0 7 0 0 0
34 31 45 0 0 0 28 20 24 33 27 34 0 0 0
0 0 0 68 66 63 171 168 176 148 148 147 10 10 16
0 0 0 0 0 0 0 0 0 0 0 0 0 0 0
0 0 0 0 0 0 49 48 54 112 113 102 134 142 141
61 62 71 0 0 0 0 0 0 0 0 0 0 0 0
0 0 0 0 0 0 0 0 0 0 0 0 0 0 0
5 0 18 0 0 0 0 0 0 0 0 0 0 0 0
0 0 0 29 31 31 0 0 0 0 0 0 0 0 0
0 0 0 0 0 0 0 0 0 20 29 21 0 0 0
0 0 0 0 0 0 0 0 0 0 0 0 0 0 0
17 2 16 0 0 3 72 68 71 0 0 0 0 0 0
0 0 13 20 17 45 0 0 0 0 0 0 15 23 16
0 0 0 0 0 0 0 0 0 2 1 0 0 0 0
0 0 0 0 0 0 23 18 21 0 0 0 0 0 0
0 0 0 5 7 3 11 7 8 7 15 11 16 12 14
13 12 20 3 10 0 10 16 13 0 8 4 0 9 4
5 9 2 0 11 3 0 0 0 0 0 0 10 0 7
0 0 0 0 0 0 0 0 0 4 0 4 6 0 7
3 0 10 0 0 0 35 17 35 3 0 0 0 0 0
0 0 0 18 12 26 27 20 19 23 9 17 7 12 14
0 0 0 0 0 0 0 0 0 0 0 0 0 0 0
0 0 0 0 0 0 0 0 0 36 46 52 26 27 40
39 44 37 19 17 18 0 0 0 0 0 0 9 19 11
37 34 38 27 34 36 30 18 28 27 18 33 12 12 6
5 7 10 0 1 0 2 2 0 0 0 0 25 31 26
0 2 0 0 0 0 0 0 0 4 0 6 16 7 6
25 15 32 25 20 23 0 0 0 0 0 0 7 2 7
17 11 14 23 12 17 14 14 13 6 0 0 0 0 0
15 12 26 44 35 46 36 40 44 25 19 25 16 31 28
35 41 39 40 45 38 19 10 19 21 26 24 29 28 23
24 16 17 19 13 23 17 13 14 13 7 14 13 3 16
13 25 27 0 0 11 13 6 16 4 11 10 6 10 5
5 11 13 1 15 1 3 0 12 0 2 0 1 0 0
16 9 13 22 20 23 0 0 0 0 0 0 0 1 1
41 33 33 32 39 30 127 121 138 10 16 20 0 0 0
0 0 0 0 0 0 0 0 0 0 0 0 0 0 0
0 0 0 0 0 0 0 0 0 0 0 0 0 0 0
7 23 18 2 28 20 5 28 19 5 30 21 0 11 2
0 0 0 0 0 0 26 34 42 66 85 85 19 20 29
0 0 0 0 0 0 0 0 0 0 0 0 16 18 14
6 15 17 0 0 0 0 0 0 52 58 46 21 26 28
0 15 4 0 0 0 0 0 0 0 0 0 0 0 0
0 0 0 19 42 27 0 0 0 0 0 0 0 0 0
0 0 0 10 12 24 16 24 19 2 6 16 0 4 0
10 12 12 0 0 0 18 21 15 0 0 0 0 0 0
147 151 148 69 72 103 0 0 16 54 65 54 39 41 13
46 55 36 66 74 52 62 61 40 0 0 0 0 0 0
0 0 0 1 0 0 0 0 0 0 0 0 0 0 0
41 25 35 0 7 2 14 1 10 26 20 22 0 0 0
0 0 0 0 0 0 0 0 0 94 93 107 49 35 49
17 11 31 10 10 21 34 17 35 0 10 6 0 0 0
0 0 0 0 0 0 0 0 0 0 0 0 0 0 0
4 0 0 0 0 0 0 0 0 0 0 0 25 12 36
16 12 21 30 28 40 6 10 13 0 0 0 0 0 0
0 0 0 0 0 0 0 0 0 0 0 0 26 13 21
62 66 69 63 76 76 55 59 47 35 34 32 59 62 58
0 0 0 0 0 0 0 0 0 0 0 0 0 0 0
0 0 0 45 34 54 12 12 23 124 118 127 0 0 0
0 0 0 0 12 28 46 38 62 0 0 0 0 0 0
0 0 0 7 6 0 0 0 0 0 0 0 1 5 0
13 13 14 0 0 0 8 0 2 40 23 29 0 0 0
0 7 0 0 0 0 0 0 0 5 0 0 0 2 0
6 0 1 4 0 6 0 0 0 0 2 0 0 0 0
0 2 2 3 0 0 0 2 1 6 1 0 0 0 0
20 20 24 0 3 3 2 5 5 1 4 4 0 2 2
0 2 3 0 3 0 0 0 0 22 19 26 0 0 0
0 0 0 0 0 0 0 0 5 10 9 19 10 14 3
28 27 18 0 0 0 3 0 6 2 0 3 3 0 6
0 0 0 4 0 8 12 10 0 0 0 0 35 39 37
12 9 18 17 20 11 9 6 6 0 0 0 0 0 0
2 9 0 9 25 15 13 0 2 8 5 6 10 7 16
13 16 7 4 4 10 0 1 0 9 0 4 0 0 0
37 35 36 14 14 14 5 5 5 0 0 0 0 0 13
0 0 1 0 0 0 0 0 0 7 0 1 2 0 1
4 6 11 3 1 8 2 0 5 8 0 8 0 0 3
0 0 0 0 0 1 11 5 8 8 14 11 0 0 0
0 0 0 5 5 5 0 1 0 0 0 0 0 0 1
2 2 2 3 2 2 0 0 0 0 0 2 0 0 1
0 0 2 15 1 5 0 0 0 2 0 6 0 1 2
0 0 0 0 0 0 0 3 0 0 2 0 0 0 0
2 0 0 8 5 5 12 12 12 0 0 0 0 0 0
0 0 0 26 20 20 0 0 0 134 121 133 50 58 55
9 2 4 0 0 0 0 0 0 0 0 0 0 0 0
0 0 0 7 22 16 0 2 0 0 0 0 0 0 0
0 10 2 17 23 21 26 36 33 47 62 56 38 49 40
20 35 23 0 0 0 0 0 0 6 15 14 26 39 32
0 7 2 0 3 0 0 0 0 0 0 0 0 0 0
11 24 27 0 15 2 0 0 0 0 0 0 30 32 33
20 25 21 0 3 13 0 0 0 0 0 0 0 0 0
0 14 3 2 11 17 34 45 38 0 0 0 0 1 0
0 4 0 6 0 3 8 17 28 13 15 12 5 5 12
0 3 9 21 26 32 0 0 0 0 0 0 0 0 0
0 0 0 76 79 87 31 23 42 0 0 20 5 18 2
3 7 0 0 0 0 16 21 0 22 14 3 0 0 0
0 0 0 0 0 0 0 2 0 0 0 0 0 0 0
0 0 0 17 13 14 3 9 6 0 0 0 0 0 0
0 0 0 0 0 0 0 0 0 0 0 0 0 0 0
0 0 0 0 0 0 9 16 13 50 38 47 39 49 49
0 0 0 0 0 0 0 0 0 28 31 39 57 63 71
31 43 41 10 3 1 0 0 2 14 13 14 0 10 0
5 0 3 0 0 0 3 0 4 0 0 0 0 0 0
0 0 0 0 0 0 0 0 0 98 109 104 92 100 91
154 163 147 203 201 189 219 214 214 218 214 204 205 197 201
185 192 178 118 124 113 54 70 57 36 29 21 55 54 57
24 23 19 0 0 0 0 0 0 0 0 0 244 238 235
23 34 39 0 0 0 0 4 0 74 62 88 0 0 0
0 0 0 1 10 1 0 5 0 0 0 0 0 0 0
0 3 0 16 20 4 0 3 9 4 0 0 34 22 19
0 0 0 0 9 0 0 0 0 0 5 5 10 1 9
0 0 5 5 0 0 4 0 1 0 4 5 1 1 11
0 0 0 0 3 4 11 0 0 7 6 7 9 0 1
0 0 0 22 10 20 4 0 0 6 0 0 6 0 0
5 0 0 13 3 9 1 0 1 5 0 2 22 14 14
4 0 0 0 0 0 0 0 0 8 0 2 13 6 11
14 9 16 20 16 23 0 0 0 0 1 0 0 3 0
0 0 3 0 0 0 0 0 0 0 7 8 0 0 0
23 25 21 0 0 2 0 0 0 0 0 0 0 0 0
0 0 0 2 0 4 1 8 13 0 0 0 2 0 0
2 0 8 11 14 5 6 6 12 6 8 1 18 22 20
11 21 16 47 43 45 25 25 25 12 12 12 1 1 0
4 4 16 0 0 0 0 0 0 0 0 0 17 23 14
6 10 8 14 16 15 12 8 10 8 18 13 7 11 9
2 4 3 7 1 1 0 0 0 13 7 10 9 15 12
0 0 0 0 0 0 3 3 3 5 6 3 0 0 0
0 0 0 3 3 3 0 0 0 0 0 0 0 0 0
3 0 0 0 0 0 15 6 3 0 0 0 4 2 3
0 0 0 10 0 5 0 3 1 0 0 0 0 0 0
0 0 0 4 0 0 12 9 9 5 5 5 0 0 0
0 0 0 0 0 0 24 18 18 0 4 0 2 0 2
45 54 51 122 113 116 98 110 107 56 44 47 0 0 0
0 0 0 0 0 0 0 0 0 0 0 0 0 0 0
0 0 0 0 0 0 0 0 0 0 0 0 0 0 0
0 0 0 0 0 0 0 0 0 0 0 0 4 2 5
26 23 25 5 0 0 0 0 0 0 0 0 0 0 0
0 0 0 25 14 21 0 7 0 0 0 0 0 0 0
35 26 23 38 33 25 7 0 6 0 0 0 0 0 0
0 0 0 3 4 0 8 16 11 24 40 25 0 0 0
0 0 0 0 0 0 0 0 0 7 3 0 18 11 12
6 1 0 3 0 0 22 8 5 0 0 0 0 0 0
0 0 0 0 0 0 6 8 12 17 10 35 21 4 41
3 12 10 3 3 0 0 1 1 11 20 4 21 13 1
0 0 0 0 0 0 6 2 0 0 7 8 3 6 3
7 9 8 14 15 16 0 0 0 0 0 0 4 8 17
0 2 4 20 6 25 49 44 50 58 59 65 47 58 50
0 0 0 0 0 0 0 0 0 0 0 0 22 16 23
31 29 29 7 8 0 0 0 0 0 0 5 8 0 0
0 0 0 0 0 0 0 0 0 0 0 0 0 0 0
0 0 0 0 0 0 0 0 0 0 0 0 0 0 0
0 0 0 0 0 0 20 12 0 0 0 0 0 0 0
0 0 0 0 0 0 0 0 0 0 0 0 0 0 0
0 0 0 0 0 0 112 100 102 103 97 106 123 127 115
168 178 168 179 162 162 38 45 38 0 0 0 24 26 48
236 241 175 106 104 106 0 0 0 0 0 0 61 57 65
0 0 0 0 0 0 54 53 55 0 0 0 0 0 0
0 0 0 0 9 4 0 10 1 0 2 0 0 0 0
24 16 20 0 1 0 0 3 0 0 0 2 4 0 0
2 0 0 0 5 2 4 0 5 3 0 0 0 1 0
0 0 6 0 0 0 0 3 4 0 0 0 1 1 0
0 0 0 0 0 0 4 13 7 0 3 0 0 3 0
0 4 0 0 4 0 0 5 0 2 0 0 0 0 1
9 13 4 0 0 0 0 0 0 0 0 0 0 7 0
5 20 13 12 3 4 17 12 12 0 0 0 0 0 0
4 0 0 0 0 0 0 0 0 13 0 3 0 0 0
0 0 0 19 15 11 0 0 0 0 0 0 0 0 0
0 0 0 4 4 4 0 0 0 0 5 7 0 0 0
1 0 0 6 0 6 9 5 0 7 0 7 8 3 0
14 11 12 9 13 11 12 2 7 0 0 0 2 0 0
2 0 0 15 13 26 14 14 14 9 9 9 0 0 2
23 23 13 12 11 5 17 15 9 12 5 1 2 9 0
3 3 0 6 3 0 19 9 3 0 0 0 14 8 5
8 14 5 0 0 0 0 0 0 1 8 0 3 9 0
0 0 0 0 1 2 0 4 2 3 5 4 0 0 0
1 1 1 1 0 0 0 0 0 13 7 3 0 0 0
0 4 2 0 0 0 3 0 1 0 1 0 0 2 0
0 7 3 0 0 0 13 1 7 14 11 11 11 11 11
0 0 0 0 0 0 0 0 0 26 20 20 10 22 10
0 0 0 0 0 0 46 37 40 39 51 48 79 67 70
83 83 83 33 37 35 0 0 0 0 0 0 0 0 0
0 0 0 0 0 0 0 0 0 0 0 0 0 0 0
0 0 0 0 0 0 0 0 0 0 0 0 0 0 0
13 11 10 26 29 21 4 0 0 0 0 0 0 0 0
0 0 0 0 0 0 9 20 18 4 6 0 0 0 0
0 0 0 20 17 29 37 45 44 5 8 5 0 0 0
0 0 0 0 0 0 0 0 0 20 4 24 24 36 31
4 0 0 0 3 0 0 0 0 0 0 0 5 0 0
0 11 0 8 1 0 0 0 0 0 0 0 0 0 0
0 0 0 0 0 0 0 0 0 0 0 0 3 0 31
32 21 42 0 8 0 0 0 0 0 0 0 7 12 10
15 2 0 0 4 0 5 0 3 31 30 28 0 2 10
12 9 15 16 11 22 14 16 14 0 0 0 39 33 34
44 38 25 14 10 1 0 0 0 0 5 0 0 0 0
0 0 0 16 1 10 0 0 0 0 0 0 0 0 0
0 0 0 0 0 0 0 0 0 0 0 0 0 0 0
0 0 0 0 0 0 0 0 0 0 0 0 0 0 0
0 0 0 0 0 0 0 0 0 0 0 0 0 0 0
0 0 0 0 0 0 0 2 0 0 0 0 0 0 0
0 0 0 0 0 0 0 0 0 0 0 0 0 0 0
0 0 0 0 0 0 0 0 0 0 0 0 0 0 0
0 0 0 38 44 41 71 66 76 0 0 0 0 0 0
33 31 61 171 175 84 164 157 163 0 0 0 0 0 0
9 18 28 0 0 0 0 0 0 56 73 70 0 0 0
0 0 0 0 0 0 2 0 0 10 0 6 0 0 0
0 0 0 2 0 0 0 0 0 0 0 0 12 2 5
0 3 0 2 0 5 0 2 0 2 8 2 3 8 9
0 0 0 0 0 2 0 0 0 2 5 4 1 4 4
8 0 4 1 0 2 0 0 0 9 5 22 0 2 7
0 1 7 0 2 7 1 0 6 0 0 10 0 5 0
0 4 1 4 12 11 0 0 0 0 0 0 0 0 0
8 0 1 13 8 11 0 0 0 3 10 9 0 0 0
0 0 0 0 3 0 0 3 6 0 4 0 0 0 0
2 3 3 0 0 0 6 14 4 0 0 0 0 0 0
0 0 0 0 1 0 11 11 11 3 3 3 0 3 6
0 0 0 0 0 0 0 0 2 0 0 0 0 0 0
0 0 0 4 0 0 0 2 1 0 0 0 0 0 0
0 0 0 0 0 0 12 8 22 23 23 23 25 25 25
16 16 18 12 12 16 13 11 17 0 2 8 5 6 13
3 2 10 2 0 4 0 0 0 1 5 11 0 0 0
15 9 18 7 13 16 0 0 1 0 0 0 16 3 12
0 2 8 8 5 6 0 0 0 5 0 0 0 4 2
0 0 0 0 0 0 0 0 0 0 0 0 9 7 2
0 0 0 11 0 1 0 5 3 0 0 0 1 0 0
5 0 0 0 6 1 0 0 0 6 0 0 17 14 14
12 12 12 0 0 0 0 0 0 0 0 0 21 15 15
7 19 7 0 0 0 0 9 6 0 0 0 0 0 0
0 0 0 96 96 96 107 109 108 58 68 63 2 8 6
23 37 34 32 40 36 34 28 32 26 36 32 14 16 10
9 5 17 0 0 0 22 14 19 11 8 4 21 13 22
36 16 26 31 21 31 0 0 3 0 0 0 0 0 0
9 6 0 0 0 0 0 0 0 16 18 14 14 5 0
0 0 0 0 0 0 22 11 17 47 44 39 21 12 4
0 0 0 0 0 0 0 0 0 0 2 0 11 8 10
6 17 5 4 7 1 0 2 0 0 0 0 0 0 0
0 0 0 6 0 0 2 0 0 5 3 1 0 0 0
0 0 0 0 0 0 37 35 33 48 44 50 5 7 11
0 0 13 10 0 32 0 0 0 0 0 0 0 0 0
0 0 1 10 2 0 0 0 0 0 0 0 33 34 26
0 0 0 5 5 3 9 6 14 17 20 9 5 14 14
27 35 42 17 24 20 0 0 0 0 0 0 0 0 0
0 0 0 0 0 0 0 0 0 0 0 0 0 0 0
0 0 0 6 10 9 12 21 14 0 7 17 0 0 0
21 26 28 29 23 15 39 37 41 94 81 88 168 163 158
200 202 196 182 176 175 187 195 186 0 0 0 10 14 0
0 0 0 0 0 0 0 0 0 0 0 0 0 0 0
0 0 0 0 0 0 0 0 0 11 1 13 15 22 32
33 36 34 14 18 17 18 13 8 0 0 0 0 0 0
0 0 0 0 0 0 0 0 0 0 0 0 0 0 0
0 0 0 0 0 23 98 105 33 160 161 166 0 0 0
0 0 0 0 0 0 0 0 0 0 0 0 26 23 34
0 0 0 0 0 0 0 0 0 0 2 9 0 0 0
0 0 0 0 0 0 0 6 0 0 4 1 0 10 0
7 0 2 0 9 0 6 0 3 2 0 1 1 0 10
2 4 0 0 0 4 0 0 0 0 0 5 0 0 0
0 0 0 0 1 0 9 0 0 0 0 0 8 17 11
0 4 0 0 0 0 3 5 1 1 5 0 0 6 4
8 0 0 0 0 0 15 8 10 0 0 0 0 0 0
0 0 0 10 9 4 2 22 9 5 7 3 0 12 4
0 0 0 0 0 0 0 0 0 5 2 6 6 3 0
3 0 0 7 0 1 0 0 0 11 10 4 0 0 0
0 0 0 0 0 0 10 1 0 16 7 10 2 0 0
11 6 12 0 0 0 0 0 0 1 0 6 0 0 0
0 0 0 0 0 0 0 0 0 0 0 0 16 13 14
0 0 0 0 0 0 0 2 0 11 3 18 14 11 11
10 7 7 0 0 0 7 4 4 3 0 0 0 0 0
0 0 0 0 0 0 5 0 0 0 0 0 1 0 0
0 0 0 17 7 12 7 11 9 0 0 0 0 0 0
11 7 7 0 4 4 6 10 7 0 0 0 2 0 0
0 6 1 0 4 1 0 0 0 0 0 0 2 0 0
14 17 11 0 0 0 4 0 0 0 6 1 0 4 2
1 4 3 5 1 3 0 11 3 0 2 0 0 0 0
17 14 14 13 13 13 0 0 0 0 0 0 0 0 0
19 13 13 0 2 0 0 0 0 50 59 56 68 59 62
0 0 0 0 0 0 41 41 41 45 45 45 0 0 0
63 57 60 46 62 56 40 39 41 37 33 31 33 31 27
33 29 19 29 23 30 37 34 34 12 15 9 18 16 14
33 22 29 35 39 39 21 31 21 0 0 0 0 0 0
0 0 0 0 5 0 0 0 0 0 0 0 12 25 10
6 0 1 0 0 0 0 0 0 10 14 11 43 36 50
3 0 0 0 0 0 0 0 0 0 0 0 0 0 0
3 0 3 0 3 0 10 5 2 0 0 0 0 0 0
0 0 0 2 1 0 0 4 0 0 3 0 0 6 0
0 0 0 0 0 0 0 0 0 88 99 95 125 118 116
33 32 36 18 10 38 10 0 32 0 0 0 0 0 0
0 0 0 3 11 0 8 0 0 0 0 0 0 0 0
25 19 27 0 0 0 2 2 0 0 0 2 5 8 0
0 0 0 0 0 0 0 0 0 0 0 0 0 0 0
0 0 0 14 22 4 12 20 15 17 8 2 3 3 0
10 11 6 23 16 10 28 32 24 24 23 15 7 15 21
0 2 0 0 0 0 0 0 0 0 0 0 0 0 0
23 23 25 30 41 28 56 58 62 123 131 132 0 0 0
12 8 0 0 0 0 0 0 0 0 0 0 8 10 0
0 0 0 0 0 0 14 15 46 0 0 0 0 0 0
0 0 0 0 0 0 0 0 0 6 0 16 0 0 0
27 28 43 41 46 51 10 18 15 0 0 0 0 0 0
0 0 0 59 60 74 55 49 43 42 42 13 81 80 83
86 78 102 65 64 86 1 3 10 0 0 0 0 0 0
0 0 1 0 0 5 0 0 8 0 0 0 8 6 12
14 12 7 0 0 0 0 0 0 2 7 0 1 0 9
4 8 4 0 0 7 0 0 2 2 0 0 0 1 0
0 0 0 1 6 0 3 5 3 0 0 0 0 0 0
0 0 2 0 0 6 0 3 7 6 0 8 0 0 0
0 9 21 0 6 10 1 0 0 0 0 1 0 0 0
0 0 0 9 1 4 0 0 0 28 23 16 0 1 0
0 0 0 0 0 0 15 5 13 1 12 11 9 2 10
0 0 3 0 0 0 4 0 7 0 0 0 1 1 4
3 0 6 0 0 11 0 1 0 0 0 0 25 15 9
0 8 1 0 0 0 0 3 6 0 3 0 0 8 5
0 4 1 11 25 25 0 0 0 0 0 0 5 1 9
0 0 0 0 0 0 0 0 0 0 0 0 0 5 0
6 0 2 0 0 0 0 0 0 0 0 0 0 0 7
0 0 0 0 0 0 0 0 0 0 0 0 1 3 3
0 0 0 0 0 0 0 2 0 0 0 0 0 0 0
12 8 10 0 0 0 12 16 14 9 11 10 0 0 0
0 0 0 14 12 12 13 9 9 18 8 5 0 0 0
3 1 2 4 0 2 6 0 3 3 0 0 0 1 0
0 0 0 12 10 3 0 0 0 4 3 3 6 0 2
11 0 1 0 2 0 1 0 0 0 1 0 5 0 0
0 0 0 12 9 9 17 17 17 0 5 0 0 0 0
0 1 1 18 12 12 0 0 0 1 0 1 82 91 88
90 81 84 0 0 0 0 0 0 9 9 9 33 33 33
0 0 0 37 45 41 12 23 19 11 2 7 0 1 0
0 0 0 1 0 0 2 0 0 17 8 9 0 0 0
0 0 0 0 3 0 22 23 16 8 10 20 0 0 0
0 0 0 7 3 0 6 5 0 0 0 0 1 0 0
20 20 4 0 0 0 0 0 0 0 0 0 17 22 5
25 28 28 6 7 0 1 0 0 0 0 0 0 0 0
0 0 2 8 0 7 0 0 0 5 2 11 0 0 1
0 0 0 0 1 0 4 11 8 13 2 9 0 0 0
0 0 0 0 0 0 0 0 0 0 0 0 81 87 80
138 126 129 28 22 39 28 26 45 19 7 40 0 0 0
5 1 0 1 1 8 9 12 4 17 1 7 0 0 0
0 0 0 17 13 14 0 0 0 0 0 0 0 0 2
0 4 0 0 0 0 0 0 0 0 0 0 0 0 0
0 0 0 0 0 0 0 0 0 0 0 0 22 17 20
4 9 0 0 6 0 0 0 0 0 0 0 0 0 0
0 0 0 0 0 0 0 0 0 2 0 0 26 23 28
23 29 17 0 0 0 0 0 0 0 0 0 0 0 0
41 38 39 12 30 28 0 0 0 0 0 0 5 0 0
0 0 0 0 0 0 0 0 0 116 115 149 36 42 57
8 7 33 0 0 3 0 0 0 0 0 0 0 0 0
0 0 0 0 0 0 20 16 29 32 30 46 0 0 0
0 0 0 0 0 0 63 72 86 60 68 35 57 56 42
59 64 49 242 255 120 255 255 255 29 32 41 0 0 0
0 0 0 0 0 0 0 0 10 0 0 0 0 0 0
0 0 0 0 0 0 0 0 0 0 0 0 5 15 0
0 0 0 0 0 0 0 0 0 1 11 3 3 0 0
2 0 0 1 0 0 0 0 0 0 0 7 0 0 0
0 0 0 0 0 0 0 0 0 0 0 0 0 0 0
0 0 0 16 11 19 0 3 5 2 3 0 0 5 0
2 0 0 6 2 0 7 3 2 0 0 0 22 23 31
0 7 0 5 0 0 15 11 4 45 41 34 44 41 36
27 26 23 0 9 4 0 0 0 0 0 0 7 0 0
0 10 3 33 15 20 5 16 18 20 9 1 0 0 0
10 12 20 0 6 0 10 11 8 8 8 12 7 7 0
2 2 0 10 10 8 24 30 33 0 0 0 0 3 1
13 3 14 7 1 0 1 0 4 2 1 0 15 12 12
21 25 23 0 0 0 0 0 0 0 0 0 8 2 0
36 24 42 44 38 40 34 31 32 25 22 23 30 24 26
27 18 21 15 6 9 16 1 6 4 10 8 14 12 13
25 21 23 27 17 22 0 0 0 9 9 9 15 15 15
0 0 0 0 0 0 3 3 3 13 13 13 25 22 18
0 0 1 15 24 21 2 11 8 1 7 5 0 0 0
8 2 5 5 11 8 18 21 12 0 0 0 0 1 0
0 0 0 8 2 4 0 8 3 0 6 3 0 8 3
6 6 5 0 0 0 6 3 3 5 5 5 0 0 0
0 0 0 0 0 0 18 12 12 0 0 0 0 0 0
35 44 41 65 56 59 0 0 0 0 0 0 72 72 72
86 86 86 0 0 0 23 31 27 20 31 25 45 36 37
15 30 13 20 16 22 0 5 3 0 0 0 1 7 0
12 12 11 11 0 0 17 10 10 29 32 19 14 7 10
0 0 0 0 0 0 0 0 0 21 6 0 0 0 0
0 0 0 18 15 7 5 11 0 0 0 0 3 2 8
46 42 43 56 50 68 11 12 13 6 0 7 0 0 0
0 0 0 0 0 0 0 0 0 0 0 0 0 6 1
0 0 0 13 2 12 26 19 25 27 36 25 17 21 19
1 0 0 0 0 0 13 9 14 0 0 0 0 0 0
68 62 78 128 138 142 31 27 45 46 38 66 62 44 79
14 25 27 25 26 19 18 24 22 28 37 31 24 13 7
0 0 0 0 0 0 0 0 2 0 0 0 0 0 0
0 0 1 11 9 3 0 0 0 9 11 10 18 22 22
15 21 6 0 3 0 0 0 0 0 0 0 0 0 0
19 18 17 0 0 0 0 0 0 0 0 0 0 0 0
2 13 4 0 19 0 0 6 2 25 29 25 17 15 12
0 0 0 0 0 0 0 0 0 7 5 5 29 26 18
24 27 30 0 0 0 0 0 0 0 0 0 0 0 0
6 0 2 133 135 137 98 103 83 0 0 0 0 0 0
1 0 4 0 0 0 0 0 0 0 0 0 0 0 0
0 0 0 22 23 24 79 83 74 0 0 0 0 0 0
0 0 0 0 0 0 107 109 131 125 146 65 41 53 62
3 5 0 0 0 0 28 33 49 44 36 63 17 5 22
103 106 113 101 93 118 0 0 0 43 47 59 0 0 0
15 9 23 68 63 80 16 27 18 0 0 0 14 6 0
0 0 0 0 0 0 4 6 12 6 0 7 0 0 0
0 4 0 0 0 0 1 3 3 0 6 0 4 10 6
4 8 0 7 10 10 1 4 8 7 7 14 3 0 8
12 0 11 0 0 3 2 1 3 0 0 0 0 0 0
0 0 5 0 0 1 0 5 8 0 5 10 0 0 0
14 9 12 0 0 0 0 0 0 0 0 0 0 0 0
0 0 0 0 0 0 0 0 0 16 7 12 9 14 15
19 17 18 0 6 10 0 0 0 0 0 0 0 0 3
0 0 0 26 23 25 11 7 19 5 7 1 10 10 12
3 3 7 3 3 13 0 0 0 1 7 10 0 0 0
0 0 0 3 7 11 8 14 5 5 10 14 1 5 0
1 4 4 3 11 10 0 4 2 8 17 14 1 10 7
0 0 0 0 0 0 0 0 0 0 0 0 30 21 24
0 0 0 0 0 0 0 0 0 0 0 0 0 0 0
0 0 0 0 0 0 0 0 0 10 12 11 10 10 10
5 5 5 0 0 0 0 0 0 17 17 17 6 6 6
6 6 1 0 0 0 0 0 0 0 0 0 3 0 0
0 3 1 0 0 0 0 0 0 0 7 0 0 0 0
7 1 4 0 5 2 2 1 1 3 0 0 4 0 0
1 0 0 0 1 0 0 0 0 0 0 0 28 28 28
35 50 44 41 26 32 5 11 11 0 0 0 0 0 0
31 19 31 46 55 52 47 38 41 0 0 0 56 44 47
63 63 63 0 0 0 28 32 30 20 14 17 0 0 0
0 0 0 0 0 0 0 0 0 7 13 10 0 0 0
3 0 0 0 0 0 36 25 34 34 32 35 0 0 0
0 0 0 0 0 0 0 0 0 0 0 0 3 0 0
0 0 0 0 0 0 0 0 0 8 0 0 0 0 0
0 0 0 0 0 0 2 0 0 0 0 0 0 9 1
2 2 6 8 8 20 0 3 0 18 6 3 2 8 2
0 0 0 0 9 3 0 4 11 0 0 0 0 0 0
0 11 1 24 26 18 3 0 0 0 0 0 0 0 0
0 0 0 0 0 0 132 132 135 19 14 17 32 25 56
0 0 5 0 0 0 0 0 0 1 1 9 1 4 10
14 0 4 0 3 0 0 0 0 0 0 0 14 19 18
12 16 3 0 0 0 0 0 0 0 8 0 1 15 0
8 7 0 0 0 0 0 0 0 0 0 0 0 0 0
4 16 0 38 33 20 5 3 0 0 0 0 5 15 0
39 37 34 36 38 34 16 30 8 0 0 0 0 0 0
0 0 0 0 0 0 0 0 0 0 0 0 0 0 0
0 0 0 0 0 0 54 54 53 3 0 0 61 55 63
0 7 0 0 0 0 0 0 0 11 15 11 0 0 0
0 0 0 0 0 0 0 0 0 0 0 0 0 0 0
0 0 0 0 0 0 0 0 0 71 79 85 0 0 5
27 33 36 54 49 52 71 62 69 115 137 73 126 124 126
6 19 2 0 0 0 0 0 0 3 18 1 6 9 2
0 0 0 28 25 37 68 53 71 0 0 0 0 0 0
0 0 0 29 24 28 33 27 37 0 0 0 0 0 0
8 5 0 15 15 3 0 0 0 0 3 0 0 1 0
3 0 3 0 0 0 0 0 0 1 1 5 4 0 9
1 3 3 0 0 4 3 3 0 0 0 0 9 0 0
0 1 0 0 1 0 0 2 0 0 10 0 0 2 0
7 0 0 10 3 0 6 0 0 2 0 0 1 0 1
0 0 1 18 8 5 8 2 1 0 0 0 1 0 0
5 0 2 1 0 3 6 12 0 0 3 0 6 7 3
6 0 3 11 6 9 7 2 9 2 3 0 0 0 0
4 5 5 0 5 9 13 4 4 8 0 9 4 3 0
13 10 6 12 9 7 6 3 7 6 2 0 8 9 11
0 0 0 3 0 0 11 4 11 10 5 0 1 0 5
0 0 0 0 0 0 2 4 4 6 1 1 3 1 1
4 3 3 0 0 0 0 0 3 0 0 0 16 0 4
10 19 16 0 0 0 0 0 0 7 1 4 4 0 1
1 0 0 10 0 5 0 4 2 2 2 2 0 0 0
7 7 7 6 6 6 0 0 0 0 0 0 15 15 15
5 5 5 10 14 8 0 0 0 2 4 4 0 1 1
3 0 0 0 2 0 0 5 3 0 0 0 7 3 0
0 0 4 0 0 0 1 0 0 0 1 0 0 0 0
0 4 2 0 1 0 0 3 0 0 0 0 0 0 0
11 11 11 0 13 7 5 0 0 0 0 0 0 0 0
0 0 0 12 0 12 27 36 33 40 31 34 0 0 0
31 19 22 33 33 33 0 0 0 43 49 46 34 32 33
0 0 0 16 13 20 5 13 12 0 0 0 21 23 18
0 0 0 4 3 0 0 0 0 23 21 22 32 32 27
0 0 0 0 0 0 0 0 0 0 0 0 0 0 0
9 7 0 0 0 0 9 0 0 0 0 0 6 4 0
0 0 0 0 10 5 0 0 0 27 35 44 2 0 0
6 0 9 3 5 0 5 8 1 0 3 0 4 0 2
1 12 9 0 0 0 0 5 15 2 0 0 0 0 0
0 0 0 16 15 6 17 20 29 0 0 0 4 0 0
0 0 0 0 0 0 0 0 0 139 139 150 28 33 28
44 34 52 12 0 18 0 0 0 11 10 14 0 4 3
4 10 10 11 0 0 0 5 0 0 0 0 0 0 0
3 11 13 4 2 1 4 0 11 1 5 0 0 0 0
15 14 12 46 48 37 48 45 48 31 31 32 0 0 0
0 0 0 0 0 0 0 0 0 0 0 0 2 0 5
6 10 5 0 0 0 0 0 0 0 0 0 0 3 0
0 0 0 0 0 0 0 0 0 0 0 0 0 0 0
0 0 0 0 0 0 0 0 0 91 100 101 0 0 0
0 0 0 39 54 42 0 0 0 0 0 0 118 113 114
175 174 173 138 135 124 213 220 204 213 202 194 130 129 123
119 118 105 108 120 98 118 121 117 146 145 113 170 167 90
127 120 109 143 140 127 117 124 110 123 128 104 160 152 131
58 73 36 0 0 0 0 0 0 0 0 0 0 0 0
27 18 31 0 0 0 32 35 33 27 19 34 0 0 0
0 0 0 0 0 0 11 13 24 38 40 45 4 14 11
0 0 0 0 0 0 7 11 0 0 0 0 4 3 0
0 0 4 0 0 0 0 0 0 0 0 0 0 1 0
3 0 1 0 3 0 0 0 0 3 3 7 1 0 3
0 7 9 0 0 3 7 0 6 3 0 3 0 0 7
2 2 10 0 0 3 0 0 7 0 9 0 0 7 3
11 2 5 0 0 0 4 8 10 0 2 9 1 7 0
0 0 0 0 2 0 0 2 1 4 0 5 0 0 11
10 2 0 2 3 2 6 12 9 3 8 9 0 0 0
0 0 0 0 2 2 4 11 16 0 0 0 0 0 0
0 4 7 10 13 23 5 8 4 7 10 12 0 1 11
0 3 0 0 0 0 0 6 5 1 5 13 0 9 0
0 0 0 0 0 0 0 0 0 0 0 0 0 0 0
0 0 0 0 0 0 0 0 0 0 0 0 0 0 0
0 0 0 0 0 0 3 0 0 0 0 0 0 0 0
0 6 3 0 5 2 9 13 11 11 13 12 29 29 29
0 0 0 10 10 10 9 9 9 0 0 0 3 3 3
18 18 18 7 7 7 0 0 0 0 0 0 3 0 0
1 3 3 3 0 1 3 0 0 7 0 0 0 3 1
5 4 0 0 0 2 0 0 0 3 2 3 2 0 0
0 0 0 6 0 1 0 1 0 0 0 0 0 0 0
0 0 0 6 6 6 0 6 0 0 0 0 0 0 0
4 0 0 0 0 0 0 0 0 6 15 12 9 0 3
0 0 0 25 13 16 0 0 0 0 0 0 40 48 44
23 25 24 0 0 0 7 2 9 5 8 7 1 0 0
26 18 24 0 0 0 0 0 0 12 2 11 34 16 17
15 14 26 0 0 0 0 0 0 0 0 0 0 0 0
0 0 0 20 0 0 0 0 0 0 4 0 0 0 0
14 0 0 1 0 0 7 7 9 0 0 0 26 22 25
0 5 0 7 0 0 0 0 1 0 0 5 0 0 4
3 0 6 2 4 0 0 0 0 0 12 0 0 0 0
0 0 0 1 5 0 17 17 4 13 7 10 0 0 0
0 0 0 0 0 0 0 0 0 0 0 0 106 97 113
42 45 42 36 23 35 0 0 0 0 0 0 8 1 11
2 8 0 1 8 0 11 0 0 0 0 0 0 0 0
0 0 0 0 0 0 0 0 0 0 0 0 1 0 0
0 0 0 0 0 0 38 44 31 53 62 53 35 41 48
9 14 4 0 0 0 0 0 0 0 0 0 0 0 0
0 0 0 0 0 0 0 0 0 0 0 0 0 0 0
0 10 0 0 0 9 9 0 8 3 8 14 0 0 0
0 0 0 0 0 0 10 7 18 1 0 0 31 22 29
0 0 0 0 0 0 0 0 0 0 0 0 101 103 111
205 212 215 203 205 196 187 196 193 195 195 162 159 170 159
150 152 132 153 164 146 151 151 124 133 133 122 151 156 139
119 125 118 96 106 87 36 40 21 0 0 0 0 0 0
60 54 37 0 0 0 0 0 0 0 0 0 0 0 0
19 23 29 64 65 66 44 44 52 42 37 55 18 9 14
0 0 0 0 0 0 0 0 0 0 0 0 0 0 0
51 45 54 15 8 5 0 0 0 23 13 20 0 0 0
0 1 0 4 0 3 0 0 0 0 0 6 2 0 0
1 0 0 6 0 0 2 3 0 0 1 0 3 3 2
3 0 0 0 7 1 0 0 0 5 0 0 0 0 0
0 0 0 5 0 2 0 0 0 2 0 3 2 1 0
0 0 0 0 7 0 6 0 0 9 1 1 2 0 0
3 0 0 9 0 0 4 0 0 6 0 0 7 7 2
0 0 0 0 10 0 5 0 0 10 1 4 7 0 3
0 0 0 3 0 0 0 0 0 10 11 18 0 0 0
0 0 0 7 1 4 12 8 16 12 10 5 11 11 11
3 0 9 0 0 0 2 0 3 4 4 2 12 9 18
2 11 0 12 0 8 0 0 0 2 0 0 9 3 5
0 0 0 0 2 2 3 0 0 0 0 0 0 0 0
0 0 0 0 0 0 0 0 0 2 5 0 0 0 0
4 0 0 2 0 0 8 8 3 7 10 4 9 12 6
28 31 25 0 0 0 5 8 2 7 10 4 3 6 0
6 9 3 15 18 12 2 5 0 0 0 0 0 0 0
3 1 1 0 0 0 2 4 4 1 2 2 4 0 0
0 0 0 0 0 0 2 4 9 4 0 0 0 0 0
0 0 0 3 3 3 0 0 0 0 8 2 0 0 0
0 0 0 0 0 0 0 0 0 0 1 0 0 0 0
0 0 0 10 4 4 4 16 4 30 18 30 0 4 1
0 0 0 0 0 0 43 31 34 0 0 0 0 0 0
33 43 36 21 7 10 0 0 0 12 2 9 0 12 4
0 0 0 25 22 19 0 0 0 5 0 0 28 25 28
23 23 9 3 7 3 0 0 0 0 0 0 0 0 0
0 0 0 0 0 0 20 2 0 0 0 0 6 0 0
0 2 0 1 7 0 0 0 0 2 5 5 0 0 0
18 12 14 2 0 1 3 6 12 0 3 0 16 0 0
0 5 0 12 2 3 0 0 2 5 0 6 0 6 8
0 0 0 0 0 0 11 17 8 12 7 14 0 0 0
0 0 0 0 0 0 0 0 0 0 0 0 0 0 0
62 67 73 36 30 23 6 9 17 0 0 0 0 0 0
3 0 3 0 0 10 0 8 13 12 0 0 0 0 0
0 0 0 0 0 0 0 0 0 0 0 0 0 0 0
0 0 0 0 0 0 0 0 0 0 0 0 0 0 0
0 0 0 22 8 1 65 57 72 103 105 98 98 82 95
29 24 39 0 0 0 0 0 0 13 3 13 41 31 41
17 13 10 0 0 0 0 0 0 4 4 2 9 5 1
0 0 0 0 0 0 0 0 0 0 4 3 15 25 14
0 0 0 112 112 104 0 0 0 0 0 0 114 115 109
255 255 255 64 62 72 0 0 0 0 0 0 0 0 0
0 0 0 0 0 0 39 38 39 27 24 14 0 0 0
14 5 1 0 0 0 0 0 0 0 0 0 0 0 0
0 0 0 41 43 35 0 0 0 0 0 0 0 0 0
0 0 0 0 0 0 4 0 6 22 16 28 25 29 44
36 36 37 34 38 46 0 0 0 0 0 0 0 0 0
0 0 0 0 0 0 12 18 11 0 5 8 44 40 52
0 0 0 0 5 0 0 0 4 0 1 0 0 1 12
0 0 0 0 4 12 0 7 1 4 0 5 0 2 0
5 2 1 5 0 0 4 0 8 1 0 0 0 0 3
0 0 0 5 9 4 0 3 0 0 0 0 0 3 3
0 4 7 0 0 3 0 4 8 1 0 11 0 4 0
0 0 0 0 2 3 0 5 8 0 0 3 0 6 9
0 9 12 0 0 0 4 2 0 0 5 1 0 4 1
1 10 8 0 2 1 0 1 1 7 1 1 9 8 16
0 0 0 0 0 0 0 0 0 1 11 12 9 5 1
4 4 4 0 0 6 0 0 0 5 0 5 2 2 0
6 3 12 10 16 6 0 5 9 0 7 0 3 12 9
8 23 18 0 0 0 0 0 0 1 3 3 0 0 0
0 0 8 0 5 2 4 8 6 19 20 16 5 0 4
0 1 3 0 0 2 0 8 9 8 0 7 2 0 5
1 0 4 3 0 6 0 0 0 7 4 10 10 7 13
0 0 0 9 6 12 18 15 21 5 2 8 0 0 0
0 0 0 6 5 5 2 0 0 3 0 0 0 0 0
5 2 3 3 0 0 7 0 0 0 3 7 6 3 3
0 0 0 0 0 0 1 1 1 3 1 2 6 4 5
0 1 2 0 0 0 2 2 2 8 8 8 0 6 0
1 0 0 0 1 1 31 25 25 19 31 19 60 48 60
0 0 0 0 0 0 7 19 16 60 48 51 0 0 0
0 0 0 30 42 32 13 1 17 0 0 0 0 5 4
2 0 0 0 0 0 24 9 11 0 0 0 0 0 0
46 33 51 15 9 12 0 0 11 0 0 0 0 0 0
0 0 0 0 0 0 0 4 0 6 10 0 0 0 0
1 7 0 0 0 0 9 0 7 4 0 7 10 2 2
0 0 0 3 12 12 0 0 0 0 0 0 0 0 2
2 0 5 0 1 5 1 4 10 0 0 0 9 13 4
16 27 15 0 0 0 0 0 0 14 17 7 0 0 0
0 0 0 13 18 20 0 0 0 0 0 0 22 27 29
0 0 0 39 40 34 19 13 8 0 3 0 0 0 0
0 0 0 1 0 0 2 3 0 3 13 0 14 3 0
0 1 0 0 0 0 0 0 0 0 0 0 0 0 0
0 0 0 0 0 0 0 1 0 0 0 0 0 0 0
0 0 0 0 0 0 0 2 0 22 25 25 41 53 52
83 87 85 54 62 70 44 43 39 0 4 0 0 0 0
0 0 0 0 0 0 0 9 0 0 0 0 0 0 0
0 0 0 0 0 0 0 0 0 0 0 0 0 0 0
0 3 0 0 0 0 0 0 0 0 0 0 64 59 59
255 255 255 141 145 146 0 0 0 0 0 0 0 0 0
0 0 0 0 0 0 24 29 22 44 46 27 1 11 0
0 0 0 0 0 0 0 0 0 0 0 0 0 0 0
0 0 0 56 51 51 81 89 77 0 1 0 0 0 0
0 0 0 0 0 0 0 0 0 0 0 0 0 0 8
0 0 0 0 0 0 0 0 0 53 40 38 161 152 146
60 48 58 0 0 0 0 0 0 0 0 0 0 0 2
0 0 0 0 0 0 14 7 0 0 0 6 0 5 0
0 0 0 4 3 0 0 2 2 0 6 0 6 0 0
0 3 0 7 1 0 0 4 0 8 0 6 0 3 0
0 6 0 0 0 0 12 4 9 0 6 0 4 0 0
6 0 3 1 0 0 6 0 3 3 0 1 5 2 8
0 0 0 4 0 0 4 1 0 4 1 1 8 5 5
0 0 0 1 2 3 0 0 6 0 0 0 2 0 0
7 4 2 3 1 1 0 0 0 0 0 0 8 0 0
13 5 13 0 0 0 0 0 0 0 0 0 2 8 11
3 0 0 2 2 2 0 0 4 0 0 0 2 0 0
0 0 0 8 3 13 11 14 5 8 8 14 8 8 2
12 12 12 11 17 15 13 0 3 8 2 4 10 7 8
4 4 0 0 0 12 7 7 7 20 20 20 41 38 34
0 5 7 9 12 11 5 5 5 0 3 1 7 0 0
0 0 0 0 0 0 0 0 0 6 6 6 5 5 5
5 5 5 0 0 0 0 0 0 12 12 12 3 3 3
0 0 0 0 0 0 0 0 0 3 3 3 3 1 1
0 0 0 0 0 0 1 2 2 0 0 0 2 11 14
0 0 0 0 0 0 0 0 0 0 0 0 0 0 0
0 0 0 6 9 9 0 0 0 0 0 0 10 10 10
8 23 17 17 2 8 0 0 0 25 19 19 8 20 8
61 49 61 0 0 0 0 0 0 28 40 37 51 39 42
0 0 0 17 17 17 32 44 32 0 0 0 0 0 0
0 0 0 0 5 0 0 0 0 18 25 13 0 0 0
3 7 0 36 34 39 8 10 0 0 0 0 0 0 0
2 0 0 0 0 0 0 0 0 0 0 0 11 1 7
0 0 0 3 7 0 0 0 0 3 4 1 0 0 1
5 10 0 0 0 0 2 3 1 0 0 0 11 0 0
4 0 0 9 1 1 5 0 0 2 0 2 0 1 1
5 7 6 34 30 28 0 0 0 0 0 0 18 11 1
0 0 0 0 0 0 48 51 52 0 0 0 0 0 0
82 93 99 17 13 16 19 19 3 0 0 0 11 7 18
0 0 0 0 7 0 1 0 0 0 0 1 0 3 4
11 3 0 0 11 0 0 0 0 0 0 0 20 30 23
22 22 26 14 12 18 2 7 0 2 0 2 19 13 17
42 37 36 33 27 39 13 0 23 0 0 0 0 0 0
0 0 0 0 0 0 17 16 23 66 56 76 35 33 42
0 0 0 0 0 0 0 0 0 0 18 3 0 0 0
0 0 0 0 7 0 0 0 0 0 0 0 0 0 0
0 0 2 5 26 14 0 0 0 0 0 0 0 0 0
205 209 210 239 241 245 0 0 0 0 0 0 68 72 75
0 0 1 0 0 0 87 70 91 94 85 107 0 0 0
0 0 0 0 0 0 0 0 0 0 0 0 0 0 0
0 0 0 1 2 13 119 116 136 86 70 110 0 0 0
0 0 0 0 0 0 0 0 14 0 0 9 7 2 27
15 13 41 0 0 0 0 0 0 0 0 0 132 137 118
226 237 208 129 138 120 0 0 0 0 0 0 0 0 0
0 0 0 0 0 0 0 0 0 6 12 0 0 1 1
0 3 5 1 0 0 1 0 6 0 3 0 0 7 0
6 0 0 0 3 0 9 1 0 0 4 0 10 0 5
0 3 0 0 0 12 0 0 0 8 3 5 0 5 3
1 2 0 0 0 0 0 4 1 0 1 0 0 0 0
1 7 6 0 0 0 0 0 1 0 0 0 0 0 0
0 1 0 2 3 4 0 0 0 0 0 0 4 0 0
0 0 5 2 2 0 0 0 0 0 0 0 0 0 0
0 0 0 0 2 3 11 0 6 7 0 9 0 0 0
0 0 0 0 0 0 0 0 0 3 0 2 0 0 0
0 0 0 0 0 0 4 0 3 9 9 0 1 0 1
0 0 0 0 0 0 0 0 0 10 16 8 0 9 0
11 0 0 8 2 0 1 0 7 1 0 0 10 7 4
20 13 7 0 0 0 2 0 1 0 0 0 0 0 0
0 0 0 0 0 0 0 0 0 0 0 0 21 12 15
14 5 8 13 4 7 0 0 0 4 0 0 21 12 15
12 3 6 0 0 0 0 0 0 5 2 2 0 0 0
7 3 3 6 1 1 6 0 0 0 0 0 0 0 0
3 9 13 3 2 2 5 3 3 7 2 2 0 0 0
7 7 7 7 7 7 8 11 11 0 0 0 2 2 2
15 15 15 14 27 22 20 3 10 0 0 0 0 0 0
0 0 0 28 15 27 0 0 0 0 0 0 37 44 40
24 8 7 0 0 0 36 33 26 41 51 33 0 0 0
0 0 0 2 15 0 2 15 0 0 0 0 20 13 6
1 0 0 44 26 17 15 0 6 0 0 0 0 0 0
0 0 0 0 0 0 0 0 0 0 0 0 0 0 0
14 4 6 0 0 0 2 0 3 0 0 6 6 3 0
0 0 0 10 8 12 3 0 14 0 0 0 0 0 0
0 0 0 0 1 0 0 4 1 0 7 6 0 7 0
0 10 0 0 0 0 27 38 25 0 3 0 0 0 0
7 4 4 0 0 0 0 0 0 91 89 93 0 0 0
0 0 0 106 107 119 58 41 64 5 0 14 0 0 2
38 24 55 0 0 0 1 0 12 12 0 11 2 5 0
7 12 0 19 9 4 0 11 0 4 9 0 0 0 0
24 41 21 21 27 23 14 16 5 11 12 9 0 0 0
0 0 5 9 11 20 4 14 11 4 5 13 0 0 0
0 0 0 0 0 0 0 0 0 0 0 0 0 0 0
18 27 27 41 53 50 4 20 8 0 0 0 0 0 0
3 0 9 0 0 0 0 0 0 0 0 0 0 0 0
0 0 0 0 0 0 0 0 0 0 0 0 37 33 36
255 255 255 217 207 206 0 0 0 0 0 0 22 16 28
0 0 0 0 0 0 33 16 31 201 193 223 106 102 114
0 0 0 0 0 0 37 26 43 34 31 41 19 13 20
40 31 51 0 0 1 54 47 71 185 179 198 124 108 145
0 0 0 0 0 0 12 9 48 20 15 51 0 0 0
0 0 0 0 0 0 0 0 0 0 0 0 0 0 0
144 142 127 215 213 200 140 142 122 0 4 0 0 0 0
0 0 0 0 0 0 0 0 0 0 0 0 0 0 0
4 0 0 0 0 3 0 0 0 0 0 0 0 3 0
0 0 0 7 0 0 2 0 0 10 0 0 0 0 0
5 0 0 0 0 0 0 0 7 0 0 0 2 1 0
0 2 0 0 0 1 0 1 0 3 9 8 3 7 7
6 8 9 12 13 11 0 0 0 0 0 0 0 0 0
5 1 8 13 3 0 0 7 1 10 0 7 0 0 2
0 0 0 0 1 3 17 3 0 10 2 1 1 0 0
0 0 0 6 7 0 6 14 5 28 25 24 11 14 15
0 0 3 0 0 0 0 0 0 0 0 0 7 2 12
0 0 0 20 14 8 9 8 0 20 20 24 9 12 11
1 0 0 0 0 0 0 0 0 0 0 0 32 29 26
16 16 12 11 14 9 0 2 0 0 0 0 0 0 0
15 0 5 7 10 11 26 19 24 13 22 17 29 17 22
12 21 16 13 4 8 8 5 7 0 0 0 0 0 0
36 39 39 25 28 28 17 20 20 0 0 0 0 1 1
19 22 22 6 9 9 0 2 1 0 0 0 9 3 8
5 0 3 3 0 0 10 4 7 10 3 6 11 0 3
0 0 0 14 13 19 11 8 6 13 10 6 15 10 4
16 18 12 17 17 11 19 19 13 20 22 16 0 0 0
0 0 0 30 29 22 42 50 42 24 19 17 0 0 0
0 0 0 0 0 0 0 0 0 0 0 0 0 0 0
45 40 33 0 0 0 0 0 0 61 69 64 76 73 61
3 0 0 0 0 0 4 6 0 17 12 6 0 1 0
35 33 16 11 4 10 78 67 72 28 22 15 1 0 0
0 0 0 0 0 0 0 0 0 0 0 0 0 0 0
0 0 0 13 6 6 0 0 0 0 0 0 0 0 0
1 0 0 0 0 0 12 8 14 0 11 3 0 0 0
0 0 0 0 5 7 11 1 8 10 4 10 11 8 15
13 21 12 0 17 0 0 0 0 11 10 0 0 0 0
0 0 0 0 0 0 0 0 0 0 0 0 44 42 34
0 0 0 0 0 0 81 73 91 61 46 63 0 0 0
0 0 0 45 29 66 0 0 0 0 0 0 0 3 2
21 19 11 19 16 2 13 20 9 15 5 0 18 17 10
19 19 17 59 54 48 40 50 40 23 26 13 3 3 0
0 0 0 0 0 0 0 7 0 0 0 0 0 0 0
0 0 0 9 3 1 14 23 16 57 60 63 0 0 0
0 0 0 0 0 0 45 27 35 71 59 54 0 0 0
0 0 0 0 0 0 0 0 0 0 0 0 0 0 0
0 0 0 0 0 0 27 10 28 108 104 101 86 83 90
255 255 255 255 255 255 0 0 0 0 0 0 0 0 0
0 0 0 0 0 0 137 138 143 66 61 59 0 0 0
0 0 0 0 0 0 35 46 36 0 0 0 0 0 0
0 0 1 0 0 0 88 86 86 42 39 50 0 0 0
133 126 137 108 107 103 0 0 0 9 5 7 0 0 0
0 0 0 0 0 0 0 0 0 0 0 0 149 143 137
168 166 147 168 158 162 0 0 0 0 0 0 103 94 110
208 194 194 194 183 194 28 5 13 0 0 0 7 12 9
0 0 0 0 0 0 0 3 3 0 0 0 1 0 5
9 14 17 0 0 0 11 13 20 0 7 2 2 8 16
0 2 0 9 5 9 1 5 6 15 2 0 0 0 0
20 14 25 7 15 3 11 5 3 2 0 0 4 0 2
0 0 0 0 0 0 0 0 0 0 0 3 5 4 9
4 5 9 5 4 13 8 6 10 0 9 0 1 0 1
0 0 0 13 12 8 0 2 0 0 0 4 0 0 7
0 0 0 0 1 3 0 0 0 0 0 0 0 0 0
0 0 0 4 2 2 9 8 12 9 10 20 6 9 1
0 1 13 0 0 0 22 16 16 0 0 0 0 0 8
0 0 0 7 3 4 0 1 4 8 6 9 0 0 0
0 4 5 0 0 0 0 0 0 0 3 0 0 0 0
0 0 0 0 0 7 0 6 0 0 0 0 0 0 0
0 0 0 0 0 0 0 0 0 4 7 4 13 16 13
0 3 0 7 10 7 0 0 0 0 0 0 0 0 0
0 0 0 0 0 0 1 4 1 34 43 40 0 0 0
0 0 0 0 0 0 0 0 0 0 0 0 0 0 0
0 0 0 0 0 0 0 0 5 0 0 0 0 0 1
0 0 0 0 0 0 0 0 0 0 0 0 0 0 0
21 23 25 8 11 11 5 10 11 0 0 5 0 0 0
0 0 0 0 0 0 0 0 0 0 0 0 11 5 12
40 46 38 38 37 41 0 2 2 0 0 0 0 0 0
0 0 3 30 14 31 0 0 0 0 0 0 0 0 1
0 0 9 32 25 34 18 21 18 0 0 0 0 0 0
0 0 0 14 8 3 21 13 6 11 6 0 0 0 0
1 0 0 0 0 0 14 0 0 0 0 0 2 0 7
0 11 0 10 13 0 0 0 4 6 0 0 0 4 0
0 0 0 0 0 0 2 0 0 0 0 0 0 0 0
0 0 0 0 0 0 0 0 0 21 5 30 25 26 38
42 29 47 0 0 0 15 16 39 0 0 0 0 0 0
255 255 255 0 0 0 0 0 2 58 70 72 59 66 57
2 0 0 0 2 0 16 18 5 17 21 9 0 0 0
0 0 0 0 0 0 0 5 8 19 18 22 29 23 30
8 14 25 12 18 16 0 0 0 0 0 0 6 11 5
46 44 48 0 0 0 2 0 0 17 17 12 4 12 0
0 0 0 0 0 0 0 0 0 4 3 0 0 0 0
21 28 17 48 44 34 0 0 0 0 0 0 0 0 0
46 45 40 231 244 232 71 52 82 155 130 164 255 250 255
255 255 255 255 255 255 255 255 255 255 255 255 255 255 255
246 238 249 49 49 44 0 0 0 0 0 0 11 5 8
0 0 0 0 0 0 0 0 0 228 220 229 5 3 2
0 0 0 21 23 16 55 50 58 23 23 23 16 24 16
80 78 87 0 0 0 0 0 0 35 38 32 22 25 31
0 0 0 0 0 0 0 0 0 0 0 0 0 0 0
63 49 46 219 210 197 255 255 255 255 255 255 251 248 229
166 158 146 86 76 75 0 0 0 0 0 0 0 0 13
0 0 2 50 40 49 226 214 222 180 164 163 0 0 0
0 0 0 0 0 0 0 0 0 6 8 18 0 0 0
0 0 0 3 9 1 0 0 0 8 7 16 0 0 0
4 0 16 0 2 0 0 0 7 7 0 1 2 0 2
0 0 0 14 3 9 2 3 1 0 0 3 3 7 0
0 0 0 5 1 0 0 2 0 0 2 0 0 0 2
0 0 0 0 0 0 5 0 7 0 3 7 0 7 0
0 9 0 0 0 0 10 7 9 8 7 6 2 5 3
0 3 4 2 8 0 0 5 0 0 3 0 0 3 0
2 0 3 1 3 8 0 4 0 0 5 0 0 5 2
0 6 5 0 13 11 0 0 5 8 10 16 7 0 0
5 0 0 9 4 2 7 2 2 3 1 1 2 2 2
0 5 4 0 0 0 2 0 0 9 0 6 0 0 0
0 0 0 0 0 0 0 0 0 3 0 8 0 5 0
0 0 0 1 2 2 0 0 0 0 0 0 0 2 2
3 6 6 0 0 0 13 16 16 4 7 7 1 4 4
0 3 3 0 1 1 5 8 8 1 4 4 16 23 24
0 0 0 0 4 0 0 0 0 1 7 4 0 6 3
0 6 0 0 3 0 0 0 0 11 9 15 0 0 0
0 0 3 2 2 2 0 0 0 2 2 2 0 0 0
0 0 0 25 23 33 6 4 10 16 17 26 15 22 17
7 3 13 0 10 0 0 1 0 0 0 0 0 0 0
12 15 12 29 27 32 21 28 26 10 7 17 0 0 0
4 0 0 4 13 10 31 14 28 0 0 0 0 0 0
12 16 6 32 19 40 38 37 34 23 7 26 0 0 0
0 0 0 0 0 0 0 0 0 0 0 0 0 0 0
0 0 0 0 0 0 0 0 0 13 0 0 0 0 0
0 0 6 6 0 10 9 0 7 0 0 3 10 4 0
0 0 0 9 0 3 0 0 0 0 0 0 0 5 0
6 0 0 5 4 0 8 2 0 0 0 0 32 13 47
14 0 20 20 7 22 0 0 0 15 3 28 0 0 0
0 0 0 255 255 255 0 0 0 0 0 0 0 0 0
0 0 0 0 0 0 16 13 0 32 15 12 0 0 0
4 15 0 8 15 0 6 15 4 18 20 27 30 28 35
28 14 39 0 6 11 18 7 14 0 0 0 0 0 0
0 0 0 30 34 30 0 5 0 0 9 0 11 16 15
0 12 0 0 0 0 0 0 0 0 0 3 0 0 0
0 0 0 25 17 12 39 47 43 0 0 0 0 0 0
0 3 4 220 218 205 255 255 255 255 255 255 255 255 255
229 233 239 133 143 143 63 59 59 52 56 47 21 20 29
0 1 0 0 0 0 0 0 0 0 0 0 0 0 0
0 0 0 0 0 0 0 0 0 132 131 126 255 255 255
25 32 34 7 12 13 70 79 72 0 0 9 0 0 0
0 0 0 0 0 0 0 0 0 25 22 25 32 30 26
0 0 0 0 0 0 0 0 0 0 0 0 0 0 0
25 18 30 90 86 90 52 53 62 0 0 0 11 14 13
32 32 35 0 0 0 0 0 0 0 0 0 0 0 0
0 0 0 0 0 0 0 0 0 233 233 234 255 255 255
255 255 255 0 0 0 0 5 0 2 0 6 8 14 13
0 0 0 0 0 0 0 2 8 0 0 0 11 11 11
2 2 0 0 0 0 4 8 0 2 3 4 4 0 0
0 0 0 0 0 0 14 8 15 2 8 5 0 0 4
1 0 0 4 0 10 2 1 0 0 1 1 2 0 2
0 0 0 4 2 6 0 0 4 6 7 5 9 5 16
15 1 9 0 3 0 0 0 0 18 10 13 0 1 1
0 0 0 4 4 6 0 0 3 5 5 15 3 3 0
1 3 2 0 0 0 0 7 4 0 0 0 1 0 6
3 5 1 0 0 0 0 4 2 2 0 2 4 0 0
0 0 0 0 0 2 0 0 3 0 0 5 0 0 0
4 0 6 4 6 11 0 0 0 0 0 1 0 2 5
0 6 7 0 0 0 0 0 0 0 0 0 0 0 0
0 0 0 0 0 0 0 0 0 0 0 0 0 0 0
0 0 0 0 0 0 0 0 0 18 18 18 0 0 0
5 5 5 2 2 2 0 0 0 4 4 4 0 0 0
13 16 17 0 0 0 3 3 5 7 7 8 3 3 3
1 1 1 0 0 0 3 0 13 0 0 0 5 4 7
4 4 0 2 2 8 0 0 0 6 6 6 4 4 4
4 3 1 0 0 0 7 11 13 0 6 2 19 18 19
13 18 4 14 5 8 0 1 3 18 12 13 0 6 1
4 10 3 13 9 15 24 16 13 9 13 1 0 0 0
0 0 0 0 0 0 0 0 0 18 15 20 0 0 0
0 0 0 33 27 19 42 32 50 39 46 41 0 0 4
0 0 0 0 0 0 0 0 0 0 0 0 0 0 0
0 0 0 0 0 0 0 0 0 0 0 0 14 5 0
0 0 0 12 1 4 2 2 3 1 0 0 0 0 0
3 0 0 0 0 0 7 0 0 0 4 0 1 0 0
2 0 0 4 0 0 1 0 0 0 2 0 0 0 0
36 30 53 0 0 0 1 6 8 0 0 0 0 0 0
0 0 0 80 83 97 255 255 255 0 0 0 0 0 0
0 0 0 0 0 0 5 15 9 22 28 27 26 31 32
0 0 0 40 49 27 22 27 13 16 23 17 21 21 15
20 17 24 18 12 21 0 0 0 0 0 0 0 0 0
0 0 0 0 0 0 8 12 1 0 0 0 0 0 0
0 0 0 0 0 0 0 0 0 0 0 0 0 0 0
0 0 0 0 0 3 7 15 4 0 0 0 0 0 0
53 54 56 255 255 255 177 178 168 0 0 0 0 0 0
0 0 0 0 0 0 0 0 0 0 0 0 0 0 0
0 0 0 0 0 0 0 0 0 0 0 0 38 32 46
0 0 0 0 0 0 34 30 28 195 193 208 137 140 134
78 63 69 0 0 0 0 0 0 0 6 8 0 0 0
0 0 0 24 20 30 0 0 0 0 0 0 77 88 82
0 0 0 0 0 0 42 28 33 0 8 7 0 0 0
0 0 0 175 164 168 71 64 74 0 0 0 0 0 0
0 0 0 0 0 0 0 0 0 2 5 1 0 0 0
0 0 0 4 0 12 48 40 45 0 0 0 45 44 38
93 79 83 226 216 213 0 0 0 0 4 0 8 0 12
11 17 16 1 1 0 0 0 0 0 6 9 0 0 0
9 9 15 3 3 9 0 0 0 0 0 8 0 2 0
3 0 8 1 1 0 0 0 0 10 5 17 0 6 3
2 4 8 3 4 0 4 3 10 0 0 0 0 0 5
0 0 0 0 0 0 4 9 1 0 1 5 7 8 2
1 0 7 7 0 0 0 2 4 0 0 0 16 9 14
0 0 0 2 0 0 5 3 3 0 0 0 3 3 7
0 0 0 0 0 0 0 0 0 0 2 0 0 0 0
3 0 3 0 0 0 1 4 0 0 1 0 0 1 0
0 0 0 0 0 0 0 0 0 0 0 0 6 0 3
0 0 2 18 6 7 7 1 1 0 0 0 3 0 0
14 8 8 12 12 10 15 3 8 4 0 1 0 0 0
2 0 8 0 0 0 0 0 0 0 0 0 0 0 0
0 0 0 0 0 0 0 3 0 0 0 0 0 6 0
0 0 0 0 4 0 0 0 0 0 3 0 0 0 0
0 1 0 2 8 0 0 0 0 5 2 0 8 5 0
2 0 0 8 5 0 3 2 0 7 0 8 0 0 0
17 11 10 7 1 0 6 0 7 5 0 2 4 0 1
3 0 0 4 0 0 0 0 6 0 0 0 5 5 8
8 0 7 14 14 12 4 8 11 6 1 0 1 6 12
9 0 8 19 16 13 1 6 7 0 0 0 0 0 0
2 0 0 0 1 4 0 0 0 0 0 0 6 0 7
0 0 1 16 4 14 23 28 21 37 27 28 23 14 14
0 0 0 0 0 0 0 0 0 2 0 0 0 2 3
4 1 1 9 6 11 7 14 0 16 8 19 8 20 19
3 0 6 0 0 10 3 0 0 0 1 5 1 0 3
0 5 2 0 0 0 0 0 0 10 0 1 0 0 0
0 0 0 0 7 0 0 5 0 10 4 0 1 6 0
0 0 0 26 12 30 0 0 0 3 0 0 0 0 0
0 0 0 0 0 0 160 152 161 201 195 208 0 0 0
7 3 13 25 21 31 50 43 49 23 22 21 21 17 14
22 12 23 0 0 0 33 35 15 6 14 0 0 0 1
0 0 0 0 0 0 0 0 0 0 0 0 0 0 0
0 3 0 0 0 0 0 0 0 0 10 4 5 5 0
0 0 0 0 0 0 0 0 0 0 0 0 0 0 0
0 0 0 0 0 0 0 0 0 0 0 0 0 0 0
0 0 0 255 255 255 255 255 255 0 0 0 0 0 0
0 0 0 0 0 0 0 0 0 0 0 0 0 0 0
69 75 75 50 58 52 0 0 0 30 22 28 75 75 70
0 0 0 0 0 0 0 0 0 219 222 213 189 189 201
0 0 0 0 0 0 0 0 0 0 0 0 0 0 0
0 0 0 0 0 0 29 16 26 0 0 0 0 0 0
90 95 86 16 4 16 0 0 0 0 0 0 0 0 0
0 0 0 0 0 0 245 236 249 82 67 84 0 0 0
0 0 0 14 12 1 0 0 0 21 21 17 72 77 60
36 19 36 0 0 0 44 39 55 101 96 118 0 0 0
0 0 0 0 0 0 101 86 93 0 0 0 0 0 0
2 0 0 10 13 24 0 0 0 1 0 0 10 16 22
0 0 0 5 5 11 5 5 11 4 4 0 0 0 3
0 2 0 4 0 7 1 4 0 0 0 0 6 5 7
0 0 9 0 0 8 0 0 0 0 0 4 5 3 4
5 0 0 9 6 0 0 0 0 0 0 1 1 1 1
1 0 0 0 0 0 4 5 0 4 1 0 0 0 0
14 9 16 0 0 0 0 0 0 0 3 3 0 0 0
3 3 5 0 0 4 0 0 6 0 0 0 1 3 2
0 0 0 0 0 0 0 0 0 0 0 2 0 0 1
0 2 0 7 1 0 0 0 0 0 1 0 0 0 0
2 8 5 0 8 3 6 6 8 1 7 7 0 0 0
2 8 8 17 23 23 20 30 29 28 26 24 8 12 9
0 6 3 9 17 17 3 0 0 8 2 7 0 0 3
0 0 2 0 0 3 4 0 7 6 0 9 0 0 2
5 0 8 4 0 7 0 0 0 0 0 2 1 0 4
3 0 6 0 0 0 0 0 1 3 7 12 0 0 5
0 1 7 0 2 8 2 5 11 0 0 2 0 2 2
0 0 0 6 12 19 0 4 5 0 5 4 0 6 3
1 7 4 2 8 5 6 10 0 19 12 19 0 0 0
0 0 0 0 0 0 0 0 0 0 0 5 0 3 0
8 6 10 0 5 0 0 1 0 0 0 0 0 0 0
0 0 0 0 0 0 0 6 3 2 3 0 7 4 4
0 0 11 20 17 28 26 27 33 17 11 12 0 0 0
0 0 0 0 0 0 0 0 0 0 0 1 0 0 0
0 0 2 0 3 7 14 15 24 9 21 9 14 14 27
8 27 12 11 0 2 7 0 4 8 8 1 4 11 9
7 0 10 0 5 2 4 0 6 0 0 0 8 2 6
0 3 0 8 0 4 0 7 0 2 0 4 0 0 0
0 10 0 0 0 0 6 10 21 0 0 6 0 0 1
0 0 0 0 0 0 0 0 0 235 240 240 92 98 103
0 0 0 0 0 0 0 0 10 7 16 5 0 0 0
0 0 0 0 0 14 0 0 0 5 7 0 0 0 0
0 0 0 0 0 0 0 0 0 0 0 0 0 0 0
0 0 0 0 0 0 0 0 0 0 0 0 6 0 0
0 0 0 0 0 0 0 0 0 0 0 0 0 0 0
0 0 0 0 0 0 0 0 0 0 0 0 0 0 0
29 19 33 255 255 255 231 232 227 0 0 0 0 0 0
0 0 0 21 32 35 13 9 2 0 0 2 0 0 0
11 8 6 68 58 75 68 59 71 0 0 0 16 14 15
0 0 0 0 0 0 61 73 75 248 227 243 89 99 105
0 0 0 0 0 0 0 0 0 27 33 33 2 6 9
0 0 0 0 0 0 0 0 0 0 0 0 0 0 0
64 53 67 56 52 61 0 0 0 0 0 0 0 0 0
0 0 0 106 108 95 255 255 255 118 103 120 0 0 0
0 0 0 2 4 8 0 0 0 0 0 0 0 0 0
0 0 0 0 0 0 0 0 0 77 66 86 36 33 38
0 0 0 16 2 19 71 56 61 49 44 54 0 0 0
0 0 0 0 0 0 2 6 10 0 2 1 8 4 13
15 19 22 0 2 2 5 4 12 0 0 0 0 0 3
3 0 13 0 0 0 5 0 8 0 0 0 3 0 0
0 3 3 0 0 3 0 3 6 0 0 5 0 0 0
1 2 9 0 0 4 1 0 5 0 7 0 0 0 0
1 2 0 4 1 8 4 7 0 1 3 0 0 2 0
0 0 0 10 8 10 0 0 0 0 0 0 0 1 0
1 0 0 4 2 0 0 0 0 0 0 0 5 5 0
0 0 0 0 0 0 0 3 0 5 0 0 2 0 0
1 0 1 0 0 6 8 0 2 6 0 0 13 4 1
7 0 0 9 0 0 6 4 0 17 4 4 1 0 0
6 0 0 14 8 5 20 14 11 24 20 17 13 15 11
26 16 11 13 7 3 13 13 11 9 0 8 9 3 0
4 0 0 7 1 0 3 0 0 2 0 0 7 1 0
5 0 0 0 0 0 0 0 0 0 0 0 0 0 0
0 0 0 0 0 0 0 0 0 0 1 0 1 1 0
5 1 0 7 1 0 6 0 0 7 1 0 8 2 0
9 3 0 0 0 0 18 12 16 10 4 4 3 0 0
6 0 0 9 3 3 2 0 0 6 0 0 3 13 14
0 0 0 0 0 0 0 0 0 0 0 0 0 0 0
0 1 0 0 0 0 0 0 0 0 0 0 0 0 0
0 0 0 0 0 0 2 0 0 6 13 7 7 3 5
0 0 0 7 8 7 29 24 24 21 7 13 0 0 0
0 0 0 0 0 0 0 0 0 23 18 35 0 0 0
0 0 0 0 0 0 0 0 0 0 0 0 0 0 0
0 0 0 0 0 4 3 0 1 5 5 7 0 6 0
0 0 0 0 4 0 0 7 0 1 5 0 0 0 0
3 0 0 0 1 0 6 0 0 0 5 0 10 0 14
5 1 4 2 9 0 0 4 0 17 8 26 21 1 21
0 0 0 0 0 0 0 0 0 91 80 86 255 255 255
131 124 131 0 0 0 0 0 0 0 0 0 0 0 0
0 0 0 0 0 0 3 0 1 0 0 0 0 4 0
0 0 0 0 0 0 0 0 0 0 0 0 0 0 0
0 0 0 0 0 0 0 0 0 0 0 0 0 0 0
0 3 3 0 0 0 0 0 0 0 0 0 0 0 0
0 0 0 0 0 0 0 0 0 0 0 0 0 0 0
0 0 0 169 161 171 255 255 255 0 0 0 0 0 0
0 0 0 3 0 13 0 0 0 0 0 0 0 0 0
0 0 0 0 0 0 0 0 0 0 0 0 0 0 0
10 20 7 0 0 0 0 0 0 160 172 178 194 191 185
0 0 0 0 0 0 18 24 18 0 0 0 0 0 0
0 0 0 8 2 0 27 23 14 0 0 0 0 0 0
41 40 41 133 122 121 0 0 0 0 0 0 0 0 0
81 78 78 255 255 255 211 214 198 70 83 81 0 0 0
0 0 0 0 0 0 18 20 22 0 0 0 0 0 0
26 17 24 10 5 11 0 0 0 0 0 0 56 56 77
31 39 45 0 0 3 102 91 109 93 81 91 0 0 0
0 0 0 0 0 0 0 0 0 0 0 3 0 0 0
0 0 0 4 12 8 0 0 0 9 5 12 0 4 0
2 5 0 0 0 0 0 0 0 4 0 5 0 0 0
2 0 0 0 6 9 0 0 0 5 0 6 2 0 0
0 0 10 0 0 0 3 3 1 4 0 4 0 0 0
5 0 0 0 1 0 4 9 0 0 0 0 0 0 0
0 0 2 0 0 0 14 13 24 0 0 6 0 0 4
0 0 1 0 0 6 0 0 7 0 0 0 0 0 0
17 17 21 3 3 9 2 2 8 0 2 11 0 4 0
0 0 0 0 0 0 0 0 3 0 0 0 0 1 2
0 2 5 0 1 4 0 0 2 0 6 7 7 0 7
0 0 0 0 0 0 0 3 6 7 13 16 6 12 15
0 5 7 0 0 1 0 0 5 0 0 0 11 9 7
2 6 7 0 2 5 0 0 2 0 0 2 0 2 5
0 0 2 1 7 10 0 0 1 0 0 3 0 0 3
0 0 2 0 0 0 0 4 7 0 2 6 7 5 10
0 0 0 0 0 0 0 0 7 0 0 5 0 0 4
0 0 3 0 0 3 0 0 0 2 4 8 0 0 0
0 0 2 0 0 0 0 0 0 0 0 0 0 0 0
0 0 4 0 0 0 0 0 0 0 0 0 0 0 0
5 2 5 0 6 4 1 0 0 0 10 7 0 0 0
0 0 0 2 0 0 0 0 0 2 0 0 0 0 0
0 1 0 0 0 0 20 19 20 33 23 38 0 0 0
0 0 0 0 0 0 0 0 0 0 0 0 21 8 21
0 0 0 0 0 0 0 0 0 0 0 0 0 0 0
0 0 0 0 0 0 0 0 0 8 3 0 0 0 0
0 2 0 12 0 2 7 2 0 0 1 2 5 0 0
3 9 5 0 0 0 0 5 0 8 0 7 0 0 0
1 4 3 0 5 0 0 4 0 0 2 0 5 8 8
0 0 0 0 0 0 0 0 0 0 0 0 172 181 172
161 173 163 62 67 72 30 34 42 1 11 14 0 0 1
0 0 0 0 0 0 0 0 0 5 11 15 6 0 18
17 23 7 0 2 0 0 0 0 0 0 0 13 14 10
39 35 24 23 19 15 39 31 14 0 8 0 8 9 0
9 8 0 14 11 0 190 190 196 208 208 214 255 255 255
255 255 255 255 255 255 255 255 255 255 255 255 255 255 255
253 240 253 255 255 255 253 250 255 0 0 0 0 0 0
0 0 0 1 0 5 0 0 0 14 21 14 0 0 0
0 0 0 14 3 15 0 0 0 0 0 0 0 0 0
0 0 0 0 0 0 0 0 0 1 0 0 255 255 255
57 49 50 0 0 0 12 0 17 0 0 0 0 0 0
0 0 0 0 0 0 0 0 0 0 0 0 19 30 24
79 92 77 154 164 168 0 0 0 0 0 0 4 10 14
162 168 170 144 150 150 103 109 106 0 0 0 0 0 0
0 0 0 1 0 1 11 11 1 0 0 0 0 0 0
0 0 0 0 0 0 0 0 0 156 167 164 39 32 35
40 35 62 81 68 85 47 41 59 82 85 95 48 43 74
0 0 0 0 0 0 0 0 0 0 0 0 0 0 0
0 0 0 9 8 1 29 38 30 14 15 18 45 46 51
29 30 33 23 23 25 11 12 9 2 4 0 0 0 0
0 0 0 0 0 0 0 0 0 0 0 0 0 0 1
0 0 0 0 0 0 0 0 0 0 0 3 2 0 0
0 0 0 1 0 0 0 5 0 7 16 0 9 6 14
7 5 5 0 0 0 0 0 0 22 18 14 10 6 0
4 2 0 5 5 1 0 0 0 0 0 0 2 0 0
0 0 0 22 23 15 8 10 4 7 8 5 6 6 10
7 7 0 0 1 0 5 0 0 4 0 2 0 0 0
0 0 0 0 0 0 0 0 0 0 0 0 0 0 0
1 4 2 0 0 0 1 0 0 11 2 5 23 14 17
24 15 18 17 10 12 0 0 0 0 0 0 0 0 0
17 21 14 21 13 7 7 1 0 0 0 0 0 0 0
0 0 0 0 0 0 0 0 0 1 0 0 6 0 0
5 0 0 2 0 0 6 0 0 2 0 0 1 0 0
0 2 0 0 0 0 0 9 0 14 0 0 1 8 0
22 6 7 10 17 7 23 7 8 6 13 3 39 23 24
22 29 19 26 10 11 17 24 14 23 7 8 5 12 2
17 4 0 4 12 11 11 18 9 0 0 0 0 0 0
0 0 0 16 13 2 21 22 27 17 16 6 10 12 11
0 0 0 0 5 0 24 13 16 9 20 17 3 0 4
0 0 0 0 0 0 0 0 0 76 66 70 55 57 53
0 0 0 0 0 0 3 0 0 7 0 5 0 0 0
0 0 0 0 15 7 0 0 0 0 0 0 0 0 0
0 0 0 0 0 0 0 3 9 0 0 0 0 0 0
0 0 0 0 0 0 0 3 0 0 0 0 0 0 0
0 0 0 0 0 0 0 0 0 0 0 0 0 0 0
0 0 0 0 0 0 0 0 0 0 0 0 0 0 0
0 0 0 0 0 0 0 0 0 0 0 0 0 0 0
178 180 182 49 45 59 16 14 20 162 158 172 128 130 138
128 124 129 59 57 69 0 0 0 0 0 0 0 0 0
22 11 35 4 10 0 17 22 0 7 10 10 25 24 22
52 65 45 68 77 61 34 34 25 38 35 22 0 0 0
0 0 0 0 0 0 0 7 7 254 245 255 147 138 149
31 22 35 0 0 5 9 6 19 19 19 29 11 8 17
0 0 0 15 16 21 186 194 194 29 21 27 0 0 0
0 0 0 1 1 1 0 0 0 14 2 12 0 0 0
0 15 6 0 5 0 21 25 33 0 0 0 25 33 39
0 0 0 0 0 0 0 0 0 209 215 216 255 255 255
54 57 62 0 0 0 0 0 0 0 3 0 9 0 8
0 0 0 11 11 0 35 22 32 53 41 47 47 35 40
32 20 24 0 0 0 0 0 4 0 0 0 98 90 101
134 128 129 0 0 0 0 0 0 0 0 0 0 0 0
0 0 0 16 25 27 9 10 13 0 0 0 0 0 0
0 0 0 24 37 20 112 106 119 184 175 184 0 0 0
0 0 0 0 0 0 0 0 0 0 0 0 31 29 36
50 48 65 0 0 0 0 0 0 2 7 0 20 0 15
0 0 5 0 0 0 0 0 0 0 0 0 0 0 0
0 0 0 0 0 0 0 0 0 0 2 0 3 0 6
8 1 3 1 7 4 6 0 0 0 1 0 2 5 0
7 11 1 14 19 0 13 6 17 24 18 11 17 22 27
15 13 6 0 0 0 0 0 0 0 0 0 0 0 0
0 0 0 0 0 0 0 1 0 1 0 5 0 0 0
0 0 0 0 0 0 0 0 4 3 3 0 2 3 5
3 5 9 0 3 7 2 0 6 0 0 0 0 0 0
0 0 0 0 0 0 1 3 8 0 3 9 0 0 0
16 16 11 8 5 7 10 9 11 2 3 4 0 0 0
0 0 0 0 0 0 0 0 0 0 0 0 0 0 0
0 0 0 0 0 0 0 0 0 0 3 0 6 20 15
23 20 22 0 0 0 0 0 0 0 2 8 3 9 15
13 19 25 15 21 27 8 14 20 13 19 25 0 0 0
0 0 0 0 0 0 0 0 1 0 0 5 0 4 10
0 1 8 29 22 32 0 0 0 0 3 2 7 0 4
0 0 0 0 0 0 0 0 0 0 0 0 0 0 0
0 0 0 0 0 0 0 0 0 0 0 0 0 0 0
0 0 0 0 0 0 0 0 0 23 23 18 0 0 0
21 15 22 9 17 7 0 0 0 0 0 0 6 1 0
0 0 0 21 23 17 15 31 23 11 0 2 0 0 0
0 0 0 20 21 23 30 32 28 27 25 20 0 2 2
0 0 0 0 0 0 0 0 0 0 0 0 0 0 0
0 0 0 0 0 0 48 68 55 39 38 26 48 50 41
30 50 39 26 18 29 2 9 0 0 0 1 0 0 0
28 15 16 0 0 0 0 0 0 0 0 0 0 3 0
4 6 0 0 8 9 1 0 0 0 0 0 7 4 13
52 39 44 17 12 13 0 0 0 32 24 38 46 50 68
0 0 0 60 59 56 33 27 32 0 0 0 0 0 0
0 0 0 24 26 22 0 0 0 0 0 0 0 0 0
0 0 0 40 37 41 128 128 133 0 0 0 0 0 0
95 97 94 151 147 155 0 6 0 21 19 14 0 0 0
13 14 15 50 48 31 67 61 47 42 45 35 30 31 26
35 30 27 28 19 4 0 0 0 0 0 0 0 0 0
0 0 0 0 0 0 0 0 0 0 0 0 0 0 0
0 0 0 0 0 0 0 0 0 81 71 81 20 12 23
0 0 0 0 0 0 41 29 44 0 0 0 7 8 27
0 0 0 6 8 0 0 0 0 56 52 59 52 51 44
20 12 23 0 0 0 0 0 0 189 179 185 154 160 164
19 10 12 0 0 0 0 0 0 0 4 0 0 0 0
40 32 43 0 0 0 0 0 0 0 0 0 2 8 8
0 7 3 0 8 9 0 4 0 1 16 7 0 0 0
76 80 85 90 96 89 0 0 0 0 0 0 0 0 1
10 20 14 3 0 0 6 0 0 0 0 0 0 0 0
0 9 1 21 29 30 39 34 39 23 19 27 42 29 23
0 0 0 0 0 0 0 0 0 0 0 0 0 0 4
33 24 33 9 0 14 0 0 0 0 0 0 0 4 0
6 0 0 0 0 0 0 0 0 1 0 0 0 0 0
0 0 0 1 0 0 5 3 0 7 11 0 0 0 0
0 0 0 0 0 0 0 0 0 12 10 0 0 0 3
0 3 0 0 0 6 0 0 0 0 0 0 0 0 0
0 2 0 0 0 0 0 0 0 0 1 0 0 0 0
0 0 0 0 2 0 0 2 0 0 0 1 3 0 0
0 0 0 0 1 0 11 1 1 4 0 4 0 0 0
4 4 0 5 5 0 0 0 0 13 3 6 4 0 6
1 4 0 0 0 0 3 6 0 0 2 0 5 7 3
1 0 6 2 10 4 5 7 0 1 5 0 5 0 0
9 3 3 6 0 0 1 0 0 0 0 0 7 3 3
2 2 1 8 2 0 0 0 0 4 1 0 2 0 0
7 9 4 0 6 0 6 9 2 5 0 0 10 7 4
8 5 2 13 10 7 5 2 0 10 7 4 5 2 0
8 5 2 9 6 3 8 5 2 6 3 0 12 9 6
10 7 4 9 4 2 27 30 23 0 0 0 0 3 0
4 4 0 5 8 3 1 1 0 2 5 0 7 7 3
0 1 0 0 0 0 6 9 7 5 5 4 1 4 2
0 0 0 5 8 6 2 6 4 0 0 0 28 27 21
0 0 0 12 12 14 9 23 20 0 0 0 6 15 0
25 18 25 0 6 0 0 0 0 0 0 0 14 5 6
0 6 1 10 1 0 16 18 19 0 1 0 2 0 0
0 0 0 0 0 0 0 0 0 0 0 0 0 0 4
0 2 0 9 10 2 0 5 0 0 6 7 0 0 0
0 0 0 0 0 0 0 0 0 0 5 0 0 0 0
0 0 0 32 39 26 0 0 0 0 0 0 0 0 0
0 0 0 7 1 0 3 6 3 0 0 0 18 17 16
0 0 0 0 0 0 0 0 0 0 3 16 0 0 0
0 0 0 0 0 0 0 0 1 0 0 0 0 0 0
0 0 0 5 6 5 44 45 42 44 46 42 13 15 13
21 22 29 0 0 0 0 0 0 71 71 72 80 81 76
0 0 0 13 10 26 36 29 45 0 0 0 39 39 24
46 45 49 37 35 41 28 35 17 37 33 32 36 49 33
27 31 18 69 79 58 42 51 39 23 32 22 7 16 4
0 0 0 0 0 0 0 0 0 0 0 0 0 0 3
0 0 0 0 0 0 0 0 0 0 0 0 0 0 0
0 0 0 0 0 0 7 13 9 43 46 43 0 0 0
0 0 0 0 0 0 0 0 0 0 0 0 0 0 0
0 0 0 0 0 0 0 0 0 54 53 58 255 255 255
12 21 13 0 0 0 0 0 0 4 0 0 0 5 0
0 0 0 0 0 0 0 4 0 0 4 0 0 0 0
0 0 0 0 0 0 0 0 0 0 0 0 0 0 0
0 0 0 89 80 87 90 84 79 0 0 0 0 0 0
12 10 5 22 23 12 0 4 0 0 0 0 0 0 0
4 0 2 35 39 36 45 46 47 33 32 36 0 0 0
0 0 0 0 0 0 0 0 0 0 0 0 0 0 0
21 13 20 3 5 7 0 0 0 0 0 0 6 0 0
0 10 0 8 0 0 0 3 0 0 3 0 0 0 0
0 4 0 1 0 0 0 0 0 0 0 0 0 0 0
0 0 0 0 0 0 0 0 0 0 0 0 11 0 12
6 18 1 13 15 0 11 13 0 0 3 0 0 0 0
0 0 0 0 0 0 0 0 0 0 2 0 0 0 0
0 0 0 1 0 1 2 2 0 3 2 0 5 0 5
5 3 12 0 0 0 0 4 1 0 0 0 0 4 6
6 2 6 2 2 8 4 4 10 0 0 5 4 8 2
0 4 2 1 0 3 5 2 11 2 0 8 0 0 3
4 0 13 4 0 0 9 8 0 0 5 5 0 2 4
3 1 2 0 0 0 0 6 6 0 2 2 0 5 5
1 7 7 0 2 0 0 0 2 0 0 0 0 0 0
0 0 0 0 0 0 0 0 0 23 5 16 4 0 5
1 0 3 8 8 12 7 4 9 0 0 2 6 3 8
0 0 0 16 13 18 7 7 11 11 8 13 11 11 15
7 4 9 7 7 11 11 6 12 38 23 33 0 0 0
0 4 6 0 0 0 0 0 3 1 4 7 0 0 1
0 1 4 0 2 7 0 2 0 0 1 1 0 0 0
1 4 4 0 0 0 0 0 0 0 2 2 0 0 0
39 29 37 0 0 0 4 0 0 0 0 0 0 0 0
0 0 0 4 9 9 6 4 6 0 0 0 0 0 0
0 0 0 0 0 0 5 1 0 23 30 15 20 0 20
0 0 0 0 0 0 0 0 0 0 0 7 0 0 0
0 0 0 0 0 0 0 0 0 0 0 0 0 0 0
0 0 0 0 0 0 0 0 0 0 0 0 0 0 0
0 12 9 0 0 0 37 33 39 2 6 5 0 6 0
0 0 0 0 4 13 2 5 3 8 14 23 0 6 8
52 39 52 12 9 13 0 0 0 16 9 23 26 19 22
0 0 0 0 0 0 99 102 111 0 0 0 0 0 0
0 0 0 9 4 18 67 69 65 56 56 60 37 37 47
26 26 20 28 28 28 0 0 5 0 0 0 4 3 4
141 143 148 86 83 79 0 0 0 0 0 0 0 0 0
0 0 0 11 13 15 0 0 0 0 0 0 0 0 0
0 0 0 0 0 0 59 54 58 22 16 10 16 10 7
11 5 2 8 7 9 0 0 0 0 0 6 17 15 8
21 16 16 5 0 1 8 0 6 0 0 0 48 53 57
16 20 23 3 4 18 0 0 0 0 0 0 12 15 19
2 2 9 0 0 0 33 39 35 21 26 6 61 65 59
0 0 0 0 0 0 65 61 63 128 123 121 255 255 255
61 65 62 0 0 0 0 0 0 62 60 52 22 14 13
0 0 0 14 1 4 0 6 9 6 6 0 0 17 0
14 3 15 0 8 4 4 0 0 0 5 0 0 0 0
0 0 0 0 0 0 34 49 38 58 57 55 0 0 0
0 0 0 0 12 9 1 0 0 0 0 0 0 0 0
9 15 0 23 32 33 21 25 26 0 0 0 0 0 0
0 0 0 0 0 0 6 3 14 12 7 15 0 0 0
10 13 17 65 69 61 24 18 29 0 0 0 0 0 0
8 13 0 0 17 0 6 0 0 0 0 0 0 0 0
3 4 0 0 2 0 12 0 2 0 0 0 0 0 0
0 0 0 0 0 0 0 1 0 0 0 0 0 0 0
0 0 0 0 19 0 6 12 7 7 10 16 6 5 1
7 5 8 12 8 18 5 9 0 19 17 19 0 0 0
1 2 7 2 8 0 3 5 11 3 4 0 3 3 3
6 0 7 7 10 4 2 0 0 0 0 0 0 0 0
0 0 0 10 0 0 6 2 2 0 0 0 0 0 2
9 9 0 0 4 0 5 0 0 0 0 0 3 1 2
0 0 0 7 2 11 1 1 0 0 2 8 0 0 0
6 2 5 0 1 3 11 1 2 5 0 0 9 3 3
5 0 0 2 0 0 4 4 2 2 0 0 0 0 0
0 0 0 0 0 0 0 0 0 0 0 0 9 7 5
0 2 0 11 0 0 0 5 0 11 0 0 0 8 0
15 0 0 0 0 0 39 20 21 0 13 3 24 5 6
0 12 2 17 0 0 0 5 0 16 0 0 17 20 14
0 0 0 0 0 0 4 1 0 0 0 0 3 0 0
0 0 0 0 0 0 1 0 0 1 0 0 1 0 0
0 0 0 1 0 0 4 0 1 0 0 0 0 0 0
0 0 0 50 47 43 0 0 0 0 0 0 0 0 0
0 0 0 0 2 1 13 9 3 15 24 23 28 31 30
18 12 17 0 0 0 0 0 0 11 9 19 5 14 7
0 0 0 0 0 0 0 0 0 0 0 0 11 5 1
0 0 1 0 0 0 0 0 0 0 0 0 8 5 4
0 0 0 0 0 0 0 0 0 0 0 0 0 0 0
0 0 0 11 0 0 1 0 0 21 12 7 12 8 0
9 0 3 8 4 0 15 2 4 5 14 0 16 0 7
0 7 0 8 0 15 43 57 56 0 0 0 48 54 60
0 0 0 0 0 0 101 108 109 186 183 191 0 0 0
0 0 0 0 0 0 7 12 17 31 42 35 6 14 4
0 0 0 0 0 0 0 0 2 43 48 46 0 0 0
0 0 0 52 64 60 110 117 119 43 44 53 0 0 0
0 0 0 11 12 11 22 17 29 0 0 0 0 0 0
0 0 0 0 0 0 0 0 0 0 0 0 0 0 0
0 0 0 0 0 0 0 0 0 0 0 0 0 0 0
0 0 0 0 0 0 0 0 0 0 0 0 0 0 0
79 73 75 0 0 0 0 0 0 0 0 0 0 0 0
0 0 0 12 24 17 0 0 0 48 32 37 13 8 5
35 34 39 68 66 57 255 255 255 255 255 255 143 147 145
191 190 190 0 0 0 0 0 0 0 0 0 6 14 8
5 17 10 0 0 0 0 0 0 65 74 74 0 0 0
0 17 0 17 0 8 0 7 0 8 0 0 0 0 0
0 0 0 6 0 3 0 0 0 0 0 0 9 2 11
0 6 0 15 10 6 0 0 0 0 0 0 23 24 22
0 0 0 8 11 10 6 20 14 0 0 0 0 0 0
0 0 0 0 0 0 0 0 0 0 0 0 1 0 0
0 0 2 16 3 23 55 52 47 0 0 0 0 0 0
13 14 0 4 0 0 0 9 0 13 0 4 0 0 0
0 0 0 0 0 0 0 3 0 9 0 12 0 0 0
0 0 0 0 0 0 1 0 0 24 21 37 24 21 24
0 0 14 0 0 0 0 0 0 0 0 0 0 0 0
0 0 0 0 1 0 4 6 4 9 9 9 29 25 39
0 0 0 2 0 0 0 0 0 0 0 0 0 0 0
0 0 7 0 0 2 1 8 8 0 0 0 0 1 0
3 3 6 0 0 2 0 0 0 0 4 4 4 0 0
0 0 0 3 3 7 0 0 5 0 4 0 0 3 0
6 2 4 0 0 0 1 0 2 0 0 0 1 6 9
0 2 0 0 4 1 0 3 0 0 0 0 0 0 0
0 0 0 0 6 6 0 0 0 0 0 0 0 0 0
0 0 0 0 5 2 0 6 3 0 8 4 8 4 2
1 3 12 0 5 6 4 0 7 0 12 11 8 1 11
0 10 9 0 0 1 0 0 0 12 5 15 0 10 9
0 0 3 0 9 8 2 0 5 0 2 1 1 0 4
0 0 1 0 0 0 0 0 3 0 0 6 0 0 0
0 0 6 0 0 4 0 2 0 0 2 0 0 0 0
0 3 5 0 0 0 0 0 0 0 0 0 0 0 0
0 5 0 0 0 0 36 20 29 0 0 0 0 0 0
19 19 7 47 49 57 22 15 17 0 0 0 0 0 0
0 0 0 0 0 0 0 0 0 0 0 0 0 0 0
0 0 0 0 0 0 0 0 0 0 0 0 0 0 0
0 0 0 0 0 0 0 0 0 0 0 0 26 18 27
49 51 62 0 1 0 3 4 12 6 0 0 0 0 0
0 0 0 0 0 0 0 0 0 0 6 5 0 0 0
0 0 0 8 10 24 13 11 19 4 0 8 0 3 0
0 0 0 0 0 0 5 0 0 33 37 44 0 0 0
0 0 0 0 0 0 0 0 0 240 238 247 0 0 0
0 0 0 38 28 26 68 57 55 42 37 37 18 9 14
9 0 4 11 6 2 0 0 0 0 0 0 7 0 0
5 0 6 0 0 0 0 0 0 68 58 58 159 150 143
16 22 21 0 0 0 0 0 0 0 0 0 0 0 0
0 0 0 0 0 0 0 0 0 0 0 0 0 0 0
0 0 0 0 0 0 0 0 0 29 26 32 11 7 17
20 20 10 13 21 17 19 11 17 4 11 0 25 19 22
26 40 29 31 36 31 0 0 0 0 0 0 0 0 0
0 0 0 2 8 0 31 34 23 0 0 0 21 11 9
8 1 5 0 0 0 0 0 0 208 215 208 27 21 31
0 0 0 0 0 0 0 0 0 0 0 0 7 4 1
0 0 0 0 0 0 7 4 3 17 17 18 0 0 0
0 0 0 0 0 0 0 0 0 0 0 0 0 0 0
0 0 0 0 0 0 0 1 0 0 0 0 0 0 0
0 0 0 0 0 0 6 0 5 0 0 0 0 0 0
56 60 56 11 6 10 0 0 0 0 0 0 0 0 0
5 0 3 5 17 5 0 0 0 0 0 0 0 8 5
0 1 6 4 0 0 9 17 28 28 32 15 0 0 0
0 0 0 16 15 0 3 1 0 0 7 3 12 0 0
0 6 0 0 2 0 0 0 0 0 0 0 2 0 0
0 0 0 0 0 0 0 0 0 23 25 28 48 50 55
46 40 46 0 0 9 0 0 8 0 0 0 0 0 0
0 0 0 0 0 0 0 0 0 0 0 0 0 0 0
3 7 0 0 0 0 3 0 4 0 2 0 0 0 10
0 0 2 0 2 0 3 0 8 6 15 3 0 0 0
0 2 0 0 0 0 3 3 5 0 0 0 0 0 0
11 1 0 0 0 0 8 6 6 0 0 1 3 3 0
0 0 0 0 0 0 3 0 1 4 0 2 2 0 7
0 0 0 0 4 0 0 0 0 1 5 0 6 0 0
2 0 0 0 0 0 2 0 0 0 0 0 0 0 0
5 0 0 3 0 0 9 3 0 10 4 0 20 16 9
13 16 2 1 0 0 0 0 0 2 1 0 0 0 0
1 0 0 1 2 0 0 0 0 0 0 0 0 0 0
0 0 0 0 0 0 0 0 0 0 0 0 0 0 0
0 0 0 0 0 0 0 2 0 0 0 0 1 1 0
0 0 0 1 1 1 0 0 0 0 2 0 0 2 0
0 0 0 0 0 0 0 0 0 0 0 0 2 2 2
0 0 0 0 5 0 0 0 0 0 0 2 0 0 0
0 0 0 16 18 20 22 18 9 0 0 0 0 0 0
0 0 0 0 0 0 0 0 0 0 0 0 0 0 0
0 0 0 0 0 0 0 0 0 54 47 56 0 0 0
3 6 0 0 0 0 0 0 0 0 0 0 0 0 0
25 9 27 28 38 30 43 26 39 28 26 19 12 14 15
8 1 9 6 0 11 0 0 0 0 0 8 9 0 0
0 0 0 0 0 0 13 8 17 23 22 29 5 0 0
0 0 0 0 0 0 0 0 0 0 0 0 0 0 0
0 0 0 0 0 0 0 0 0 0 0 0 255 255 255
0 0 0 24 15 13 59 58 65 56 53 63 0 0 0
0 0 0 0 0 0 0 0 0 0 0 0 0 0 0
0 0 0 0 0 0 22 19 26 0 0 0 0 0 0
146 135 143 128 132 127 0 0 0 3 6 9 0 0 0
0 0 0 0 0 0 0 0 0 0 0 0 0 0 0
0 0 0 0 0 0 0 0 0 0 0 0 0 0 0
0 0 0 0 0 0 0 0 0 0 0 0 0 0 0
0 0 0 4 5 9 15 12 4 0 3 9 5 15 5
10 16 18 0 2 2 4 5 7 14 15 12 0 0 0
15 10 12 57 48 52 0 0 0 0 0 0 200 198 198
0 0 0 0 0 0 51 52 62 6 0 22 0 0 0
3 4 11 20 21 33 0 0 0 21 16 30 55 35 43
0 0 0 0 0 0 0 3 0 0 0 0 0 0 0
0 0 0 0 0 5 0 1 7 4 10 14 0 0 0
4 6 11 0 0 0 0 0 0 1 6 16 0 0 0
0 0 0 12 23 15 11 2 3 0 0 0 0 0 0
0 0 0 10 10 10 31 22 29 1 0 14 0 0 0
8 2 22 0 0 18 34 17 38 29 30 63 5 0 6
0 0 0 11 8 0 24 18 0 12 0 2 2 3 15
17 0 15 0 0 8 0 0 6 6 0 0 0 0 0
0 0 0 0 0 0 0 0 0 16 18 21 36 34 49
43 43 55 25 19 40 0 6 19 28 26 61 0 0 0
0 3 0 0 0 0 0 0 0 0 0 0 0 0 0
0 0 0 0 0 0 3 1 13 6 0 7 0 2 3
3 6 8 3 3 4 3 0 3 6 2 0 11 15 12
0 0 0 0 6 0 0 1 0 0 0 0 0 0 0
1 4 0 0 1 0 0 0 0 12 4 0 0 0 0
5 2 2 0 0 2 3 6 0 0 6 0 4 0 0
3 0 0 0 0 0 2 6 0 1 0 0 0 0 0
1 5 1 0 5 0 0 2 0 0 5 0 5 0 1
0 0 0 0 0 0 0 0 0 0 1 1 0 0 0
0 3 3 0 1 0 5 0 0 1 0 0 0 0 0
1 1 0 0 0 0 0 0 0 0 0 0 0 0 0
0 0 0 0 0 0 0 0 0 0 0 0 0 0 0
0 0 0 0 0 0 0 0 0 15 7 18 6 0 10
0 0 0 0 0 0 0 0 0 0 0 0 0 0 4
3 0 11 0 0 0 1 0 0 5 0 0 2 0 0
6 0 2 2 0 0 0 4 0 0 11 0 0 0 0
11 3 0 0 0 0 0 0 0 0 0 0 0 0 0
0 0 0 0 0 0 229 221 226 129 133 141 111 111 125
17 19 28 0 0 0 0 0 0 0 0 0 0 0 14
9 15 23 35 33 32 14 15 22 0 10 0 0 2 0
0 1 0 0 0 0 0 0 0 24 23 23 14 9 14
19 13 28 28 18 14 25 5 16 21 11 4 12 7 16
17 6 4 0 0 0 5 8 5 20 21 10 17 12 12
0 0 0 0 0 0 13 0 20 0 0 0 41 36 45
0 0 0 0 0 0 56 65 73 0 0 0 116 111 124
237 231 231 0 0 0 0 0 0 0 0 0 0 0 0
0 0 0 0 0 0 0 0 0 0 0 0 0 0 0
0 0 0 0 0 0 0 0 0 26 18 38 0 0 0
0 0 0 53 38 47 47 51 56 146 140 162 148 147 165
132 129 146 127 122 146 112 114 119 103 106 124 101 87 113
95 91 102 19 12 28 12 13 17 5 5 19 0 0 0
26 16 8 0 0 0 0 4 4 20 20 26 28 27 29
0 8 3 8 6 3 18 34 39 0 0 0 0 9 8
0 0 6 0 0 0 0 0 0 0 0 0 7 2 3
0 4 0 0 0 0 0 0 0 0 0 0 63 52 56
255 255 255 0 0 0 0 0 0 9 9 13 0 0 0
21 20 38 0 0 0 0 0 0 0 0 0 0 0 0
11 0 21 106 101 94 3 9 16 0 13 4 0 6 1
0 2 0 0 0 6 0 0 2 7 4 6 29 26 24
0 0 0 15 18 25 19 8 21 0 0 0 30 23 41
21 15 27 0 0 0 0 0 0 0 0 0 4 5 8
24 12 18 25 15 28 0 0 0 0 0 0 6 16 17
39 28 41 0 0 1 0 0 0 25 11 25 17 20 41
0 0 0 0 0 0 18 6 0 0 0 0 16 19 24
15 14 21 22 1 8 8 6 0 11 5 0 3 6 0
4 0 3 0 0 0 0 0 0 0 0 0 43 53 46
61 72 75 67 52 65 20 26 43 23 24 52 67 70 77
19 24 20 21 27 5 0 0 1 0 0 0 0 0 0
0 0 0 0 0 0 0 1 0 0 4 3 0 0 0
0 0 0 0 0 0 0 0 0 0 0 0 4 0 0
10 18 9 0 0 0 0 0 0 0 0 0 2 9 0
1 0 4 0 2 0 0 0 0 0 0 0 9 14 7
0 10 0 13 0 0 0 8 0 11 0 0 7 8 0
18 7 9 27 13 9 6 6 0 0 13 8 25 5 13
0 11 9 15 0 6 8 0 2 12 0 6 0 0 0
16 8 12 2 0 2 6 0 0 0 0 0 0 0 0
0 0 0 0 0 0 0 0 0 5 8 6 0 1 0
16 0 4 0 12 5 23 7 11 0 9 2 15 0 3
0 1 0 0 0 0 0 0 0 0 0 0 0 0 0
5 0 0 0 4 0 7 0 0 0 0 0 9 15 8
0 9 0 6 0 0 4 0 0 6 3 12 0 0 0
1 0 0 4 0 0 1 0 0 0 0 0 0 0 3
7 14 7 4 14 9 17 4 8 8 8 2 0 17 0
14 0 10 43 39 37 11 20 8 0 0 0 0 0 0
0 0 0 20 11 10 191 199 188 255 255 255 211 223 226
189 190 196 106 106 109 13 22 44 0 0 0 0 0 0
0 0 0 0 0 0 0 0 0 0 0 0 0 1 1
25 27 30 33 35 39 14 20 17 0 8 6 23 9 24
24 9 23 24 20 17 32 18 25 28 18 32 19 18 5
22 8 29 12 11 5 18 9 10 24 40 30 57 44 57
6 22 16 0 0 0 0 0 0 0 0 0 0 0 0
0 0 0 0 0 0 189 185 205 255 255 255 109 118 117
247 251 255 208 219 214 33 49 51 36 31 49 48 48 58
82 87 102 149 148 153 143 145 148 76 71 85 14 4 17
41 36 35 0 0 0 43 35 45 0 0 0 0 0 0
69 48 68 57 62 64 62 59 70 0 0 0 0 0 0
24 21 40 74 71 86 114 110 128 119 114 135 147 146 172
195 188 206 242 237 253 255 255 255 202 203 214 124 127 127
30 36 38 0 0 7 0 0 0 4 0 3 0 0 0
0 0 0 0 4 0 12 2 0 13 18 6 0 0 0
1 4 0 8 4 0 7 15 2 5 4 0 0 5 0
1 0 0 0 0 0 0 0 9 0 0 0 68 74 73
74 68 62 0 0 0 0 0 0 0 0 0 0 0 0
0 0 0 0 3 0 0 4 0 4 12 0 6 7 0
0 8 0 0 3 0 0 1 0 0 0 0 10 4 1
21 12 12 18 12 9 14 11 5 7 8 0 0 2 1
6 9 1 0 0 0 0 1 0 0 0 0 0 0 0
0 0 0 0 0 0 0 0 0 0 0 0 0 0 3
0 0 0 0 0 0 0 0 0 0 0 0 0 0 0
0 0 0 0 0 0 5 9 1 1 13 0 13 0 0
0 0 0 0 0 0 0 0 0 3 0 0 0 5 0
0 0 0 0 6 0 8 5 0 0 0 0 0 0 0
0 0 0 0 0 0 0 0 0 15 12 30 0 0 11
2 0 25 0 0 0 0 0 0 7 4 24 20 13 37
8 0 23 0 0 17 32 23 52 51 45 70 60 46 69
57 39 62 9 9 13 0 0 0 0 0 0 5 9 0
33 31 31 35 43 39 52 49 47 35 45 30 16 22 16
0 0 6 0 0 5 0 0 0 13 6 4 0 0 3
0 0 0 0 0 6 0 0 4 12 12 21 20 18 30
0 0 0 0 0 0 0 0 8 0 7 12 0 0 14
0 0 0 0 0 8 0 0 5 0 0 0 0 0 0
0 0 0 0 0 0 0 0 0 0 0 0 0 2 0
0 0 0 0 11 8 0 7 3 12 1 6 0 14 9
13 6 10 7 6 9 2 3 6 0 0 0 14 17 20
0 1 2 4 0 4 0 0 0 0 0 0 0 0 0
3 0 3 0 9 8 10 0 10 0 9 8 12 2 12
2 15 14 16 6 16 0 10 9 14 4 14 0 2 3
0 0 3 0 0 0 0 0 11 0 3 0 4 0 14
0 0 0 0 8 9 11 18 10 13 13 16 9 17 5
15 14 13 2 0 5 0 3 1 0 3 1 0 17 1
0 15 0 0 0 0 0 0 0 0 0 0 0 0 0
50 43 62 159 155 176 89 81 115 28 30 54 62 47 66
0 0 0 15 14 11 92 97 86 209 217 201 255 255 255
227 224 204 116 115 103 0 0 0 0 0 0 0 0 0
0 0 0 0 0 0 8 0 9 25 14 28 26 23 38
16 4 4 0 0 0 0 0 0 0 0 3 31 34 45
36 40 30 19 20 36 0 0 0 25 23 30 0 0 0
0 0 0 0 0 0 0 0 0 0 0 0 0 0 0
158 167 162 84 83 74 142 135 137 159 163 149 82 80 80
0 0 0 0 0 0 42 31 34 185 179 181 123 115 115
103 99 96 121 114 121 115 109 109 72 77 69 105 99 106
122 136 131 144 151 143 0 0 0 1 11 6 2 3 11
0 1 0 0 0 0 0 0 0 0 0 0 0 0 0
0 0 0 0 0 0 0 0 0 0 0 0 0 0 0
0 0 0 0 0 0 0 0 0 0 0 0 17 22 27
106 89 106 128 116 134 0 0 0 0 0 0 0 2 0
0 0 0 0 0 0 6 3 0 0 11 0 19 25 7
0 0 0 8 12 0 0 0 0 3 0 0 0 3 0
0 5 0 0 0 0 0 0 1 0 0 0 0 0 0
33 44 40 82 70 77 0 0 0 0 0 0 18 9 1
0 0 0 1 7 0 1 11 0 0 7 0 0 10 0
0 6 0 0 4 0 0 12 0 0 15 0 4 1 2
5 8 5 0 1 0 0 3 0 3 6 3 0 1 0
0 0 6 10 7 10 0 0 0 0 0 0 0 0 0
0 0 0 0 0 0 0 0 0 0 0 0 0 0 0
0 0 18 0 1 7 5 0 1 0 11 2 1 0 0
0 0 0 4 0 10 0 0 0 11 11 5 0 8 0
16 7 0 1 9 0 0 0 0 0 0 0 6 0 0
14 8 13 0 6 0 0 10 0 3 0 0 0 4 0
0 0 0 0 0 0 0 0 0 0 0 0 91 92 105
32 20 41 28 16 53 0 0 20 0 0 0 0 0 0
0 0 0 0 0 0 3 0 30 7 0 26 8 0 29
17 2 35 3 0 23 0 0 0 0 0 0 3 0 10
0 0 0 0 0 0 0 0 0 0 0 0 0 0 0
4 1 10 14 8 27 7 5 19 15 16 25 9 2 17
0 5 7 0 0 6 2 3 12 0 0 7 0 0 10
8 3 24 0 0 0 0 3 11 0 0 5 1 2 9
1 2 11 0 0 8 1 0 13 0 0 5 0 0 0
0 3 0 2 3 0 0 0 0 0 1 0 0 5 1
0 0 0 0 0 0 11 6 7 1 1 0 1 1 0
0 2 0 0 2 0 0 3 0 11 3 0 0 0 0
10 8 9 3 5 7 0 0 2 3 7 8 2 4 6
0 4 5 0 0 1 0 0 1 4 6 8 0 3 4
5 7 9 0 1 2 0 2 4 1 5 6 6 8 10
1 1 3 16 32 35 27 31 32 33 26 28 15 20 21
30 23 27 22 13 24 11 20 15 27 23 33 0 3 0
6 2 10 0 4 0 0 4 0 5 0 0 0 0 0
0 11 0 0 0 0 13 0 2 0 0 0 19 9 21
159 148 160 159 148 169 134 116 134 89 79 110 24 14 31
0 0 0 0 0 0 0 0 0 0 0 0 41 26 10
121 135 111 114 126 98 56 73 49 128 114 130 120 111 117
30 21 27 0 0 0 0 0 0 0 0 0 0 0 0
0 0 0 0 0 0 0 0 0 0 0 0 0 0 0
0 0 0 0 0 0 0 0 0 0 0 0 0 0 0
0 0 0 0 0 0 0 0 0 0 0 0 16 16 15
174 162 162 255 255 255 110 104 103 115 120 111 72 67 73
28 26 30 0 0 0 0 0 0 0 0 0 0 0 0
0 0 0 0 0 0 0 0 0 0 0 0 0 0 0
0 0 0 0 0 0 0 0 0 0 0 0 14 14 6
8 8 16 7 11 8 0 0 0 0 0 0 0 0 0
6 17 2 23 12 25 23 17 31 24 18 27 16 12 18
4 2 5 0 0 0 0 0 0 0 0 0 0 0 0
0 0 0 0 0 0 0 0 0 0 0 0 0 0 0
0 0 0 2 0 2 0 1 0 0 0 0 0 0 0
7 0 3 0 0 0 0 0 0 0 0 0 0 0 0
0 0 0 0 0 0 0 3 0 0 2 3 0 0 0
0 0 0 35 39 44 46 36 46 0 0 0 0 0 0
11 9 9 0 0 0 16 5 15 3 0 6 2 0 0
0 0 0 2 0 4 2 0 2 0 8 1 6 12 8
3 0 0 0 0 0 5 2 0 0 0 0 0 0 0
3 4 0 1 3 3 6 9 2 0 0 0 4 7 0
0 2 0 3 7 0 7 3 15 2 0 4 7 6 2
2 0 0 0 5 7 0 10 11 8 12 13 0 7 8
0 0 2 0 1 0 0 0 7 0 0 0 12 19 14
0 12 16 14 0 3 0 1 0 2 0 0 0 0 0
9 0 0 5 3 0 30 34 40 0 4 1 0 0 0
0 3 0 0 0 0 0 0 0 0 0 1 0 0 0
146 146 161 76 72 77 57 54 65 19 6 23 0 0 12
6 0 21 9 0 16 2 7 13 0 0 12 7 6 17
5 18 16 1 7 8 8 15 17 6 0 7 0 8 0
43 47 47 0 0 0 0 0 0 0 0 0 0 0 0
0 0 0 0 0 0 0 0 0 0 0 0 12 17 14
6 3 0 10 4 4 20 5 10 4 10 8 0 0 2
0 0 0 0 0 0 1 0 0 3 0 1 0 1 0
2 2 2 3 3 3 1 1 1 8 0 8 0 0 2
7 4 5 2 9 0 0 1 0 2 5 2 0 0 0
0 4 0 0 7 2 0 3 0 9 6 7 0 0 0
0 0 0 0 0 0 0 0 0 0 0 0 0 0 2
0 0 3 7 4 0 3 4 1 0 0 0 3 3 3
0 0 0 0 0 0 0 0 0 0 0 0 3 3 3
0 0 0 0 0 0 0 0 0 0 0 0 2 2 2
0 0 0 6 4 4 0 0 0 0 0 0 0 0 0
0 0 0 8 2 0 6 0 8 0 0 0 8 7 12
0 0 0 0 0 0 0 0 0 0 0 0 0 0 0
0 0 0 0 10 0 0 0 0 40 31 44 0 0 0
89 84 91 255 255 255 142 150 164 0 2 11 0 0 7
0 0 0 0 0 11 0 0 0 0 0 0 0 0 0
0 0 0 60 60 74 103 97 111 25 21 27 235 233 242
191 191 194 135 135 138 68 68 71 7 7 10 0 0 0
0 0 0 0 0 0 26 16 28 52 53 46 44 34 50
0 0 0 0 0 0 0 0 0 0 0 0 0 0 0
0 0 0 0 0 0 61 59 64 113 105 105 183 182 175
244 239 238 176 184 182 101 99 107 48 41 33 22 24 21
0 0 0 0 0 0 0 0 0 0 0 0 0 0 0
0 0 0 0 0 0 0 0 0 0 0 0 0 0 0
0 0 0 0 0 0 0 0 0 0 0 0 9 3 16
12 7 12 9 12 7 4 0 3 0 0 0 0 0 0
0 0 0 0 0 0 0 0 0 0 0 0 0 0 0
0 0 0 0 0 0 0 0 0 0 0 0 0 0 0
0 0 0 0 0 0 0 0 0 0 0 0 0 0 0
0 0 1 0 3 0 6 6 0 0 4 2 0 0 0
0 0 0 0 0 0 0 0 0 0 0 0 0 0 0
0 0 0 0 0 2 0 0 1 0 1 0 0 5 0
0 0 0 0 0 7 33 26 26 14 11 22 0 0 0
0 0 0 24 20 33 0 0 0 7 0 4 0 0 0
3 0 0 0 1 0 0 2 0 4 0 0 0 1 0
2 5 6 0 0 0 0 0 0 7 0 1 6 0 3
7 0 4 9 0 4 12 3 2 13 4 16 3 0 3
8 2 10 7 4 11 6 7 10 7 9 9 8 12 4
11 7 19 15 12 11 8 8 13 4 12 14 5 10 12
2 3 6 9 7 16 1 0 8 13 0 6 0 0 1
25 21 32 10 2 12 2 0 0 0 0 0 0 0 0
0 0 0 12 2 6 9 5 5 41 44 40 0 0 0
0 0 0 6 4 0 2 0 0 0 0 0 0 0 0
19 17 10 61 62 63 24 19 26 11 4 22 10 3 7
8 2 17 22 21 32 44 43 42 68 66 68 0 0 0
5 7 7 7 6 11 7 2 15 20 19 25 15 23 17
34 28 43 52 57 50 6 9 10 12 26 23 5 15 7
0 0 0 0 0 0 0 0 0 0 0 0 0 0 0
0 2 0 0 0 0 0 0 6 8 0 8 0 1 5
0 0 8 0 0 0 0 0 0 7 5 9 0 0 0
1 8 4 0 1 1 3 4 4 3 3 3 2 0 0
0 0 0 0 0 0 2 0 0 7 0 4 2 0 0
7 0 4 0 0 0 1 0 0 0 0 0 9 3 4
0 0 0 0 0 0 0 0 0 0 0 0 0 0 0
0 0 0 0 1 0 2 0 0 0 4 0 0 0 0
0 5 0 0 2 0 0 1 0 0 0 0 0 0 0
0 4 0 0 1 0 0 0 0 0 0 0 0 0 0
0 3 0 0 0 0 3 9 0 0 0 0 0 0 0
0 0 0 0 0 0 0 0 0 0 0 0 0 0 0
0 0 0 0 0 0 0 0 0 0 0 0 0 0 0
0 0 0 0 0 0 0 0 0 0 0 0 0 0 0
0 0 0 0 0 0 90 89 83 124 116 119 0 0 5
0 0 0 0 0 0 97 92 98 19 27 36 0 0 1
0 0 0 0 0 0 0 0 0 1 1 12 0 0 0
0 0 0 0 5 4 50 55 54 100 106 103 126 132 129
161 171 164 198 194 192 250 252 245 212 215 209 167 172 165
54 58 53 0 0 0 0 0 0 0 0 0 114 105 115
153 161 146 236 233 232 221 222 213 233 225 233 195 198 195
187 178 179 138 145 144 0 0 0 0 0 0 0 0 0
0 0 0 0 0 0 0 0 0 10 16 17 15 13 13
0 0 16 0 0 0 75 60 56 42 38 39 29 22 24
29 20 31 18 6 7 7 15 18 29 29 32 28 21 36
0 0 0 0 0 0 6 0 0 4 11 9 2 2 8
0 0 0 0 0 0 15 7 3 0 0 0 0 0 0
0 0 0 0 0 0 0 0 0 13 1 9 32 26 28
48 44 40 26 24 32 33 37 35 50 37 49 29 35 34
16 7 18 26 10 16 6 7 12 13 8 11 0 1 11
0 0 0 0 0 0 0 0 0 0 0 0 0 0 0
0 1 0 0 0 0 0 0 0 8 0 0 0 4 0
15 13 12 0 0 0 0 4 9 32 33 21 0 6 2
0 0 0 8 0 0 24 24 15 0 0 0 14 4 7
0 2 4 0 0 0 1 0 0 0 0 0 4 0 0
0 0 3 4 0 0 0 0 0 0 4 0 0 0 1
0 0 0 0 0 0 3 10 7 0 3 0 0 8 5
0 4 0 0 11 2 12 6 4 9 9 4 9 9 5
10 11 1 12 15 19 5 15 10 5 8 6 12 2 0
7 11 2 2 8 3 11 3 6 0 8 0 6 6 12
0 0 0 14 24 13 4 6 2 0 0 0 0 0 1
0 0 0 0 1 0 9 4 0 9 3 1 39 43 46
0 0 0 0 0 0 0 3 8 0 0 0 0 0 0
2 0 1 53 57 53 0 0 0 0 0 0 0 0 0
0 0 0 0 0 0 14 9 7 14 11 10 46 38 52
0 0 0 7 3 11 12 8 9 12 8 2 21 12 21
17 12 20 38 22 38 38 31 49 80 54 72 74 71 78
70 54 80 52 48 67 30 18 24 15 4 0 0 0 0
0 0 0 0 0 0 0 0 0 0 0 0 0 0 0
0 1 0 0 0 0 0 0 0 0 0 0 0 3 0
0 1 0 5 4 2 5 0 0 3 5 5 0 0 0
7 0 3 0 2 10 0 0 0 0 7 0 0 8 2
0 2 0 0 7 1 0 3 0 1 0 0 0 0 0
9 11 11 0 3 3 0 3 3 0 5 3 5 0 3
3 0 3 3 0 7 0 2 18 1 0 0 6 0 3
0 0 3 0 0 1 0 0 0 3 0 6 0 0 1
0 0 2 0 0 0 3 0 6 0 0 1 0 0 3
1 0 4 4 0 7 0 0 3 0 0 0 17 14 22
0 2 11 6 0 0 0 0 0 5 0 0 4 0 3
3 0 0 0 0 0 2 8 3 0 0 0 0 0 0
0 0 0 0 0 0 3 0 0 0 9 0 0 0 0
0 0 0 0 0 0 0 0 0 0 0 0 76 80 79
125 129 140 94 92 106 131 137 141 91 88 101 24 28 45
22 4 22 0 4 12 0 0 0 0 0 0 20 22 51
21 16 35 0 0 0 0 0 0 0 0 0 10 7 17
24 21 29 33 34 36 68 56 79 107 102 119 0 0 0
0 0 0 0 1 10 35 44 44 107 89 112 114 130 135
130 113 129 70 75 83 109 104 128 49 56 60 6 0 5
0 0 0 0 0 0 0 0 0 0 0 0 0 0 0
0 0 0 0 0 0 19 9 5 16 24 22 12 9 0
0 4 0 0 0 0 0 0 1 0 0 0 0 0 0
0 0 0 0 0 0 0 0 0 1 0 0 13 11 0
21 21 22 10 6 8 10 14 9 19 14 7 24 17 19
30 16 11 5 13 7 0 2 2 27 31 29 0 0 0
0 0 0 0 0 0 0 0 0 0 0 0 0 0 0
0 0 0 6 6 0 14 14 16 8 16 2 12 1 7
0 0 0 30 30 32 35 29 41 11 21 28 13 17 10
5 5 0 0 0 0 0 0 0 0 0 0 0 3 3
5 0 1 4 3 11 9 7 1 0 0 1 10 2 10
2 11 14 12 8 10 0 0 5 0 6 13 11 10 4
0 4 4 0 0 5 3 6 8 10 13 15 0 0 0
7 0 19 0 0 4 10 0 2 0 0 0 4 0 0
0 0 0 0 0 4 0 4 0 0 0 10 0 0 0
0 0 10 0 0 0 0 0 11 3 0 0 3 0 9
5 1 7 8 6 10 0 6 3 5 0 8 3 2 0
5 3 14 7 7 3 0 4 9 0 7 0 7 5 5
4 2 6 0 0 0 0 0 4 4 0 0 7 7 9
7 4 6 0 0 0 17 16 14 0 0 0 0 0 0
0 0 0 1 0 0 3 5 0 11 3 0 14 18 0
5 13 19 0 0 0 0 0 0 0 0 3 0 0 0
0 0 0 0 0 0 51 55 47 12 0 10 0 0 0
2 0 4 15 16 19 26 15 15 9 5 2 0 0 0
0 0 0 0 0 0 3 1 0 4 0 1 1 0 2
8 0 11 13 10 29 25 13 27 16 16 21 43 28 40
33 36 50 53 45 55 63 51 62 63 50 57 57 52 52
52 33 58 71 62 73 0 0 0 0 0 0 0 0 0
0 0 0 0 0 0 0 0 0 0 0 2 8 2 12
0 0 0 7 4 4 3 0 0 5 0 0 5 7 7
0 0 0 1 0 0 0 0 0 0 0 0 0 0 1
2 0 3 3 0 6 0 0 1 0 0 5 1 0 0
0 0 0 9 10 11 0 3 3 0 3 3 0 5 3
5 0 3 3 0 3 2 0 6 0 0 1 4 1 1
0 0 0 1 1 1 0 0 0 0 0 0 0 0 0
0 0 0 0 0 0 0 0 0 0 0 0 0 0 0
0 0 0 1 1 1 0 0 0 0 0 0 0 0 0
31 42 38 16 11 16 0 4 0 0 0 0 0 0 0
0 0 0 0 0 0 0 0 0 7 3 0 0 11 6
11 1 0 1 0 0 2 9 0 5 0 0 0 16 2
0 4 0 0 0 0 40 34 32 0 0 0 0 0 0
0 0 0 6 0 5 146 141 151 255 251 255 92 75 95
30 22 44 2 2 17 3 5 22 0 0 0 0 0 0
19 0 27 46 39 55 4 7 11 15 30 31 42 39 49
27 30 33 3 6 24 0 0 0 0 0 0 0 0 0
19 12 22 0 0 0 0 0 0 1 0 14 42 32 42
35 43 42 9 0 16 0 0 0 0 0 0 0 0 0
0 0 0 0 0 0 0 0 0 0 0 0 0 0 0
2 1 4 0 0 0 0 0 0 0 0 0 0 0 0
7 2 3 32 39 35 43 49 53 41 49 64 0 0 0
6 14 0 0 0 0 0 0 0 17 17 6 14 9 12
8 0 0 22 16 7 38 29 22 17 27 11 22 23 24
26 23 17 25 14 21 11 13 1 0 0 0 8 9 2
0 0 0 0 0 0 12 6 0 11 6 9 13 13 0
3 9 0 0 1 0 0 0 0 0 0 0 0 0 0
0 0 0 0 0 0 25 25 25 20 17 24 18 7 14
0 0 7 0 0 0 0 0 5 0 0 0 14 14 7
0 0 0 0 0 0 0 0 0 4 8 0 0 0 3
4 7 0 7 1 0 0 5 0 8 8 6 0 0 0
0 0 0 2 8 0 3 9 1 0 3 0 0 0 0
0 0 0 20 13 12 0 11 0 9 0 0 0 2 0
0 0 3 0 6 0 0 0 3 1 0 0 9 1 17
0 5 0 0 0 9 0 3 0 0 9 16 0 0 0
0 4 8 0 0 0 2 0 0 0 0 0 3 0 10
0 1 0 0 0 6 0 7 0 0 0 12 1 0 0
0 3 0 0 0 0 0 0 0 0 0 0 12 4 0
10 13 10 0 0 0 0 0 0 0 3 7 8 0 0
0 0 0 8 3 0 14 16 6 13 14 11 7 0 0
15 21 3 0 0 0 0 0 0 0 0 0 0 0 0
0 0 0 0 0 0 8 2 0 10 23 17 45 34 28
17 17 7 18 7 3 33 24 25 31 26 27 5 7 0
0 0 0 0 0 0 14 0 3 0 0 0 4 0 0
3 0 0 4 0 0 0 0 0 2 0 0 0 0 0
0 0 0 0 0 0 0 0 0 16 1 20 35 20 28
25 28 36 37 28 45 66 60 70 0 0 0 0 17 0
0 5 0 0 0 0 0 0 0 0 3 0 2 4 0
23 22 18 0 0 0 0 0 0 3 6 6 0 0 0
0 0 0 4 1 2 6 0 0 1 2 0 0 1 5
0 11 7 0 0 0 0 0 2 2 2 5 0 0 0
0 0 3 0 0 0 7 0 8 0 0 0 0 0 0
0 0 0 0 0 0 0 0 0 0 0 4 0 0 7
6 3 0 6 3 0 0 0 0 0 0 0 4 4 4
1 1 1 0 0 0 0 0 0 0 0 0 2 2 2
0 0 0 0 0 0 1 1 1 3 3 3 0 0 0
0 5 2 12 8 8 0 0 0 0 0 0 0 0 0
0 0 0 0 0 0 0 0 0 0 0 0 0 0 0
0 2 0 2 0 0 0 0 0 0 3 0 1 0 0
0 9 6 0 0 0 0 0 0 0 0 0 89 84 78
47 59 43 0 0 0 0 0 0 0 0 0 10 8 30
58 55 55 0 0 0 0 0 0 11 15 38 0 0 0
0 0 0 0 0 0 0 0 0 0 0 0 0 0 12
37 20 40 56 44 59 63 53 72 29 21 35 0 0 0
0 0 0 13 6 21 0 0 3 4 8 22 26 37 40
45 33 54 6 19 29 0 0 0 0 0 0 0 0 6
0 8 11 0 3 21 13 13 41 0 9 14 0 0 0
0 0 0 0 0 0 0 3 11 0 0 0 0 0 0
0 0 0 0 0 0 0 0 0 0 0 12 0 0 0
52 48 33 70 69 46 53 44 35 48 39 38 68 56 45
19 29 22 0 0 0 0 12 3 0 2 0 3 0 0
0 0 0 0 0 0 0 2 1 0 4 0 0 0 0
0 0 0 3 0 0 10 11 10 20 23 8 26 33 25
34 31 27 24 27 24 19 22 19 13 17 21 0 0 0
0 7 0 2 0 6 0 0 3 0 4 1 11 16 20
6 4 6 0 0 0 0 0 0 0 0 0 0 0 0
0 0 0 0 0 0 0 0 0 0 0 0 0 0 0
0 0 0 0 0 0 0 0 0 5 0 0 9 23 15
0 0 0 0 0 0 12 16 12 30 30 39 0 0 0
0 0 0 0 0 0 29 27 31 0 14 6 9 0 12
0 0 0 0 0 1 0 3 0 17 0 14 7 8 0
19 12 27 17 12 2 25 20 35 19 19 8 12 15 27
0 11 0 8 7 15 0 5 3 7 13 9 0 14 0
4 3 14 0 0 0 0 0 3 0 0 0 0 0 2
0 0 0 15 6 3 0 0 0 0 0 0 0 0 0
0 0 0 0 0 0 0 0 3 0 1 1 0 0 0
4 7 8 0 6 0 6 7 2 16 20 16 12 12 10
9 1 0 22 32 5 0 0 0 2 0 7 7 7 13
0 0 0 0 0 0 0 0 0 0 0 3 6 7 9
0 0 0 0 0 0 0 0 0 0 0 0 7 0 0
0 0 0 0 0 0 0 7 0 31 24 18 30 12 2
33 27 17 37 33 22 35 24 31 39 25 33 20 18 31
20 12 13 16 12 26 18 7 24 17 9 6 15 1 7
15 4 20 27 17 21 40 22 33 61 45 50 90 90 85
78 78 77 41 35 44 10 4 13 0 0 0 0 0 2
6 0 6 24 20 29 0 0 0 5 0 5 13 4 13
16 7 16 8 0 5 0 3 5 5 0 0 0 0 0
0 0 0 0 8 0 12 0 0 10 4 0 3 0 0
5 0 0 7 1 0 0 0 0 16 4 3 5 0 0
4 0 0 3 0 0 2 0 0 0 0 0 0 0 0
0 0 3 14 10 0 18 13 1 18 15 9 12 9 3
6 3 0 0 0 0 3 0 0 0 0 0 1 0 0
0 0 0 0 0 0 0 0 0 0 0 0 0 0 0
0 0 0 0 3 0 0 0 0 0 0 0 0 0 0
0 0 0 0 0 0 0 0 0 0 0 0 82 73 76
0 0 0 0 0 0 0 0 0 0 2 0 0 0 0
0 7 0 10 15 10 0 0 0 97 89 86 0 0 0
0 0 0 47 53 41 47 47 55 0 0 0 0 0 0
0 0 0 0 0 0 0 0 0 12 0 11 116 112 114
105 95 110 51 45 54 51 42 48 58 43 63 12 11 16
0 0 10 0 0 5 14 17 28 41 49 54 82 77 94
94 95 100 103 111 125 68 57 66 58 54 72 25 26 32
0 0 0 0 0 0 0 0 0 0 0 0 19 20 37
0 0 5 0 0 0 0 0 0 0 0 0 0 0 0
0 1 17 7 10 8 0 0 11 0 0 0 0 0 0
15 15 21 18 15 18 0 0 0 0 0 0 0 0 0
0 0 0 0 0 0 6 25 0 3 12 2 21 29 12
64 66 62 33 27 30 0 0 0 0 0 0 0 0 0
0 0 0 0 5 0 28 26 10 52 41 42 44 48 33
32 35 28 8 4 1 45 45 29 21 28 21 17 0 5
0 0 0 0 0 0 0 0 0 0 0 0 0 0 0
0 0 0 0 0 0 0 0 0 1 13 0 35 28 34
0 0 0 0 0 0 0 0 0 0 0 0 0 0 0
8 11 12 14 22 9 46 38 52 24 38 31 6 5 0
0 0 0 0 3 0 0 0 0 5 0 0 0 0 0
0 0 0 0 0 0 3 0 11 0 0 0 0 0 0
0 0 0 1 12 5 5 0 1 0 0 0 0 0 0
10 2 12 10 17 7 11 5 13 0 9 0 2 0 0
0 7 0 0 4 14 0 11 0 0 0 0 0 0 0
0 0 0 0 0 0 1 0 5 0 2 0 0 0 0
0 0 0 12 3 22 15 25 7 10 16 30 12 9 0
0 0 0 0 0 0 0 0 0 0 0 0 0 0 0
14 20 15 27 17 29 20 15 10 7 15 18 24 16 20
0 0 0 0 0 0 0 0 0 0 0 0 18 26 16
28 30 19 11 6 1 4 9 1 0 0 0 0 0 0
0 0 0 0 0 0 12 2 9 9 10 8 12 15 13
27 27 27 0 0 0 3 12 3 13 12 6 0 7 0
0 0 0 0 0 0 0 0 0 0 0 0 0 0 0
0 0 0 0 0 0 0 0 0 0 0 0 0 0 0
0 0 0 0 0 0 0 0 0 0 0 0 0 0 0
0 0 0 0 0 0 0 0 0 0 0 0 0 0 0
0 0 0 0 0 0 0 0 0 17 21 12 23 25 16
29 31 22 25 20 12 15 25 17 5 10 3 9 16 8
9 14 7 0 5 0 7 3 0 1 15 3 19 9 4
21 23 21 0 0 0 0 0 1 0 0 0 0 0 0
0 0 0 0 0 0 0 0 1 0 0 0 0 0 0
0 0 0 0 0 0 0 0 0 0 0 0 0 1 2
0 0 5 1 1 9 0 0 0 0 0 0 0 0 0
0 0 0 0 0 0 0 0 0 0 0 0 0 0 5
8 11 17 4 7 13 0 0 5 0 0 0 0 0 0
0 0 0 0 0 0 0 0 0 0 0 0 0 0 0
91 80 93 176 169 165 225 222 226 230 227 221 152 142 147
119 119 115 0 0 0 4 11 0 5 2 2 1 4 0
13 0 0 2 0 2 0 0 0 0 0 0 13 10 0
16 0 0 6 11 0 0 0 0 4 0 0 3 8 0
20 3 17 0 0 0 0 0 0 0 0 0 0 0 0
0 0 0 0 0 0 0 0 0 0 0 0 0 0 0
23 26 31 0 0 0 0 0 0 0 0 0 0 0 0
0 0 0 0 0 0 0 0 0 0 0 0 0 0 0
0 0 0 8 1 15 24 25 26 19 23 34 11 11 13
23 16 25 0 0 0 0 0 0 0 0 0 0 0 0
0 0 0 0 0 0 0 0 0 0 0 0 0 0 0
30 19 24 41 43 58 30 18 35 0 0 1 0 0 0
0 0 0 0 0 0 0 0 0 0 0 0 0 0 0
0 0 0 0 0 0 0 0 0 0 0 0 0 3 0
0 0 0 0 0 0 0 0 0 0 0 0 0 0 0
1 5 2 35 47 26 39 64 36 66 54 64 39 47 34
35 28 30 17 33 30 13 8 4 0 5 1 0 0 0
0 0 0 28 20 22 10 21 19 15 4 18 9 16 16
31 33 44 0 0 0 0 0 0 2 0 0 0 0 6
14 1 8 8 8 23 0 0 0 8 7 10 7 2 3
0 0 0 0 0 0 0 0 0 0 5 0 0 0 0
4 0 0 6 5 8 0 4 0 0 6 7 1 0 0
0 4 0 3 0 0 0 4 1 3 7 0 0 0 0
0 0 0 6 1 7 13 1 0 2 7 13 4 14 0
0 4 3 1 16 3 0 0 0 0 0 0 0 0 0
0 0 0 8 1 15 0 11 0 6 4 6 0 0 0
29 31 28 0 7 0 0 0 0 0 0 0 0 0 0
0 0 0 0 0 0 0 0 0 20 11 9 4 9 6
25 16 24 24 27 18 15 23 19 14 5 0 0 0 0
0 0 0 0 0 0 0 0 0 0 0 0 2 0 1
15 12 17 15 23 13 0 0 0 13 6 0 0 0 0
6 6 6 8 0 0 0 0 0 4 3 7 2 9 9
3 4 11 21 28 19 0 0 0 11 5 9 0 3 0
0 7 0 4 5 7 1 7 0 0 7 0 0 0 0
8 17 17 2 3 9 4 8 0 7 12 16 1 7 5
6 10 2 2 13 17 3 10 9 0 0 0 4 1 3
0 10 2 0 11 5 0 6 2 3 9 7 0 3 0
0 8 7 3 4 0 0 0 8 18 3 12 0 0 6
15 0 9 1 4 13 2 0 7 0 8 8 11 0 6
0 7 3 7 0 0 3 7 5 14 7 10 0 11 5
19 7 5 21 16 22 0 0 0 3 0 13 6 0 9
5 0 9 4 0 9 3 0 9 3 0 9 0 0 3
19 6 15 5 0 7 9 6 13 4 4 10 1 1 7
5 9 13 7 0 15 8 11 19 0 0 0 11 1 0
6 0 0 3 0 0 8 0 2 5 0 0 2 0 0
15 6 9 0 0 0 0 0 0 0 0 0 0 0 0
21 12 15 40 31 34 45 43 43 49 49 49 102 93 90
102 104 100 102 95 98 81 80 87 92 67 73 61 64 71
13 3 7 0 0 3 0 0 0 0 0 3 2 4 0
0 6 5 16 0 13 1 0 0 6 0 7 0 0 0
18 12 4 1 0 0 10 11 1 14 14 8 7 2 0
0 6 1 16 9 2 6 2 6 6 6 8 2 0 0
0 0 0 0 0 0 4 0 1 0 0 0 0 0 0
0 0 0 0 0 0 0 0 0 0 0 0 0 0 0
4 8 17 18 11 18 0 0 6 0 0 0 47 51 61
38 32 43 25 32 30 43 30 47 38 32 39 50 49 48
61 42 59 73 66 55 76 81 103 70 80 79 61 59 81
47 57 63 43 38 43 10 5 17 0 0 0 0 0 0
0 0 0 0 0 0 0 0 0 0 0 0 0 0 0
0 0 14 12 0 16 5 0 12 0 0 0 0 0 0
7 3 19 13 15 19 6 0 8 0 0 0 0 0 0
0 3 0 0 0 0 0 0 0 0 0 0 0 0 0
0 0 0 0 0 0 0 0 0 0 0 0 0 0 0
0 0 0 0 0 0 0 0 0 0 0 0 0 3 0
6 0 0 0 10 3 22 11 9 0 7 5 11 0 11
2 6 5 78 74 79 0 0 0 0 0 0 0 0 0
0 0 0 21 17 12 14 24 22 0 0 0 10 18 18
1 0 4 3 0 0 0 0 0 0 0 0 1 0 0
3 5 0 0 0 0 7 0 7 0 0 0 12 0 0
0 0 0 0 2 6 5 0 0 2 2 6 5 5 1
0 0 0 5 0 5 0 7 6 0 8 0 1 8 7
0 5 2 0 5 12 11 15 0 0 0 11 0 13 0
5 11 21 0 9 0 0 0 0 0 0 0 0 0 0
0 0 0 0 0 0 0 0 0 0 0 0 0 0 0
0 0 0 3 13 0 39 34 37 31 36 30 48 40 42
30 25 35 6 19 8 5 0 0 0 0 1 1 0 0
0 0 8 22 14 17 0 0 0 4 2 1 4 0 0
0 4 0 0 0 0 0 0 0 0 0 0 0 0 0
0 6 0 0 7 7 12 1 12 0 0 0 8 0 8
0 0 4 0 0 0 14 12 10 0 0 0 0 8 6
0 6 0 11 10 0 0 7 8 0 8 0 3 0 0
1 0 0 0 16 3 0 6 5 0 1 0 0 4 0
0 7 0 0 1 0 0 4 0 8 9 0 0 0 0
0 1 0 0 2 0 0 0 0 1 0 0 0 0 0
0 0 0 0 1 3 0 0 0 0 0 0 0 0 0
0 0 0 0 0 0 0 0 0 0 0 0 0 0 0
0 0 0 0 0 0 6 0 0 0 3 0 8 0 1
0 9 2 16 3 1 6 10 17 13 9 16 8 18 10
9 18 8 7 20 7 14 13 8 12 15 7 12 15 8
2 7 0 19 26 19 4 19 9 16 10 8 18 18 13
15 15 11 10 12 6 14 19 16 20 23 19 8 0 3
4 10 0 9 16 13 5 13 10 3 10 7 7 15 12
5 12 9 0 4 1 0 1 0 0 0 0 3 10 7
14 22 19 25 32 29 37 45 42 46 59 54 46 52 45
86 75 90 57 50 63 21 5 7 0 0 0 0 0 0
0 0 0 0 0 0 0 0 0 0 0 0 5 0 6
5 0 5 0 0 0 4 4 3 0 2 5 5 2 2
0 0 0 12 10 14 0 0 0 0 2 4 2 16 7
6 4 0 2 0 4 9 3 1 0 0 0 36 39 26
0 4 0 0 0 0 0 0 0 0 0 0 0 0 0
0 0 0 0 0 0 0 0 0 0 0 0 0 0 0
0 0 0 0 0 0 0 0 0 0 0 0 0 0 0
0 0 0 0 0 0 0 0 0 0 0 0 0 0 0
0 0 0 0 0 0 0 0 0 0 0 0 0 0 0
0 0 0 23 10 0 30 40 25 40 36 32 16 11 12
3 16 6 0 0 0 0 0 0 0 0 0 0 0 0
0 0 0 0 0 0 9 21 21 31 32 34 0 1 1
0 0 0 0 0 2 0 0 0 0 0 0 0 0 0
0 0 0 5 7 5 0 0 0 0 0 0 0 0 0
0 0 0 0 0 0 0 0 0 0 0 0 0 0 0
0 0 0 0 0 0 0 0 0 0 0 0 0 0 0
0 0 0 8 0 6 0 18 22 4 0 0 0 0 0
8 0 0 0 0 0 120 117 122 11 4 13 0 0 0
0 0 0 0 0 0 0 1 7 32 19 23 0 0 0
18 14 23 0 3 0 0 0 0 0 0 0 0 0 0
1 0 0 0 2 2 0 0 2 0 1 4 1 0 0
7 2 11 0 0 0 1 1 6 0 1 0 4 1 6
3 3 1 0 0 0 0 0 0 0 4 0 0 1 0
0 0 0 0 0 0 0 0 0 0 0 0 6 13 22
2 12 0 0 0 0 0 0 0 0 0 0 0 0 0
0 0 0 0 0 0 0 0 0 0 0 0 19 17 22
46 42 49 52 59 64 43 54 54 42 36 43 4 17 17
0 0 0 0 0 0 0 0 0 0 0 0 0 0 0
5 5 0 12 18 14 29 35 28 0 0 0 0 3 0
8 9 5 6 0 8 0 0 0 0 0 0 0 0 0
0 0 0 0 0 0 0 0 0 1 0 6 0 0 0
0 0 0 0 0 6 0 0 0 14 10 2 0 0 0
0 13 0 0 0 0 0 0 0 0 1 0 0 3 0
0 0 0 0 0 1 0 0 0 0 1 1 0 0 0
0 0 0 0 2 0 0 0 0 0 0 0 0 0 0
0 2 0 0 0 0 0 0 0 0 1 0 0 0 0
0 0 0 0 0 0 0 0 0 0 0 0 0 0 0
0 0 0 0 0 0 0 0 0 0 0 0 0 0 0
0 0 0 1 0 0 0 0 0 0 0 0 0 0 0
0 0 0 0 0 0 9 3 2 0 0 0 15 18 23
11 13 12 12 12 21 10 14 9 17 7 21 15 9 9
15 9 21 5 1 0 22 19 30 7 12 8 19 2 18
12 2 3 18 7 21 14 4 5 17 10 24 5 5 13
22 18 20 11 12 3 18 9 5 4 7 2 21 12 8
6 9 4 23 14 10 0 0 0 85 76 72 55 58 53
54 45 41 28 31 26 32 23 19 6 9 4 2 0 0
0 3 0 0 0 0 0 0 0 0 0 0 0 0 0
0 0 0 0 0 0 0 0 2 6 0 2 0 0 0
1 0 0 0 4 1 0 7 9 9 1 0 0 0 1
1 4 0 0 0 0 13 9 5 10 5 0 8 1 6
1 9 0 8 0 0 0 6 0 0 1 0 0 0 0
34 32 28 0 1 0 0 0 0 5 0 0 3 4 0
3 6 0 5 0 0 0 11 0 25 19 14 0 0 0
0 0 0 0 0 0 0 0 0 6 13 3 19 33 14
24 16 15 0 0 0 3 3 0 2 15 0 26 20 4
11 4 7 0 0 0 0 0 0 0 0 0 29 30 27
0 0 2 0 0 0 0 0 0 13 9 7 32 36 31
44 35 30 28 28 22 39 26 18 56 51 58 50 56 52
0 17 11 0 0 0 0 0 0 0 0 0 0 3 0
14 27 31 1 10 16 1 2 21 0 0 0 0 0 0
0 5 3 27 27 41 72 73 67 23 32 27 31 32 38
18 15 16 0 3 0 0 0 0 0 0 0 0 0 0
0 0 0 0 0 0 0 0 0 0 0 0 0 0 0
0 0 0 0 0 0 0 0 0 5 5 16 0 0 0
0 1 0 0 0 3 0 0 3 139 142 136 26 27 22
0 0 0 0 0 0 0 0 0 0 0 0 7 3 13
0 0 0 11 16 8 9 1 7 0 0 0 0 0 0
0 0 2 1 2 5 3 0 0 12 8 0 0 2 0
3 0 0 9 2 3 0 0 0 3 0 4 0 0 0
7 0 6 1 0 0 0 2 2 1 0 2 0 0 0
0 0 0 0 0 0 0 0 0 0 0 0 0 0 0
0 0 0 0 0 0 0 0 0 0 0 0 7 3 0
44 41 39 86 81 74 119 115 111 48 43 37 70 55 63
61 61 57 39 45 34 33 23 18 0 0 0 0 0 0
0 0 0 0 0 0 0 0 0 0 0 13 20 27 23
22 31 39 22 9 12 0 0 0 0 0 0 6 1 9
11 0 3 7 13 5 3 0 2 0 0 0 0 0 0
0 0 0 6 0 4 0 0 0 0 0 0 0 0 4
0 0 0 0 0 0 4 0 0 0 0 2 11 0 9
0 0 0 0 0 1 0 0 0 0 1 0 0 0 5
0 1 0 0 0 0 0 0 0 0 0 0 0 0 5
0 0 0 0 0 0 0 0 0 0 0 0 0 0 0
0 0 0 10 1 0 2 0 0 7 0 1 8 0 0
6 0 0 0 3 0 0 0 3 0 1 3 9 0 0
0 1 0 6 0 0 0 0 0 5 0 0 0 0 0
0 0 1 0 0 0 7 0 0 0 7 0 6 0 5
0 0 0 0 0 0 0 0 0 0 0 0 0 0 0
0 0 0 0 0 0 0 0 1 0 0 0 0 0 1
0 0 0 0 0 1 0 0 0 3 0 14 0 0 0
0 0 12 0 3 0 0 0 5 0 5 0 0 0 6
0 0 0 14 16 14 0 4 4 11 2 13 0 9 10
5 0 7 0 11 12 8 0 10 0 0 0 37 28 39
4 16 17 12 3 14 0 10 11 5 0 7 0 2 3
0 0 1 0 8 10 0 0 0 0 0 0 0 0 0
0 7 0 7 2 6 15 6 3 25 4 18 28 11 12
0 0 0 0 0 0 4 0 0 0 0 0 9 0 0
3 1 0 9 0 7 0 0 0 0 3 0 0 4 1
0 3 4 0 5 0 0 0 0 0 0 0 4 0 0
0 0 0 7 5 0 0 0 0 4 9 0 21 19 14
26 30 24 41 58 36 65 61 61 63 76 65 86 78 68
56 58 32 20 12 0 0 0 0 17 3 0 29 25 6
31 34 8 32 26 20 52 56 46 57 50 39 58 61 49
64 59 47 57 60 42 51 60 33 47 45 38 5 13 0
73 63 50 49 35 35 37 18 13 4 0 0 4 0 0
18 16 3 8 12 11 0 0 0 17 20 3 44 55 49
89 88 76 56 70 51 8 2 3 0 0 0 0 0 0
0 0 0 0 0 0 0 0 0 8 1 4 0 7 0
0 0 0 17 7 13 32 36 37 82 85 81 56 50 49
55 61 57 45 42 52 38 37 33 40 33 44 38 27 30
19 36 41 29 25 19 47 39 55 32 31 45 26 37 28
16 25 19 11 16 8 0 7 0 0 0 0 0 0 0
0 0 0 0 7 0 6 0 0 0 0 0 104 104 107
34 34 35 0 0 0 0 0 0 0 0 0 0 0 0
0 1 4 0 0 0 0 0 0 12 9 15 0 0 0
0 0 0 0 0 0 0 7 0 3 5 6 7 0 7
0 0 0 0 3 0 0 1 15 1 0 4 3 0 2
0 0 0 0 7 6 0 0 0 0 7 8 0 6 0
0 0 0 0 0 0 0 0 0 0 0 0 0 0 0
0 0 0 0 0 0 0 0 0 6 5 0 12 27 12
45 29 43 31 40 44 44 32 40 45 56 56 44 25 35
23 22 19 0 0 0 0 0 0 0 0 0 0 0 0
0 0 0 0 0 0 99 96 103 38 58 41 37 30 31
12 8 0 0 0 0 0 0 0 0 0 0 0 0 0
3 9 0 2 0 1 0 0 0 3 0 0 0 5 2
4 0 1 0 0 0 18 12 12 0 0 0 0 0 0
0 0 0 0 0 0 0 0 0 6 0 0 0 0 0
13 9 6 0 0 0 0 4 0 0 0 0 0 2 4
0 1 0 0 0 0 0 0 6 1 0 0 0 0 0
2 0 0 0 0 0 1 0 0 5 0 0 0 0 0
2 0 0 0 0 0 21 9 10 0 5 0 13 0 0
0 11 0 12 0 2 0 0 0 5 0 0 0 0 0
18 17 7 5 0 3 9 0 5 2 12 7 10 0 0
4 5 0 11 4 12 12 6 9 5 0 0 4 0 0
10 0 8 0 0 0 0 0 0 0 0 0 0 0 0
0 0 0 0 0 0 0 0 0 0 0 0 0 0 0
0 0 0 0 0 0 0 0 0 0 0 0 0 0 0
0 0 0 0 0 0 0 0 0 0 0 3 0 0 0
0 0 0 0 0 0 13 1 7 5 0 0 2 0 0
0 0 0 5 0 0 1 0 0 0 0 0 0 0 0
0 0 0 0 0 0 0 0 0 0 0 0 0 0 0
1 0 0 6 4 4 3 14 9 0 0 0 0 0 0
0 0 0 8 7 17 0 0 0 0 0 0 0 0 0
0 0 0 0 0 0 0 0 0 0 7 0 0 4 0
2 0 0 0 3 0 0 0 0 0 0 0 0 0 0
0 0 0 7 5 13 0 10 0 0 0 0 0 1 0
5 0 0 0 0 0 6 0 0 0 0 0 7 9 0
18 13 10 23 26 29 31 29 24 34 42 34 48 58 46
36 33 20 32 35 22 30 36 27 13 31 20 21 18 14
5 11 4 0 0 0 0 0 0 0 0 0 0 0 0
0 0 0 0 0 0 0 0 0 0 0 0 0 5 0
0 0 0 0 0 0 5 1 0 26 16 4 1 0 0
10 9 0 42 35 27 29 33 12 0 0 0 0 0 0
1 6 0 40 41 35 79 80 69 95 97 83 64 61 42
0 0 0 0 0 0 0 0 0 0 0 0 0 0 0
8 9 8 7 2 11 1 9 0 14 11 18 11 26 22
8 15 8 19 23 26 19 23 18 14 20 23 18 17 31
29 33 26 26 27 32 28 29 22 29 35 34 28 18 32
26 25 19 20 15 18 12 13 19 9 3 17 6 4 0
14 6 7 0 0 0 0 7 0 4 6 5 0 0 1
38 38 32 41 41 31 50 50 51 28 25 24 0 0 0
0 0 1 8 16 18 13 9 23 0 0 0 6 4 20
0 0 0 0 0 0 0 0 0 3 0 0 0 8 1
3 3 0 0 0 0 0 7 0 0 4 0 1 3 0
3 3 0 0 0 0 0 9 4 0 0 0 0 0 8
0 5 0 0 5 6 0 0 0 0 1 0 2 7 0
0 20 15 0 0 0 76 72 68 53 49 39 44 45 47
22 37 31 21 13 11 0 0 0 0 0 0 0 0 0
0 0 0 0 0 0 0 0 0 0 0 0 0 0 0
6 0 0 60 38 47 73 61 64 89 91 96 50 57 61
15 0 22 0 0 0 0 0 0 0 0 0 4 2 11
27 25 20 14 6 8 3 0 3 0 0 0 3 0 0
6 10 8 23 17 20 12 18 15 34 30 30 0 0 0
11 15 7 7 19 14 0 18 5 6 7 8 0 0 0
0 0 3 0 12 3 0 0 0 0 0 8 1 0 0
0 3 2 0 0 6 11 0 0 3 0 0 10 0 0
0 0 6 0 0 4 0 1 11 0 0 0 0 0 3
0 0 0 0 0 0 0 0 0 3 0 5 0 4 0
6 0 5 0 1 0 2 0 11 0 5 7 0 0 0
0 0 5 15 3 0 6 1 0 9 1 0 0 12 0
7 0 0 0 5 0 0 4 0 0 0 0 0 0 0
0 0 0 0 0 4 0 0 0 0 0 0 0 1 1
0 0 0 0 0 1 0 0 0 0 1 0 1 0 3
0 0 0 0 0 3 0 0 0 0 0 3 0 0 0
0 0 3 0 0 0 0 0 0 0 0 0 0 0 3
0 0 0 0 0 0 0 0 0 0 4 6 0 0 0
0 0 0 0 0 0 0 0 0 0 0 0 0 1 0
0 0 0 0 0 0 0 0 0 0 0 0 0 0 0
0 0 0 0 0 0 0 0 0 0 0 0 14 16 18
2 0 5 2 0 6 37 22 35 32 19 22 6 0 6
8 0 0 15 3 17 0 0 0 0 0 0 1 0 0
0 0 0 0 0 0 0 1 0 10 0 0 0 0 0
2 0 0 4 0 4 0 1 0 2 0 0 7 0 0
0 0 0 11 0 0 0 0 0 6 0 6 0 0 0
4 0 5 13 0 8 0 1 1 0 0 0 0 0 0
4 2 0 0 0 0 0 0 0 33 10 3 30 15 8
13 1 0 0 0 0 0 0 0 0 0 0 0 0 0
0 0 0 0 0 0 0 0 0 0 0 0 0 0 0
0 0 0 0 0 0 45 39 24 52 67 45 61 70 46
30 22 23 18 16 4 50 48 42 46 45 48 22 8 12
21 18 23 0 0 0 0 0 0 15 10 24 67 67 86
90 80 92 55 43 62 70 39 47 0 0 0 0 0 0
0 0 0 0 0 0 0 0 8 1 3 0 1 0 0
0 0 0 0 0 0 0 0 0 6 0 0 0 0 0
7 3 6 6 1 7 0 0 8 0 0 0 0 0 0
0 0 0 0 0 0 1 2 3 6 13 0 4 1 0
0 11 0 1 8 0 0 0 0 7 4 2 0 8 0
0 6 0 0 0 0 38 38 26 101 101 100 50 48 48
0 0 0 0 0 0 0 0 0 1 6 2 0 0 0
0 0 0 0 0 0 0 0 0 0 0 0 0 0 0
0 1 0 1 13 0 0 0 0 0 0 0 8 0 0
0 0 0 0 0 0 0 0 0 0 1 0 0 0 0
0 0 0 0 0 0 0 0 0 0 0 0 0 0 0
0 3 0 1 25 15 0 18 0 64 58 62 21 7 13
0 0 0 0 0 0 0 0 0 5 3 4 6 14 14
19 22 29 0 0 0 14 9 16 55 40 53 79 64 74
84 65 78 69 65 71 67 47 52 48 37 48 0 0 0
0 0 0 0 0 0 0 5 10 12 16 26 14 16 9
14 12 7 17 13 9 28 16 15 7 1 0 0 0 0
0 8 0 33 36 27 58 53 48 44 51 40 44 48 38
26 32 18 29 26 34 20 11 16 0 2 0 0 0 0
0 0 0 0 0 0 0 0 0 0 0 0 0 0 0
0 1 0 0 5 0 0 0 14 1 0 14 22 0 9
9 0 4 8 0 2 0 2 0 2 2 4 0 0 3
0 0 0 0 0 0 0 0 0 0 0 0 0 3 15
0 3 13 0 0 8 0 0 0 0 0 7 0 0 4
0 0 5 0 0 9 0 0 0 0 0 0 0 0 0
0 0 0 0 0 0 0 0 0 1 0 0 2 0 0
3 0 0 4 0 0 0 0 6 0 0 0 5 5 5
10 10 10 16 16 16 10 16 19 11 5 7 0 14 0
10 4 0 5 5 0 4 4 0 3 3 0 2 2 0
1 1 0 0 0 0 0 0 0 0 0 0 4 0 0
3 0 0 2 0 0 10 4 0 11 4 4 6 0 4
0 0 0 15 3 0 3 0 0 3 0 0 9 3 6
7 1 4 4 0 2 30 20 29 21 9 21 25 12 28
13 7 0 10 0 14 6 0 0 0 0 0 0 0 0
6 8 17 0 0 0 0 0 0 0 0 0 0 0 0
0 0 0 0 0 0 50 37 38 0 0 0 8 0 0
5 0 0 7 5 0 8 9 0 6 14 7 7 2 0
0 0 0 7 0 0 8 4 13 31 24 8 27 26 21
19 5 0 0 4 0 0 0 0 0 0 0 22 9 6
11 6 6 30 28 34 46 43 47 26 21 30 10 0 0
0 0 0 0 0 0 0 0 0 2 0 0 36 22 24
36 30 32 18 15 20 4 12 0 44 27 27 47 49 45
0 0 0 0 0 0 0 0 0 0 0 0 0 0 0
0 0 0 0 0 0 0 0 0 0 0 0 0 0 0
7 1 5 0 0 0 0 0 0 69 61 52 83 89 82
57 53 58 60 71 62 11 1 13 0 0 0 0 0 0
0 0 0 0 0 0 108 74 98 165 156 156 60 91 96
11 27 28 0 0 0 0 0 0 0 0 0 26 39 41
16 12 20 0 0 0 0 0 0 0 0 0 1 8 9
20 18 24 21 15 24 4 0 8 0 0 0 0 0 0
0 0 0 0 0 0 0 0 1 3 6 0 2 1 5
7 5 0 0 10 0 4 13 7 0 0 0 0 0 0
0 0 0 0 0 0 14 14 16 0 0 0 1 3 1
93 95 87 140 140 132 45 43 40 0 0 0 0 0 0
0 0 0 0 0 0 0 0 0 0 0 0 0 0 0
0 0 0 0 0 0 0 0 0 0 0 0 0 0 0
0 0 0 0 0 0 0 0 0 0 0 0 5 13 1
1 0 0 0 0 0 10 0 0 31 15 25 53 32 43
55 43 50 55 37 37 33 26 35 0 7 0 8 0 7
13 0 0 28 21 25 14 13 20 13 0 6 0 0 0
3 0 1 22 7 21 0 0 0 11 4 0 0 5 7
0 1 3 0 0 0 0 0 0 0 0 0 0 0 0
3 0 0 14 5 3 24 6 8 18 15 6 19 9 0
2 4 5 1 0 0 0 0 0 8 2 7 0 0 8
4 0 11 3 2 2 11 2 12 7 10 16 0 0 0
0 0 0 3 0 0 7 6 6 25 24 24 37 32 31
49 29 31 26 13 7 0 0 0 11 0 0 0 0 0
5 6 0 19 18 16 6 1 0 0 0 0 0 0 0
0 0 0 0 0 0 1 6 1 1 4 3 4 4 6
5 5 13 7 6 3 8 6 8 9 6 9 12 6 9
0 0 0 1 0 0 2 0 0 3 0 0 3 0 0
3 0 0 2 0 0 0 0 0 8 0 3 0 4 3
2 5 5 0 0 0 0 0 0 0 0 0 0 0 0
0 0 0 0 0 0 0 0 0 0 0 6 0 0 0
0 0 0 0 0 0 0 0 0 0 0 0 0 0 0
12 3 8 5 2 9 1 1 7 8 8 14 6 6 12
4 4 10 10 10 16 18 18 24 9 11 16 9 13 17
9 15 18 1 7 10 2 8 11 3 9 10 3 5 0
0 0 0 0 0 5 3 0 2 0 0 3 0 0 0
0 0 0 0 0 0 0 0 0 0 0 0 0 0 0
0 0 0 0 0 0 0 0 0 0 0 0 0 0 0
0 0 0 12 7 7 7 0 2 3 3 2 0 3 2
0 3 4 0 3 9 0 0 6 1 0 11 0 0 0
0 0 0 0 0 0 0 0 0 0 0 0 0 0 0
0 0 3 0 0 0 0 4 2 0 0 0 0 0 0
0 0 0 0 0 0 0 0 0 0 0 0 0 0 0
8 11 9 0 0 0 0 0 0 0 0 0 0 0 0
0 0 0 1 3 8 25 21 28 0 0 0 0 0 0
3 6 6 0 0 0 0 0 0 0 0 0 0 0 0
0 12 5 11 10 17 34 41 49 75 69 72 109 104 108
95 102 95 58 56 55 6 12 11 0 0 0 0 0 0
0 0 0 0 0 0 0 0 0 0 0 0 0 0 0
44 46 45 97 100 89 52 61 49 37 37 22 22 15 15
7 13 1 9 7 0 0 0 0 0 0 0 0 0 0
24 13 18 58 40 44 50 36 32 25 3 0 0 0 0
0 0 0 7 0 0 29 32 31 0 0 0 0 0 0
0 0 0 0 0 0 0 0 0 0 0 0 0 0 0
0 0 0 43 39 49 15 9 4 0 0 3 0 0 0
9 12 17 14 9 5 0 0 0 0 0 0 17 20 16
23 15 21 15 19 23 26 24 33 48 51 44 25 29 16
3 0 9 7 4 11 44 39 54 32 34 31 0 0 0
0 0 0 0 0 0 0 0 0 0 0 0 0 0 0
0 0 8 14 10 16 49 33 44 111 86 101 13 15 34
22 40 47 27 23 36 9 18 24 5 6 11 0 0 0
0 0 0 0 0 0 17 7 10 4 0 0 14 0 2
20 5 14 7 2 12 5 0 0 0 0 4 0 0 0
17 2 21 11 0 3 21 5 22 11 0 13 7 0 5
0 0 0 0 0 2 7 12 1 4 0 0 0 0 0
11 3 0 9 10 0 8 0 0 3 8 0 15 0 1
0 0 0 15 11 3 4 11 0 10 5 0 12 8 0
21 3 5 11 0 8 7 0 7 11 12 16 0 0 0
0 0 0 0 0 0 3 0 6 8 14 3 6 10 4
0 6 1 0 0 0 20 10 34 4 0 0 9 0 0
3 0 2 24 4 17 14 1 10 0 0 0 1 0 0
0 0 0 0 0 0 3 0 0 2 4 0 0 1 7
0 0 0 0 0 1 0 0 4 1 0 0 0 0 1
0 0 5 0 0 0 0 0 0 0 0 0 0 0 0
0 0 3 0 0 0 0 0 0 0 0 0 0 0 0
0 0 0 0 0 0 0 0 0 0 0 0 0 3 3
0 1 0 2 2 2 0 0 0 0 0 0 0 0 0
0 0 0 0 0 0 0 0 0 0 0 0 0 0 10
0 0 6 0 0 6 0 0 6 0 0 6 0 0 6
7 4 4 12 1 2 6 0 0 3 0 0 9 3 3
6 0 0 4 0 0 8 2 2 14 8 8 4 0 0
7 1 1 10 4 4 5 0 0 8 2 2 11 5 5
12 1 0 0 0 7 0 0 2 0 0 2 3 0 0
0 4 0 0 0 1 1 7 13 0 2 0 0 7 4
0 3 0 0 4 0 1 4 0 0 5 0 0 7 0
0 4 0 0 0 0 0 9 0 2 0 5 0 3 3
0 3 3 0 3 3 0 3 3 0 3 3 3 5 8
0 0 0 0 0 0 0 0 0 1 0 7 0 0 5
1 6 12 0 3 13 0 0 0 12 16 13 0 8 3
0 0 7 0 6 0 0 0 5 0 4 11 3 0 6
0 1 2 8 11 15 5 0 1 4 17 7 5 5 0
3 0 0 1 2 0 0 0 0 2 1 0 10 0 0
9 0 2 29 23 28 4 11 15 0 0 0 0 0 2
12 1 7 14 13 5 36 32 39 18 17 6 9 8 10
13 10 4 16 24 20 24 24 28 21 10 24 35 36 24
0 0 0 0 0 0 0 0 0 0 0 0 0 0 0
0 0 0 0 0 0 0 0 0 40 37 31 16 33 17
24 34 19 33 41 25 33 35 20 31 42 27 54 47 27
48 34 25 31 25 23 0 0 0 0 0 0 0 0 0
0 0 0 32 19 12 9 0 6 0 0 0 8 0 0
0 1 0 0 0 3 0 0 4 1 0 3 0 0 0
5 0 2 0 0 0 0 0 0 0 0 0 0 0 0
0 0 0 0 0 0 0 0 0 0 0 10 10 0 0
0 1 5 0 0 0 0 0 0 0 0 0 29 26 29
47 45 43 46 45 58 4 4 0 14 12 14 54 58 46
43 44 36 68 69 61 12 16 4 34 33 22 19 21 25
38 40 38 52 52 48 38 34 40 54 50 53 111 105 92
16 28 27 44 48 51 33 25 36 7 10 7 4 0 0
0 4 0 0 0 0 0 0 0 27 20 15 3 13 1
8 5 0 7 9 8 13 0 5 0 0 0 0 0 0
0 0 0 7 7 9 0 0 0 0 0 0 0 4 0
1 3 4 4 4 0 5 3 1 0 0 0 9 4 8
0 0 0 0 3 5 0 5 2 0 0 0 0 0 0
0 0 0 0 0 0 16 5 10 8 6 6 9 0 2
6 9 0 2 0 0 1 8 3 1 0 8 22 29 22
0 0 0 0 0 0 1 0 0 6 5 5 0 0 3
0 3 11 5 0 0 0 0 0 25 26 24 0 0 0
0 0 0 0 0 0 32 16 18 25 34 26 6 0 0
9 11 7 0 0 0 0 0 0 0 0 0 0 0 0
17 11 12 16 25 20 3 8 25 0 0 7 4 0 4
0 0 0 0 0 0 0 0 0 0 0 4 0 4 0
0 3 0 0 2 0 0 1 0 0 0 0 0 0 0
0 0 0 0 0 0 0 0 0 0 0 0 2 0 0
0 0 1 0 0 0 0 0 0 3 3 3 0 0 0
0 0 0 0 0 0 0 0 0 0 0 0 0 0 0
0 0 0 0 0 0 0 0 0 0 0 0 0 0 0
0 0 0 0 0 0 0 0 1 0 0 0 0 0 0
0 2 3 0 0 0 0 0 0 0 0 0 0 0 0
0 0 0 0 3 3 0 0 0 0 0 1 0 0 0
0 0 0 0 0 0 0 0 13 0 0 8 0 0 0
1 0 0 0 0 4 1 1 0 0 0 0 0 0 0
7 0 3 5 0 4 0 2 7 0 0 0 0 0 0
2 0 0 0 0 0 0 0 0 0 1 0 6 0 0
0 0 0 0 0 0 0 0 0 0 0 0 0 0 0
3 0 0 0 0 0 0 0 0 0 0 0 0 0 0
0 0 0 2 0 0 0 0 0 0 0 0 9 11 5
2 1 0 0 0 0 2 8 0 0 0 0 0 7 0
5 4 0 3 0 0 0 2 3 1 0 0 0 0 0
1 0 0 0 0 0 0 0 0 0 0 0 0 0 0
3 3 0 7 1 0 17 18 17 15 5 10 0 0 0
0 0 0 15 13 11 24 25 22 24 17 30 0 0 0
0 0 0 0 0 0 16 9 20 34 39 32 42 37 42
43 41 45 45 41 46 43 38 41 34 23 28 11 14 6
0 0 0 0 0 0 0 0 0 0 0 0 42 27 39
12 10 13 8 0 3 0 0 0 0 0 0 4 4 6
97 73 67 110 105 96 159 161 164 60 68 64 0 0 0
0 0 0 0 0 0 0 0 0 0 1 0 0 1 0
11 16 21 6 7 3 0 6 0 0 3 0 9 1 0
7 9 0 11 15 19 0 7 0 70 65 76 62 59 64
57 61 66 32 33 40 0 0 0 0 0 0 0 0 0
0 0 0 0 0 0 0 0 0 0 0 0 0 0 0
0 0 0 21 21 19 82 82 80 51 51 49 4 3 10
0 0 0 39 43 31 127 131 121 91 88 94 72 73 72
26 21 44 55 51 65 67 70 69 14 13 19 0 0 0
0 0 0 0 0 0 0 0 0 0 0 0 0 0 0
0 0 0 0 0 0 2 1 3 0 0 0 0 0 5
0 0 0 0 0 0 6 7 0 14 5 15 12 14 14
15 14 31 14 18 17 5 9 10 0 0 0 0 0 0
0 0 0 7 1 5 16 10 15 3 6 0 0 0 0
11 2 9 0 0 0 0 0 0 0 0 0 0 0 0
0 0 0 0 0 0 6 2 0 13 3 4 19 7 7
7 1 0 0 0 0 0 0 0 1 0 0 0 2 0
34 31 22 0 0 0 0 0 0 6 0 6 3 11 4
0 0 0 0 0 0 8 3 0 8 11 9 20 15 20
0 0 0 0 0 0 17 5 11 22 24 34 30 32 23
24 15 23 55 47 42 0 0 0 0 0 0 0 0 0
0 0 0 1 13 0 28 25 14 8 6 21 0 0 0
4 0 0 0 5 0 0 0 5 0 4 0 0 2 0
0 1 0 0 0 0 0 0 0 5 5 0 3 3 0
3 3 0 3 3 0 3 3 0 3 3 0 3 3 0
6 3 0 0 3 8 4 4 4 0 0 0 0 0 0
3 3 3 0 0 0 0 0 0 0 0 0 0 0 0
0 0 0 0 0 0 0 0 0 0 0 0 0 0 0
0 0 0 0 0 0 4 0 0 1 0 0 0 0 0
0 0 0 3 0 2 0 0 0 0 0 0 5 0 6
3 0 4 4 0 4 0 0 0 0 0 0 4 0 2
0 0 0 0 0 0 0 0 0 0 0 1 0 0 0
0 0 4 0 0 0 0 0 0 0 0 0 0 0 0
0 0 0 5 10 0 0 0 0 0 1 0 1 4 0
0 0 7 0 3 5 0 0 0 1 0 0 0 0 0
0 0 0 0 0 0 0 0 0 0 0 0 0 0 0
0 0 0 0 0 0 0 0 0 0 0 0 0 0 0
0 0 0 0 0 0 0 0 0 0 0 0 0 0 0
13 7 0 5 0 0 0 0 0 0 0 0 6 0 6
4 1 3 0 2 3 2 0 0 1 2 0 0 0 0
4 0 0 0 0 0 0 0 0 0 0 0 0 0 0
0 0 0 0 0 0 3 5 0 5 5 0 7 7 8
0 0 0 0 0 0 14 2 6 20 23 19 0 0 0
0 0 0 0 0 0 0 0 0 20 17 17 48 32 25
28 21 17 1 0 0 44 41 45 38 35 35 60 51 53
42 59 46 11 0 5 0 0 0 0 0 0 0 0 0
19 4 5 0 0 0 0 0 0 0 0 0 0 0 0
0 0 0 14 5 4 39 15 28 139 131 140 126 122 129
141 127 130 63 56 56 0 0 0 0 0 0 0 0 0
50 49 46 30 22 40 20 12 20 11 17 21 2 8 12
19 4 15 24 15 22 31 22 23 22 21 22 56 44 54
37 40 46 55 53 50 54 48 47 47 34 38 33 41 38
43 43 46 72 68 73 46 37 52 50 55 47 50 50 48
48 46 44 0 0 0 0 0 0 61 63 63 98 101 98
47 49 53 0 0 0 0 0 0 106 104 106 64 63 56
3 6 0 0 0 0 0 0 0 14 11 20 0 0 0
0 0 0 0 0 0 0 0 0 0 0 0 0 0 0
0 0 0 0 0 0 0 0 0 0 0 0 0 0 0
11 9 0 0 0 0 12 0 4 3 0 0 0 1 0
4 8 0 8 9 19 10 20 10 6 0 0 0 0 0
0 0 0 0 0 0 0 0 0 2 9 0 6 5 6
0 0 0 13 2 7 0 2 0 0 0 0 0 0 0
0 0 0 0 0 0 0 0 0 0 3 2 0 0 0
12 7 14 0 0 0 0 0 0 0 0 0 0 0 0
0 0 3 18 20 16 0 0 0 0 0 0 1 11 4
8 8 9 0 3 0 1 4 2 5 3 13 26 21 19
1 2 15 4 18 11 19 20 30 19 23 17 15 10 15
16 25 9 19 18 18 60 64 56 23 18 21 19 15 9
0 0 0 0 0 0 0 0 0 0 2 0 0 0 0
0 0 0 0 0 0 0 0 0 0 0 0 0 0 0
0 0 0 0 0 0 0 0 0 0 0 0 0 0 0
0 0 0 0 0 0 0 0 0 0 0 0 0 0 0
0 0 0 0 0 0 0 0 7 0 0 2 3 3 3
0 0 0 0 0 0 3 3 4 0 0 0 0 0 0
0 0 0 0 0 0 0 0 0 0 0 0 0 0 0
0 0 0 0 0 0 0 0 0 0 0 0 0 0 0
0 0 0 0 0 0 0 2 0 0 0 0 0 0 0
0 6 0 0 0 0 0 0 0 0 1 0 0 4 0
0 0 0 0 0 0 0 0 0 0 0 0 0 0 6
0 0 4 0 0 0 1 0 0 0 0 0 5 2 0
2 0 0 0 0 0 10 14 7 5 5 7 0 0 0
5 2 0 0 0 0 3 2 0 3 0 6 4 9 8
0 0 0 0 0 0 0 0 0 0 0 0 0 0 0
0 0 0 0 0 0 0 0 0 0 0 0 0 0 0
0 0 0 0 0 0 0 0 0 0 0 0 2 0 0
0 0 0 0 9 8 0 5 0 0 0 0 2 5 0
0 5 0 0 2 0 0 10 5 0 0 0 4 4 5
0 0 0 1 2 0 0 0 0 6 12 17 12 3 2
7 8 15 5 9 0 0 0 0 0 0 0 7 2 0
0 4 0 0 0 0 0 0 0 10 3 0 2 15 0
9 15 0 0 0 0 0 0 0 0 0 0 6 8 16
35 37 28 23 20 22 0 0 0 0 0 0 0 0 0
24 20 20 24 33 25 0 0 0 0 0 0 0 0 0
0 0 0 0 0 0 0 0 0 8 0 7 8 7 8
0 0 0 0 0 0 0 0 0 0 0 0 0 0 0
0 5 3 103 98 101 120 115 117 59 55 49 0 0 0
0 0 0 0 0 0 10 11 16 0 6 0 0 0 0
0 0 0 0 0 0 0 8 1 8 17 6 0 13 0
0 0 0 0 0 0 0 0 0 0 4 6 32 36 41
52 51 58 66 58 69 76 84 79 0 1 4 28 27 33
29 23 35 17 19 31 0 0 0 0 0 0 0 0 4
81 78 86 82 77 94 32 34 38 0 0 0 40 40 30
37 37 39 0 0 0 0 0 0 0 0 0 0 0 0
0 0 0 0 0 0 0 0 0 0 0 0 0 0 0
0 0 0 0 0 0 0 0 0 10 10 0 8 17 21
18 7 12 27 20 23 23 16 12 9 2 13 0 0 0
5 0 0 0 0 0 0 0 0 0 0 0 2 4 0
0 0 0 0 0 0 0 0 0 0 0 0 5 8 2
4 1 7 0 0 0 10 0 4 2 0 0 8 4 0
12 10 0 15 1 4 0 5 0 0 0 0 13 6 7
0 0 4 7 2 15 3 0 0 0 0 0 0 0 0
0 0 0 0 1 0 15 11 14 0 0 0 4 0 0
10 4 17 0 8 1 8 0 8 6 8 1 20 4 18
13 9 7 0 0 0 1 8 0 25 17 20 18 26 13
3 9 6 0 2 3 17 22 22 57 43 45 40 46 42
26 40 28 6 8 9 0 0 0 0 0 0 0 0 0
0 0 0 0 0 0 0 0 0 0 0 0 0 0 0
0 0 0 0 0 0 0 0 0 0 0 0 0 0 0
0 0 0 0 0 0 0 0 0 0 0 0 0 0 0
0 0 0 0 0 0 4 1 0 0 3 0 0 0 5
0 0 6 3 3 9 0 0 2 0 0 5 2 2 0
5 5 0 0 0 0 0 0 0 0 0 0 0 0 0
0 0 0 0 0 0 0 0 0 0 0 0 0 0 0
1 0 0 0 0 0 0 0 0 3 0 0 0 0 0
0 0 0 0 0 0 0 0 0 2 0 0 0 0 0
0 0 0 1 0 0 0 0 0 0 0 0 0 0 0
8 0 9 0 0 9 0 3 0 0 0 0 0 1 0
0 0 0 0 0 0 0 0 0 13 11 0 0 3 0
0 0 0 0 3 5 2 7 11 0 4 0 0 0 6
2 5 6 6 0 0 2 0 0 0 0 0 0 0 0
0 0 0 0 0 0 0 0 0 1 1 0 3 3 0
0 0 0 0 0 0 2 2 0 0 0 0 0 0 0
3 0 0 0 3 0 0 0 0 0 2 0 0 0 0
0 0 0 1 0 0 0 5 0 0 4 7 2 5 0
3 5 6 0 0 0 2 0 0 0 7 0 8 10 8
24 17 11 12 14 15 21 25 2 0 0 0 0 0 0
0 1 0 0 0 0 0 0 0 0 0 0 10 7 7
0 0 0 63 53 68 10 10 0 0 0 0 0 0 0
3 4 0 14 20 0 44 29 21 29 25 11 0 0 0
0 9 6 38 21 28 23 39 28 28 12 23 0 0 0
0 0 0 0 0 0 0 0 0 0 0 0 20 3 0
32 30 35 35 39 33 24 21 15 2 0 0 0 0 0
0 0 0 0 0 0 0 0 0 45 45 45 76 81 83
72 73 76 7 5 9 0 0 0 0 0 0 0 0 0
0 0 0 0 0 0 0 0 0 0 0 0 0 0 0
0 0 0 24 21 32 0 2 10 0 0 0 0 0 0
6 0 5 0 2 1 0 0 0 0 0 0 0 0 0
0 0 0 0 0 0 0 0 0 0 0 0 0 0 0
0 0 0 0 0 0 29 27 31 40 44 35 13 14 5
16 16 16 53 53 49 23 26 23 0 0 0 0 0 0
0 0 0 0 0 0 0 0 0 0 0 0 0 0 0
0 0 0 5 0 10 21 21 22 35 28 26 41 34 24
40 30 38 37 39 39 26 30 20 28 28 22 12 8 18
0 0 0 0 0 0 0 0 0 0 0 0 0 0 0
0 0 0 0 0 0 0 0 2 0 0 0 0 0 0
0 0 0 7 4 6 18 21 12 0 0 0 0 4 7
2 6 13 9 13 13 17 14 27 4 0 7 0 0 0
6 15 4 0 0 0 2 6 16 0 0 0 0 0 0
0 0 0 0 0 0 0 0 0 1 8 11 0 0 0
0 0 0 0 0 0 0 0 0 9 7 3 17 7 12
9 0 4 0 0 0 0 2 1 0 0 0 0 0 4
0 3 0 0 0 0 0 0 0 8 0 0 12 14 7
17 16 20 24 34 19 24 16 27 6 5 0 0 0 0
0 0 0 0 0 0 26 29 18 0 0 0 1 9 0
3 0 0 3 1 0 3 2 0 3 3 0 3 3 0
6 6 0 0 0 0 3 3 0 3 3 0 3 3 0
3 3 0 3 3 0 3 3 0 7 5 0 0 0 0
2 3 0 0 0 0 0 0 0 4 4 0 0 0 0
0 0 0 3 3 0 0 0 0 0 0 0 0 0 0
0 0 0 0 4 0 0 3 0 0 3 0 0 0 0
8 11 0 2 5 0 0 3 0 0 0 0 3 6 0
0 3 0 0 1 0 8 11 0 0 3 0 5 8 0
0 1 0 1 4 0 4 7 0 0 1 0 1 4 0
0 1 0 2 7 3 4 0 0 10 0 0 6 1 0
12 6 0 9 2 0 9 0 0 0 0 0 7 10 0
3 6 0 0 0 0 2 6 0 0 0 0 0 0 0
0 3 8 0 4 5 8 1 0 0 0 1 0 0 2
0 0 1 0 0 2 0 0 1 0 0 2 4 3 5
0 0 1 6 5 5 0 0 0 5 4 2 0 0 0
5 4 0 2 0 0 0 8 0 1 1 0 0 0 0
0 0 0 0 4 0 0 0 0 0 0 0 0 0 0
0 0 0 0 6 7 0 3 0 0 0 0 0 0 0
0 0 0 0 13 0 0 5 0 0 0 0 0 0 0
0 0 0 0 0 0 0 0 0 0 0 0 0 0 0
0 0 0 0 0 0 36 40 44 2 6 0 0 0 0
0 0 0 0 0 0 0 4 0 11 0 8 4 8 0
0 0 0 1 15 4 35 30 28 39 58 38 82 77 81
73 72 70 0 1 0 0 0 0 0 0 0 12 14 0
0 0 0 0 0 0 0 0 0 0 0 4 11 19 17
24 16 17 45 45 41 0 0 0 0 0 0 0 0 0
1 6 3 47 43 40 18 24 21 7 7 3 0 0 0
0 0 0 0 0 0 0 0 0 0 0 0 0 0 0
0 0 0 0 0 0 0 0 0 0 0 5 0 0 0
0 0 0 1 1 8 4 1 9 0 0 0 0 0 0
18 10 22 5 21 6 10 10 29 11 18 11 0 0 0
0 0 0 0 0 0 0 0 0 12 11 17 55 51 63
51 53 55 27 27 23 39 39 33 32 35 32 0 0 0
0 0 0 0 0 0 0 0 0 0 0 0 0 0 0
0 0 0 9 0 0 41 40 53 79 72 79 90 96 90
73 78 64 51 50 55 25 31 31 57 59 51 49 33 31
27 24 29 5 3 7 0 0 0 0 0 0 4 0 14
15 13 26 0 0 0 0 0 0 0 0 0 0 0 0
0 0 0 0 0 0 12 4 3 28 26 34 0 0 0
0 0 0 15 9 12 30 35 25 43 28 42 43 39 42
42 39 31 64 50 44 37 39 41 46 46 54 29 13 12
0 0 0 0 0 0 0 0 0 0 0 0 4 11 0
0 0 0 0 0 0 0 0 0 14 5 3 17 16 30
14 19 15 17 0 12 0 0 0 8 7 9 0 3 0
0 0 0 0 0 0 0 0 0 0 0 0 0 0 0
0 0 0 0 0 0 23 19 13 24 19 25 0 0 0
0 0 0 0 0 0 2 9 0 54 54 45 0 0 0
0 0 0 0 0 0 0 0 0 0 0 0 0 0 0
0 0 0 0 0 0 0 0 0 0 0 0 0 0 0
0 0 0 0 2 0 0 7 0 4 10 0 8 10 12
2 0 0 0 0 0 0 2 2 0 0 0 0 0 0
0 0 0 0 0 0 0 0 0 0 0 0 0 0 0
0 0 0 0 0 0 0 0 0 0 0 0 0 0 0
0 0 0 0 0 0 0 0 0 0 0 0 0 0 0
1 1 0 0 0 0 0 0 0 0 0 0 0 0 0
0 0 0 0 0 0 0 0 0 0 0 0 0 0 0
0 0 0 0 0 0 12 0 0 0 0 0 0 0 0
0 0 0 0 0 0 0 0 0 0 0 0 0 0 0
0 0 0 0 0 0 0 0 0 0 0 0 0 0 0
0 0 0 0 0 0 0 0 0 0 0 0 0 0 0
0 0 0 0 0 0 0 0 0 0 0 0 0 0 0
0 0 0 0 0 0 0 0 0 0 0 0 0 0 0
0 0 0 0 0 0 0 0 0 0 0 0 0 0 0
0 0 0 0 0 0 0 0 0 0 0 0 0 0 0
0 0 0 0 0 0 12 7 0 0 0 0 0 0 0
0 0 0 0 0 0 0 0 0 0 0 0 0 0 0
0 0 0 0 0 0 0 0 0 0 1 0 0 0 0
6 3 0 19 11 14 16 14 10 0 0 0 0 0 0
5 0 0 10 13 10 15 3 14 2 7 0 0 0 0
0 0 0 0 0 0 23 26 10 87 85 94 111 110 113
152 147 146 131 132 129 0 0 0 0 0 0 0 0 0
0 0 0 0 0 0 0 0 0 0 0 0 1 4 0
9 15 0 7 6 0 40 44 22 16 13 1 0 0 0
0 0 0 0 0 0 2 0 0 37 43 47 82 96 97
0 0 0 0 0 0 2 0 7 13 8 15 14 8 16
10 4 11 4 0 5 27 22 20 0 0 0 0 0 0
14 11 8 2 0 0 0 0 0 0 0 0 0 0 0
0 0 0 8 9 10 7 4 6 13 1 8 16 18 17
0 0 0 0 0 0 0 0 0 0 0 0 0 0 0
0 0 0 72 75 72 7 7 1 0 0 0 36 39 38
104 101 109 151 151 148 164 164 172 133 133 140 85 89 88
76 70 79 90 86 86 81 80 73 36 38 51 11 7 4
0 0 0 0 0 0 0 0 0 0 0 0 0 0 0
0 0 0 0 0 0 0 0 0 7 16 13 10 12 8
0 0 7 0 0 0 0 0 0 0 0 0 0 0 0
0 5 0 0 0 1 0 12 6 14 10 4 5 10 12
16 14 6 22 18 18 23 29 25 32 23 18 7 16 19
0 0 0 0 0 0 0 0 0 0 0 0 0 0 0
0 0 0 0 0 0 0 0 0 14 7 0 6 11 8
0 0 0 0 6 0 0 0 0 0 0 0 0 0 0
0 0 0 1 6 0 22 1 8 7 0 16 5 15 0
0 0 0 0 0 0 0 0 0 1 4 10 25 11 14
20 11 19 29 10 17 0 0 0 0 0 0 38 35 33
96 92 83 26 28 16 0 0 0 0 0 0 1 0 0
0 5 0 9 4 0 10 1 0 17 9 0 13 6 6
20 14 4 18 12 16 20 16 11 5 0 2 0 0 0
2 0 6 0 0 0 0 0 0 0 0 0 0 0 0
0 0 0 1 3 0 4 2 2 0 0 0 2 0 0
6 3 2 0 0 0 3 0 0 5 2 0 7 4 0
9 6 0 9 5 0 9 4 0 9 3 0 9 3 0
9 3 0 4 0 0 7 11 0 0 0 0 5 5 0
2 2 0 0 0 0 5 5 2 2 2 0 0 0 0
34 34 29 16 16 10 20 20 14 17 17 10 7 7 0
5 5 0 9 11 0 0 0 0 32 23 25 16 17 9
8 8 7 0 0 0 0 0 0 0 0 0 0 0 0
0 0 0 28 26 21 25 29 13 16 0 6 0 0 0
6 0 0 24 28 21 33 20 32 0 0 0 41 47 38
24 26 10 24 25 33 24 26 12 24 25 33 24 26 12
24 25 33 30 32 18 28 29 37 28 30 16 26 27 35
26 28 14 26 27 35 25 27 13 22 24 28 30 26 21
9 15 14 23 24 15 14 20 9 24 10 4 15 4 1
14 5 6 1 2 0 2 6 0 0 0 0 0 0 0
0 0 0 0 0 0 0 0 0 0 0 0 12 5 0
0 2 0 2 12 0 0 1 0 4 1 0 0 3 0
1 1 0 0 0 0 0 0 0 0 0 0 0 0 0
0 0 0 0 0 0 0 0 0 0 0 0 0 0 0
0 0 0 0 0 0 0 0 0 0 0 0 0 0 0
0 0 0 21 23 11 154 129 145 132 134 128 90 85 81
0 0 0 0 0 0 0 0 0 27 27 0 0 0 0
0 0 0 0 0 0 0 0 0 0 0 0 0 0 0
0 0 0 0 0 0 0 0 0 0 0 0 0 0 0
0 0 0 69 58 59 42 45 38 37 34 31 11 17 11
1 5 2 0 0 0 0 0 0 30 34 28 0 0 0
0 0 0 0 0 0 0 0 0 0 0 0 0 0 0
0 0 0 0 0 0 0 0 0 0 0 0 0 0 0
0 0 0 0 0 0 0 0 0 14 9 30 0 0 0
0 0 0 24 21 22 97 100 96 27 27 23 8 8 8
36 39 24 53 50 60 56 56 53 52 52 58 45 45 47
41 43 50 65 72 76 0 0 0 24 16 11 15 3 19
6 10 8 2 1 3 2 0 0 10 0 10 0 0 0
13 23 15 0 11 2 8 0 8 0 0 0 6 4 3
20 13 10 4 0 21 0 0 0 0 0 0 1 0 0
0 0 5 0 0 0 0 0 0 0 3 0 5 0 7
6 9 7 2 0 5 11 6 0 14 17 7 20 20 11
19 30 23 4 5 1 3 0 0 3 5 0 0 0 12
2 11 8 0 0 0 0 0 0 0 2 0 1 0 0
6 5 0 0 1 0 11 14 0 0 0 0 0 0 0
0 0 0 14 0 15 9 6 10 22 12 30 17 3 18
16 14 0 0 1 2 0 0 0 0 0 0 0 1 0
15 11 15 6 6 0 18 14 1 4 0 0 0 0 0
25 17 13 56 54 54 0 0 0 0 0 0 0 0 0
2 4 0 2 7 1 0 0 0 0 0 0 1 1 0
0 0 2 2 2 0 0 0 5 0 1 0 15 12 16
15 15 5 17 17 17 24 24 18 18 19 8 16 18 19
16 15 13 13 2 10 0 2 0 1 1 1 0 0 0
0 0 0 1 1 5 0 0 2 0 0 0 0 0 0
0 0 0 0 0 0 0 0 0 0 0 0 0 0 0
0 0 0 0 0 0 0 0 0 0 7 0 0 0 0
0 1 6 0 0 4 0 0 0 0 0 6 0 0 3
0 0 0 20 23 29 0 0 3 0 3 9 0 1 7
0 1 7 0 0 6 0 0 2 0 0 2 5 0 0
0 0 0 0 1 0 3 9 0 13 19 5 18 23 9
23 27 14 15 24 7 0 0 0 0 2 0 34 41 41
31 41 28 20 30 17 12 17 18 0 2 2 0 0 0
15 22 16 3 3 0 3 3 1 3 3 0 3 3 1
3 3 0 3 3 1 7 7 3 0 0 0 3 3 0
3 3 1 0 0 0 0 0 0 0 0 0 0 0 0
8 4 0 0 0 0 0 0 0 8 0 11 0 4 0
0 0 5 0 0 0 0 0 0 0 5 4 0 0 0
0 0 0 0 0 0 0 0 0 0 0 0 0 0 0
0 0 0 0 0 0 0 0 0 0 4 6 0 0 14
0 6 6 0 0 0 3 9 0 10 9 0 0 0 0
13 8 0 6 14 0 8 16 4 16 25 15 25 18 24
21 25 12 9 16 20 9 21 23 8 0 2 0 0 0
0 0 0 5 0 0 0 0 0 111 112 115 166 170 169
255 255 251 0 0 0 0 0 0 0 0 0 0 18 0
0 0 0 0 0 0 0 0 0 0 0 0 0 0 0
0 0 0 0 0 0 0 0 0 0 0 0 0 0 0
0 0 0 0 0 0 32 28 40 0 6 0 0 0 14
9 10 0 12 0 20 14 12 0 22 9 30 45 41 33
2 0 0 21 15 9 16 8 2 5 13 7 7 8 4
7 3 1 7 0 0 9 10 3 0 0 0 0 0 0
0 0 0 0 0 0 0 0 0 0 0 0 0 0 11
0 0 0 0 0 0 9 6 13 96 99 96 34 34 34
0 0 0 23 25 19 28 24 42 9 8 11 0 0 0
0 0 0 0 0 0 4 7 16 0 0 0 0 0 0
0 0 1 0 0 0 0 0 0 0 0 0 0 0 0
0 0 0 8 7 0 0 0 0 0 0 0 0 0 0
0 0 0 2 9 0 7 16 29 11 10 16 0 6 0
6 0 0 5 17 7 13 12 0 1 13 0 0 3 0
2 0 0 0 1 0 0 0 0 0 0 0 4 0 0
9 2 1 13 1 14 0 0 0 0 0 0 0 0 0
0 0 0 0 0 1 0 0 0 0 0 0 1 0 0
0 4 0 0 0 0 0 0 0 12 14 0 0 0 0
0 0 0 0 0 0 8 2 5 9 10 0 14 8 20
1 0 6 17 25 1 10 2 4 0 0 0 0 0 0
5 2 0 14 2 10 21 9 8 20 11 9 9 4 3
0 0 0 26 15 15 59 50 55 0 0 0 0 0 0
0 0 0 5 8 0 0 3 0 1 4 4 1 1 1
0 0 0 3 3 9 0 0 0 0 0 2 3 7 0
0 0 0 7 7 9 7 8 17 11 13 13 11 15 7
6 2 14 3 0 9 4 0 0 0 3 0 0 0 0
0 0 0 1 1 5 0 0 0 0 0 0 1 1 0
0 0 0 0 0 0 0 0 0 0 0 0 0 0 0
0 0 0 0 0 0 0 0 0 0 0 0 8 7 0
0 0 0 0 0 0 0 3 0 0 0 0 2 5 0
1 1 0 0 0 0 28 28 21 1 4 0 8 8 1
3 6 0 2 2 0 7 10 2 1 6 0 0 9 0
1 2 0 5 0 0 0 0 0 0 0 0 0 0 0
10 6 14 11 8 9 5 10 1 49 35 34 20 15 1
0 0 0 0 0 0 0 0 0 0 0 0 0 0 0
0 2 2 0 8 0 0 0 0 0 0 0 0 0 0
0 0 0 0 0 0 0 0 0 1 1 1 0 0 0
0 0 0 3 3 3 0 0 0 0 0 0 0 0 0
0 0 0 5 3 3 1 0 0 4 1 0 4 3 17
0 0 0 5 0 15 6 0 0 0 0 0 0 0 0
8 0 5 0 0 0 0 0 0 0 0 0 2 6 0
0 0 0 0 2 0 14 5 8 0 0 0 0 0 0
0 0 0 0 0 0 0 0 0 0 0 0 0 0 0
0 0 0 0 3 0 0 0 0 2 0 0 0 0 0
0 0 14 2 0 2 0 8 23 0 10 6 0 0 0
0 0 0 0 0 0 0 0 0 0 0 0 0 0 0
69 57 66 213 188 204 149 139 143 0 0 0 0 0 0
15 26 7 44 29 33 11 13 2 0 12 0 0 0 0
0 0 0 0 0 0 0 0 0 0 0 0 0 0 0
0 0 0 0 0 0 0 0 0 7 11 13 0 0 0
3 0 5 0 2 0 0 0 11 9 22 1 10 12 25
19 30 17 37 46 40 39 48 42 28 33 28 29 30 26
24 16 15 8 13 5 10 6 1 7 18 12 0 0 0
0 0 0 1 0 5 0 3 0 2 2 4 0 0 0
0 0 0 0 0 0 0 0 0 0 0 0 87 90 91
49 48 39 0 0 0 18 17 8 19 21 26 0 0 0
0 0 0 0 0 0 0 0 0 0 0 0 0 0 0
0 0 0 0 0 0 0 0 0 0 0 0 0 0 0
0 0 0 0 0 0 0 0 0 0 0 0 0 0 0
0 0 0 0 0 0 0 1 0 11 8 30 11 5 15
19 17 15 23 7 0 17 23 24 18 9 18 6 8 10
0 9 0 0 0 0 0 0 0 0 0 0 0 0 0
2 0 0 0 10 0 0 7 0 0 0 0 0 0 0
0 2 0 0 0 0 0 0 9 0 0 0 0 0 0
0 0 0 2 0 0 0 0 0 0 0 0 0 17 0
0 0 0 0 0 0 0 0 0 0 0 0 0 3 10
17 11 14 1 0 16 27 16 15 2 0 0 0 0 2
0 0 0 0 1 0 9 0 7 20 7 2 22 18 8
14 0 1 0 0 0 12 13 9 65 48 58 0 1 0
0 0 0 0 0 0 11 14 9 5 11 8 0 3 3
0 0 0 6 6 0 3 3 7 0 1 0 6 9 7
4 1 3 0 0 0 0 0 0 0 0 0 0 0 0
0 0 0 0 0 0 0 0 2 0 0 0 0 0 0
3 5 0 0 0 0 0 0 6 3 3 0 0 0 0
0 0 2 0 0 0 9 9 5 3 2 2 3 0 6
3 7 0 3 5 0 3 4 0 3 3 0 0 2 1
0 1 2 0 0 2 11 0 8 0 4 5 4 0 1
0 6 7 7 0 4 0 0 0 26 12 23 0 11 12
9 0 6 0 10 11 9 0 6 0 10 11 4 0 2
0 0 0 23 14 11 1 0 4 0 0 0 0 0 0
0 0 0 0 0 0 0 0 0 0 0 0 0 0 0
0 0 0 0 0 0 0 0 0 0 0 0 0 0 0
0 0 5 18 6 12 0 0 0 0 2 0 0 0 6
0 0 6 0 0 6 0 0 6 0 0 6 3 3 9
0 0 4 4 4 10 2 2 8 3 3 9 0 0 3
0 0 5 0 0 3 2 1 12 3 1 0 4 1 2
3 0 1 1 1 0 7 1 0 4 3 0 2 3 1
0 0 0 8 11 8 4 8 0 8 3 22 3 6 1
1 2 5 0 0 3 1 2 3 13 11 1 0 0 0
0 0 3 0 0 0 0 0 0 0 0 0 0 0 0
0 0 0 0 0 0 6 0 0 0 0 0 0 0 0
0 0 0 0 0 0 0 0 0 0 6 8 0 0 0
13 0 0 42 15 25 16 1 13 0 0 0 0 0 0
0 0 0 0 0 0 0 0 0 240 230 233 19 21 19
0 0 0 25 27 21 37 45 46 39 37 45 28 41 40
0 1 4 47 45 46 30 37 24 14 20 14 20 25 22
19 21 22 25 24 29 24 19 28 11 4 0 12 3 3
8 0 0 0 0 0 0 0 0 0 0 0 0 0 0
0 0 0 0 0 0 20 16 15 14 8 7 12 4 3
3 11 1 7 6 0 0 12 0 0 6 0 7 12 0
6 0 0 11 19 7 17 20 10 12 12 3 4 4 0
0 0 0 0 0 0 0 0 0 0 0 0 0 0 0
79 81 72 42 39 41 9 13 2 50 55 35 60 59 62
23 27 18 0 0 0 0 0 0 0 0 0 58 52 66
0 0 0 0 0 2 0 0 1 0 0 0 0 0 0
0 0 0 0 0 0 1 2 0 0 0 0 0 0 0
0 0 0 0 0 0 0 0 0 0 0 0 2 12 13
0 1 9 36 22 25 24 13 0 17 18 21 18 24 16
9 15 1 0 0 0 0 0 0 0 0 0 11 0 3
7 0 2 13 4 6 8 2 4 3 0 9 0 0 0
0 0 0 0 6 0 0 0 0 0 0 0 0 0 0
0 0 0 0 0 0 0 1 0 0 0 0 0 0 0
0 1 0 2 0 0 5 1 0 0 0 0 3 0 0
3 2 4 2 1 0 0 8 8 8 4 0 0 6 0
0 2 0 0 0 0 0 0 0 0 1 1 12 9 12
25 21 23 19 10 23 0 0 0 10 15 8 56 40 48
0 0 0 0 0 0 0 0 0 8 5 4 3 5 3
0 0 0 6 6 4 3 3 0 0 0 0 5 7 9
2 0 6 3 2 0 12 12 10 9 11 11 2 0 10
0 0 0 0 0 0 0 0 0 8 8 18 26 17 32
0 0 0 0 3 0 3 3 3 0 0 3 0 0 0
3 3 5 0 0 0 0 0 0 14 13 15 3 0 9
3 6 0 3 4 3 3 3 9 3 3 0 1 4 0
0 9 0 6 0 0 2 0 0 8 0 0 2 4 0
10 0 0 0 0 0 13 2 0 0 0 0 11 0 0
0 0 0 8 0 0 0 1 0 4 0 0 0 0 0
5 0 0 0 0 0 16 15 18 1 4 0 0 0 0
0 0 0 0 0 0 0 0 0 0 0 0 0 0 0
0 0 0 0 0 0 10 1 3 91 87 85 110 107 103
77 74 71 23 14 28 4 0 19 0 0 0 0 3 0
0 0 0 0 0 0 0 0 0 0 0 0 0 0 0
3 3 0 0 0 0 3 3 0 0 0 0 1 1 0
3 3 0 0 0 0 0 0 0 2 0 5 0 0 0
5 8 4 1 4 2 5 9 5 0 3 0 0 9 1
2 0 0 0 0 0 20 20 16 5 6 0 8 9 16
4 5 0 2 2 0 0 0 0 1 1 0 20 16 21
0 0 0 0 0 0 0 0 0 0 0 0 0 0 0
0 0 0 0 0 0 0 0 0 8 12 0 0 0 0
0 0 0 0 2 0 0 0 0 0 1 0 0 9 0
1 7 0 22 19 6 43 53 25 38 33 17 40 46 31
66 63 63 0 0 0 0 0 0 0 0 0 130 122 122
0 0 0 0 0 0 0 0 0 0 0 0 1 0 0
18 13 14 0 0 0 30 32 37 16 17 15 12 12 15
17 17 25 15 24 10 11 20 11 3 12 5 0 0 0
0 6 6 0 0 0 0 0 0 0 0 0 0 0 0
0 0 0 0 0 0 0 0 0 0 0 0 0 0 0
0 0 0 0 0 0 0 0 0 0 0 4 0 0 0
10 16 8 0 0 0 0 0 3 0 0 0 0 0 0
4 4 1 0 0 0 0 0 0 0 0 0 0 0 0
0 0 5 69 70 69 39 43 29 0 0 0 34 37 29
58 55 51 25 28 26 0 0 0 0 0 0 0 0 0
32 26 35 0 0 0 0 6 11 6 0 0 1 1 3
4 2 0 0 0 9 8 0 0 8 24 17 0 0 0
0 0 4 0 0 0 0 0 0 0 0 0 0 0 0
5 6 16 0 8 0 35 20 25 7 10 0 18 14 20
16 18 14 1 3 3 0 0 0 0 0 0 0 0 0
16 0 7 0 7 3 13 3 5 5 0 1 2 11 0
0 1 6 0 0 0 11 12 3 0 0 0 0 0 0
0 0 0 0 2 0 5 0 0 0 5 0 0 0 0
0 0 0 0 0 0 0 1 0 0 2 0 0 0 0
0 0 0 0 0 0 3 0 13 14 6 12 0 1 8
0 4 0 0 0 0 0 0 0 0 0 0 0 0 0
21 6 7 28 18 16 26 14 24 0 0 0 8 3 13
46 45 44 0 0 0 0 0 0 0 0 0 0 13 6
1 7 6 1 2 0 0 0 0 0 0 0 3 3 13
0 2 0 5 2 4 11 11 15 0 0 0 0 0 0
0 0 0 0 0 0 0 0 0 0 0 0 0 0 0
2 0 2 0 6 0 0 2 0 2 2 2 5 5 11
0 0 0 2 2 5 5 5 2 0 0 0 23 20 29
12 15 6 12 13 12 12 12 18 12 12 6 12 12 12
8 13 16 20 9 18 3 0 0 0 2 0 0 0 0
0 6 3 0 2 0 0 8 5 0 5 2 0 4 1
0 0 0 0 0 0 0 0 0 0 0 0 0 0 0
0 0 0 0 0 0 0 0 0 0 0 0 0 0 0
0 0 0 11 17 26 39 31 28 54 50 64 80 79 91
51 53 60 83 87 86 128 138 130 189 185 186 135 136 140
40 42 42 0 0 3 0 0 9 0 0 11 0 3 0
0 4 0 3 0 9 3 0 9 3 0 9 3 0 9
3 0 9 5 2 11 0 0 4 3 0 9 0 0 6
0 0 6 2 0 8 3 0 9 3 0 11 7 7 2
0 0 0 11 2 0 3 0 6 2 0 0 7 4 12
3 7 8 12 2 10 1 0 1 13 7 10 6 2 8
6 4 6 7 7 8 1 1 4 3 3 6 3 3 4
12 8 11 0 0 0 0 2 3 0 5 0 0 0 0
4 0 3 0 0 0 0 0 0 0 3 0 0 0 0
0 0 0 0 0 0 0 0 0 0 0 0 0 0 0
0 0 0 0 0 0 0 0 0 0 0 0 0 0 0
0 0 0 24 25 14 9 0 0 0 0 0 0 0 0
15 8 12 0 0 0 15 16 13 0 0 0 0 0 0
1 0 1 17 17 26 17 22 17 0 0 0 0 0 0
0 0 0 0 0 0 0 0 0 0 0 0 0 0 0
0 0 0 0 0 0 0 0 0 0 0 0 0 0 0
0 0 0 5 0 10 7 7 0 27 32 17 0 0 0
0 0 0 0 0 0 6 0 0 0 0 0 11 10 1
12 22 20 27 30 25 0 0 0 13 9 0 0 3 11
5 6 0 0 0 0 0 0 0 6 2 18 11 9 21
0 0 0 6 3 17 70 71 52 24 28 14 0 0 0
14 17 2 44 41 41 18 21 24 0 0 0 0 0 0
0 0 0 0 0 0 0 0 0 4 9 9 12 4 12
7 6 0 10 8 0 1 5 0 13 5 0 6 23 0
0 0 0 0 0 0 0 0 0 0 0 0 0 0 0
0 0 0 7 7 0 3 11 0 38 12 9 11 4 0
10 0 7 2 0 0 0 1 0 0 0 0 0 0 0
0 11 0 26 0 1 8 3 0 19 0 0 15 0 0
3 0 0 0 0 4 0 0 0 10 16 13 0 0 0
0 4 0 1 0 0 0 2 0 0 5 16 0 6 9
0 5 2 0 0 0 0 0 0 0 2 0 5 3 0
2 0 0 0 0 0 0 0 0 6 0 6 10 15 5
6 0 0 0 0 0 2 0 0 0 0 0 0 0 0
0 0 0 29 1 0 35 23 7 28 9 14 0 0 0
5 0 0 51 37 40 0 0 0 0 0 0 0 0 0
0 5 1 0 2 2 0 1 0 0 0 6 3 5 0
0 1 5 0 0 0 1 1 0 10 14 6 0 0 0
0 0 0 0 0 0 4 11 3 8 17 7 0 0 3
0 0 0 0 0 0 0 7 0 0 7 0 3 6 5
0 1 3 0 4 0 0 8 5 0 1 0 0 0 0
1 13 0 0 4 0 0 3 4 0 3 0 0 3 0
0 3 2 0 4 0 0 5 0 2 7 5 11 0 0
6 0 0 12 3 0 8 0 0 5 0 0 11 2 0
11 2 0 4 0 0 5 0 0 3 0 0 10 1 0
9 0 1 8 0 2 7 0 0 6 0 0 0 0 0
0 0 0 0 0 14 2 11 10 28 15 34 40 41 54
62 57 73 7 6 21 217 200 232 195 182 208 152 143 171
5 0 18 0 0 0 0 0 0 0 0 0 4 0 19
0 7 0 0 8 0 0 3 0 0 3 0 0 3 0
0 3 0 0 3 0 0 4 0 0 5 0 5 9 0
3 6 0 3 6 0 4 7 0 0 0 0 3 5 0
11 8 13 0 0 0 0 2 0 0 2 1 0 9 0
2 0 4 4 3 5 3 4 5 0 0 0 0 5 0
0 2 4 5 0 7 2 0 5 0 0 3 7 4 10
4 1 7 0 0 6 15 15 8 12 9 11 11 10 16
3 11 1 12 1 6 12 18 2 8 16 9 12 8 5
0 0 0 0 0 0 0 0 0 0 0 0 0 0 0
0 0 0 0 0 0 0 0 0 0 0 0 0 0 0
0 0 0 0 0 0 0 0 0 0 0 0 0 0 0
0 0 0 0 0 0 0 0 2 15 17 19 21 25 29
6 19 7 0 13 0 5 6 3 30 47 49 0 0 0
0 0 0 0 1 0 0 9 2 0 0 0 0 0 0
0 0 0 0 0 0 9 17 12 0 0 0 0 0 0
0 1 0 0 0 0 0 1 0 5 8 0 30 29 30
0 0 0 0 0 0 0 0 0 0 4 1 5 9 3
6 4 0 7 9 14 20 13 18 7 14 12 18 21 15
12 14 26 15 16 10 0 0 6 0 0 0 26 10 25
47 54 54 28 18 24 81 73 83 120 118 103 46 40 31
8 8 0 53 53 34 81 73 73 40 36 32 0 0 0
0 0 0 0 0 0 53 51 54 0 0 0 0 0 0
10 6 17 3 8 6 12 0 0 0 0 0 0 0 0
1 0 0 0 0 0 0 0 0 0 0 0 0 0 0
0 0 0 0 0 0 7 16 2 27 20 7 27 12 9
6 0 0 4 0 0 0 0 0 0 0 0 0 0 0
0 0 0 2 3 0 3 0 0 9 1 0 18 2 17
9 1 21 3 0 0 0 2 0 0 0 10 5 2 8
0 0 0 0 0 0 0 0 0 0 0 0 0 1 0
0 0 0 0 1 0 0 1 2 0 0 0 0 0 0
0 13 0 0 0 0 0 0 0 0 0 0 16 0 7
25 19 24 4 0 0 9 1 0 7 0 0 0 0 0
3 0 0 9 0 0 19 8 1 27 16 11 24 5 5
0 0 0 13 9 0 51 45 38 0 8 0 0 0 0
0 0 0 0 14 7 0 2 0 0 2 0 0 0 0
0 4 0 0 0 0 0 0 0 0 0 1 3 1 9
0 0 0 0 0 11 17 20 17 7 11 7 10 8 18
11 7 9 0 0 0 0 0 0 0 0 0 0 0 0
0 0 0 0 0 0 0 0 1 1 0 0 0 0 0
0 0 0 0 0 2 0 0 0 0 0 0 0 0 0
0 0 0 0 0 0 0 0 0 0 0 0 18 7 4
11 10 13 7 10 7 12 15 11 7 10 5 2 5 0
7 10 4 5 8 2 3 6 0 0 2 0 1 4 0
0 0 1 0 0 0 0 1 0 4 10 0 1 7 0
12 7 7 0 0 4 0 0 0 0 0 0 0 0 0
0 0 0 0 0 10 0 0 0 0 0 6 13 9 29
16 17 39 0 0 0 0 0 0 27 17 35 33 20 43
0 0 0 11 11 0 0 12 0 3 6 0 3 6 0
6 6 10 0 6 6 9 6 6 0 3 3 0 0 5
0 0 0 0 0 0 0 0 0 0 0 0 0 0 0
0 0 0 3 0 6 0 0 0 0 0 0 0 0 0
0 0 0 0 1 0 2 11 5 4 13 7 3 13 2
0 0 6 0 0 0 0 1 0 0 8 2 0 2 0
0 4 0 0 4 1 0 0 0 23 24 27 20 17 13
20 17 19 16 20 26 24 16 20 7 5 18 0 0 0
0 2 12 41 38 36 30 31 38 26 24 19 22 25 26
7 13 17 0 0 0 0 0 0 0 0 0 0 0 0
0 0 0 0 25 11 0 8 3 0 0 0 0 0 0
0 0 0 0 0 0 0 0 0 0 0 0 0 0 0
0 0 0 13 12 17 0 0 0 0 0 0 0 0 0
0 0 0 2 18 7 58 59 67 64 76 78 46 46 47
18 24 26 14 20 15 16 27 21 72 65 67 39 50 44
31 37 35 12 16 17 1 3 5 0 0 0 0 0 0
16 9 3 0 0 0 8 13 12 19 22 16 16 18 10
21 13 30 16 4 18 0 3 7 11 6 11 0 5 3
7 11 5 12 7 19 16 20 14 0 0 0 15 30 0
51 48 41 21 34 36 0 0 0 0 0 0 35 39 47
63 66 81 59 59 73 0 0 0 19 25 30 85 92 74
63 71 65 0 0 0 0 0 0 0 0 0 0 0 0
0 0 4 0 0 0 0 0 0 0 0 0 0 0 0
0 0 0 1 0 18 32 18 43 0 0 0 0 0 0
0 0 0 0 0 0 0 0 0 12 25 35 0 0 0
0 0 0 29 28 40 20 22 40 0 0 0 0 0 9
0 4 12 0 0 23 27 28 46 11 16 14 12 26 30
12 11 9 0 0 0 0 0 0 0 0 0 0 0 0
7 10 3 0 0 0 0 0 3 2 7 0 16 12 8
7 7 5 6 0 5 0 0 0 17 8 7 0 0 0
0 0 0 0 0 0 0 0 0 5 8 0 0 6 0
0 0 0 0 0 0 4 27 14 0 0 0 0 0 0
0 10 0 0 0 0 0 0 0 0 8 17 42 51 46
54 52 54 15 5 11 0 1 0 8 11 2 3 14 12
0 0 0 0 0 0 0 0 0 2 0 0 3 1 1
4 0 8 0 1 2 5 4 8 0 2 0 1 5 0
13 1 0 1 0 0 0 0 0 16 12 11 188 186 190
151 151 144 17 4 16 0 0 0 45 38 49 44 32 43
23 33 16 31 15 26 6 13 0 10 0 4 4 8 0
5 9 4 20 25 16 0 0 0 4 7 0 2 4 3
6 11 14 28 18 27 23 17 9 31 25 19 34 31 20
9 10 7 9 5 18 3 0 7 0 0 0 5 4 11
4 4 7 0 0 0 0 0 3 0 0 0 12 11 18
24 22 24 26 26 36 19 12 11 3 0 4 0 0 0
0 0 0 21 9 19 17 12 19 23 15 21 24 15 18
0 7 5 0 0 0 0 0 0 0 0 0 0 0 0
0 0 0 0 0 0 0 0 0 0 0 0 0 0 2
6 2 30 7 2 21 2 0 0 0 0 0 0 0 0
1 0 0 5 0 7 0 0 2 11 0 3 0 0 0
17 10 28 16 13 13 13 7 20 13 3 5 13 17 20
11 11 11 16 15 24 15 13 16 0 1 0 0 5 0
4 0 0 0 0 0 0 0 0 0 0 0 0 0 0
0 0 0 9 13 17 15 0 6 3 0 0 11 0 5
4 0 0 13 1 7 19 6 16 19 8 2 8 17 10
0 0 0 0 0 0 0 0 0 4 1 0 12 15 12
8 11 0 0 0 0 0 2 0 0 5 0 24 26 16
32 37 36 39 43 29 45 48 41 69 70 66 83 76 75
68 70 61 55 55 44 52 41 36 40 39 33 48 48 39
40 55 42 40 45 35 31 30 28 16 19 18 12 17 16
11 15 18 0 0 0 1 0 0 0 0 0 9 1 4
0 0 0 52 67 55 8 18 0 0 0 0 0 0 0
0 0 0 0 0 0 0 0 0 0 0 0 0 0 0
0 0 0 0 0 2 12 3 8 16 22 17 24 22 17
10 21 12 21 27 21 9 6 24 6 3 14 0 0 0
0 0 0 0 0 0 0 0 0 0 0 0 3 1 0
0 0 0 0 0 0 0 0 0 0 0 0 0 0 0
4 6 0 10 15 3 0 0 0 0 0 0 0 0 0
0 0 0 0 0 0 58 56 65 0 0 1 22 24 24
54 54 46 89 89 85 73 77 63 11 2 0 0 0 0
0 0 0 0 0 0 0 0 0 0 0 0 1 3 15
14 14 27 8 3 19 3 4 9 27 21 44 0 0 0
0 0 13 3 0 15 0 0 0 8 3 7 45 44 55
22 25 33 0 0 0 9 1 17 0 0 0 0 0 0
0 0 4 8 5 14 0 0 0 0 0 0 0 0 0
0 0 0 0 0 0 0 0 0 0 0 0 0 0 0
9 0 13 22 6 17 0 0 0 0 10 0 1 8 8
3 8 11 4 8 14 3 4 11 2 9 4 9 10 0
0 0 0 0 0 0 0 0 0 0 0 0 0 0 0
0 2 0 0 0 0 0 0 0 28 32 34 0 0 2
0 0 0 0 4 8 0 0 0 0 0 0 3 7 0
28 44 39 41 39 43 13 8 0 0 0 0 20 4 4
0 0 0 0 0 0 0 0 0 12 19 6 0 0 0
0 0 0 2 1 4 5 0 0 0 7 0 0 0 0
11 0 9 0 0 2 0 0 3 0 0 0 0 0 2
98 96 95 59 57 63 0 0 0 0 0 0 0 0 10
9 10 4 1 2 0 8 4 18 0 0 0 0 0 5
0 1 0 5 0 2 10 4 0 0 0 0 0 0 0
0 0 0 0 0 0 0 0 0 0 0 0 0 0 0
0 0 0 0 0 0 0 0 0 0 0 0 0 0 0
0 0 10 0 0 0 0 0 0 0 0 0 0 0 0
0 0 0 0 0 0 0 0 0 0 0 0 3 6 0
1 2 0 10 12 5 0 0 0 4 0 0 0 6 0
6 0 0 0 4 0 2 3 0 0 4 2 0 0 0
12 15 17 2 11 2 3 1 0 0 0 0 8 6 6
0 4 3 7 0 23 0 0 8 3 0 0 6 4 0
0 0 13 4 0 9 1 3 9 5 4 5 0 0 14
0 0 0 4 5 14 1 4 0 5 5 11 4 0 0
0 0 0 0 0 0 4 2 4 0 0 0 9 0 0
0 0 0 0 0 0 0 0 0 0 0 0 0 0 0
0 0 0 0 0 0 20 13 8 3 3 0 0 0 0
0 3 0 0 0 0 3 6 0 0 0 0 12 4 4
0 8 0 0 0 0 0 0 0 0 0 0 5 1 0
11 11 11 8 8 0 3 1 1 0 0 0 0 6 3
10 5 0 13 11 13 2 7 0 4 7 0 2 5 0
8 9 1 21 20 13 12 15 6 20 11 8 12 10 4
9 8 2 0 8 0 13 6 2 2 6 0 9 15 6
8 18 7 16 12 10 13 13 11 14 14 14 10 14 14
32 16 22 0 0 0 33 28 29 0 8 0 3 0 0
0 0 0 6 0 7 4 10 8 11 0 1 15 9 8
0 0 0 10 0 2 0 4 2 11 7 4 0 1 13
8 0 8 0 3 1 10 13 12 0 0 4 7 7 18
2 2 8 7 3 10 0 1 9 0 0 5 2 0 8
6 0 9 6 11 15 4 4 8 8 8 12 0 0 4
0 0 0 0 0 0 0 0 0 0 0 0 0 0 0
0 0 0 0 0 0 0 0 0 33 30 36 0 0 2
0 0 0 0 0 0 9 9 9 82 84 77 53 57 56
34 27 35 0 0 0 0 0 0 0 0 0 0 0 0
0 0 0 3 3 11 0 0 0 0 0 0 0 0 0
0 0 0 0 0 0 0 0 0 0 0 0 7 10 9
22 29 32 3 2 0 10 9 19 33 27 31 0 0 0
0 0 0 75 73 63 88 83 83 6 12 6 0 0 0
0 2 0 11 9 0 7 9 1 0 2 3 10 2 2
0 0 0 0 0 0 0 0 0 0 14 0 0 13 0
9 7 1 14 11 8 9 3 9 5 0 0 12 2 9
7 4 0 12 0 8 0 4 0 0 0 4 0 0 0
0 0 0 0 0 0 0 0 0 0 0 0 17 16 19
0 0 0 0 0 0 0 1 0 0 0 0 0 0 0
0 0 0 29 22 19 35 33 34 3 0 8 0 0 0
0 0 0 0 0 0 0 0 0 0 0 0 26 29 21
0 0 0 0 0 0 0 0 1 3 1 0 0 0 5
0 0 0 6 0 0 0 0 0 0 0 0 0 0 0
24 12 27 62 53 49 10 17 12 0 0 0 0 0 0
2 0 1 0 7 0 6 11 0 5 7 5 4 11 0
15 0 3 6 0 4 0 0 6 0 0 0 16 19 9
2 7 4 12 1 13 2 0 0 4 0 9 0 1 0
0 2 0 10 9 0 9 13 13 28 28 31 23 23 24
0 0 0 0 0 0 0 0 0 0 0 0 0 0 0
0 0 0 0 0 0 0 0 0 0 0 0 0 0 0
6 2 14 9 11 5 27 28 25 0 0 0 3 0 6
0 2 0 6 0 0 0 0 1 3 0 6 0 5 0
0 0 0 9 8 18 0 0 0 3 0 5 0 3 11
10 6 0 0 1 0 1 0 7 0 0 0 2 7 0
0 1 0 4 4 8 1 0 0 0 5 0 0 0 0
0 1 6 1 0 0 1 3 19 0 2 0 3 3 14
1 0 0 0 4 10 4 2 4 0 0 9 0 0 0
33 27 26 9 9 9 9 9 9 9 9 9 9 9 9
9 9 9 9 9 9 6 12 12 6 0 0 0 0 0
0 0 0 0 0 0 0 0 0 0 0 0 1 1 4
7 0 4 0 2 0 0 0 0 3 0 0 0 0 1
12 10 4 17 17 23 21 21 15 27 24 30 0 0 0
5 11 14 13 7 4 12 9 18 4 7 0 7 7 7
4 4 4 6 6 6 23 23 23 10 16 13 16 10 13
16 16 16 11 11 11 8 17 14 21 12 15 9 9 9
26 26 26 18 24 21 31 25 28 24 24 24 27 27 27
21 27 27 42 27 36 13 16 13 25 22 25 0 5 0
3 0 0 0 0 0 5 0 8 0 9 6 6 0 0
13 13 10 0 0 0 1 0 0 0 0 0 0 0 0
0 0 2 0 0 0 0 0 0 0 0 0 0 0 0
0 0 0 0 0 0 0 0 0 0 0 0 0 0 0
0 0 0 0 0 0 14 20 17 8 8 8 4 4 4
0 0 0 0 0 0 0 0 0 0 0 0 0 0 0
0 0 0 2 0 4 36 33 40 18 19 17 27 19 29
56 56 39 63 60 64 0 0 0 0 0 0 18 18 18
29 30 39 69 66 64 0 0 0 0 0 1 0 0 0
0 0 0 0 0 0 0 0 0 0 0 0 0 0 0
0 0 2 0 0 0 0 0 0 1 0 0 12 10 13
27 24 31 21 23 20 11 15 3 0 0 0 0 0 0
0 0 0 0 0 0 86 83 88 100 94 98 0 0 0
0 0 0 0 0 3 6 3 5 0 0 0 0 0 0
1 0 0 0 0 0 0 0 0 0 0 0 0 1 0
0 0 0 0 0 1 0 0 0 0 0 0 0 0 0
0 0 0 0 0 0 4 3 5 8 12 0 11 6 7
0 4 0 3 0 0 0 0 0 0 0 0 0 0 0
10 5 11 0 0 0 0 0 0 0 0 0 0 0 0
0 0 0 0 0 2 25 21 15 13 3 12 0 0 0
0 0 0 0 0 0 0 0 0 0 0 0 0 1 0
12 22 16 0 0 0 2 0 0 0 0 0 0 0 0
0 0 0 0 0 0 5 0 11 0 0 0 0 0 0
0 2 1 42 36 47 20 16 7 0 0 0 0 0 0
0 0 0 0 0 0 0 0 0 0 0 0 0 0 5
0 13 0 0 0 0 0 0 0 0 0 0 0 0 0
16 16 18 0 12 0 11 7 6 12 12 12 7 6 13
11 9 11 5 2 8 11 5 9 0 6 7 0 0 0
0 0 0 0 0 0 0 0 0 0 0 0 0 0 0
44 48 50 29 31 22 29 28 29 0 0 5 0 0 0
9 0 1 17 8 20 17 14 8 23 17 22 0 0 0
5 0 2 0 6 0 6 0 5 0 3 2 4 0 0
0 0 3 2 1 0 0 0 3 0 0 1 2 0 3
0 0 0 0 0 0 0 0 2 5 0 12 0 0 0
13 11 9 0 0 0 2 0 1 0 0 0 0 5 12
0 0 2 3 3 5 0 0 0 1 11 11 3 4 0
4 4 2 0 0 0 0 0 0 0 3 0 0 1 0
0 0 0 46 39 42 15 13 17 15 12 18 15 12 18
15 12 18 15 12 18 15 12 18 17 21 26 4 0 1
3 3 6 3 3 6 0 0 3 0 0 3 1 1 4
0 0 5 0 0 0 0 7 3 0 0 0 0 0 0
0 0 2 7 7 1 19 19 25 17 17 11 10 9 14
0 0 0 0 4 5 10 6 2 7 4 13 4 7 0
0 0 0 3 3 3 4 4 4 3 3 3 0 4 1
1 0 0 0 0 0 0 0 0 0 0 0 0 0 0
0 0 0 0 0 0 1 7 4 3 0 0 0 0 0
0 0 0 0 0 0 14 0 8 0 0 0 26 23 26
0 5 0 0 0 0 0 0 0 6 0 9 0 9 6
6 0 0 10 10 7 0 0 0 7 0 1 0 0 0
0 0 0 0 0 0 0 0 0 0 0 0 0 0 0
0 0 0 0 0 0 0 0 0 4 1 1 0 0 0
0 0 0 0 0 0 0 0 0 6 12 9 3 3 3
0 0 0 0 0 0 0 2 0 0 0 0 0 0 0
0 0 0 7 13 20 40 55 56 74 68 76 68 67 66
0 3 8 67 70 60 133 133 144 115 126 120 70 66 58
40 40 28 33 33 33 81 76 72 21 29 18 28 31 24
0 0 0 0 0 0 0 0 0 1 4 0 0 0 0
0 0 0 0 0 0 0 0 0 0 0 0 0 0 0
0 0 0 0 0 0 0 0 0 0 0 0 0 0 0
0 0 0 0 0 0 0 0 0 32 28 37 52 46 52
0 0 0 0 0 0 0 0 0 0 0 0 0 0 0
0 0 0 0 0 0 0 0 0 0 0 0 0 0 2
0 0 0 0 0 0 0 0 0 0 0 0 0 0 0
0 0 0 0 0 0 0 0 2 0 0 0 0 0 0
6 0 7 0 0 0 7 0 10 0 8 0 8 2 0
0 4 0 0 0 1 0 0 0 0 0 10 0 0 0
0 0 0 0 0 0 0 0 0 12 18 7 0 0 0
0 0 0 5 0 0 0 0 0 0 0 0 0 1 0
0 1 11 0 0 0 0 2 2 0 0 0 0 0 0
0 7 0 2 0 0 4 1 0 0 0 0 0 0 0
0 0 0 44 42 37 54 50 57 0 0 0 0 0 0
0 0 0 0 6 8 3 0 4 0 0 0 0 0 0
0 0 0 0 0 0 0 0 0 0 0 0 0 0 0
0 0 0 0 0 0 0 0 0 0 0 0 0 0 0
0 0 0 0 0 0 0 0 0 0 0 0 0 0 0
0 0 0 0 0 0 0 0 0 2 0 11 55 49 56
119 113 118 231 221 228 1 5 9 40 40 34 6 4 8
0 0 0 2 7 0 1 5 7 0 9 0 0 6 6
0 0 0 0 2 0 1 1 0 9 0 3 0 0 0
0 4 7 0 3 3 8 11 5 0 0 0 0 0 0
0 6 0 0 0 0 6 0 6 0 4 0 0 0 0
0 0 0 11 12 0 1 4 2 0 1 0 0 0 0
1 3 4 2 0 0 0 0 0 6 0 0 0 1 0
0 0 0 0 0 3 7 0 12 0 1 9 2 4 2
1 1 11 0 0 0 34 25 34 6 10 2 6 9 3
6 9 3 6 9 3 6 9 3 6 9 3 6 17 9
8 0 0 4 4 1 2 2 0 0 0 0 0 0 0
0 0 0 0 0 0 0 0 0 18 10 16 0 0 0
0 0 0 0 0 0 0 0 0 0 0 6 0 0 0
0 0 0 3 0 0 0 0 3 6 4 0 2 0 8
0 0 0 0 0 0 0 0 0 0 0 0 0 0 0
0 0 0 0 0 0 0 0 0 0 0 0 0 0 0
0 0 0 1 1 1 0 0 0 0 0 0 0 0 0
0 0 0 0 0 0 0 0 0 0 0 0 0 0 0
30 27 30 0 6 0 0 0 0 0 3 0 5 0 8
0 8 5 6 0 0 6 6 3 0 0 3 11 2 5
0 5 2 4 1 0 0 0 4 0 0 0 0 0 0
0 0 0 0 0 0 0 0 0 0 0 0 10 7 7
3 6 6 5 5 5 0 0 0 0 0 0 0 0 0
0 0 0 0 0 0 0 0 0 23 18 14 0 0 0
0 0 0 0 0 0 4 1 16 14 20 27 16 1 14
0 0 0 0 0 0 0 0 0 0 3 0 27 32 35
46 36 37 26 20 17 26 20 29 59 49 58 22 26 15
41 41 37 33 33 30 65 65 59 92 92 101 85 85 89
27 27 29 0 0 0 0 0 0 2 3 0 0 0 0
0 0 0 0 0 0 0 0 0 0 0 0 0 0 0
22 22 36 20 8 17 0 0 0 0 0 0 94 87 105
99 90 103 0 0 0 0 0 0 0 7 5 0 0 6
0 0 0 0 0 0 5 0 1 15 23 22 20 10 34
23 14 21 5 16 7 0 28 8 18 4 12 0 17 2
22 5 10 0 8 0 7 9 9 15 23 19 0 0 0
0 5 1 0 0 0 0 8 0 6 1 0 3 8 7
4 7 4 21 14 18 0 0 4 5 0 8 0 0 3
6 18 18 0 0 0 0 0 0 0 0 0 0 0 2
7 4 17 0 3 2 1 0 4 0 0 3 0 0 0
9 0 11 10 4 3 0 0 0 17 10 0 3 3 0
0 0 0 3 0 1 0 1 10 0 0 0 0 3 0
0 0 0 0 0 0 48 51 44 56 55 60 0 0 0
0 0 0 2 2 3 10 4 11 0 0 0 0 3 0
0 0 0 0 0 0 0 0 0 0 0 0 0 0 0
0 0 11 0 8 2 0 0 0 0 0 0 0 0 0
0 0 0 0 0 0 0 1 0 0 2 0 0 0 0
13 15 8 25 25 15 29 29 33 46 49 40 59 56 65
75 75 73 85 85 81 164 160 158 0 0 0 0 2 8
0 0 0 0 0 0 0 0 0 0 0 0 0 0 6
9 11 15 0 0 0 2 0 0 6 0 7 0 3 2
0 0 0 1 0 0 4 0 8 17 8 0 0 0 0
4 0 0 0 0 0 0 0 0 0 4 0 7 0 0
6 7 0 0 0 0 16 9 8 5 2 5 3 1 0
7 1 13 0 1 0 0 0 0 0 0 0 5 1 0
0 0 9 0 0 0 0 0 5 5 3 1 0 3 0
0 0 0 3 3 0 0 0 0 16 14 10 0 0 0
0 0 0 0 0 0 0 0 0 0 0 0 0 0 0
0 1 0 6 0 0 4 4 4 0 0 0 0 0 0
0 0 0 1 1 1 4 4 8 0 0 0 19 16 23
3 6 0 0 0 0 0 0 0 0 0 0 0 0 0
0 0 0 0 0 0 14 12 9 0 0 3 0 0 0
0 0 0 0 0 0 0 0 0 0 0 0 0 0 0
14 16 15 0 6 3 6 0 3 3 3 3 4 4 4
0 8 5 12 3 6 18 18 18 0 0 0 0 0 0
0 0 0 0 0 0 0 0 0 0 0 0 0 0 0
0 0 0 21 18 21 0 5 0 0 0 0 0 6 0
4 0 7 6 15 12 6 0 0 0 0 0 2 2 5
16 7 10 0 7 4 11 8 2 0 1 7 4 0 0
0 3 0 5 8 0 0 0 0 0 0 4 0 0 0
4 1 1 1 4 4 1 1 1 1 1 1 8 2 5
0 0 0 0 0 0 0 0 0 0 0 0 0 0 0
0 0 0 0 0 0 3 3 2 32 29 38 18 21 14
0 0 0 0 0 0 0 0 0 0 0 0 0 0 0
0 0 0 0 0 0 0 0 0 0 0 0 14 18 22
13 15 10 15 15 10 22 22 19 56 56 49 94 94 92
94 94 84 60 60 64 40 40 40 73 73 73 125 127 121
104 99 114 53 51 53 41 40 53 15 15 21 29 35 32
40 40 43 110 113 128 127 118 127 47 46 58 19 21 20
142 138 146 133 127 138 35 40 44 72 61 72 94 98 105
85 81 84 42 42 50 15 21 24 24 14 23 15 17 16
23 18 33 16 8 22 26 14 20 12 20 21 25 7 27
10 15 20 16 0 23 10 8 14 18 8 29 28 15 32
16 3 8 8 11 28 28 5 26 11 20 24 28 2 28
16 17 20 17 13 15 25 29 30 15 5 15 11 3 20
24 21 30 30 33 36 8 7 29 0 0 4 0 0 16
0 0 0 50 48 59 32 35 52 25 26 32 0 0 4
0 0 0 14 12 32 23 18 35 0 0 6 22 21 15
7 10 10 10 16 17 10 7 3 9 12 14 4 8 10
15 7 21 0 0 0 0 0 0 31 38 29 45 28 31
0 0 0 0 0 0 15 18 18 8 6 9 0 0 0
33 33 41 18 20 18 7 7 17 3 7 1 18 6 16
29 28 23 42 38 45 53 50 45 43 41 48 43 45 39
46 40 43 36 31 37 30 24 39 22 16 19 19 13 22
13 3 14 17 21 25 0 0 3 0 0 0 0 0 0
0 0 0 0 0 0 0 0 0 0 0 0 0 0 0
0 0 0 0 0 0 5 2 11 3 6 0 4 4 1
6 3 12 19 22 25 0 0 0 1 2 0 0 0 0
0 0 0 0 2 0 1 0 0 0 0 3 3 12 0
0 0 0 0 1 0 3 2 0 0 0 0 4 7 0
0 6 0 5 0 0 0 0 0 20 19 9 1 4 0
0 5 0 6 0 3 0 0 0 0 0 0 0 0 0
1 0 0 0 0 4 0 2 0 0 0 0 1 0 0
0 5 6 0 0 0 0 0 0 0 0 0 3 0 0
0 0 0 0 0 0 0 0 0 0 0 0 0 0 0
0 0 0 0 0 0 2 0 0 0 0 0 0 0 0
0 0 0 2 2 2 1 1 1 11 11 17 0 0 0
31 28 37 7 10 1 0 0 0 2 2 8 4 4 0
6 8 14 5 0 0 0 0 0 26 25 22 8 8 14
1 1 0 0 1 8 0 0 0 0 0 0 0 0 0
0 0 0 15 19 17 0 3 0 1 0 0 5 5 5
3 3 3 0 6 3 9 0 3 11 11 11 18 18 18
12 18 15 16 10 13 5 5 5 4 4 4 3 9 9
19 4 13 2 5 2 9 6 9 0 0 0 0 0 0
0 0 0 12 6 15 4 13 10 6 0 0 0 0 0
0 0 3 10 1 4 0 6 3 15 12 6 6 9 15
17 8 11 2 11 2 32 35 29 0 0 0 4 4 10
5 5 5 0 0 0 0 0 0 0 0 0 2 2 2
5 0 2 5 11 8 13 13 13 4 4 4 0 0 0
