P3
# Generado por NetPBM Image Processor - Diseno 1
236 295
255
1 1 0 8 2 0 8 2 0 6 9 0 9 13 0
11 4 0 7 1 0 0 0 0 1 1 0 13 6 0
16 9 0 13 6 0 15 8 0 11 11 4 0 8 4
4 24 12 3 23 11 8 2 4 2 4 3 12 8 0
11 7 0 1 3 11 6 4 11 23 6 10 21 8 13
8 5 13 10 7 16 17 7 27 18 3 37 7 3 28
12 4 35 12 14 44 42 25 65 64 45 65 32 28 42
26 27 53 18 18 45 8 4 21 48 37 39 48 46 59
40 35 61 69 68 101 107 107 148 98 95 138 81 78 118
68 63 77 111 98 85 127 113 70 72 62 43 20 19 25
48 31 51 91 73 128 47 33 104 35 27 114 21 18 106
9 14 80 17 11 70 4 7 23 5 8 4 9 5 1
13 5 1 16 12 6 22 8 4 25 8 3 20 4 12
32 7 3 72 32 32 107 75 63 105 85 65 68 60 40
27 23 11 20 4 8 18 1 4 14 3 1 4 11 8
41 45 33 63 59 51 27 8 8 24 52 56 24 44 60
31 17 31 22 20 116 244 241 255 255 255 255 134 134 227
4 1 49 9 3 21 12 7 5 8 9 8 8 14 11
11 22 18 25 14 18 25 14 18 14 14 14 8 11 22
22 11 32 24 17 30 32 23 15 111 102 95 208 202 199
198 184 184 121 109 99 89 79 69 55 49 45 32 32 34
34 22 19 28 17 17 13 20 31 25 29 45 11 23 24
7 1 6 19 5 8 22 12 14 16 11 12 15 9 11
13 8 9 11 8 8 10 8 8 9 7 7 5 2 9
7 8 15 10 14 30 12 14 30 13 8 22 9 7 17
6 4 7 6 6 3 9 6 15 13 3 21 6 6 3
6 6 6 4 4 4 6 6 6 6 6 6 4 4 4
13 16 6 13 16 6 4 4 4 4 4 4 4 4 9
4 4 9 4 4 4 4 4 6 5 4 22 6 4 19
7 4 6 9 3 6 10 1 13 15 4 16 17 3 11
12 0 8 13 4 13 13 10 6 19 11 14 33 26 9
20 18 35 24 19 46 81 81 42 171 162 128 224 188 178
147 109 113 35 27 25 20 20 19 8 8 14 17 24 30
18 25 30 16 17 29 25 32 42 21 33 37 3 7 17
4 8 12 4 4 12 4 4 4 13 9 9 13 9 9
13 20 9 9 16 6 6 6 6 10 10 10 13 13 10
16 16 11 13 13 12 9 9 9 7 7 7 15 15 15
22 22 22 10 10 10 7 7 7 13 13 13 8 8 8
4 4 4 21 7 11 24 8 8 8 6 2 5 5 11
17 7 22 25 13 16 21 22 6 20 24 8 23 26 7
6 6 6 22 15 18 33 31 75 138 124 208 255 255 255
255 255 255 111 115 188 26 33 88 25 25 51 15 23 9
47 27 33 142 99 115 194 155 167 155 116 128 66 24 39
35 8 12 37 15 18 16 2 4 17 7 0 15 7 0
2 2 0 8 8 0 8 8 8 141 143 169 249 245 255
161 139 146 62 19 27 23 27 16 22 28 28 30 88 78
145 192 192 78 117 118 62 33 30 57 41 34 56 52 44
28 32 21 8 2 0 10 1 0 10 4 0 10 13 0
10 13 0 10 5 0 7 4 0 6 4 0 12 6 0
17 8 0 16 10 0 15 9 0 15 9 1 10 10 6
4 9 6 3 22 10 2 20 7 6 4 8 3 6 3
11 8 0 9 5 0 3 1 8 10 4 11 19 1 12
14 7 15 9 8 17 15 9 23 19 8 36 13 6 41
7 8 33 12 11 38 19 10 53 72 47 101 101 77 110
73 59 94 66 58 98 41 35 75 23 5 50 61 49 74
79 69 107 98 87 136 146 137 187 181 176 230 174 167 221
159 152 195 147 139 166 171 157 170 194 174 165 152 135 123
75 60 67 59 38 62 90 66 115 96 78 129 82 63 148
47 32 126 23 12 91 22 17 74 13 7 22 13 7 6
12 5 4 17 5 4 21 12 3 20 10 2 26 9 3
22 6 10 32 7 4 71 32 32 106 74 62 106 86 66
68 60 40 26 22 11 19 4 9 22 3 4 17 1 4
7 10 9 42 46 34 62 56 49 26 9 9 25 53 57
25 44 63 28 20 37 23 22 115 244 243 255 255 255 255
130 130 225 7 4 51 11 6 24 13 13 11 14 16 14
18 19 18 24 23 23 31 18 23 28 20 23 20 20 20
16 18 26 27 19 33 27 22 34 38 29 33 103 89 81
204 190 185 231 219 214 208 196 191 184 175 168 138 131 125
80 73 69 54 45 40 44 34 33 30 28 35 29 28 43
25 23 27 25 13 19 35 16 25 36 18 30 31 15 26
30 14 22 30 14 19 27 14 17 23 13 15 21 11 13
18 10 11 16 6 15 20 18 35 24 21 37 27 17 30
26 17 24 25 18 18 22 16 14 19 9 16 17 11 21
11 11 5 11 11 8 11 11 11 13 13 13 13 14 10
12 15 6 16 20 7 14 17 9 8 8 8 8 8 8
8 8 12 8 8 15 8 8 16 8 8 16 9 7 23
12 7 21 17 6 17 22 3 18 23 6 22 26 7 23
23 5 16 21 4 13 26 9 16 23 8 7 23 9 13
34 29 4 27 19 24 36 26 39 88 87 48 168 155 126
210 175 162 133 102 103 34 24 28 19 21 23 18 25 30
32 38 44 36 40 46 35 35 41 28 32 43 13 22 28
1 5 11 4 8 12 3 3 9 6 6 9 15 11 13
16 12 11 15 21 14 13 17 17 12 9 20 17 14 24
20 17 27 20 18 27 17 17 24 13 13 20 14 14 22
23 23 29 25 25 31 16 16 24 16 16 22 17 17 21
9 9 14 2 2 8 15 6 9 23 9 7 20 11 0
21 13 13 26 17 19 28 23 16 21 28 9 15 24 10
17 19 13 9 6 22 31 37 80 138 138 204 255 255 255
255 255 255 241 239 255 49 53 127 25 25 58 38 40 60
32 20 31 98 74 81 162 124 136 186 150 161 141 103 114
61 25 36 30 12 13 29 12 13 16 2 4 17 5 0
13 5 0 11 3 0 16 10 1 13 10 9 140 140 170
254 247 255 168 147 154 68 28 36 29 36 28 31 33 33
35 78 72 137 182 180 106 140 138 48 36 34 53 37 30
51 48 40 24 28 16 12 4 0 12 6 0 11 9 1
11 14 2 10 13 2 11 8 3 10 8 4 12 8 3
17 9 1 16 10 0 14 11 0 16 10 1 14 9 6
11 11 10 9 13 9 8 18 4 5 15 6 2 2 7
6 3 7 11 4 3 10 6 4 10 3 6 14 4 11
14 3 15 10 2 17 11 6 24 18 7 36 18 6 44
10 6 44 10 8 41 13 12 44 26 9 63 104 74 133
120 99 131 59 46 90 77 74 115 54 49 96 37 16 81
78 64 110 126 114 165 161 149 211 194 181 249 201 189 255
170 154 220 145 127 180 131 116 155 153 137 160 199 174 176
205 180 171 136 119 122 83 63 83 97 77 106 110 86 145
111 80 185 60 36 147 22 8 95 21 15 72 19 9 24
15 6 7 14 4 5 21 4 6 24 12 6 21 13 6
23 9 4 23 6 7 31 8 6 69 33 33 107 75 63
105 85 65 68 60 40 30 24 13 20 7 13 22 7 7
16 4 6 6 11 9 41 44 33 63 53 48 27 13 13
27 53 57 27 42 67 27 22 39 25 23 110 244 242 255
255 255 255 129 130 223 14 9 52 15 8 25 16 13 13
16 16 15 18 16 17 23 19 20 25 17 20 23 19 20
17 17 17 14 14 23 27 16 32 26 17 35 32 24 36
64 53 41 153 135 126 204 191 179 220 207 199 221 206 197
196 183 172 133 118 113 82 68 62 66 51 47 58 43 48
60 43 53 57 41 47 60 42 50 62 40 48 49 24 33
39 14 24 37 11 22 37 9 20 33 7 16 26 6 13
24 4 11 32 11 21 46 26 35 46 29 41 39 24 38
34 16 28 32 12 21 37 18 19 42 26 25 40 26 28
28 20 22 20 16 12 20 16 14 20 16 16 20 16 16
20 17 14 20 17 12 22 20 13 22 19 16 20 14 16
20 14 16 20 14 18 20 14 22 20 14 24 22 13 22
24 13 23 27 12 27 30 8 24 30 7 24 29 10 25
31 9 25 31 9 21 32 11 18 30 10 13 18 6 9
13 4 24 31 28 21 30 20 14 47 37 19 109 104 68
167 151 128 179 149 137 108 85 78 35 24 33 23 25 33
25 33 39 35 38 50 33 35 47 27 26 36 20 18 27
9 10 13 2 4 8 3 7 11 1 1 4 9 9 12
15 12 13 17 13 10 17 21 19 14 17 20 14 11 22
20 17 26 23 20 29 22 20 29 18 16 30 13 10 26
17 17 24 26 26 31 23 23 29 13 13 21 19 19 24
22 22 26 13 13 17 2 2 8 9 4 8 14 8 8
18 12 5 24 16 15 26 21 19 27 26 16 17 27 13
8 20 11 7 6 12 26 25 55 124 127 185 255 255 255
255 255 255 236 224 255 101 100 187 3 1 72 12 9 55
63 60 79 103 85 95 143 115 123 155 124 135 147 116 127
111 73 84 51 10 23 24 7 5 21 5 5 15 3 4
15 6 1 12 6 0 13 6 0 19 13 4 18 11 15
138 136 169 255 250 255 179 159 165 71 38 42 33 41 33
41 35 31 44 62 58 116 158 158 134 165 165 16 44 48
52 30 28 54 44 40 37 37 32 12 12 4 11 13 3
10 13 1 13 14 1 14 11 4 15 7 5 12 9 3
13 10 3 14 9 3 11 11 2 13 13 2 16 10 6
14 9 10 11 13 10 9 16 7 11 14 6 11 8 8
4 3 6 11 3 11 14 1 6 14 3 8 16 3 11
19 6 13 17 7 17 16 6 23 17 6 33 19 6 43
19 4 48 17 3 51 17 4 53 16 8 53 44 13 87
129 98 162 117 99 132 28 26 67 64 66 102 55 45 109
76 58 133 125 106 173 189 175 234 204 191 255 186 172 248
150 138 211 95 79 147 64 48 104 58 42 87 79 67 96
136 116 122 200 179 166 180 165 163 112 92 104 106 85 102
116 81 167 145 116 229 76 63 167 14 27 89 9 10 59
19 8 24 21 8 10 21 3 6 23 5 8 21 11 7
18 12 7 20 9 4 22 1 6 31 6 5 70 32 33
107 77 64 104 85 65 68 61 41 35 25 14 19 7 15
17 9 9 18 5 7 8 11 9 38 42 30 62 50 46
26 13 13 29 55 59 27 42 69 28 25 37 28 22 107
246 239 255 255 255 255 130 135 222 19 13 52 18 11 26
18 14 16 15 15 15 15 13 14 18 16 16 20 17 19
20 16 20 18 14 18 16 11 23 23 12 31 26 14 31
27 19 31 31 20 17 81 61 53 130 106 101 168 141 137
197 168 163 219 191 180 178 152 146 119 90 90 95 66 66
82 51 59 74 43 51 65 38 44 71 46 50 70 43 43
57 37 32 48 26 23 50 30 30 57 35 38 68 41 46
76 48 53 80 56 59 91 68 72 97 73 78 84 58 63
57 27 35 29 0 13 13 11 19 18 4 15 33 11 17
40 22 22 37 22 16 30 18 12 30 18 13 30 18 12
29 17 11 28 16 12 29 15 18 32 17 22 32 17 22
30 14 20 30 14 20 30 14 20 30 14 20 30 14 20
31 13 20 32 13 21 34 13 23 35 12 18 34 15 18
33 17 21 34 15 19 32 14 15 30 15 12 27 16 6
25 17 19 26 14 28 40 29 9 54 41 12 82 75 50
143 132 107 176 159 142 137 114 103 66 47 30 35 29 39
24 28 38 23 27 42 27 28 47 15 23 38 2 10 20
12 4 9 7 3 6 2 4 7 0 4 8 3 3 6
11 11 10 16 11 9 18 13 15 17 20 24 13 18 21
14 14 20 20 20 26 23 23 29 19 18 27 13 10 26
8 4 23 15 16 18 24 23 27 15 13 20 5 1 13
16 16 20 23 23 25 15 15 17 4 6 9 4 4 9
8 6 6 13 9 4 18 14 14 22 20 19 21 21 15
13 20 14 8 13 17 7 9 16 65 62 108 217 215 255
255 255 255 221 211 255 79 72 166 18 16 90 31 32 89
82 79 107 124 117 127 150 129 139 144 119 128 115 88 98
99 65 77 84 47 58 48 13 24 26 8 7 18 4 4
15 4 6 12 6 3 8 8 0 10 10 3 17 14 10
16 10 19 139 136 168 255 255 255 186 169 176 69 44 46
32 43 36 45 34 28 44 47 42 88 131 131 162 193 196
66 89 96 50 31 32 55 41 40 46 41 39 11 11 8
10 12 8 11 15 4 14 12 4 16 8 8 13 7 7
13 10 6 14 12 5 14 11 7 11 11 7 11 11 6
14 9 10 16 10 13 13 16 10 11 16 8 14 9 10
16 1 12 7 4 8 13 4 12 13 3 8 16 0 10
18 3 11 20 4 15 21 6 25 22 9 32 22 11 36
21 10 47 24 6 56 24 3 59 21 4 60 21 8 61
77 44 120 149 113 182 93 69 113 34 31 70 66 46 113
130 105 183 169 144 224 194 172 248 221 205 255 188 176 246
126 113 186 70 59 127 20 12 73 4 15 47 17 14 37
30 19 43 68 48 64 155 136 129 191 174 176 137 112 126
111 85 115 156 129 222 182 158 255 79 62 167 3 25 74
18 15 46 17 7 22 18 9 9 20 3 6 19 9 7
18 10 6 18 9 9 23 11 6 20 3 7 30 6 6
72 32 33 104 78 63 104 87 67 68 60 40 35 24 12
15 4 15 15 9 9 22 6 10 11 10 9 37 40 29
60 48 44 25 11 11 31 54 59 29 39 67 32 24 39
31 22 111 245 239 255 255 255 255 130 135 220 16 10 53
15 11 29 17 17 22 21 18 20 22 18 18 23 21 19
26 20 25 26 18 27 24 18 24 21 16 25 25 15 33
34 20 29 32 19 24 32 20 24 41 22 10 64 40 32
95 69 63 140 115 108 199 176 157 175 153 136 104 78 72
68 44 34 45 16 20 36 7 11 29 12 21 45 33 40
44 15 16 54 34 30 68 45 39 95 75 67 131 109 102
171 143 137 205 177 172 229 207 199 225 204 198 188 166 160
149 125 119 109 86 75 65 41 31 25 5 8 17 13 27
24 17 27 24 3 12 34 13 3 29 15 9 26 15 11
27 15 11 28 16 12 28 16 14 28 15 18 30 17 22
30 17 22 28 14 20 28 14 20 28 14 20 28 14 20
28 14 20 29 15 20 29 12 18 32 12 16 32 15 17
31 16 14 32 17 13 33 17 11 30 18 9 28 17 6
26 13 16 23 12 28 27 13 23 49 36 4 81 68 43
113 106 87 151 140 123 154 141 126 84 65 51 30 7 19
25 17 28 10 13 32 11 13 33 17 18 31 6 12 17
21 7 4 20 10 7 8 7 8 0 4 5 3 1 4
4 4 6 11 11 9 18 11 13 20 13 18 12 18 20
10 17 16 17 17 21 22 22 27 21 21 25 11 11 18
4 4 12 4 3 14 13 15 12 24 25 22 15 17 11
5 9 3 16 18 16 23 24 24 15 16 17 4 6 9
2 2 8 1 3 4 9 8 8 16 14 13 17 19 15
10 17 15 0 12 18 4 3 24 7 8 35 104 101 166
255 255 255 255 255 255 132 119 210 10 12 88 25 29 93
101 100 143 133 123 142 144 129 137 147 123 131 111 88 94
68 41 50 65 28 41 66 37 45 47 16 26 31 6 8
19 4 4 15 1 7 9 1 4 4 4 1 11 11 9
19 13 14 17 10 21 144 143 170 255 255 255 187 171 180
70 40 46 33 35 33 44 29 27 31 37 31 73 121 120
174 208 211 91 112 118 32 16 14 33 21 13 20 17 13
8 12 0 8 12 3 9 11 4 13 8 9 14 9 11
10 10 8 9 9 9 13 9 7 13 10 4 12 9 3
14 9 6 16 8 10 16 13 10 14 14 7 14 11 8
17 3 13 18 6 15 7 4 9 12 1 10 13 3 11
19 4 11 18 4 10 17 4 16 20 4 26 25 8 31
28 13 37 27 13 51 29 13 59 26 9 60 23 9 55
27 11 55 106 68 141 154 113 182 72 45 97 81 59 116
196 174 237 255 255 255 255 248 255 224 198 255 179 160 231
120 107 166 65 52 105 16 16 59 6 27 34 3 23 32
15 9 30 25 4 32 39 11 41 99 75 80 160 139 149
139 114 132 121 96 144 223 199 255 205 180 255 56 31 143
27 30 64 26 12 48 16 6 24 14 7 7 18 3 6
18 8 6 20 12 4 23 11 9 25 12 6 19 4 6
29 6 7 70 33 33 103 78 62 104 87 67 70 59 40
34 22 11 13 3 15 18 7 7 24 3 9 8 8 6
36 36 28 57 47 42 26 8 11 36 53 59 30 40 67
34 24 42 29 22 115 243 241 255 255 255 255 130 132 221
13 7 55 13 9 31 19 21 23 31 29 27 35 30 31
34 31 34 37 29 41 40 29 43 39 28 39 39 26 38
42 25 40 45 27 31 44 29 26 44 31 29 42 27 17
43 28 12 58 39 21 103 85 73 187 170 151 178 163 143
93 84 72 51 38 24 33 5 16 44 18 20 58 33 40
86 64 71 104 71 70 132 101 95 160 132 123 188 166 156
222 203 189 255 239 221 255 255 252 255 255 255 255 255 255
255 253 233 238 217 193 203 186 160 155 136 113 102 75 53
60 29 19 38 14 22 24 9 18 27 8 11 27 13 8
26 15 9 26 15 9 26 14 8 26 15 9 26 14 8
28 16 16 28 14 18 26 10 16 26 10 16 26 10 18
26 10 22 26 10 24 25 11 22 26 12 16 29 13 10
28 14 12 25 13 13 25 14 10 27 13 6 28 13 3
30 14 8 25 13 30 26 13 26 51 38 4 89 75 40
126 113 89 144 136 120 143 134 125 113 103 90 49 29 20
28 12 39 30 14 3 17 9 8 16 10 14 18 15 17
11 8 5 19 13 11 8 11 4 13 14 13 2 3 4
3 0 1 6 4 3 15 11 11 21 13 19 20 13 19
4 12 10 7 14 9 23 22 26 27 27 28 18 19 16
5 5 7 4 4 4 10 10 11 13 13 6 26 26 18
23 23 14 13 13 6 19 19 18 22 22 23 13 13 13
2 2 2 4 7 3 4 10 3 11 16 10 18 20 13
12 19 10 1 13 13 9 3 24 15 6 30 14 16 69
140 140 218 255 253 255 220 211 255 117 106 181 49 38 112
90 90 133 125 120 147 130 112 123 118 95 99 100 76 83
64 42 49 37 21 24 52 17 28 63 32 41 49 18 28
29 8 9 17 3 3 14 0 7 8 0 4 9 3 6
16 11 13 20 9 14 20 9 21 151 149 173 255 255 255
184 164 175 73 38 46 31 22 20 39 19 20 13 37 32
91 136 137 167 201 203 78 102 101 28 23 24 22 20 16
6 12 12 4 8 4 4 8 2 7 8 4 13 8 10
13 8 10 7 7 6 6 6 6 11 4 4 9 4 6
9 3 3 14 6 8 14 12 8 13 14 7 16 10 8
14 7 7 22 7 14 19 10 14 9 4 7 13 3 6
19 5 13 20 5 13 16 1 13 16 4 14 26 5 23
30 4 31 26 10 36 27 11 51 29 13 57 25 10 57
22 8 49 24 10 50 111 70 149 146 108 177 76 57 101
163 146 191 255 255 255 255 255 255 255 255 255 181 161 224
85 64 129 48 43 80 34 42 54 12 25 29 4 18 33
28 26 45 30 15 42 32 13 39 31 8 35 55 32 43
103 82 96 111 89 110 141 116 175 255 255 255 211 185 255
35 7 113 39 35 69 25 8 64 18 5 24 15 6 6
14 2 4 15 6 4 20 14 6 20 13 12 19 10 10
14 1 3 23 4 4 66 35 32 106 79 63 104 85 65
71 57 40 34 22 11 14 0 15 18 6 8 22 1 8
7 6 3 34 33 25 56 46 40 19 3 6 35 53 59
26 40 69 33 22 44 25 19 113 243 241 255 255 255 255
131 131 224 15 4 54 13 4 27 24 26 28 37 36 34
39 32 36 41 32 37 45 30 44 45 30 45 42 30 42
41 30 40 38 27 34 39 27 25 46 35 30 54 43 38
51 39 27 48 33 17 53 40 16 93 82 63 188 171 160
184 171 155 93 84 63 63 39 31 90 64 71 121 93 93
153 126 123 194 166 162 225 193 180 248 221 204 255 233 215
252 233 214 248 229 207 242 223 199 234 213 190 228 200 173
235 204 169 255 234 194 255 243 205 255 236 206 220 200 176
164 140 116 106 78 55 64 36 15 37 16 16 25 12 16
22 10 9 22 11 6 22 11 6 21 9 3 20 9 4
21 9 4 23 11 16 21 8 17 18 4 8 18 4 8
18 3 12 18 2 15 18 2 16 17 3 16 18 4 16
20 7 6 17 7 6 16 11 11 21 14 13 23 11 7
22 9 8 21 9 17 30 22 23 65 58 21 111 101 62
149 141 103 174 170 140 170 170 147 140 136 120 92 79 62
49 33 38 36 26 42 34 25 9 26 18 4 23 17 17
20 16 20 7 4 13 13 10 17 4 10 10 12 18 17
2 1 4 1 0 3 10 4 6 19 12 15 18 15 18
16 13 19 3 4 11 4 10 9 25 25 31 30 31 31
19 22 16 4 7 8 8 7 9 12 12 13 10 10 8
23 23 18 25 25 20 16 16 9 16 16 18 17 17 22
9 9 9 2 2 2 6 12 3 4 9 6 13 20 10
18 25 14 12 20 11 9 12 13 14 2 27 18 8 39
48 49 114 181 179 255 241 233 255 175 163 249 118 107 179
110 100 158 102 102 135 79 75 93 99 74 87 104 76 82
63 42 48 34 12 20 30 9 12 57 21 33 71 39 45
57 29 27 30 17 8 12 8 3 9 1 5 6 0 3
9 4 6 14 12 13 19 9 14 19 8 21 155 154 173
255 255 255 179 155 170 74 40 50 29 9 9 30 12 12
10 50 44 119 160 160 155 186 189 52 75 73 18 10 11
13 10 10 8 6 9 1 1 1 6 3 4 10 5 7
13 5 6 10 4 4 8 6 3 12 6 3 10 2 8
5 8 10 8 8 6 13 8 11 12 12 10 10 12 7
14 9 9 10 7 7 18 8 10 23 8 12 17 3 6
16 2 4 20 7 14 20 8 16 20 3 15 24 7 16
33 12 27 30 10 34 25 11 42 34 13 59 45 25 67
59 43 81 79 60 92 92 74 110 128 86 168 166 123 201
163 141 187 254 239 255 255 255 255 237 214 255 214 204 235
168 161 183 63 50 93 48 28 83 22 18 57 7 12 35
23 22 41 26 30 33 9 12 15 10 10 12 12 6 13
26 15 16 63 38 53 130 102 123 224 198 255 255 255 255
173 147 255 42 31 100 37 28 77 34 19 73 34 15 33
25 13 14 16 9 6 16 7 2 20 11 9 16 13 13
16 13 14 21 13 16 40 25 25 72 43 41 102 73 59
104 83 64 77 61 44 38 25 18 18 9 20 14 8 12
15 2 5 9 11 6 25 29 19 51 37 33 30 19 21
29 44 51 15 34 64 25 21 47 34 30 120 255 251 255
255 255 255 145 144 235 63 52 80 60 50 63 60 54 64
56 51 56 46 34 48 48 31 46 47 29 45 39 27 38
32 24 28 27 20 23 26 18 25 33 23 27 39 28 30
32 21 25 31 20 9 42 27 17 55 42 23 93 81 56
194 174 162 198 179 165 145 126 106 161 141 128 179 161 150
198 178 167 227 204 197 242 220 211 244 218 198 239 216 189
227 208 176 207 184 151 174 150 121 135 115 91 99 81 61
67 50 27 67 47 19 124 104 70 187 167 128 229 210 180
244 228 199 217 204 175 160 143 121 101 79 52 63 37 16
43 25 21 32 24 18 35 25 22 41 31 27 47 37 33
46 35 34 36 24 28 29 18 26 27 18 26 26 18 22
26 17 26 26 16 27 26 16 23 25 14 21 24 11 23
27 15 28 30 22 31 32 26 36 33 25 31 25 16 13
20 13 3 34 30 10 60 60 32 115 116 75 176 175 128
209 208 163 229 230 185 229 232 190 202 203 163 159 158 116
120 118 78 108 103 81 113 106 86 104 99 74 85 81 57
67 64 44 47 44 25 26 22 4 14 9 12 10 10 3
16 18 14 16 14 15 22 15 20 29 21 27 20 16 24
8 8 11 17 16 21 4 6 13 2 6 16 27 26 33
30 30 30 20 21 19 4 6 10 8 5 16 12 11 16
5 5 9 11 11 9 19 19 16 17 17 16 13 13 17
11 11 18 6 6 6 7 7 7 13 18 9 12 7 13
17 23 11 17 20 12 25 28 23 18 22 22 13 4 34
6 9 62 121 120 201 248 244 255 241 231 255 177 167 254
139 130 196 127 118 165 83 78 108 39 30 48 94 65 79
112 75 87 54 28 37 35 15 21 37 6 16 55 24 34
59 31 35 44 11 13 9 14 5 6 10 4 3 1 2
3 3 3 7 4 6 13 10 11 19 9 13 16 8 18
154 154 170 255 255 255 183 156 174 65 35 45 31 4 9
35 10 17 32 68 62 144 182 180 151 179 181 43 61 59
27 13 5 18 11 3 7 6 7 3 3 3 8 1 4
9 3 5 9 8 3 8 6 5 11 4 4 13 4 2
7 9 11 1 11 14 8 11 5 11 11 10 16 9 13
14 12 11 10 13 11 10 10 10 3 2 1 15 6 9
17 4 8 15 3 5 17 6 13 22 10 18 24 8 15
25 7 19 29 7 27 26 4 31 25 6 46 34 12 65
47 26 75 71 48 97 103 81 123 137 114 155 189 155 223
245 209 255 255 240 255 255 255 255 255 255 255 152 133 169
188 185 190 185 182 180 54 46 70 46 23 65 37 11 51
23 4 39 21 23 30 9 21 8 3 19 3 9 9 10
13 7 4 18 2 7 135 123 126 150 126 141 255 255 255
255 255 255 103 79 198 23 24 99 17 10 83 17 9 60
26 19 37 23 17 20 18 13 10 19 5 6 18 8 10
14 12 10 20 18 19 33 26 28 53 31 31 70 37 37
86 56 45 102 81 62 82 68 49 38 25 18 18 14 25
13 13 18 10 7 3 4 16 9 13 20 9 33 19 17
34 25 28 24 26 37 5 16 49 16 13 55 58 55 146
255 255 255 255 255 255 147 146 237 64 53 79 63 52 66
55 48 61 42 36 45 32 23 36 32 21 36 30 19 32
26 17 25 21 13 17 18 10 14 21 11 21 26 12 23
23 11 16 9 3 10 12 15 3 26 18 10 42 29 20
70 54 37 173 153 138 204 181 168 195 173 162 208 190 175
202 185 172 201 180 170 201 182 172 184 166 150 156 134 106
117 100 67 94 78 47 85 66 37 66 51 26 44 34 21
28 20 25 14 13 29 20 23 31 17 4 15 82 69 37
149 134 108 211 200 168 238 231 196 211 202 176 147 133 103
86 60 30 50 25 24 33 22 23 35 27 23 42 34 27
45 37 30 44 35 31 37 28 28 28 16 24 27 17 26
26 16 23 27 17 28 29 20 29 30 22 26 30 22 26
30 21 31 27 22 34 26 20 33 32 20 36 30 19 32
24 17 24 33 29 17 89 86 58 149 150 106 225 225 172
255 255 213 255 255 212 246 249 190 218 219 148 183 182 98
156 158 63 147 154 60 154 156 79 160 157 105 154 152 118
145 144 120 136 134 119 119 115 100 88 84 68 52 49 31
30 28 16 27 27 17 25 24 22 31 23 29 33 27 34
23 22 27 10 10 18 14 12 24 3 8 13 1 6 8
28 28 29 30 30 27 20 20 15 4 5 4 8 4 16
11 8 17 6 6 8 5 5 3 10 10 8 15 15 16
15 15 20 10 10 14 3 3 3 3 3 3 11 16 6
5 8 11 14 22 11 7 9 7 10 21 22 11 18 32
9 13 52 44 50 118 219 215 255 255 255 255 211 200 255
170 161 246 126 116 174 88 78 118 59 54 76 52 41 53
115 80 92 114 69 85 50 19 30 40 17 23 42 14 23
46 19 28 42 19 23 36 16 11 14 12 2 3 6 5
3 3 3 6 6 6 11 6 9 18 6 11 20 6 9
13 9 13 151 150 166 255 255 255 195 171 188 46 24 31
30 6 13 46 13 23 49 80 78 157 189 189 150 176 179
39 60 66 28 22 33 30 28 41 27 28 48 6 6 4
8 3 3 7 1 6 10 8 6 12 8 3 12 4 3
10 4 6 3 11 12 4 12 14 7 11 0 8 12 4
17 5 9 17 6 9 9 9 6 8 8 7 4 2 5
4 3 2 8 6 6 11 4 8 16 4 12 24 9 16
24 14 16 23 9 21 22 4 24 21 6 32 27 5 56
33 10 69 47 23 84 76 52 117 110 87 149 141 112 176
200 163 242 246 210 255 240 222 255 255 255 255 255 255 255
154 132 168 230 230 231 214 209 208 67 62 72 19 6 22
23 6 23 32 16 33 27 13 27 15 8 17 19 22 14
18 11 13 22 17 16 71 62 67 226 221 223 118 106 119
255 255 255 255 255 255 74 48 169 8 33 99 13 18 83
3 13 48 10 9 32 14 9 16 15 10 10 13 4 10
13 9 13 10 11 9 20 22 23 33 29 31 48 19 20
60 20 20 75 49 36 100 82 61 82 70 51 34 21 13
14 12 23 16 16 20 14 17 13 11 16 12 13 12 6
18 12 13 20 20 22 22 20 33 26 16 45 26 14 59
71 69 163 255 255 255 255 255 255 132 135 226 20 7 45
17 3 23 10 9 18 13 13 15 11 11 13 11 11 12
13 10 14 14 9 17 14 7 18 16 9 20 19 10 23
16 7 17 13 7 12 16 7 16 18 14 15 21 17 11
25 20 14 28 20 8 98 87 72 151 133 120 167 151 140
166 151 137 161 144 130 149 129 115 126 113 97 104 85 65
75 53 25 37 24 6 21 8 16 22 11 19 23 16 19
25 14 21 27 13 21 28 11 14 23 10 18 13 10 24
29 14 10 77 63 33 145 133 94 216 207 167 243 234 207
203 189 158 132 104 67 60 34 16 22 11 17 22 13 12
24 17 21 19 9 14 20 12 3 27 22 10 19 6 11
21 9 19 21 5 14 23 8 17 25 11 18 27 13 23
30 17 27 32 21 27 25 14 28 14 3 17 22 14 13
5 6 18 17 11 22 75 68 44 167 160 121 225 217 169
255 249 189 223 218 155 171 169 108 141 139 74 108 103 35
81 78 10 74 74 1 84 84 9 90 86 16 81 79 27
84 84 44 106 104 66 130 127 96 143 140 118 128 124 110
87 83 71 37 34 21 25 21 16 20 20 14 19 13 19
13 13 20 16 16 11 17 18 19 13 9 27 3 6 11
3 6 0 27 27 27 30 30 27 21 21 12 11 11 8
11 9 17 11 9 18 7 7 8 4 4 6 3 3 4
2 2 6 3 3 6 6 7 0 7 10 2 6 9 4
4 3 5 5 8 10 16 11 25 17 24 25 5 21 35
20 2 33 33 42 103 132 138 223 255 255 255 255 255 255
148 135 229 126 110 191 78 64 115 55 40 75 65 56 80
88 70 86 120 82 94 92 49 64 37 14 21 37 17 23
39 14 23 38 14 22 34 9 18 29 6 11 14 3 2
3 6 8 7 4 6 10 4 7 17 4 10 21 3 10
17 3 7 14 3 11 152 143 165 255 255 255 204 186 201
37 17 27 28 12 18 49 16 29 40 68 67 145 170 176
168 190 201 164 170 187 175 178 193 169 175 192 162 170 189
6 6 4 6 4 3 5 3 6 14 8 8 15 8 6
8 4 3 6 4 6 1 9 8 4 11 9 7 11 3
9 13 6 18 7 11 18 7 11 9 9 3 6 6 4
6 1 9 6 3 5 6 6 5 7 4 6 13 3 7
23 8 13 25 15 17 27 11 23 13 6 20 16 8 35
38 17 71 47 20 84 69 41 109 108 87 160 154 131 201
170 140 213 163 127 213 169 131 211 167 150 188 198 184 204
228 215 236 86 67 100 220 220 220 255 255 255 181 173 188
102 92 107 41 25 44 28 19 25 34 15 34 35 18 34
24 17 19 8 13 11 20 11 18 170 167 174 237 240 237
142 129 153 255 255 255 255 255 255 81 52 176 2 26 95
11 18 79 0 17 46 3 6 27 12 8 13 16 10 11
12 9 13 11 9 19 10 9 12 22 26 29 33 27 31
44 13 16 60 20 20 78 56 41 104 90 67 85 73 54
34 21 17 16 15 23 17 18 21 17 26 20 13 17 15
15 10 11 23 19 23 27 28 31 28 29 38 29 26 44
27 23 59 73 68 167 255 255 255 255 255 255 130 131 220
21 9 44 18 3 25 14 11 17 19 17 16 14 13 13
13 14 11 17 12 20 20 12 24 22 14 25 23 15 27
22 15 25 17 15 18 15 14 19 19 13 22 24 18 21
28 23 20 30 26 23 27 25 19 48 45 35 82 74 63
102 90 78 106 92 76 101 89 72 87 78 56 66 60 42
46 33 21 26 13 18 20 8 18 22 8 9 20 13 14
22 19 16 24 18 16 25 17 20 23 13 17 25 13 14
29 18 17 34 24 20 47 36 10 78 69 31 153 150 102
231 227 194 236 227 198 190 160 120 98 71 36 32 20 18
27 16 11 27 17 23 24 11 18 24 11 8 30 22 11
26 15 16 28 15 24 26 11 19 25 9 19 23 8 17
22 6 20 22 7 18 22 7 13 25 12 18 21 9 18
23 8 13 22 13 19 55 48 26 136 125 86 220 211 163
239 231 170 201 194 115 127 118 51 77 67 14 59 50 2
41 32 6 20 17 6 12 10 6 14 3 6 24 4 8
16 5 11 11 10 10 30 28 2 61 60 23 96 94 57
121 120 96 109 109 94 50 47 31 27 23 17 24 25 12
9 6 13 10 9 21 11 14 9 14 17 10 7 6 17
4 4 8 5 3 7 24 24 24 27 27 26 20 20 17
12 12 15 9 6 17 7 4 15 3 3 2 14 14 8
18 18 10 23 24 14 32 35 23 40 44 31 46 50 37
51 55 44 50 53 45 50 42 51 60 46 54 73 65 71
73 61 58 45 38 60 122 129 213 236 239 255 255 255 255
218 207 255 105 91 178 89 70 138 67 51 92 70 51 82
89 74 96 109 84 99 106 70 84 68 34 46 37 16 22
36 14 21 36 11 20 35 12 19 31 8 17 25 5 9
7 6 7 8 12 12 11 7 9 14 6 10 20 6 11
21 5 10 19 6 9 20 6 13 150 138 166 255 255 255
213 199 213 44 24 37 29 22 30 47 18 35 32 42 47
109 126 133 161 173 184 215 217 231 232 236 252 223 229 247
217 225 242 4 4 6 4 4 6 4 4 3 16 8 8
16 8 8 4 4 4 4 4 4 1 6 4 3 10 6
10 10 3 14 10 6 17 6 7 15 6 9 8 8 6
5 5 3 8 3 11 7 6 9 8 8 0 10 4 2
16 3 6 23 9 13 28 15 21 27 10 27 8 13 21
18 5 42 57 32 92 77 47 122 109 82 157 147 125 202
169 143 219 146 115 193 94 57 143 114 81 147 141 131 154
187 191 188 255 255 255 237 241 236 46 61 40 190 182 185
252 238 250 217 205 216 105 95 109 20 11 25 13 13 16
27 21 32 29 13 35 25 11 25 122 119 122 246 243 247
123 128 124 237 229 252 255 255 255 255 255 255 95 65 186
16 23 103 13 17 80 5 15 49 4 1 22 3 8 9
5 15 10 12 16 13 13 16 22 9 14 17 22 26 31
34 25 33 40 9 13 59 21 20 86 63 48 113 98 75
87 73 55 31 16 15 19 13 21 22 20 22 23 35 29
17 19 19 16 13 18 27 27 33 37 33 37 38 32 43
37 29 45 31 27 59 73 64 167 255 255 255 255 255 255
127 125 217 19 9 43 17 4 22 13 16 15 19 22 16
15 14 14 18 17 20 22 14 27 23 18 25 25 22 22
27 21 21 25 20 22 20 18 25 20 20 27 21 21 25
24 24 23 29 27 25 35 31 29 35 30 24 31 27 17
28 20 13 33 22 14 39 27 20 40 30 21 35 28 13
27 19 15 17 7 20 13 4 22 20 10 11 25 15 6
24 18 6 24 21 9 23 20 12 22 16 13 18 9 16
25 16 21 30 22 20 25 13 16 16 20 15 11 8 6
69 66 36 177 174 139 225 214 190 215 185 142 126 96 54
38 25 21 29 17 13 27 16 22 23 12 20 21 12 11
28 20 16 28 16 23 32 20 31 28 18 22 23 12 17
18 5 13 14 0 10 9 5 2 8 11 1 15 7 6
22 6 10 25 10 11 48 39 9 109 107 61 190 182 132
232 226 171 201 195 126 117 110 39 51 41 1 34 23 4
36 24 6 34 20 4 26 16 5 19 8 8 16 3 11
22 3 9 14 5 4 8 3 3 16 10 8 24 17 5
58 54 16 109 106 68 124 123 102 82 78 62 43 42 24
32 35 14 3 3 7 11 10 23 11 16 3 14 15 3
7 7 10 5 9 7 3 6 6 19 19 17 21 21 17
17 17 16 9 11 8 0 4 9 4 5 7 11 11 7
18 18 11 21 21 13 32 35 22 45 49 34 55 58 46
66 67 57 75 74 67 85 83 71 92 82 72 93 76 63
108 94 83 116 106 93 109 113 172 255 255 255 255 255 255
236 227 255 142 126 224 56 34 115 62 40 92 66 49 82
89 69 94 108 91 103 111 86 91 85 49 57 51 17 29
40 9 18 33 9 17 31 7 14 31 8 16 27 5 13
19 4 5 3 12 13 14 17 17 13 11 11 13 9 10
18 9 11 21 9 11 20 9 11 20 8 14 143 133 164
255 255 255 227 214 232 50 31 47 29 30 41 44 22 41
41 30 45 71 77 89 103 105 120 109 108 121 96 99 114
88 90 108 82 85 100 4 4 5 4 4 5 4 4 3
16 8 8 16 8 8 4 4 4 4 4 4 3 3 4
2 7 7 11 4 4 15 6 7 13 8 3 12 8 4
9 9 6 9 7 4 10 3 11 8 4 9 10 8 2
13 6 0 16 4 9 22 8 15 28 12 24 24 8 32
20 7 38 48 29 75 91 65 131 123 98 172 154 129 206
164 140 220 138 113 193 89 60 137 63 29 102 86 51 110
77 67 82 120 127 115 238 241 237 255 255 255 247 250 251
82 87 89 114 104 107 253 240 245 220 207 216 110 96 108
34 25 31 15 20 10 28 15 37 40 35 37 226 225 225
209 207 209 75 64 68 255 255 255 255 255 255 255 245 255
100 70 193 28 19 116 22 14 87 12 8 56 4 5 18
5 10 5 10 14 9 13 16 16 12 16 20 7 13 18
24 20 30 37 23 35 34 7 9 57 23 20 97 68 55
121 102 82 86 73 54 24 11 13 20 11 17 26 18 20
24 42 36 17 21 20 20 13 23 30 33 39 36 37 41
40 32 44 44 30 41 38 32 49 70 60 163 255 255 255
255 255 255 124 121 214 19 13 39 17 9 20 14 25 20
19 29 17 16 14 15 19 17 22 20 16 24 21 18 23
27 21 21 30 22 22 27 21 25 21 19 27 20 20 27
20 20 23 21 21 22 25 25 24 31 30 29 34 30 27
34 30 24 32 25 21 35 27 24 38 32 26 42 37 24
44 40 22 45 41 22 47 43 22 44 39 25 36 28 21
30 23 17 27 24 13 24 21 13 18 16 13 11 8 7
6 4 10 17 16 25 14 15 26 4 10 20 8 19 23
15 28 16 25 27 11 137 137 108 212 200 179 217 189 142
128 101 55 40 28 19 30 18 13 25 12 17 25 11 22
25 12 13 29 20 16 29 16 27 32 18 33 30 17 21
29 18 19 27 15 18 25 11 16 24 9 14 21 9 14
26 13 15 35 20 15 46 28 18 93 84 43 170 172 118
228 222 166 218 211 146 146 138 70 59 51 4 19 19 18
22 21 20 29 18 11 34 18 4 31 17 6 27 9 7
18 5 10 29 11 10 34 24 10 33 28 11 25 17 9
17 8 4 32 30 4 80 79 38 103 102 76 99 91 79
73 71 50 46 50 29 14 14 5 8 4 26 6 10 11
13 13 11 0 0 4 6 14 3 10 16 9 16 16 10
16 16 8 15 16 11 11 15 4 6 9 3 8 8 6
13 13 7 17 18 5 21 23 10 32 36 21 40 43 28
45 45 37 51 51 42 56 52 45 72 63 43 86 73 38
78 64 27 69 57 38 64 64 126 244 247 255 255 255 255
255 253 255 140 130 228 79 63 147 40 18 76 61 39 77
81 64 92 111 90 109 120 99 108 102 77 79 64 29 30
37 4 16 31 1 8 24 4 10 24 4 9 24 4 11
22 8 12 15 10 9 13 17 19 17 19 21 12 10 10
16 9 11 21 8 11 24 7 11 23 6 10 20 8 16
133 123 159 255 255 255 242 231 249 60 42 55 35 30 42
41 22 39 44 26 40 37 33 45 44 47 61 37 36 53
24 28 41 16 22 34 10 14 28 4 4 0 4 4 0
4 4 4 16 8 8 16 8 8 5 3 4 6 4 4
4 3 4 2 2 7 13 3 6 16 6 9 11 11 4
11 11 4 10 9 9 11 7 7 11 4 11 10 6 8
10 6 3 7 3 2 10 3 10 24 6 17 28 9 24
22 6 36 44 30 68 91 71 121 133 107 173 163 142 211
165 143 223 134 111 198 81 61 138 35 12 83 61 31 86
80 47 94 32 22 41 12 15 15 72 69 74 164 166 163
241 244 241 252 252 251 127 133 125 109 99 106 243 232 241
226 210 223 123 109 122 42 35 43 38 27 42 93 92 91
255 255 255 79 81 79 211 201 204 255 255 255 255 255 255
239 203 255 93 63 193 28 9 121 29 8 93 19 1 63
7 11 13 10 13 7 17 9 9 13 10 19 9 8 22
7 7 18 25 18 29 37 22 33 28 4 4 57 25 21
105 73 61 127 108 88 85 73 54 17 13 14 21 13 13
25 14 16 30 46 41 14 23 21 21 14 26 31 41 46
29 40 43 29 28 40 43 31 27 45 37 35 66 57 160
255 255 255 255 255 255 119 118 208 20 19 35 19 13 19
18 36 29 29 37 25 16 14 14 21 17 17 25 17 21
27 18 27 31 20 29 26 17 28 18 14 27 17 15 26
16 18 25 16 16 24 17 17 24 20 20 21 24 24 24
25 25 25 29 31 28 39 42 36 43 47 39 40 43 31
41 40 26 46 42 27 51 48 32 56 52 39 52 50 41
38 39 35 27 27 27 21 21 22 15 13 16 8 7 8
3 1 1 3 6 7 14 17 21 18 20 25 11 13 20
9 11 21 19 24 23 11 14 6 118 119 98 211 199 176
216 185 141 119 95 52 33 27 15 22 19 16 16 11 17
19 13 23 17 11 16 22 17 14 21 17 25 20 14 28
18 12 16 24 19 21 31 27 28 37 32 35 44 38 42
49 44 47 61 54 48 81 69 51 105 91 59 158 152 97
220 221 156 232 224 153 170 160 81 82 72 14 27 16 16
20 12 16 34 24 6 38 25 14 35 23 9 25 14 6
26 11 11 29 13 16 33 20 10 26 14 12 9 12 5
4 6 4 5 6 2 22 24 3 49 53 18 64 68 40
94 88 71 98 93 68 67 64 45 33 30 22 18 16 35
18 19 26 24 24 23 17 17 17 19 24 16 17 21 13
14 14 8 14 14 8 14 17 8 14 18 5 11 13 6
13 13 10 23 23 17 33 36 22 39 43 28 42 45 31
44 45 33 44 44 37 41 41 33 37 34 21 47 34 7
39 34 3 24 29 33 46 47 115 197 197 255 255 255 255
255 255 255 165 161 255 61 50 138 52 34 100 48 25 72
84 60 91 115 97 113 135 113 118 120 97 99 80 56 52
46 15 8 29 4 10 22 1 1 18 4 7 16 6 8
18 8 8 18 13 12 16 15 15 14 17 20 16 16 19
10 8 8 17 8 9 21 6 10 24 7 11 23 5 10
16 5 14 123 111 153 255 255 255 255 246 255 77 58 70
33 26 38 34 21 37 30 14 29 24 4 17 19 10 19
19 18 35 22 24 39 16 20 32 10 7 28 6 5 0
6 4 0 8 3 4 15 8 8 14 8 8 7 1 4
8 3 4 3 4 3 2 3 6 15 4 9 16 6 10
9 9 6 9 9 8 11 7 11 11 7 9 9 2 8
10 9 4 9 7 3 3 3 2 11 3 14 27 7 28
28 8 38 17 5 51 76 58 117 131 101 177 147 120 208
160 143 228 134 111 202 85 58 144 34 18 82 11 10 52
50 17 66 78 45 84 46 27 54 33 27 37 47 40 52
47 36 53 98 90 96 188 181 181 228 227 222 106 111 105
103 94 103 236 225 238 202 187 204 95 84 103 80 71 85
159 158 158 236 243 236 61 53 57 237 223 225 224 206 233
255 255 255 243 207 255 84 57 185 21 3 119 31 3 97
24 4 66 13 15 7 17 15 10 18 6 9 10 4 18
8 4 26 8 8 23 28 19 30 38 22 32 28 4 3
58 26 22 109 78 65 134 111 92 87 72 53 19 7 14
27 10 4 25 8 8 35 48 45 14 25 20 22 18 30
36 47 53 30 37 46 25 17 38 48 37 20 53 46 22
64 57 160 255 255 255 255 255 255 114 116 203 26 17 31
26 9 13 28 42 36 40 46 38 13 11 19 18 15 21
24 15 30 26 16 34 25 18 32 18 13 30 14 8 28
14 9 27 14 11 25 13 9 24 12 8 22 13 9 18
16 13 19 17 16 19 18 19 17 22 24 19 16 20 10
10 13 2 12 13 12 16 16 16 17 14 12 19 16 14
23 23 10 27 31 19 22 25 19 17 18 16 11 10 12
4 3 6 6 6 6 6 8 8 9 13 17 14 17 21
0 3 14 11 14 13 20 20 27 13 16 20 98 100 86
199 190 167 219 187 146 124 99 58 33 28 6 21 18 9
10 5 11 13 11 20 8 8 16 10 10 10 8 9 16
6 4 20 7 7 13 16 16 19 27 26 30 40 37 42
54 48 50 63 56 53 89 80 53 120 108 61 144 134 76
183 180 112 213 210 145 186 176 98 101 93 25 28 18 11
13 3 15 25 16 4 31 19 10 31 25 13 25 25 8
9 14 2 6 7 4 13 4 13 10 8 9 14 19 10
13 15 16 0 0 12 9 11 2 19 22 3 35 41 10
47 60 20 91 97 55 108 112 72 74 73 51 41 40 28
25 24 37 24 24 26 29 29 24 24 24 22 20 24 18
15 18 15 12 12 11 14 13 10 17 17 9 20 19 11
19 13 13 18 13 10 41 39 27 61 61 44 63 63 50
60 57 46 56 52 41 51 48 37 44 41 23 37 31 7
35 16 6 11 17 25 45 53 87 156 156 235 255 255 255
255 255 255 236 239 255 73 69 150 43 26 90 57 34 84
72 47 82 115 88 109 144 120 123 141 115 114 99 77 75
51 30 19 35 4 10 31 3 9 17 3 4 15 4 7
15 8 10 16 9 9 17 10 9 16 10 11 12 11 16
14 9 15 11 2 4 20 3 7 23 6 10 22 6 10
17 4 7 10 3 13 115 103 145 255 255 255 255 254 255
95 74 88 28 16 22 21 21 25 7 6 12 18 16 6
35 16 14 23 8 10 10 19 23 13 22 23 10 8 18
10 5 0 9 4 0 14 3 3 14 8 7 12 9 10
9 3 3 8 1 6 1 4 9 3 9 7 19 12 14
18 8 17 10 10 15 7 7 15 11 6 16 14 9 16
12 6 10 16 12 2 13 16 4 10 13 10 9 4 24
34 13 60 58 33 111 87 68 172 163 132 254 194 157 255
155 126 254 124 103 215 77 48 146 32 3 82 7 11 42
9 6 36 40 11 53 64 32 74 58 37 66 50 33 48
45 26 43 38 22 41 52 37 48 100 84 85 197 181 185
255 246 251 159 162 158 84 77 88 236 222 234 204 185 206
176 164 185 213 210 217 103 117 120 174 152 149 184 164 166
166 153 187 255 255 255 255 232 255 80 55 180 11 12 114
27 3 98 27 5 60 20 14 6 21 14 10 14 11 7
9 4 15 11 0 28 17 7 34 32 17 30 37 17 23
27 8 10 60 29 25 124 91 76 147 117 100 92 68 51
44 12 20 51 14 8 43 11 12 49 50 46 33 31 27
26 18 34 52 53 69 61 50 77 74 39 79 95 61 63
88 64 29 66 53 157 255 255 255 255 255 255 118 131 212
42 28 36 27 11 18 38 47 47 42 44 42 17 12 18
19 16 25 19 16 31 18 14 30 22 17 24 16 14 26
7 3 32 13 3 33 13 10 30 10 9 26 9 7 23
13 3 23 20 4 25 25 12 24 25 13 18 17 6 7
13 1 5 15 4 3 19 11 11 21 15 15 18 13 13
17 12 14 13 7 9 16 14 20 7 5 24 8 7 26
11 9 28 10 8 23 4 4 13 3 3 3 14 15 21
13 13 18 9 14 11 13 18 16 12 11 25 9 9 20
80 81 72 167 161 142 220 192 152 158 129 87 73 57 30
49 38 18 33 23 18 36 31 34 36 33 36 34 33 31
36 36 37 48 47 46 49 49 41 47 47 39 45 43 38
46 38 31 67 55 44 110 100 71 184 170 107 221 208 121
215 207 118 199 196 119 173 164 105 120 110 49 48 48 8
14 1 9 18 8 13 19 14 6 17 11 4 24 21 8
27 25 7 25 22 4 21 12 0 14 4 1 8 3 13
5 3 12 10 11 12 10 8 15 9 6 1 15 12 1
16 22 3 16 34 4 74 86 34 110 121 66 83 93 67
53 59 40 19 22 20 15 15 17 25 23 8 27 19 11
22 17 15 22 20 26 17 13 28 14 4 15 21 13 4
31 22 13 43 25 23 56 36 29 76 65 44 75 72 44
68 62 35 77 66 37 71 59 28 49 37 10 26 16 16
21 13 28 23 1 31 15 34 75 136 138 207 255 255 255
255 255 255 255 255 255 94 93 169 40 29 90 68 47 96
91 60 98 122 89 113 160 125 139 156 123 126 114 81 85
62 35 35 31 7 6 33 9 8 30 9 8 13 9 11
10 7 14 13 6 14 10 4 11 13 3 9 16 3 9
13 3 11 18 6 12 23 3 10 31 8 15 26 6 9
14 1 1 13 2 7 15 3 14 112 98 134 255 255 255
255 255 255 108 90 108 17 3 18 9 15 1 18 21 19
23 29 33 22 19 27 24 7 11 29 15 15 20 17 18
13 16 16 9 3 0 11 4 0 13 3 1 9 4 4
9 8 9 9 6 11 6 3 10 3 10 11 11 3 11
26 20 27 23 16 28 15 12 25 9 5 21 9 8 16
16 11 12 16 7 13 16 7 13 5 13 14 9 16 24
18 7 59 71 45 129 128 100 202 159 137 253 196 163 255
170 136 255 100 76 201 68 45 146 38 20 81 19 20 38
10 11 25 13 9 29 42 25 58 50 35 70 40 27 55
49 27 54 51 28 51 52 28 45 48 29 38 56 40 39
97 82 82 192 178 181 255 255 255 148 149 140 109 105 114
228 216 222 242 234 231 206 208 200 119 100 97 208 176 169
111 92 103 151 141 185 255 255 255 255 245 255 86 62 190
5 16 112 19 4 96 21 6 50 17 9 6 13 7 11
8 13 11 7 10 12 8 4 20 13 4 28 26 8 20
30 10 6 25 12 15 67 36 27 146 113 97 156 124 110
85 54 40 45 12 23 48 14 13 39 12 14 51 46 39
45 39 37 23 10 37 66 62 87 82 69 98 81 43 85
108 70 80 117 88 60 53 34 137 205 218 255 255 255 255
143 167 240 66 63 63 45 48 38 56 61 51 47 43 31
38 27 24 34 24 25 32 25 24 35 30 22 40 34 17
37 33 20 19 26 19 15 27 15 13 29 17 12 27 15
9 24 13 6 17 12 3 11 17 8 7 16 9 6 10
6 8 11 9 7 6 13 6 4 17 10 12 17 12 13
13 11 10 11 13 11 10 13 18 18 20 35 10 17 38
11 18 38 15 15 31 8 5 21 6 6 14 12 12 13
17 14 25 3 4 4 16 20 11 4 4 17 27 26 35
18 18 16 69 69 62 124 121 105 195 179 141 192 168 126
153 131 98 141 123 94 135 121 101 130 121 110 120 114 101
108 104 88 83 83 70 58 61 46 46 50 29 40 41 22
32 28 13 43 32 21 103 95 75 178 169 114 241 227 132
230 222 126 196 192 112 161 157 92 112 106 56 63 58 19
26 29 6 9 8 2 11 7 10 9 8 11 10 9 7
14 13 7 15 15 7 15 14 6 18 12 2 13 10 2
6 9 12 4 8 16 9 5 11 19 9 12 25 10 1
25 7 0 18 3 0 14 5 0 50 56 14 87 97 43
84 95 62 62 76 46 22 34 3 12 16 17 13 18 13
18 20 19 11 12 20 13 18 13 14 9 18 10 4 16
26 13 3 42 34 22 59 47 34 71 57 35 79 74 44
66 66 33 48 42 8 43 33 10 37 28 9 35 24 9
21 12 24 17 13 28 25 16 39 80 85 155 255 255 255
255 255 255 255 255 255 133 139 208 41 41 91 57 44 88
95 69 112 117 81 117 146 110 129 160 122 134 120 87 92
70 35 38 38 16 9 29 15 9 29 8 7 19 7 11
10 6 16 10 5 13 9 2 16 4 2 10 7 3 8
11 6 5 11 8 6 19 8 11 23 13 15 26 9 13
15 9 8 7 5 7 13 2 7 20 6 17 115 96 124
255 253 255 255 255 255 115 103 122 2 4 19 8 3 21
24 23 35 29 37 46 20 38 44 12 20 23 16 11 16
10 16 19 4 24 20 9 8 0 11 9 0 11 10 0
13 10 3 16 9 7 15 9 13 13 6 10 13 11 3
20 13 15 30 28 28 24 20 18 16 9 10 12 6 9
4 6 2 13 13 6 21 13 4 15 8 20 4 23 32
13 4 64 74 50 136 147 118 216 183 156 255 161 141 240
134 106 204 87 60 143 39 24 91 36 15 68 26 4 40
16 2 31 20 15 36 30 23 45 43 29 63 35 24 60
26 13 45 36 22 53 43 24 52 44 24 40 33 23 28
24 13 11 31 17 17 60 50 49 165 165 159 255 255 251
149 149 131 72 74 51 157 157 102 111 102 62 233 205 176
199 167 155 80 63 77 152 144 192 255 255 255 255 245 255
88 64 198 2 18 108 13 3 93 11 3 50 4 3 2
6 1 15 7 8 11 8 11 7 5 8 10 8 5 13
20 4 11 29 1 11 28 3 18 70 40 32 157 124 108
158 127 113 72 42 31 26 4 24 23 6 15 12 8 13
37 38 26 43 40 31 20 7 33 73 64 91 91 79 100
53 36 61 62 45 48 112 95 80 47 26 92 143 163 255
255 255 255 156 187 255 61 77 82 56 73 52 77 91 63
64 70 44 51 53 38 50 51 37 46 52 30 42 54 32
46 55 35 51 54 36 48 52 38 49 53 38 45 49 34
37 41 24 31 35 19 30 32 20 31 32 26 34 36 31
34 35 33 28 28 27 25 25 18 25 25 18 27 27 19
28 28 21 29 29 22 30 30 24 26 25 29 18 16 28
9 9 12 9 10 3 10 4 6 3 7 11 10 10 19
11 11 24 7 4 17 7 11 3 13 13 8 23 23 24
27 32 34 13 16 11 54 56 47 92 94 73 156 150 115
193 182 144 206 198 167 226 218 187 237 229 197 229 222 187
207 204 164 186 185 144 149 149 108 85 85 48 37 37 8
17 20 26 14 5 36 75 65 55 170 164 127 215 209 121
191 185 58 120 116 30 80 74 32 69 60 30 53 44 18
35 28 11 17 14 6 7 9 1 6 11 6 3 10 6
7 11 1 12 16 4 15 17 8 13 16 3 13 17 0
14 16 0 15 6 6 18 6 10 18 4 3 16 3 9
15 2 4 13 3 3 9 1 1 11 3 0 34 36 3
61 71 26 73 87 54 66 89 50 48 72 27 40 62 16
28 54 10 26 49 18 8 27 26 9 18 28 13 12 21
19 19 16 39 33 7 52 55 30 64 64 39 54 61 30
51 67 30 46 55 20 26 24 18 10 8 13 27 24 23
19 16 6 33 35 30 27 22 13 1 4 59 208 204 255
255 255 255 255 255 255 177 187 241 63 68 120 56 55 91
63 52 86 101 70 114 129 95 131 137 102 120 130 91 104
77 48 51 42 17 18 33 11 11 31 10 4 23 3 8
13 7 15 10 3 6 6 3 6 7 4 13 6 5 9
6 8 4 6 6 4 5 3 3 16 10 12 20 16 16
20 4 8 6 9 9 5 6 9 12 4 7 25 8 18
114 94 116 255 245 255 255 255 255 116 109 134 4 7 24
13 8 37 27 19 37 7 1 13 15 19 21 21 24 35
21 29 35 18 26 33 16 24 32 13 13 1 15 15 3
14 14 4 18 12 8 20 11 11 18 10 10 16 9 6
15 10 6 17 12 18 28 25 18 19 15 7 9 6 6
11 10 10 4 6 6 8 11 4 23 17 26 19 12 45
29 11 81 85 65 150 159 134 228 204 176 255 190 165 255
143 121 212 102 79 153 64 46 101 42 27 68 35 15 48
24 9 33 20 11 35 30 22 47 41 30 59 38 28 59
27 17 47 29 12 45 35 22 50 44 23 50 43 23 39
32 22 27 24 11 15 40 25 32 29 19 27 65 68 56
207 209 193 255 255 242 194 197 151 61 73 42 181 156 143
255 246 216 151 122 104 81 64 72 154 146 193 255 255 255
255 243 255 84 61 197 2 22 102 12 1 91 10 3 56
4 4 7 6 4 16 7 7 7 8 11 3 6 10 6
8 4 8 22 4 5 33 6 15 28 6 24 70 42 40
160 124 110 163 127 115 72 44 40 24 9 34 20 8 28
9 10 23 31 32 28 40 40 31 21 13 33 77 63 92
92 81 103 54 42 66 42 30 46 106 91 75 99 87 51
86 106 233 243 255 255 164 194 255 34 61 86 32 49 33
61 81 54 67 78 48 59 66 44 59 64 44 58 62 39
54 61 41 55 63 46 58 63 48 56 59 46 55 56 47
54 54 46 48 48 37 39 41 30 35 37 29 35 36 31
37 38 35 36 38 32 33 34 26 32 32 24 33 33 25
33 33 25 33 33 25 34 34 26 35 35 27 29 31 22
14 18 9 7 10 11 8 11 11 7 4 14 1 12 19
13 13 25 13 13 24 8 8 13 13 14 13 27 27 26
37 37 32 28 32 28 15 18 11 33 36 27 64 68 51
115 118 88 161 159 119 187 185 137 204 201 143 212 208 138
213 205 124 210 201 120 202 198 126 209 207 146 193 190 138
137 134 85 87 88 51 70 62 21 153 147 120 215 212 153
183 182 84 107 101 11 44 34 4 13 5 6 12 4 8
11 4 5 8 2 3 6 5 2 6 5 3 6 4 5
4 6 5 5 9 4 12 14 6 15 17 11 11 16 3
8 17 0 10 19 1 11 8 9 13 3 9 13 1 3
11 3 6 9 3 6 6 1 6 4 3 3 9 5 0
18 23 1 46 58 19 74 87 47 82 105 60 81 108 58
82 108 54 80 107 53 74 103 51 61 86 35 49 65 21
47 56 15 51 58 23 58 68 27 65 80 34 71 81 42
58 73 35 44 61 23 30 37 9 23 24 22 34 35 25
37 36 27 19 17 9 27 31 28 4 14 30 109 106 175
255 255 255 255 255 255 246 255 255 91 99 145 50 52 102
41 31 74 37 24 57 118 83 125 153 120 150 129 94 111
116 77 88 69 42 39 40 18 13 29 14 16 26 9 8
14 6 14 6 11 19 7 6 3 3 3 3 9 4 11
9 6 11 6 6 3 6 8 4 8 6 3 18 9 12
21 17 17 18 7 9 7 10 9 3 7 9 15 9 11
29 13 22 106 86 108 255 238 255 255 255 255 120 114 144
6 6 31 14 10 39 25 15 32 4 4 12 7 8 12
13 9 23 19 16 30 19 18 28 17 14 24 28 16 16
27 15 16 24 12 16 22 8 14 19 6 10 15 7 7
13 6 6 11 6 6 11 6 15 24 19 16 15 12 7
6 10 7 10 12 9 8 2 18 17 7 33 29 6 57
47 19 98 98 74 164 167 148 239 209 187 255 194 169 255
136 110 209 80 56 145 52 31 99 44 26 75 41 24 61
36 22 51 28 21 42 29 20 42 40 30 50 46 38 55
34 29 47 31 16 35 35 16 43 39 21 48 45 23 48
42 23 39 34 19 29 25 14 24 40 26 39 32 21 38
19 16 34 77 81 58 202 209 177 255 255 237 180 184 132
191 169 166 245 220 181 104 75 38 85 70 73 160 152 195
255 255 255 255 242 255 81 61 196 7 27 101 13 4 89
13 2 58 9 5 15 9 2 16 10 5 13 10 10 12
9 9 13 9 4 11 27 6 12 37 8 21 30 4 20
74 43 36 164 124 111 164 127 117 73 47 42 28 13 36
25 13 33 22 14 31 34 27 35 44 40 39 28 14 37
77 63 92 93 82 104 61 49 74 31 23 50 99 85 45
134 120 27 47 66 201 231 251 255 176 202 255 20 55 92
20 20 13 37 55 36 54 67 39 53 58 40 46 57 37
44 55 26 49 54 27 52 56 29 52 55 32 45 47 29
39 41 27 41 43 32 42 42 31 37 38 25 29 32 22
24 25 20 21 22 23 20 24 16 22 26 12 24 25 17
26 26 22 28 28 24 29 29 25 29 29 25 30 30 24
30 31 16 20 23 7 11 15 7 8 11 7 4 7 14
4 15 21 17 16 24 14 13 20 13 9 17 27 25 28
43 43 35 42 42 30 30 29 18 18 14 4 13 13 6
31 32 18 60 61 33 86 84 41 100 94 41 104 95 35
104 94 27 108 98 20 126 113 25 147 134 40 184 176 85
221 217 135 217 213 146 179 178 125 151 142 88 197 191 156
189 187 127 100 97 34 42 26 4 35 31 9 22 29 12
14 23 14 9 16 11 4 9 6 6 9 2 6 9 3
6 6 7 5 5 7 6 6 6 11 11 4 11 13 9
10 10 6 9 11 4 7 15 3 4 8 10 8 4 8
10 8 7 10 8 10 4 7 9 6 7 8 7 10 4
12 11 0 18 14 0 35 31 6 58 55 21 73 74 38
83 88 46 91 96 51 99 105 58 104 112 65 100 110 63
89 104 53 83 99 46 78 96 41 72 94 34 72 91 33
69 82 40 52 69 31 29 43 7 13 17 8 21 27 4
30 44 13 27 39 11 13 22 1 24 26 35 76 78 120
255 255 255 255 255 255 255 255 255 131 150 189 34 39 92
35 31 80 21 16 53 54 24 71 159 122 162 164 126 156
109 69 85 93 57 61 58 27 22 33 8 8 21 6 11
16 5 5 4 11 21 3 15 19 7 4 4 4 4 4
10 3 10 11 3 11 4 4 4 3 3 3 9 4 3
20 9 13 22 18 18 15 10 10 6 11 10 10 11 10
21 13 16 30 14 23 94 74 100 250 227 255 255 255 255
126 121 150 7 2 32 16 8 38 20 10 30 2 6 13
1 2 11 4 4 11 3 3 17 1 6 18 2 7 12
27 12 29 25 12 23 25 11 20 25 9 17 20 8 11
15 8 8 13 5 5 12 6 4 12 7 10 20 12 19
11 7 13 4 10 12 10 1 28 30 19 51 51 34 77
69 44 115 106 75 175 165 143 237 201 180 255 186 156 255
124 93 195 58 32 124 25 3 78 30 6 61 38 19 62
39 28 60 39 33 54 38 32 47 39 28 44 41 33 47
42 35 48 35 20 38 35 16 36 39 19 48 42 21 49
46 27 47 42 29 44 36 24 38 26 20 34 37 26 44
44 31 52 25 24 41 18 19 35 69 81 36 229 239 187
239 245 197 71 60 75 255 245 209 169 145 108 94 80 81
169 160 199 255 255 255 255 245 255 80 60 194 9 29 98
11 8 88 13 4 59 7 7 18 9 3 23 10 4 22
10 9 20 9 8 21 11 4 16 32 9 19 40 10 24
31 3 18 78 45 34 166 126 117 164 129 120 77 50 41
31 13 32 25 11 30 22 14 26 31 23 30 44 40 40
31 17 39 71 61 85 97 85 106 69 57 84 25 13 42
106 94 43 132 114 40 47 61 203 220 237 255 174 201 255
18 54 89 28 20 17 23 38 27 34 50 27 37 40 30
31 37 29 24 36 13 30 35 12 34 38 18 34 39 17
26 30 16 18 22 15 21 25 14 28 31 17 28 30 12
20 23 7 10 15 3 4 4 17 5 4 19 3 7 13
9 13 6 10 13 3 13 14 6 17 17 13 16 16 13
17 17 13 30 30 25 24 25 18 10 14 10 6 9 13
0 10 18 8 16 23 20 19 20 15 13 17 17 14 20
30 29 27 35 35 20 25 25 8 27 22 3 26 19 8
6 6 3 21 21 9 16 17 1 22 22 4 20 22 8
17 16 9 17 12 6 23 15 1 44 31 0 73 58 0
103 90 16 142 135 54 191 185 113 206 205 143 182 179 120
169 163 123 123 120 75 48 39 9 26 9 6 30 11 4
18 9 5 15 10 3 14 9 6 12 10 7 5 12 4
3 9 1 7 7 4 9 11 6 11 15 8 13 16 7
7 16 3 4 16 4 7 16 7 6 14 4 1 12 9
8 10 9 5 9 4 4 9 4 10 11 9 14 12 10
14 13 4 19 13 0 18 10 4 14 9 9 21 16 11
33 25 6 44 38 7 50 49 11 60 61 20 72 76 32
82 88 42 89 101 49 89 109 51 84 107 46 78 98 35
68 85 27 57 70 31 41 55 24 27 40 5 20 29 10
22 29 11 20 27 11 6 14 11 7 10 20 62 64 94
229 239 255 255 255 255 255 255 255 201 220 255 74 83 130
32 29 81 21 11 58 38 21 59 134 99 138 192 157 191
136 99 124 80 41 50 66 34 32 47 14 12 24 0 11
9 2 13 9 2 13 5 16 22 3 16 15 5 3 3
4 4 4 11 3 11 10 3 10 4 4 4 4 4 4
11 4 4 19 8 11 21 17 17 15 11 11 9 6 6
15 8 8 22 11 14 30 13 23 84 63 94 242 218 255
255 255 255 130 126 154 12 3 35 17 5 38 16 9 32
6 6 17 2 2 16 4 4 11 5 4 13 6 3 16
5 1 14 16 6 27 16 8 22 17 8 14 18 8 13
16 9 10 13 9 3 12 8 3 16 11 13 22 15 22
22 9 25 15 3 23 16 2 32 36 20 64 67 50 98
92 70 132 123 96 184 164 133 237 188 163 251 169 144 225
104 74 161 36 9 92 14 17 57 20 11 52 38 18 57
42 24 57 40 21 50 40 26 45 40 31 41 40 29 37
38 26 34 37 25 36 37 19 38 37 21 45 42 23 51
44 23 50 44 29 50 41 27 49 37 21 40 30 16 34
43 26 51 43 25 57 13 12 34 8 7 37 13 28 37
151 171 105 255 255 220 89 105 74 241 224 185 238 218 167
105 92 92 180 171 206 255 255 255 255 251 255 81 61 190
10 29 97 10 11 89 13 8 62 11 8 23 12 7 23
13 6 19 13 7 17 13 8 24 14 4 18 37 10 16
41 14 19 30 3 12 80 47 34 168 129 120 166 130 121
76 51 36 27 9 19 17 8 20 14 10 15 22 17 19
35 38 30 27 17 31 63 57 80 101 87 111 75 61 96
35 20 58 110 92 74 130 110 106 99 96 225 200 217 255
151 177 255 13 41 87 27 10 34 11 25 38 23 35 34
26 29 34 23 18 29 11 14 17 14 17 14 20 23 17
20 25 13 23 26 22 21 22 24 11 11 15 15 19 9
23 27 6 23 24 9 22 25 16 25 26 28 25 25 36
17 16 28 6 5 13 6 6 12 3 3 11 4 6 9
4 8 6 4 8 4 25 24 29 23 23 28 6 10 14
7 11 14 4 16 18 10 19 24 22 22 21 17 17 21
14 14 18 25 25 19 29 29 9 10 10 0 22 14 1
28 21 9 7 7 4 19 19 8 11 12 1 8 4 6
12 8 8 11 7 8 8 1 9 9 13 4 16 11 1
25 14 0 38 23 0 58 48 8 102 93 45 146 141 87
146 143 89 108 100 55 62 57 34 34 26 24 34 27 7
31 31 4 16 26 9 10 23 9 8 19 4 1 15 6
1 11 12 2 9 15 10 14 13 9 22 7 11 25 4
11 26 4 7 25 4 4 24 3 7 21 4 7 16 5
3 13 9 9 11 8 16 10 3 20 12 6 20 15 9
16 18 9 9 20 4 9 21 0 10 21 7 11 20 8
12 18 4 17 19 4 19 16 5 19 15 5 25 23 3
38 38 1 51 54 11 58 70 18 56 76 23 53 75 29
53 70 27 48 62 19 40 52 22 31 41 18 22 35 6
25 39 16 16 16 6 14 20 10 7 20 27 30 47 72
184 199 233 255 255 255 255 255 255 245 255 255 89 106 157
40 44 84 28 27 65 42 33 64 102 77 109 194 159 190
163 132 154 78 43 54 51 14 15 44 18 17 42 16 18
24 9 16 9 4 16 10 6 16 3 19 19 6 17 12
4 4 4 3 3 3 11 3 11 11 3 11 3 3 3
3 3 3 9 4 3 17 5 9 21 17 17 17 13 13
12 5 5 17 7 7 22 11 14 32 14 25 78 52 90
234 208 255 255 255 255 135 131 159 15 5 33 16 5 34
13 11 30 8 8 11 5 5 10 2 2 10 1 1 13
3 1 14 1 2 17 16 4 19 16 3 23 15 3 18
13 4 12 11 6 12 9 5 7 8 4 6 21 11 23
32 15 33 31 13 36 24 10 40 28 8 60 54 38 95
85 71 128 102 81 158 141 110 213 168 137 237 142 118 195
91 72 138 33 25 69 27 40 39 29 28 49 40 20 60
45 27 57 41 20 41 38 19 33 34 20 29 33 22 29
34 23 27 30 17 21 27 16 25 38 21 47 42 19 51
37 13 42 37 18 44 38 25 46 38 24 45 37 19 38
30 13 38 39 22 59 29 13 53 2 11 28 10 21 26
10 27 40 123 145 82 255 255 214 144 163 115 204 189 150
248 236 179 107 99 95 188 182 211 255 255 255 255 255 255
85 64 185 9 27 96 10 12 89 10 10 64 11 10 32
10 9 24 11 11 19 11 9 15 11 8 23 11 6 27
37 12 16 41 15 17 31 3 6 81 48 33 167 130 120
166 132 121 76 50 33 27 6 11 16 9 18 14 9 11
18 8 16 31 33 22 20 15 24 60 53 78 102 88 117
75 65 104 41 40 83 105 93 109 145 132 150 124 119 232
168 185 255 122 143 244 26 32 91 34 14 55 28 24 55
20 20 43 24 24 40 19 16 36 13 8 31 15 11 28
20 21 25 22 22 20 35 39 36 30 34 35 16 16 22
9 11 9 20 24 6 31 31 16 34 36 23 35 37 32
31 29 40 31 31 40 8 8 12 7 7 10 7 4 13
7 3 15 5 1 13 4 2 15 20 19 34 20 19 31
6 6 13 7 9 12 8 20 17 14 25 25 23 23 24
18 18 24 5 5 11 19 19 10 34 34 10 19 19 0
12 4 0 25 17 4 12 12 4 11 11 4 20 15 1
24 10 7 33 18 10 33 24 9 27 22 7 21 17 3
17 12 2 11 9 0 20 5 0 34 21 0 43 30 7
60 49 23 77 70 36 63 62 28 27 27 7 25 24 31
20 15 27 15 1 30 20 4 32 20 6 28 18 7 25
12 7 24 6 10 25 3 14 25 13 25 22 9 30 15
2 26 11 6 25 13 3 24 14 3 23 14 6 20 13
10 17 12 4 15 9 6 13 4 11 12 1 14 13 8
10 16 9 6 20 8 5 22 3 4 22 0 8 28 6
20 41 10 25 46 12 23 39 9 19 28 4 15 21 3
18 24 3 26 34 5 25 41 9 19 38 3 16 35 6
14 36 14 18 35 12 22 35 4 23 33 13 17 27 13
3 22 4 4 25 7 9 27 4 6 14 18 6 15 45
96 115 152 255 255 255 255 255 255 255 255 255 103 119 204
36 36 79 27 23 33 25 16 35 78 61 84 157 129 153
167 130 154 96 62 77 44 13 24 34 6 17 34 13 19
36 19 21 25 17 18 13 9 17 12 6 18 5 18 16
8 15 7 4 4 4 4 4 4 9 1 10 13 0 12
6 2 3 0 0 0 8 4 0 16 4 8 23 19 19
22 14 15 16 2 4 16 3 4 21 10 14 33 13 25
74 41 84 229 199 250 255 255 255 140 136 165 15 8 33
14 8 31 11 11 27 9 10 2 4 3 6 9 9 11
9 9 16 8 8 13 8 8 15 23 3 20 19 1 21
11 9 19 3 11 13 1 11 12 4 8 6 8 5 11
25 12 31 22 10 35 11 13 30 21 3 54 57 41 108
107 91 167 139 122 201 138 112 204 142 106 210 115 84 176
57 38 103 31 24 66 14 20 31 14 19 32 42 23 60
55 38 70 39 20 44 31 12 26 36 26 33 28 19 25
16 2 10 11 7 6 16 9 9 27 21 25 43 24 54
49 19 63 41 19 51 42 25 47 38 21 42 40 22 43
42 24 45 34 21 51 27 13 55 9 9 32 11 15 16
18 28 30 27 42 44 120 142 76 252 255 187 153 177 106
164 152 114 254 249 181 139 135 128 192 188 208 255 255 255
255 255 255 81 63 176 9 25 96 11 9 91 8 9 68
9 8 46 8 6 38 10 12 33 14 14 30 18 12 34
26 13 42 39 14 31 39 8 11 32 8 3 79 50 32
166 135 123 168 136 124 79 49 33 30 3 11 22 7 19
31 16 29 39 22 40 49 37 49 46 35 55 62 49 81
99 85 118 81 77 113 67 69 108 80 65 108 121 105 135
106 104 215 129 143 255 78 97 197 9 26 78 14 15 42
16 9 35 2 11 24 23 24 23 20 24 21 16 20 14
15 20 9 19 28 6 22 30 6 34 45 31 28 35 23
8 8 8 7 10 8 17 20 10 30 30 15 41 42 26
41 44 36 29 27 37 54 54 62 33 33 40 7 7 13
4 4 3 9 9 3 10 10 3 11 11 17 17 17 31
11 10 20 12 15 6 11 14 6 9 22 16 15 27 22
24 25 19 18 18 13 6 6 3 10 10 7 27 27 10
25 25 0 18 19 0 16 10 1 5 5 3 4 4 3
27 14 1 28 16 3 14 4 6 18 6 7 20 9 5
20 6 3 19 6 1 15 7 0 15 5 0 23 10 0
28 14 2 19 8 6 21 18 17 33 33 30 18 21 16
17 19 17 13 13 19 5 5 27 7 10 29 8 15 27
6 19 23 8 18 20 7 21 17 1 23 16 17 35 20
16 40 15 10 34 5 9 32 4 9 33 4 9 32 6
6 31 9 8 31 6 13 34 4 20 35 9 16 30 13
8 27 13 1 28 10 4 25 6 9 27 1 8 35 0
4 33 9 21 19 18 26 16 16 17 30 3 6 41 9
4 40 4 9 34 1 9 27 7 19 23 12 24 18 15
13 14 20 8 14 22 15 20 8 17 26 8 12 20 5
2 9 12 10 12 15 8 11 11 8 18 16 1 25 30
44 62 98 237 255 255 255 255 255 255 255 255 143 160 238
43 40 125 23 18 48 30 27 27 75 57 70 149 126 139
161 130 143 98 64 74 63 27 35 50 21 22 29 7 7
34 3 7 30 10 8 21 9 7 11 7 18 15 17 27
19 21 20 11 9 9 9 1 5 14 8 11 18 12 17
22 10 18 21 7 12 13 3 6 17 3 7 25 14 17
27 19 20 26 11 15 18 3 5 18 7 8 26 11 17
30 8 21 68 35 78 226 196 247 255 255 255 150 146 176
20 17 36 9 7 24 12 12 28 11 12 12 13 13 13
5 6 8 2 2 11 2 2 10 2 2 7 19 3 20
17 6 26 14 11 28 7 8 18 6 10 7 15 7 15
23 4 26 23 4 35 13 12 43 14 5 57 57 42 106
109 91 173 146 123 214 146 119 207 115 83 171 86 57 146
56 36 106 24 20 53 19 17 38 13 3 29 26 5 35
48 27 59 52 37 67 33 16 41 28 14 29 40 32 40
29 22 24 10 10 8 8 9 7 20 18 12 35 29 34
46 21 61 52 17 75 42 21 56 30 11 36 25 8 31
37 23 40 39 28 47 19 10 40 8 6 35 5 12 20
3 7 26 33 41 38 32 50 34 99 121 46 223 244 158
190 215 111 89 74 53 255 255 181 210 208 192 199 196 206
255 255 255 255 255 255 72 54 161 25 25 104 24 4 103
15 10 75 13 6 57 12 2 50 14 9 46 21 20 45
26 22 46 33 22 49 38 20 46 35 14 31 34 8 16
82 51 37 176 143 133 175 142 132 88 55 48 44 23 37
42 25 44 50 33 54 52 40 61 57 48 64 58 48 66
57 39 75 87 74 108 85 85 119 60 65 105 8 17 85
51 29 96 28 36 180 76 92 223 28 55 150 16 36 75
9 25 37 20 13 16 6 15 17 22 21 17 20 18 18
16 16 8 17 14 3 25 27 10 25 35 16 18 34 18
23 32 18 20 23 11 18 22 9 16 18 12 22 22 7
43 43 27 49 53 45 35 39 25 55 55 55 62 62 66
27 27 34 7 7 2 9 9 1 7 7 7 22 22 25
9 8 20 7 11 11 11 14 10 15 19 9 12 25 15
14 27 16 22 25 16 18 21 11 14 16 5 12 12 10
13 13 6 21 21 0 21 24 0 16 16 1 9 9 2
6 6 1 25 12 0 33 18 0 15 18 0 6 16 0
1 11 0 6 6 0 8 6 0 9 6 0 8 6 0
7 7 0 20 8 2 17 13 13 27 24 28 28 24 29
7 7 10 14 14 9 20 24 4 23 34 10 27 41 6
26 45 10 23 48 9 22 46 9 22 44 8 20 42 8
27 49 19 24 46 17 16 36 6 15 37 6 13 38 4
13 38 4 14 38 2 13 37 5 19 32 7 17 25 8
7 23 5 8 23 1 11 20 5 11 22 7 14 32 3
14 34 1 18 33 12 18 37 13 13 35 10 20 36 10
15 40 8 9 43 10 12 38 4 19 26 8 27 14 18
23 8 24 14 14 17 23 23 4 23 23 6 13 13 6
2 12 6 8 18 4 3 3 7 4 10 3 1 29 22
35 56 71 174 198 234 255 255 255 255 255 255 197 222 255
54 58 131 31 16 91 11 4 27 51 39 43 143 119 125
178 147 155 118 85 93 61 27 33 61 29 28 47 23 16
23 8 6 30 8 10 27 17 11 18 13 1 2 9 20
11 19 26 15 13 12 16 6 14 17 7 10 20 10 13
22 12 17 22 14 21 23 13 16 20 9 11 24 12 14
33 20 23 29 13 17 25 8 14 20 7 9 21 10 12
26 8 16 22 0 13 60 33 71 219 193 241 255 255 255
169 165 194 18 17 33 12 17 10 13 11 28 17 16 25
18 16 28 11 10 20 6 6 17 8 6 24 8 5 23
6 3 6 12 7 22 16 9 30 18 9 32 20 10 31
27 13 37 33 11 45 25 10 50 25 7 71 68 53 120
118 96 178 142 118 211 129 100 191 86 59 136 41 23 88
35 20 82 35 23 70 22 17 40 20 15 33 22 7 31
29 8 31 43 24 54 46 29 61 30 10 40 29 11 36
43 30 47 32 20 29 13 6 21 13 1 21 26 23 16
39 29 40 42 14 66 41 14 69 26 25 41 14 28 15
24 23 22 46 35 47 40 32 51 15 6 26 8 8 29
10 8 22 9 10 23 34 42 30 31 51 11 84 105 31
197 217 137 209 231 117 11 12 3 244 237 163 248 246 221
215 214 208 255 255 255 255 255 255 72 54 147 30 20 103
31 8 109 18 9 79 16 10 61 17 6 54 20 9 51
24 21 46 26 26 44 27 18 44 31 8 48 34 13 47
37 15 36 88 56 54 188 149 146 187 151 147 98 67 77
58 41 69 59 45 69 62 48 73 56 45 72 51 43 60
48 40 54 50 29 63 69 59 86 71 74 103 43 54 82
59 60 87 74 70 120 56 73 189 80 103 223 37 60 146
21 49 88 12 35 45 15 9 9 7 13 15 24 17 20
22 11 18 16 9 8 21 15 7 30 31 17 25 40 20
9 22 12 12 20 2 28 35 20 22 26 11 9 13 4
16 16 5 41 41 25 51 55 48 56 60 36 19 19 13
72 72 70 49 49 56 15 15 9 11 11 10 20 20 13
11 11 12 13 13 21 8 9 17 8 7 10 13 14 10
11 24 16 12 24 14 18 20 13 16 20 8 20 24 11
18 21 9 15 16 5 15 15 4 13 17 1 12 16 3
13 14 2 13 13 3 23 15 0 31 17 0 24 16 0
18 15 0 13 13 0 10 10 0 8 10 1 3 12 2
2 10 6 7 11 13 13 10 16 23 16 21 32 25 30
23 16 21 1 1 7 13 15 10 27 38 11 29 45 10
31 46 19 32 50 21 36 55 22 43 61 25 45 67 29
45 70 31 39 65 27 22 48 11 13 36 4 11 38 3
10 37 6 12 35 7 15 36 3 16 36 6 8 30 7
13 18 18 6 22 20 13 23 16 9 25 15 13 42 13
13 40 4 20 14 14 25 7 12 5 33 10 10 40 15
11 22 4 20 15 7 11 25 4 3 35 13 6 34 16
17 27 20 4 9 15 34 21 16 31 22 6 12 14 5
3 16 16 7 18 16 2 8 12 7 11 6 0 17 3
13 36 38 130 161 180 255 255 255 255 255 255 255 255 255
73 97 137 35 8 82 39 10 72 29 8 31 94 73 72
176 145 150 160 124 132 77 45 48 47 16 20 47 16 26
24 0 23 12 9 26 19 7 27 29 15 31 21 3 21
6 12 20 12 22 26 8 8 4 15 3 12 20 10 11
18 7 9 19 4 10 20 6 17 20 13 14 19 12 13
23 13 15 29 18 21 18 3 8 18 4 10 20 8 9
20 8 9 22 4 10 16 4 9 53 27 61 211 186 227
255 255 255 187 183 211 27 24 43 31 34 10 16 20 11
16 17 23 13 13 29 14 15 23 6 8 19 6 9 20
7 11 10 11 15 15 7 11 13 3 4 11 11 3 24
17 9 35 27 10 50 25 5 60 20 14 65 40 22 100
110 92 169 140 117 207 132 106 197 96 67 149 53 32 101
26 13 72 34 17 71 35 23 57 17 15 30 19 13 28
27 12 31 32 16 36 44 24 56 43 23 54 27 9 40
30 13 44 43 27 49 32 16 31 10 6 19 11 6 24
25 22 23 39 28 46 42 11 71 36 8 68 26 12 45
27 17 35 54 36 51 78 63 79 74 64 82 75 63 75
68 58 57 40 31 18 15 13 16 29 37 25 40 58 2
91 113 41 185 205 125 198 216 111 19 27 13 212 206 150
249 251 219 232 233 212 255 255 255 255 255 255 75 58 141
31 13 100 35 15 111 20 3 81 16 10 60 15 8 50
16 12 46 23 21 43 26 25 41 24 20 42 33 13 45
35 3 54 33 7 51 92 61 71 200 160 159 201 165 166
107 79 97 66 51 85 72 58 87 76 62 91 68 58 82
61 54 69 54 49 62 50 36 61 50 41 64 43 48 74
25 35 53 57 52 71 59 58 122 55 70 194 85 110 237
41 66 162 27 55 96 17 43 48 2 20 6 20 23 15
25 15 18 22 7 9 9 9 3 15 17 8 31 31 21
30 42 28 15 27 27 17 25 24 32 39 30 27 31 20
17 19 17 22 22 24 43 43 34 55 57 52 77 80 58
28 28 20 61 61 56 63 63 68 27 27 24 11 11 12
12 12 10 9 9 4 4 6 19 13 9 30 8 8 7
13 13 6 10 21 16 13 22 15 18 18 14 18 19 14
24 27 18 23 27 14 18 23 9 20 23 9 20 24 10
19 23 7 18 23 3 18 22 4 23 21 6 29 23 5
30 25 3 27 25 1 20 21 0 17 17 1 13 14 6
10 13 8 8 12 16 14 13 21 14 10 19 22 10 20
27 22 25 19 15 16 9 9 4 17 23 8 40 55 20
37 56 20 30 44 20 35 49 23 41 49 22 43 53 19
40 59 18 37 61 18 31 55 16 24 44 13 21 38 10
22 39 8 22 37 10 22 35 15 21 35 16 18 36 12
14 42 14 11 39 4 20 49 18 27 50 8 27 42 3
25 35 16 20 18 12 38 32 13 27 43 3 27 27 15
23 22 10 15 18 11 21 6 11 23 13 9 15 16 7
12 19 15 13 18 26 29 15 14 33 13 16 17 11 27
5 19 20 6 13 6 2 17 18 7 13 20 9 26 6
3 23 13 62 91 96 255 255 255 255 255 255 255 255 255
137 174 193 26 48 79 21 10 63 39 10 66 64 40 59
132 106 104 188 153 156 139 102 105 52 25 17 39 11 23
39 13 28 14 10 24 7 8 28 13 6 28 27 17 34
28 17 31 24 20 28 29 24 28 25 13 16 20 8 16
18 9 11 18 7 10 20 6 13 25 4 17 25 12 16
24 13 16 24 12 16 28 17 21 19 4 10 23 6 11
24 9 10 23 7 9 24 7 11 20 7 13 52 27 56
206 182 216 255 255 255 194 190 215 33 33 56 26 24 11
29 33 12 43 47 27 34 38 18 30 35 14 20 24 11
20 23 12 20 21 10 6 18 14 4 13 6 11 9 14
18 7 32 24 9 51 30 7 68 24 2 76 23 11 84
60 43 126 129 115 191 130 114 193 89 68 146 44 21 93
20 4 62 17 6 51 32 19 54 29 21 40 13 8 23
22 11 30 31 14 40 34 21 51 42 25 60 37 17 50
24 7 42 33 16 51 44 27 50 30 14 33 13 3 24
13 3 31 24 20 35 40 29 54 52 18 86 68 37 101
86 71 103 103 87 110 110 92 114 111 100 118 109 102 114
117 112 113 124 122 106 95 88 69 42 40 16 31 41 14
51 69 14 96 123 50 169 190 110 182 197 105 43 53 28
175 174 126 252 255 211 255 255 228 255 255 255 255 255 255
99 84 153 61 46 119 62 44 133 34 18 96 13 6 62
12 8 54 16 13 48 23 22 43 23 24 40 22 18 41
41 20 45 44 13 63 40 15 71 104 70 91 219 179 179
221 185 193 125 96 124 86 70 109 89 71 106 82 65 96
71 58 80 62 52 65 47 44 50 35 26 41 27 20 40
17 23 45 23 23 31 39 27 51 28 22 113 36 51 190
82 104 244 39 64 172 28 56 95 23 47 49 24 40 29
40 44 33 35 26 29 27 22 23 16 14 19 6 5 13
18 23 19 28 39 37 20 33 37 14 30 22 30 38 28
24 28 15 4 8 10 7 7 14 30 33 21 43 46 37
76 76 63 59 59 49 24 24 27 61 60 63 49 50 48
5 9 3 13 11 18 8 9 3 6 9 18 10 7 28
6 4 10 12 12 9 9 18 14 13 20 16 19 19 15
20 20 15 25 25 21 26 27 20 22 25 15 24 28 15
24 29 15 23 27 12 22 25 8 22 27 8 26 27 11
30 26 13 34 25 14 35 25 13 30 24 11 22 19 10
18 16 12 16 13 12 10 9 17 12 9 16 9 8 11
16 4 13 21 16 18 16 14 9 16 22 11 21 34 16
45 59 25 38 52 19 22 21 7 26 24 11 24 27 10
18 30 6 12 28 1 10 26 0 13 24 1 17 24 6
18 23 11 18 23 11 18 22 8 18 22 7 17 23 10
15 24 12 17 31 25 11 19 4 21 24 22 15 19 4
20 25 7 14 9 3 9 40 37 21 64 64 4 75 72
14 90 83 20 97 90 16 96 90 27 88 84 27 71 67
20 47 44 26 30 32 28 8 24 31 7 27 16 20 29
4 27 33 11 16 28 3 9 30 8 17 24 6 19 17
7 27 13 30 62 51 161 203 203 255 255 255 255 255 255
194 221 254 42 68 96 17 6 36 2 24 46 46 11 69
105 75 91 161 130 131 185 145 145 112 72 72 31 11 20
34 7 28 42 20 34 25 20 6 20 24 8 7 9 8
15 5 17 20 6 16 18 13 12 21 20 15 18 9 7
18 8 14 19 8 13 20 10 15 21 8 16 25 8 20
24 12 16 22 13 16 19 11 14 26 16 19 22 7 11
28 6 13 26 8 10 24 8 9 24 7 11 23 5 13
50 25 48 199 182 205 255 255 255 192 188 215 29 29 61
12 11 27 0 2 22 19 20 11 15 18 5 7 10 8
4 1 19 4 3 19 4 4 18 22 11 16 30 19 30
39 25 48 47 30 65 51 31 85 51 29 96 48 29 100
49 33 108 75 59 140 125 112 184 113 102 163 62 47 102
18 6 57 8 2 37 16 9 34 31 24 42 22 20 31
11 4 21 23 9 33 32 19 46 38 24 53 43 24 57
31 11 48 23 6 42 38 19 53 44 28 49 27 15 35
10 5 29 9 4 35 24 18 43 40 27 58 67 37 95
94 59 116 99 78 108 97 76 103 86 71 93 81 75 85
89 84 86 89 84 82 113 108 90 136 131 109 95 95 63
62 70 30 58 80 17 93 120 48 139 160 89 158 171 108
91 93 62 102 108 74 235 240 178 255 255 238 255 255 255
255 255 255 115 101 160 68 53 122 81 62 149 58 43 119
27 14 74 26 14 68 29 21 62 32 27 54 32 30 49
33 27 48 48 26 48 45 11 59 37 8 68 111 77 91
235 197 192 236 202 204 126 97 121 77 62 102 77 62 95
66 51 84 64 53 72 52 48 51 30 35 28 16 13 22
9 1 23 3 11 22 20 15 25 28 7 56 29 10 111
29 44 187 78 98 240 33 55 169 22 48 94 18 43 46
39 54 44 52 61 44 16 19 8 10 8 3 11 12 16
14 10 24 6 7 23 14 24 24 21 36 28 25 41 33
34 42 34 24 28 16 3 4 19 6 5 20 23 26 20
38 40 33 60 60 58 67 67 66 25 25 19 45 46 45
74 75 72 40 43 34 4 6 9 3 0 17 6 7 18
4 6 16 4 1 9 8 8 7 7 13 10 12 17 14
17 17 16 19 19 16 23 23 20 25 25 20 22 22 19
22 24 19 23 27 18 24 27 18 24 24 16 22 24 12
26 27 14 32 30 19 35 28 22 37 25 23 36 27 22
27 21 19 20 16 19 17 13 18 7 5 19 8 2 16
7 10 11 12 6 8 19 14 11 17 20 6 20 32 17
27 38 23 43 51 24 34 40 13 11 10 3 14 17 9
12 20 7 4 22 0 0 20 0 0 16 0 3 7 0
6 3 0 8 7 1 7 8 3 6 6 4 6 6 2
7 9 1 7 9 3 14 21 23 15 15 20 13 6 7
9 25 18 20 51 40 71 126 109 181 255 237 255 255 255
255 255 255 255 255 255 255 255 255 255 255 255 255 255 255
251 255 255 188 255 255 128 239 253 79 166 179 34 85 99
10 28 40 10 10 23 10 22 39 6 13 35 3 11 14
3 28 4 4 29 7 102 143 129 255 255 255 255 255 255
211 239 255 147 161 197 74 85 118 12 22 48 6 20 43
79 47 91 146 114 123 170 136 132 160 117 116 88 46 53
19 13 28 30 6 25 48 31 44 22 14 14 24 29 10
13 17 3 4 4 14 10 3 12 8 11 1 11 17 13
7 9 9 18 4 6 28 13 17 25 13 17 20 11 16
22 13 21 22 16 17 21 14 16 20 13 14 27 16 19
24 6 11 25 3 11 21 8 9 24 10 10 24 7 13
22 4 11 39 22 35 188 178 190 255 255 255 191 186 217
32 27 65 4 6 30 14 16 23 20 20 3 23 24 11
8 7 20 9 4 28 9 3 27 8 4 22 57 49 55
64 54 70 72 61 90 78 68 105 82 70 115 82 70 122
80 69 132 72 61 130 70 52 128 107 96 155 97 88 132
52 41 77 17 8 44 10 9 27 13 11 20 34 27 42
25 18 32 11 7 20 19 8 33 34 23 48 46 26 56
42 21 59 22 7 44 24 4 35 40 19 48 39 28 44
26 16 32 10 10 21 9 9 24 24 18 42 40 25 61
70 41 82 99 69 101 89 77 90 53 48 52 27 25 27
50 52 45 79 79 66 71 71 61 75 70 55 140 133 114
146 143 117 115 114 90 89 105 60 102 122 53 108 132 54
123 139 86 118 117 79 37 47 19 186 196 122 255 255 221
255 255 255 255 255 255 113 104 150 44 35 95 77 64 140
68 57 128 42 36 85 41 35 79 42 38 77 43 42 73
45 46 66 47 43 61 52 34 60 48 20 63 41 15 70
119 88 99 250 214 206 252 217 212 130 104 116 78 62 98
72 57 85 50 43 66 70 67 72 58 59 55 27 35 18
8 13 9 3 7 15 9 11 8 17 11 24 20 7 65
30 11 108 25 41 185 75 96 235 30 51 164 18 41 95
13 36 44 28 42 34 62 68 57 54 54 45 30 33 20
21 21 12 36 37 36 42 43 47 39 42 38 30 42 26
29 43 35 38 46 34 27 31 12 12 13 16 11 11 17
13 17 2 27 28 16 46 46 40 65 66 61 58 62 45
40 44 22 84 84 71 81 81 74 33 35 27 4 2 19
4 3 23 2 6 12 3 1 7 6 6 6 10 10 8
11 14 12 13 13 13 13 13 13 19 19 19 20 20 19
18 18 15 18 18 14 19 21 16 20 23 18 20 20 17
18 18 13 20 20 19 23 24 20 27 27 19 28 26 20
33 25 24 31 25 22 22 18 18 18 13 16 6 5 16
3 9 12 6 16 7 10 13 4 16 17 5 19 24 7
26 34 26 35 38 30 37 40 19 24 25 7 9 6 4
9 15 8 7 21 7 2 23 0 0 23 0 0 23 0
1 22 0 4 15 0 5 10 1 3 10 3 3 11 6
4 7 6 6 7 5 3 12 7 5 4 7 11 17 21
23 41 27 127 169 130 255 255 255 255 255 255 255 255 255
255 255 255 255 255 255 255 255 255 255 255 255 255 255 255
255 255 255 255 255 255 255 255 255 255 255 255 255 255 255
182 255 255 84 141 158 31 77 96 9 30 53 3 25 26
2 29 9 2 29 3 35 67 41 190 240 220 255 255 255
210 248 255 88 109 135 121 123 160 116 118 154 31 38 74
34 12 66 132 106 140 174 149 148 155 124 113 118 76 75
73 30 40 26 7 15 36 16 13 37 21 33 19 23 42
40 40 50 39 32 42 34 25 39 31 21 34 25 17 23
18 14 10 20 12 13 24 13 14 22 14 14 19 12 12
18 9 13 22 9 19 25 14 17 24 13 16 23 11 14
27 13 17 21 5 10 21 4 11 23 8 9 24 10 10
20 4 11 17 3 10 26 18 20 163 158 161 255 255 255
207 202 234 137 132 164 112 108 135 83 83 101 61 58 74
60 57 72 53 48 70 48 44 64 49 45 62 51 47 65
72 55 93 78 63 102 85 70 117 89 73 127 90 73 133
91 75 139 89 74 143 77 66 121 49 31 96 91 83 128
88 82 115 52 44 76 24 18 48 15 11 29 8 4 14
38 26 47 30 16 45 12 12 22 15 7 31 39 24 54
52 30 65 39 21 53 17 5 33 24 3 28 37 17 44
39 28 46 33 15 37 17 10 31 13 10 32 27 21 48
44 28 61 57 31 56 86 62 70 93 89 92 68 70 68
49 52 34 79 86 51 108 115 72 95 104 60 87 101 46
121 128 73 145 148 102 127 130 89 110 118 63 121 134 69
114 133 68 120 137 83 117 126 76 32 53 20 141 161 72
254 255 196 255 255 255 255 255 255 126 122 148 50 37 82
80 64 130 72 56 125 45 29 87 47 31 89 48 36 90
49 38 89 50 41 87 53 36 82 75 41 88 88 55 102
88 63 109 144 115 132 255 234 228 255 238 231 159 130 145
115 92 132 95 75 116 69 64 86 88 86 90 73 75 72
29 39 22 3 17 15 6 9 15 12 13 10 21 11 24
19 16 68 31 18 109 24 44 187 74 97 234 31 54 163
18 41 97 14 35 47 10 17 14 37 42 33 62 63 48
69 74 53 78 76 66 93 93 87 107 107 105 113 113 112
103 102 100 79 84 78 78 81 72 75 74 68 72 69 72
70 67 69 62 62 57 60 60 55 68 69 60 72 76 64
68 72 44 49 51 14 68 68 35 102 102 75 69 70 62
11 14 9 13 9 35 4 3 27 1 3 14 5 1 9
11 3 8 8 7 9 8 7 9 11 5 8 16 10 13
17 11 14 16 9 10 16 11 6 15 13 6 14 16 11
15 15 11 15 15 11 13 15 20 12 15 20 20 20 22
25 24 22 30 25 20 30 27 17 25 21 11 17 14 9
9 15 7 5 13 3 6 16 2 9 14 3 13 16 0
16 22 10 27 31 29 35 37 24 28 30 5 17 11 6
11 3 4 8 12 9 4 15 4 1 16 0 2 16 0
2 16 0 6 18 1 10 17 3 10 13 3 9 10 4
9 11 7 10 12 7 7 10 5 3 12 8 6 14 5
13 24 9 149 198 140 255 255 255 255 255 255 255 255 255
255 255 255 255 255 255 208 255 255 168 242 249 121 202 221
88 182 214 110 203 242 149 252 255 188 255 255 230 255 255
255 255 255 255 255 255 255 255 255 217 255 255 104 202 231
25 85 111 5 40 46 19 58 41 106 153 122 245 255 255
255 255 255 130 166 180 25 39 66 86 78 112 129 116 151
58 50 92 80 60 109 176 156 189 181 154 152 125 89 74
76 34 31 66 24 35 43 17 20 38 23 17 9 20 25
68 70 75 84 81 89 79 72 84 72 62 78 63 55 69
48 44 58 39 35 44 33 25 29 20 11 14 9 10 9
8 7 4 12 5 8 15 6 13 19 11 13 19 11 13
18 6 9 20 10 11 16 2 3 22 6 9 23 8 7
18 9 6 16 6 6 14 6 6 6 7 13 117 116 117
238 234 252 255 255 255 255 255 255 255 255 255 255 255 255
255 255 255 253 251 255 242 239 255 236 236 254 237 239 252
239 240 252 81 53 146 80 56 144 77 54 141 72 46 134
69 42 134 69 44 134 75 49 126 80 66 103 53 37 86
89 80 122 90 82 115 58 47 82 31 17 55 27 11 47
31 15 51 45 26 69 36 15 69 23 13 51 31 15 50
49 25 60 50 32 62 37 26 46 26 15 33 28 15 35
32 11 42 40 22 45 37 21 43 21 12 41 30 7 50
53 20 67 68 29 74 69 21 60 85 48 59 78 78 60
72 86 61 114 128 73 170 191 97 187 222 96 161 205 66
136 182 43 131 175 27 163 194 71 178 197 92 171 184 93
168 185 98 153 173 91 119 143 81 66 92 48 6 30 7
78 113 28 227 255 154 255 255 255 255 255 255 207 205 197
101 79 99 102 77 124 92 67 126 66 30 108 73 35 132
75 34 141 61 17 124 50 26 103 71 37 104 114 61 132
127 82 147 143 110 161 213 176 202 255 255 255 255 255 255
174 129 161 92 60 115 67 65 104 78 86 104 88 83 97
88 84 92 43 47 39 17 37 16 22 37 29 11 20 24
21 9 25 21 11 64 25 12 118 29 52 198 72 100 234
30 61 165 15 41 97 10 32 42 12 11 9 36 40 22
86 88 70 95 97 81 74 69 62 55 53 48 57 60 66
69 73 83 91 89 91 113 108 86 120 111 78 109 97 65
105 92 67 108 96 78 109 99 82 110 103 83 111 107 73
99 96 54 78 76 30 52 52 10 39 39 7 94 94 51
103 103 85 71 72 63 43 46 26 23 26 14 17 23 21
18 28 11 20 30 6 19 27 12 14 21 13 7 16 13
4 8 11 15 4 3 20 8 11 18 7 6 15 9 3
16 11 6 18 15 9 20 21 18 16 24 29 10 23 33
16 26 35 29 33 34 36 34 24 32 34 15 25 23 9
12 12 9 6 14 9 10 16 3 8 16 1 4 12 2
7 11 6 16 19 15 24 25 23 25 25 17 18 16 7
11 6 3 6 8 1 1 9 4 5 11 7 9 14 8
14 18 10 17 20 14 23 24 17 27 28 18 24 28 15
21 24 8 19 18 7 18 15 4 19 11 3 18 11 10
16 21 5 60 80 50 255 255 255 255 255 255 255 255 255
255 255 255 178 215 200 138 154 180 139 126 172 160 131 182
126 99 164 66 47 131 56 47 127 52 64 144 36 82 155
49 128 185 103 234 255 178 255 255 255 255 255 255 255 255
255 255 255 177 255 255 43 143 172 53 112 89 178 240 210
248 255 255 174 231 227 79 101 121 50 30 64 73 51 84
129 97 129 107 78 118 155 134 169 218 193 214 163 125 122
88 41 37 58 16 23 69 31 39 40 16 27 25 34 56
104 105 115 126 120 126 102 93 108 79 75 93 63 62 79
55 53 66 42 39 54 25 22 37 13 14 20 4 8 7
8 12 8 19 16 9 23 15 14 22 16 19 16 13 14
12 8 10 19 9 6 22 9 8 22 7 3 27 12 11
23 13 9 14 12 1 8 9 10 8 4 19 13 8 22
57 54 58 139 137 145 201 201 208 250 249 255 255 255 255
255 255 255 255 255 255 255 255 255 255 255 255 255 255 255
255 255 255 255 255 255 94 64 169 86 55 160 75 44 149
68 37 141 66 37 135 64 35 125 62 35 113 74 65 96
57 43 85 91 82 122 86 77 114 54 39 81 30 11 55
29 10 52 42 21 64 48 24 80 33 12 70 26 10 53
38 17 54 44 26 54 41 31 50 39 27 44 36 17 42
29 13 35 23 6 30 36 11 43 41 21 47 30 15 38
37 9 41 59 24 60 69 33 62 78 35 52 105 77 63
107 114 63 145 167 86 215 236 133 201 221 105 116 143 27
24 43 84 28 12 137 30 37 132 51 72 50 128 152 46
147 175 79 132 163 71 94 123 54 32 51 17 56 32 47
97 74 78 66 45 59 94 128 48 255 255 255 255 255 255
255 255 255 186 170 168 140 115 137 130 102 145 89 51 123
81 43 127 114 70 163 149 101 206 169 120 219 185 135 220
195 145 219 191 151 211 209 177 224 255 217 247 255 245 251
218 164 164 37 28 19 69 101 93 82 112 103 57 76 78
72 59 84 101 91 104 72 71 71 27 35 24 33 40 28
16 27 23 15 11 20 29 13 53 14 11 134 38 67 219
67 102 238 32 69 172 10 36 91 1 22 34 1 19 11
42 48 23 90 86 72 89 83 78 68 62 59 77 76 65
90 93 74 93 96 75 72 81 56 37 54 27 24 34 21
26 39 31 23 38 34 18 33 27 12 29 13 22 33 10
35 43 15 38 45 26 45 53 36 59 63 35 51 51 23
35 35 9 71 71 56 104 104 83 106 108 81 80 81 48
53 54 18 37 38 7 21 24 13 9 15 17 9 10 13
8 13 6 8 15 5 10 10 4 14 6 11 16 6 9
16 3 8 15 7 8 15 12 15 16 16 23 16 18 30
10 18 33 7 20 25 25 29 26 41 41 30 41 46 27
29 31 21 13 16 18 5 11 19 3 11 11 8 14 8
10 16 9 15 17 14 17 19 14 17 18 13 14 16 12
17 17 7 11 11 1 4 2 3 9 3 4 13 9 7
18 14 8 20 16 10 21 18 12 26 22 13 27 29 11
26 32 13 25 34 8 21 32 3 17 25 2 14 19 7
11 14 9 18 27 3 130 165 114 255 255 255 255 255 255
238 255 255 70 102 98 80 80 104 99 80 129 124 86 134
177 126 169 193 132 194 157 94 173 123 73 153 96 63 135
63 38 103 41 30 85 51 76 113 59 101 144 34 145 193
112 255 255 235 255 255 255 255 255 143 255 255 91 183 190
201 255 229 197 246 219 84 126 118 64 62 80 78 62 93
69 45 74 111 72 99 172 131 160 235 202 228 213 173 187
108 66 72 58 16 44 50 14 34 56 32 42 2 18 34
80 89 92 115 113 111 70 62 65 27 19 40 22 20 45
30 22 50 35 23 43 28 24 38 16 12 32 10 14 24
2 10 13 15 16 11 27 26 22 24 18 17 31 26 30
22 20 25 13 0 8 23 7 8 22 9 6 22 13 2
23 13 9 17 12 11 8 9 9 3 4 17 9 3 18
6 8 11 14 8 17 31 30 35 59 61 58 69 68 75
91 88 112 119 116 147 124 123 156 124 125 154 126 126 152
127 128 150 124 128 146 121 128 144 82 62 134 71 46 125
56 31 114 49 26 107 43 23 96 28 8 78 10 10 57
40 43 54 40 28 74 87 80 119 77 66 106 48 30 76
30 12 57 29 10 53 37 16 60 34 12 65 26 6 54
24 5 42 30 12 43 33 23 48 39 28 50 44 23 50
41 15 52 28 9 33 34 9 31 59 20 61 62 25 57
49 16 40 41 11 39 55 28 51 64 44 47 83 67 45
121 125 74 163 194 119 234 255 172 202 218 119 17 24 72
162 180 245 255 255 255 255 255 255 253 255 255 185 214 255
75 95 148 18 39 50 23 54 13 23 14 17 99 72 77
121 101 114 111 103 109 124 112 112 82 78 75 109 137 89
255 255 255 255 255 255 255 255 255 189 179 182 189 173 191
208 186 214 235 213 245 255 242 255 255 245 255 247 224 255
215 187 234 174 149 188 133 113 149 106 83 109 110 80 69
174 141 95 161 143 102 117 133 121 107 119 125 51 66 68
10 21 33 64 47 71 107 96 107 92 86 92 29 23 30
25 25 16 24 31 21 19 18 20 37 21 45 16 24 143
46 77 235 65 104 249 33 73 178 3 29 86 7 17 35
11 25 23 41 44 27 68 61 47 74 69 56 85 87 71
110 112 99 130 133 117 143 148 127 154 160 124 144 152 108
128 135 92 126 132 86 124 131 83 123 132 85 121 132 85
124 132 84 133 137 83 142 146 83 146 151 84 141 146 82
122 126 72 83 86 51 33 34 18 22 22 15 65 66 52
94 94 69 88 85 62 67 59 39 43 34 15 21 19 23
17 9 41 18 10 47 12 1 42 3 19 28 5 24 24
2 15 28 8 8 30 7 4 30 2 4 29 4 6 26
11 5 24 11 0 22 14 13 2 37 38 28 51 55 43
48 54 40 27 33 24 8 16 15 5 17 18 9 20 16
15 19 20 21 23 21 21 23 20 17 17 18 13 17 15
10 13 11 12 12 7 10 11 3 12 13 4 11 13 8
14 12 7 17 13 3 16 15 4 16 15 7 16 17 8
13 18 8 12 23 1 20 32 9 22 40 10 16 39 7
11 32 10 19 20 7 6 37 3 228 255 199 255 255 255
255 255 255 158 216 210 53 76 98 63 61 116 66 53 110
86 66 95 138 110 107 185 144 147 183 137 156 170 124 147
161 109 135 136 84 117 78 44 79 63 56 81 67 63 87
78 20 45 72 39 71 73 165 210 218 255 255 231 255 255
154 255 255 139 182 164 149 152 119 100 96 83 59 59 68
82 84 103 86 72 89 124 96 104 215 175 191 255 210 234
169 119 141 61 26 53 47 19 44 46 24 39 33 13 35
34 47 39 89 97 79 61 64 39 50 51 47 61 64 67
52 56 68 44 44 61 35 31 43 25 21 34 14 10 30
9 13 26 6 10 12 20 16 15 32 27 28 13 9 4
33 27 35 25 28 32 11 4 3 16 9 9 13 5 5
13 10 1 14 10 6 11 7 10 5 2 4 10 6 13
9 5 6 4 4 11 7 1 12 7 10 1 28 31 22
17 18 18 17 18 23 28 27 37 7 6 20 13 14 21
13 10 26 12 8 28 11 9 28 9 11 28 55 40 101
53 39 102 45 29 97 33 16 84 17 3 64 3 19 48
9 27 37 18 9 50 64 43 95 94 74 121 76 56 102
51 24 72 34 10 54 30 7 53 35 15 59 31 14 60
31 7 55 32 10 53 36 18 57 38 25 60 45 28 60
51 24 63 51 18 64 49 19 56 75 41 76 110 72 105
104 73 89 85 65 70 73 57 59 81 66 65 93 88 69
122 129 85 172 195 126 224 255 158 199 229 115 42 32 116
255 255 255 255 255 255 255 255 255 218 255 255 225 255 255
255 255 255 229 255 255 132 196 223 43 95 103 46 26 39
126 102 108 82 70 78 13 21 22 31 37 51 77 63 96
46 23 44 146 160 132 255 255 255 255 255 255 209 212 201
167 164 164 205 198 209 236 228 241 200 191 202 116 107 147
51 46 113 26 36 58 58 64 45 91 97 68 132 137 107
168 166 134 207 184 145 166 139 101 52 47 45 20 27 56
15 8 20 11 9 20 65 49 73 113 101 112 99 91 99
36 28 38 23 23 21 26 31 26 23 22 24 35 18 44
15 24 147 48 80 242 70 108 255 39 78 188 4 35 91
6 17 39 3 16 16 31 37 1 59 57 30 65 65 39
66 70 49 66 69 54 57 58 46 50 55 34 75 81 45
79 85 51 60 65 39 58 63 36 55 61 29 52 57 24
50 57 22 51 61 19 51 58 14 49 56 13 56 65 20
70 80 35 86 93 54 95 101 66 90 95 57 77 80 40
46 45 15 14 11 20 59 54 46 85 75 61 98 86 69
90 85 62 66 68 31 43 45 7 33 38 19 38 47 18
38 50 10 33 44 14 24 35 18 16 27 22 10 20 24
6 14 22 7 12 19 13 15 10 29 34 20 48 56 41
54 63 48 46 55 39 22 36 19 13 24 15 12 22 19
19 23 20 22 22 21 22 23 19 20 21 18 17 17 17
12 17 13 6 12 9 4 3 6 8 11 4 15 17 4
15 18 5 18 18 9 20 20 9 20 24 6 22 27 7
19 27 3 15 27 4 16 31 11 16 38 10 20 46 14
22 50 17 23 44 11 23 32 2 32 64 22 255 255 255
255 255 255 255 255 255 135 183 184 46 69 110 52 52 116
62 50 113 77 55 103 106 80 82 157 122 100 173 133 122
184 137 133 200 139 144 194 130 142 148 91 109 111 71 95
90 77 98 43 40 60 45 27 35 19 68 98 93 194 236
183 255 255 168 255 255 48 125 177 93 54 11 136 125 90
101 106 94 99 99 107 136 119 128 177 151 149 210 176 179
227 173 192 144 91 114 53 24 47 53 32 50 42 25 41
13 12 21 48 59 43 71 78 59 20 30 11 44 46 59
45 48 56 34 41 54 26 31 47 20 21 34 15 11 27
8 4 22 9 8 22 10 9 13 26 14 18 34 25 28
14 9 5 34 28 36 28 30 31 7 3 8 15 9 10
11 4 3 11 12 1 13 14 4 11 4 8 6 3 2
9 5 9 10 7 10 4 4 5 5 3 12 5 6 7
28 29 25 19 20 20 19 20 20 28 25 35 5 3 13
19 19 17 17 17 21 12 12 21 12 12 20 12 12 20
42 19 96 58 36 108 71 49 120 70 48 118 62 41 109
62 40 107 75 50 115 90 66 130 100 73 138 89 65 126
67 44 102 42 15 73 29 9 58 24 3 55 30 16 56
30 18 57 32 14 53 35 19 50 39 22 52 44 21 56
54 27 62 61 25 71 60 17 70 64 21 71 105 66 107
137 98 134 115 91 111 95 84 92 82 70 76 93 79 85
111 109 98 145 160 111 199 231 144 215 255 126 59 94 22
255 255 255 255 255 255 231 255 255 117 148 193 59 86 126
68 110 146 132 186 229 214 255 255 235 255 255 154 230 255
17 54 73 130 100 96 83 77 55 37 34 27 25 41 20
31 25 59 92 81 85 57 59 44 155 170 150 255 255 255
239 243 229 97 100 92 13 18 10 84 89 80 136 146 136
163 174 187 150 161 185 121 131 129 110 119 93 90 103 72
72 85 63 90 79 30 177 140 93 169 135 88 59 42 15
15 13 49 21 10 25 8 9 28 67 52 74 117 104 116
104 96 106 41 33 47 17 16 24 20 22 27 17 15 24
29 12 50 10 22 153 49 81 244 72 111 255 44 80 198
9 40 97 8 20 38 9 8 15 13 13 17 34 28 9
34 33 9 29 32 13 22 22 10 13 20 15 17 25 19
46 51 31 51 55 27 33 39 12 28 35 15 25 32 7
27 28 13 26 28 22 23 34 27 26 34 29 16 23 29
11 21 28 14 27 24 29 38 20 50 58 27 67 73 36
76 81 37 92 94 41 86 88 41 46 50 22 14 13 13
77 69 42 120 114 65 135 136 78 132 137 79 123 128 74
117 117 66 111 108 57 104 104 49 89 93 37 66 77 23
44 56 13 23 37 14 11 26 12 20 32 6 45 50 34
55 64 45 52 64 42 35 48 27 12 29 7 13 23 7
16 25 12 19 26 14 17 22 13 17 18 12 16 16 11
11 12 8 6 10 3 4 6 3 5 10 3 13 17 1
16 18 0 18 19 1 23 21 4 26 24 6 24 27 4
25 28 10 22 28 5 17 29 4 17 31 16 12 36 9
17 42 10 27 51 21 31 52 16 25 46 6 61 85 36
255 255 255 255 255 255 255 255 255 116 151 167 39 61 128
23 20 127 33 15 122 37 14 101 42 17 63 89 48 33
122 69 65 151 89 91 187 118 123 209 146 153 191 127 141
155 98 119 138 99 123 89 79 105 11 33 53 54 6 43
48 39 90 23 116 181 105 199 255 127 202 255 67 81 135
151 126 79 183 183 150 140 136 128 182 167 161 216 188 185
167 133 132 174 120 139 133 82 109 50 25 49 56 34 58
34 10 46 23 32 36 50 60 44 45 54 30 9 17 31
22 23 51 5 9 30 1 7 32 8 5 31 13 4 27
11 3 21 6 2 16 10 4 13 20 7 10 30 14 19
31 25 27 11 8 7 34 30 37 32 31 31 7 4 4
18 10 6 13 4 4 13 13 7 13 14 10 10 3 9
4 3 4 5 5 5 7 7 7 4 4 1 6 6 6
6 6 9 28 28 23 19 19 20 19 19 20 28 25 36
6 6 14 24 25 24 20 21 19 4 3 11 4 4 8
4 4 8 27 7 78 35 13 85 44 19 93 55 29 101
65 38 108 74 49 114 84 63 122 95 73 132 98 74 134
84 63 121 64 42 97 44 26 72 35 17 57 31 9 52
42 22 54 44 25 51 41 19 44 39 20 40 42 19 43
48 20 52 57 25 62 62 25 71 59 16 66 61 21 65
114 82 115 131 97 130 82 64 92 70 67 75 46 48 55
63 62 71 93 104 88 140 169 99 200 239 120 164 217 73
91 88 148 255 255 255 255 255 255 63 90 147 160 128 113
118 93 89 121 81 73 120 75 70 46 65 104 140 209 250
221 255 255 91 171 184 98 64 46 102 107 76 47 60 29
27 54 3 35 61 28 108 125 100 174 172 161 75 74 66
212 218 205 255 255 255 241 242 233 186 189 176 98 98 95
49 57 73 80 90 124 68 74 120 17 34 49 33 31 22
33 12 43 36 15 60 89 58 49 182 146 104 176 143 93
69 49 19 19 13 51 15 8 37 13 12 40 68 54 75
117 102 121 107 99 112 44 35 52 13 16 24 14 19 27
10 6 24 23 1 54 6 19 153 48 80 244 71 110 255
43 78 203 13 41 101 17 25 40 14 13 9 9 6 21
24 11 12 22 15 9 11 13 12 11 11 15 18 24 17
19 25 11 34 39 15 45 50 22 42 45 19 36 40 16
34 39 6 37 40 8 37 39 18 33 42 17 35 44 9
33 40 7 23 32 11 19 27 22 22 29 29 24 32 27
27 30 17 31 37 9 54 58 20 87 91 44 92 99 53
72 81 33 34 48 7 30 36 11 72 68 32 99 98 51
107 116 57 106 125 52 106 127 50 113 129 56 115 124 60
103 110 57 78 89 44 47 62 26 24 41 4 38 48 26
56 58 44 55 65 44 43 54 34 23 31 18 7 19 1
9 18 1 14 22 3 14 22 3 12 16 2 11 11 2
7 7 1 4 8 0 3 10 0 2 12 0 15 19 1
20 21 2 17 20 1 19 23 3 21 25 7 23 27 10
21 26 13 23 27 19 22 27 15 18 26 13 16 28 17
9 29 10 15 28 9 27 40 20 35 49 22 29 51 13
63 82 33 255 255 255 255 255 255 255 255 255 137 156 189
81 91 163 49 51 162 32 24 145 10 18 101 8 27 77
30 17 44 62 10 23 99 30 31 145 68 68 186 120 125
198 131 145 178 106 125 161 99 120 131 92 125 72 64 96
33 38 68 66 29 49 70 21 73 14 96 175 153 223 255
168 220 255 80 48 35 254 249 195 221 209 184 213 189 174
217 180 188 122 83 94 130 80 102 125 77 108 51 18 58
48 20 65 44 24 66 47 50 62 40 48 39 22 30 8
3 13 31 20 3 39 25 11 34 18 11 33 15 10 28
19 9 25 19 6 15 16 4 8 19 5 6 22 7 8
24 13 16 28 25 25 13 4 8 37 34 39 34 32 32
11 4 4 19 15 6 13 7 3 13 11 10 13 11 13
10 5 10 5 3 8 7 7 7 7 7 7 4 4 4
6 6 3 7 7 7 28 28 24 18 18 19 18 18 21
28 27 36 7 9 15 27 28 27 23 25 20 0 4 11
0 1 6 0 0 4 4 13 43 13 24 38 18 24 42
28 14 62 60 38 94 84 64 116 83 67 115 87 66 114
97 72 115 89 66 103 75 52 87 63 48 74 52 33 57
44 24 47 54 31 51 50 30 48 41 19 43 34 13 41
37 11 46 47 16 56 52 24 64 57 24 68 52 16 58
48 18 53 121 98 120 131 113 130 48 39 66 61 60 68
20 23 36 48 51 59 93 105 83 149 183 91 199 243 90
121 160 40 194 206 244 255 255 255 250 255 255 102 67 74
181 145 123 139 129 126 159 136 139 171 123 109 167 97 57
39 44 82 195 255 255 182 255 255 13 49 67 95 103 62
89 113 67 51 75 23 71 93 40 147 177 133 170 171 171
249 239 232 32 24 13 233 237 192 255 255 255 255 255 255
255 255 255 255 255 255 253 255 255 161 153 206 63 48 104
50 35 50 37 23 41 24 7 51 89 63 30 196 164 110
193 161 109 86 70 58 38 42 77 16 21 59 24 20 51
69 53 80 116 100 126 106 98 113 42 35 49 11 19 17
8 21 25 4 10 30 17 8 59 6 17 148 47 79 243
68 105 255 38 73 203 13 38 102 16 26 42 17 22 5
20 22 16 30 22 3 27 18 4 11 12 10 14 15 15
15 20 14 12 17 15 24 23 10 34 31 20 34 29 24
29 23 20 22 19 12 18 22 11 23 25 20 24 29 17
19 26 11 16 21 13 20 25 15 27 30 19 24 34 14
21 33 9 21 31 1 29 40 11 35 46 20 41 48 13
67 76 39 89 99 45 95 107 37 89 100 33 72 82 34
54 63 38 34 49 32 15 32 14 20 19 3 36 47 12
57 74 26 81 93 48 89 95 64 68 81 48 35 59 17
50 63 47 54 61 44 45 57 34 26 35 20 12 17 12
9 16 6 11 19 3 11 17 0 9 10 0 6 6 0
3 6 0 5 1 0 6 5 0 8 11 0 11 15 0
20 20 2 21 21 0 12 17 1 17 18 7 18 20 11
20 20 11 20 19 17 19 22 21 18 23 18 18 20 16
11 17 13 8 14 6 12 12 3 22 22 13 31 37 21
33 46 24 41 57 6 255 255 247 255 255 255 255 255 255
163 178 216 105 115 186 88 85 198 55 44 171 6 24 101
10 26 73 7 22 67 32 15 44 64 9 17 102 25 21
146 81 80 179 110 120 183 99 114 166 84 103 147 81 113
127 85 123 89 80 116 23 47 85 64 37 51 75 30 63
69 130 220 224 255 255 80 107 199 232 221 147 255 255 255
255 226 209 202 160 173 108 61 93 101 54 93 107 61 113
59 23 83 49 24 79 71 61 91 74 65 93 48 35 69
17 9 40 6 10 30 10 8 31 12 3 37 14 3 36
16 6 27 22 8 24 25 9 16 27 11 9 25 10 12
19 6 12 23 9 17 29 24 24 15 1 9 39 37 41
34 31 34 14 1 4 18 15 5 13 11 0 14 11 11
16 11 11 13 6 4 12 0 9 13 6 7 13 7 8
9 3 9 3 6 7 5 6 8 27 28 26 18 20 15
18 18 24 27 27 35 5 5 15 27 27 28 23 24 22
4 8 11 4 8 8 4 8 4 13 8 35 2 9 22
40 29 54 95 80 113 148 137 170 184 171 203 192 174 206
158 137 169 105 87 114 74 59 81 67 50 70 64 55 71
52 41 59 44 26 47 55 33 49 44 26 43 32 12 35
25 4 35 31 6 40 43 15 54 48 22 64 50 20 61
44 14 49 39 17 40 127 110 120 142 133 136 38 35 45
71 70 72 23 24 24 46 55 51 99 115 78 158 195 83
196 241 73 97 116 23 254 255 255 255 255 255 196 255 255
128 77 64 194 139 110 177 150 133 189 182 184 110 108 127
143 72 44 135 62 42 108 199 227 223 255 255 97 180 197
41 42 21 114 150 89 88 108 59 77 97 43 181 210 159
98 122 100 255 255 255 255 255 221 35 47 19 119 138 65
134 146 92 95 102 82 136 141 148 255 255 255 255 255 255
255 255 255 178 166 196 128 118 138 128 118 137 158 139 133
219 191 145 189 157 108 68 51 53 53 52 97 55 57 91
43 39 72 68 52 84 114 99 120 102 93 107 38 32 41
12 20 18 6 22 26 4 13 36 15 9 66 9 16 147
45 75 240 66 100 255 32 68 200 11 33 100 14 20 42
12 16 11 6 10 9 21 8 11 30 15 17 23 24 20
21 21 22 9 17 20 6 9 17 18 17 14 28 27 31
27 25 34 20 18 29 10 10 24 10 13 23 20 21 23
23 24 17 20 23 13 16 18 16 16 19 13 20 23 2
27 31 12 34 44 18 38 50 22 41 50 27 37 44 19
34 39 10 46 55 18 71 79 39 92 104 54 109 123 64
123 135 72 129 143 83 127 151 87 109 144 73 73 111 42
44 69 20 11 21 3 38 43 25 73 73 60 70 78 57
44 60 25 45 56 46 37 49 31 25 40 19 12 19 11
10 7 15 15 15 13 18 20 6 9 10 0 2 7 0
2 2 0 6 4 0 8 6 0 8 7 0 8 8 0
9 9 0 16 16 1 16 16 1 8 11 1 15 13 9
16 15 12 17 16 11 16 16 18 12 17 18 7 16 9
11 15 10 6 10 3 11 9 2 11 8 3 14 11 6
18 23 15 28 35 26 18 31 26 199 210 139 255 255 255
255 255 255 178 186 220 107 113 183 115 110 223 77 61 193
11 14 105 19 13 69 16 11 69 34 7 44 53 13 26
71 10 7 113 52 46 151 87 90 168 89 93 153 70 78
138 59 84 135 74 104 125 88 120 100 100 136 47 90 103
118 95 60 74 38 76 151 198 255 216 245 255 98 76 38
255 255 255 255 255 255 210 163 167 103 55 82 74 36 84
88 52 112 65 30 94 51 40 79 76 75 93 76 54 95
63 34 96 35 10 69 11 7 40 4 10 36 4 12 40
3 9 37 6 8 25 10 8 17 17 8 13 20 8 9
20 8 10 20 6 15 25 9 17 29 23 19 15 3 7
41 39 40 35 30 36 10 2 3 16 14 8 14 10 7
16 11 10 14 11 11 11 8 1 10 2 8 11 8 7
11 6 9 13 2 11 10 10 5 9 6 8 26 27 26
17 21 12 17 15 22 26 26 35 6 6 14 25 25 25
22 22 21 8 9 8 8 11 8 8 12 0 6 7 9
26 17 30 94 82 103 186 175 198 243 232 253 255 255 255
255 255 255 255 255 255 255 255 255 252 241 252 189 177 181
110 100 103 54 40 45 52 35 41 55 35 43 42 23 40
42 22 44 51 30 58 38 22 49 34 15 52 48 27 62
58 36 61 59 43 56 71 61 61 166 155 148 163 161 144
75 76 62 90 89 80 44 48 21 61 79 57 120 147 91
170 211 84 181 220 61 76 83 6 255 255 255 255 255 255
165 242 255 147 85 59 214 152 123 195 164 147 184 186 184
106 131 153 115 61 41 180 104 77 26 115 137 201 255 255
175 255 255 28 43 89 97 139 73 108 125 77 83 107 51
200 226 179 173 193 173 184 164 176 255 255 255 111 109 100
204 224 141 255 255 255 255 255 255 202 197 199 51 36 23
154 150 186 255 250 255 255 255 255 255 255 255 255 254 255
220 206 207 188 162 135 136 107 62 38 21 49 23 23 77
67 62 109 75 66 108 67 52 77 105 92 103 96 85 102
41 35 42 8 13 14 9 25 29 4 16 41 17 4 69
13 13 149 44 72 238 65 98 255 28 62 195 20 26 94
27 23 39 27 29 29 22 25 13 19 11 6 31 15 12
30 23 12 21 18 7 5 12 8 8 6 12 15 16 21
27 26 38 22 22 33 16 16 22 9 11 11 13 17 4
23 26 9 30 30 20 31 34 24 26 28 20 21 23 19
21 23 19 20 20 15 18 19 11 16 20 11 15 18 11
17 19 4 26 29 13 29 39 4 34 46 10 44 56 20
55 70 32 62 83 37 63 86 34 79 98 42 104 116 61
107 121 58 105 122 59 89 100 51 44 43 23 32 30 35
73 78 64 75 84 58 64 74 55 43 59 33 22 42 15
9 26 1 4 16 7 13 14 15 22 18 10 18 6 7
17 13 5 17 12 5 20 18 8 23 24 11 30 28 13
35 32 17 36 36 20 27 33 15 13 21 5 12 17 1
13 15 8 14 12 12 15 13 13 13 15 18 12 13 15
3 13 5 9 22 4 12 29 9 19 29 10 20 24 9
14 18 7 14 19 9 20 23 14 21 18 35 118 130 58
255 255 255 255 255 255 206 204 236 95 85 160 121 111 231
94 76 211 13 14 107 10 11 77 10 11 68 36 13 40
49 7 31 58 3 15 100 42 41 138 80 80 155 91 84
131 61 53 122 45 60 133 66 86 121 81 95 147 141 158
120 157 167 97 108 95 171 142 75 36 31 132 216 243 255
101 127 233 255 255 215 255 255 255 245 190 179 88 41 60
53 25 67 63 42 92 57 26 92 94 95 117 138 137 157
126 93 156 93 64 134 41 14 82 32 13 57 25 11 46
26 13 42 26 15 36 25 17 24 25 14 20 27 11 17
27 10 13 23 13 11 21 10 16 27 13 19 24 17 19
11 7 11 37 35 38 35 29 35 16 6 13 20 16 17
20 14 19 17 10 17 11 7 9 9 8 3 5 3 9
10 5 13 12 8 14 14 12 12 15 11 8 19 8 15
31 33 32 9 14 7 30 23 30 33 27 32 16 8 8
25 22 17 31 23 21 29 17 22 28 16 22 28 16 20
43 36 39 95 89 94 133 128 140 165 152 173 158 149 168
106 106 120 62 56 71 88 87 84 195 190 188 255 255 255
255 255 255 255 253 250 145 131 128 88 76 73 67 57 61
60 51 64 70 55 75 76 62 85 66 61 73 53 48 70
72 63 81 93 87 89 115 112 98 148 145 117 215 211 179
169 172 129 121 128 89 143 148 105 126 132 79 93 114 56
135 163 101 169 201 76 145 169 40 46 44 17 255 255 255
255 255 255 126 205 255 162 85 57 215 150 120 215 180 161
196 194 190 116 143 163 98 59 43 190 115 85 60 64 84
160 255 255 209 255 255 64 95 134 65 95 39 99 113 61
115 142 82 214 238 196 196 207 190 116 102 111 255 255 255
129 125 129 246 255 191 255 255 255 141 146 137 201 186 200
240 224 223 209 208 202 136 141 136 39 46 39 20 13 36
22 30 80 15 11 64 88 60 7 93 67 4 24 7 57
4 15 70 68 66 114 90 78 121 65 51 72 93 81 92
90 75 95 48 39 53 7 7 16 15 30 35 5 13 42
24 8 65 13 16 152 44 73 239 62 99 255 23 56 188
20 15 83 26 13 28 23 26 30 32 34 27 23 19 21
31 23 25 37 28 26 33 27 21 12 20 5 1 11 8
21 20 32 26 24 39 18 18 27 12 13 16 6 7 10
11 13 12 20 23 16 27 27 21 31 33 29 32 33 33
26 27 31 21 23 21 17 17 13 9 9 3 4 6 6
3 7 7 6 8 8 14 15 16 16 20 15 12 17 20
4 15 22 4 16 24 8 21 25 13 22 36 14 31 40
33 51 25 52 67 14 74 85 36 90 99 53 79 90 49
33 42 11 35 39 33 50 61 40 48 65 43 36 56 28
24 41 15 15 32 10 8 27 3 4 18 11 13 10 10
15 8 6 16 13 3 16 14 6 18 20 10 23 24 11
28 28 13 33 32 17 34 37 14 32 37 17 22 35 10
20 33 5 20 29 7 22 27 8 19 27 12 7 19 13
13 10 20 22 5 27 10 16 20 2 22 9 10 29 6
25 34 15 32 35 17 24 28 9 11 13 21 16 10 36
91 102 35 255 255 255 255 255 255 239 234 255 74 65 141
116 107 229 117 99 233 18 20 110 6 18 81 14 17 65
30 11 42 39 12 38 51 8 20 90 38 37 132 77 76
159 97 89 122 56 48 97 30 36 127 64 76 129 91 96
173 160 167 166 187 196 47 87 120 128 106 43 136 108 34
84 109 241 187 213 255 206 174 90 255 255 255 255 219 198
90 46 71 50 33 78 60 44 101 79 57 112 156 165 168
145 144 158 160 125 205 123 93 171 28 3 77 32 12 61
38 19 49 37 21 51 33 22 43 32 18 30 28 11 23
22 9 17 21 8 16 21 15 14 17 10 16 27 16 20
20 10 17 17 11 21 30 25 35 31 24 28 25 13 22
23 17 20 20 15 17 13 6 14 11 4 9 9 4 6
6 3 8 8 1 13 11 7 17 12 5 16 8 4 9
23 19 24 40 42 41 6 9 10 44 40 45 27 21 22
15 9 5 16 13 3 23 16 12 25 13 18 24 12 18
24 12 16 67 73 67 91 94 95 59 56 66 89 77 99
190 182 200 255 255 255 255 255 255 255 255 255 255 255 255
162 163 174 61 69 61 255 255 251 255 255 255 255 252 245
231 225 219 178 173 167 104 98 100 56 50 61 61 58 55
76 76 73 90 92 80 109 108 84 146 142 100 192 196 131
227 231 151 164 171 77 152 158 70 197 200 107 212 210 123
154 156 56 140 154 85 141 160 71 104 121 35 23 24 49
255 255 255 255 255 255 96 175 237 171 80 48 218 139 106
222 177 152 196 180 177 115 140 156 88 80 81 173 110 79
95 51 62 134 251 255 235 255 255 89 131 164 43 51 11
79 87 38 139 164 107 233 255 216 195 206 188 114 107 108
255 255 255 124 124 123 255 255 208 255 255 255 130 144 107
70 50 72 102 85 86 153 152 150 207 206 195 242 241 226
251 251 245 233 236 238 190 188 182 174 155 116 137 115 54
34 25 40 11 19 73 70 68 118 91 78 122 63 52 79
87 74 94 85 67 89 46 36 58 16 15 44 24 34 51
14 9 45 32 14 63 9 20 154 44 74 239 60 99 255
21 56 181 17 15 76 23 13 22 11 24 16 24 26 12
17 6 12 20 13 14 26 20 18 30 22 20 18 23 8
12 17 3 23 22 29 27 25 32 23 20 17 17 16 4
8 6 14 4 6 17 11 15 10 16 19 6 16 20 8
17 20 13 18 21 16 21 22 17 21 20 20 14 17 20
9 17 19 11 20 19 14 22 19 20 25 19 18 22 11
11 14 4 1 11 13 1 10 12 12 17 12 16 24 18
2 20 18 9 29 14 15 32 14 16 28 16 37 56 7
75 93 45 72 82 43 20 27 11 6 20 7 12 31 13
17 34 6 14 33 11 10 28 10 8 23 1 4 22 7
10 18 11 4 18 7 6 17 3 8 13 4 9 17 6
11 17 6 11 16 9 8 15 12 4 12 13 10 12 9
19 25 7 13 29 6 15 27 8 19 31 11 15 34 14
10 29 1 19 28 17 15 20 18 20 27 21 7 24 13
7 29 17 12 34 14 24 40 9 27 39 16 24 34 30
22 29 35 82 89 31 255 255 255 255 255 255 233 228 255
80 66 139 121 101 225 123 97 237 27 11 119 6 7 79
16 8 69 31 10 45 35 9 33 43 12 23 71 27 23
110 59 60 164 99 92 143 75 69 95 28 36 105 49 59
124 87 87 175 159 161 186 200 203 111 137 169 55 42 60
145 129 32 16 23 140 147 175 255 105 89 97 255 255 255
255 250 220 145 95 112 75 55 95 73 56 107 109 103 128
154 166 154 35 20 72 167 141 218 116 89 171 29 6 78
26 12 58 27 10 48 22 10 46 19 8 38 18 3 24
17 0 18 11 3 13 9 2 16 15 11 17 20 8 16
31 17 20 21 9 11 26 17 26 31 21 33 29 18 21
26 11 18 24 16 18 18 9 10 12 2 7 12 2 11
11 2 9 9 2 3 8 3 6 8 6 12 10 3 15
4 3 11 25 25 29 43 43 43 13 13 17 48 48 52
13 11 15 13 14 14 5 8 7 4 7 3 4 4 4
0 0 8 0 0 0 44 39 50 82 74 88 107 103 113
112 108 123 100 94 117 108 105 125 155 157 168 211 215 222
255 255 255 255 255 255 255 255 255 72 66 77 125 128 119
229 227 220 255 255 255 250 249 231 154 157 135 43 45 28
40 47 30 72 78 55 89 97 57 115 119 68 179 178 117
222 222 130 199 201 89 140 145 31 124 130 22 138 145 37
176 174 87 178 164 64 142 136 44 103 110 58 76 98 50
10 9 64 255 255 255 255 255 255 88 164 226 176 82 46
239 154 124 229 179 154 172 146 141 94 106 123 76 76 87
140 89 61 119 59 54 107 219 250 255 255 255 120 184 207
28 21 16 62 65 33 139 157 100 245 255 223 201 214 195
95 92 87 255 255 255 115 112 112 248 255 208 255 255 255
131 151 105 40 22 44 18 11 3 50 67 77 52 51 64
78 75 68 101 99 100 107 105 108 121 109 76 191 163 104
175 146 82 54 42 34 11 20 74 72 72 118 90 78 121
63 55 88 85 69 101 79 59 92 41 30 70 21 20 64
27 34 67 26 15 59 41 23 71 17 23 155 44 74 233
57 95 250 21 57 173 15 22 73 19 18 27 4 21 9
15 12 8 23 4 13 23 12 16 21 18 18 26 21 21
23 23 14 16 20 7 21 24 27 27 26 32 27 22 19
23 19 12 15 10 16 10 10 17 13 17 14 18 22 4
13 17 1 11 15 6 17 20 7 20 20 13 21 16 13
13 11 15 3 11 17 4 12 15 10 18 18 21 30 25
24 26 23 18 18 20 11 12 25 8 12 20 14 19 15
16 24 14 9 22 11 23 34 19 34 41 28 30 34 31
24 42 23 51 72 18 73 85 41 38 60 26 13 39 13
15 32 7 20 34 6 17 37 10 13 31 11 9 19 6
6 13 10 10 9 13 8 19 8 11 18 6 7 13 0
7 19 6 9 18 8 9 16 9 8 16 9 4 12 9
2 14 9 5 13 9 4 4 9 15 13 10 15 19 13
16 13 11 29 13 18 24 20 13 12 25 7 23 27 16
18 22 12 24 9 18 40 11 38 45 19 46 35 13 37
5 14 8 16 31 36 52 51 17 255 255 255 255 255 255
239 235 255 112 103 179 142 123 239 91 64 200 32 13 119
10 7 86 12 22 79 36 13 40 44 7 19 39 9 21
54 8 6 87 37 38 157 90 85 180 106 103 130 61 70
94 36 46 103 61 59 151 132 131 173 180 180 145 163 187
13 33 85 131 121 34 54 55 96 87 122 255 46 84 189
255 214 116 255 255 212 214 147 143 111 80 106 80 61 102
156 157 162 108 104 121 139 106 179 136 109 188 65 41 129
50 31 101 26 16 63 23 12 52 26 13 49 25 8 40
24 6 28 25 6 25 22 5 18 18 3 15 19 7 15
28 11 18 32 17 21 21 9 13 26 18 27 30 22 32
28 17 21 28 14 20 30 16 20 26 10 15 19 6 12
14 2 12 12 3 12 12 4 8 11 2 6 10 3 10
11 5 15 6 5 11 27 25 30 42 42 42 15 15 18
48 48 52 13 9 19 15 17 13 8 8 10 5 6 4
4 4 4 0 0 8 0 0 0 54 54 65 65 62 77
73 67 79 72 59 73 58 41 62 38 23 48 48 35 55
63 48 66 57 43 55 123 117 116 255 255 255 255 255 255
213 211 204 139 134 130 58 50 52 185 188 159 226 227 193
74 80 45 49 69 32 71 88 44 95 109 47 137 151 76
224 224 141 213 204 100 82 68 44 35 39 141 69 80 190
64 81 196 38 58 168 40 20 118 54 38 86 57 58 80
52 95 80 49 42 82 255 255 255 255 255 255 73 147 204
170 78 38 250 166 134 239 181 156 154 121 113 68 61 84
48 47 67 106 60 50 134 64 48 77 178 219 255 255 255
143 226 246 5 11 38 26 29 24 121 140 76 247 255 211
217 231 210 57 65 51 255 255 242 155 147 144 181 192 159
255 255 255 169 194 144 56 61 51 22 35 22 61 79 85
42 53 76 12 12 49 19 13 59 21 8 53 86 63 31
200 167 123 190 160 110 60 50 38 15 25 78 69 70 116
85 74 121 66 56 102 83 64 110 71 50 98 38 24 86
35 29 86 38 37 90 38 27 86 51 39 95 41 41 158
49 75 227 51 88 236 15 50 159 15 25 68 13 22 27
4 10 3 3 1 16 23 3 13 27 10 19 18 18 19
19 19 19 18 20 13 17 17 8 21 23 22 25 29 28
27 27 19 23 23 13 17 14 14 16 13 12 18 19 10
23 25 7 13 17 7 9 13 10 17 17 4 24 18 12
26 18 11 18 13 11 13 13 12 15 15 12 22 24 16
33 36 20 39 34 14 38 33 8 36 32 16 37 33 4
43 37 13 45 41 15 45 47 20 45 54 25 41 50 17
36 41 20 28 38 27 31 53 6 71 83 41 52 85 38
9 35 6 10 21 1 21 23 10 19 34 16 17 31 16
14 20 12 13 12 14 18 10 20 11 20 16 8 15 9
0 15 8 4 20 4 8 17 3 8 16 3 8 16 6
4 12 9 3 11 9 10 15 9 3 9 5 15 17 10
10 11 10 36 10 17 40 7 15 21 25 15 9 46 29
11 49 30 6 44 25 16 39 19 13 33 13 7 35 14
10 27 3 24 17 16 13 6 14 27 16 11 254 255 215
255 255 255 255 255 255 150 143 215 111 93 212 44 13 146
34 11 111 30 23 102 19 32 85 33 15 35 52 23 10
37 3 20 42 11 14 69 26 27 139 71 67 207 125 125
178 103 115 106 45 55 96 52 50 129 103 102 150 144 146
155 161 182 38 52 104 107 103 31 92 94 53 23 63 184
59 117 255 139 67 56 255 232 155 255 175 147 181 124 138
174 147 168 209 206 207 132 99 164 221 183 255 76 43 135
35 20 90 56 38 118 26 15 77 19 14 50 23 11 51
23 8 39 19 8 27 20 7 27 18 5 18 15 4 15
18 3 14 26 9 16 21 9 14 13 1 7 20 16 23
23 19 28 20 10 21 24 15 21 24 18 20 20 14 17
16 12 12 15 11 11 12 9 13 8 8 11 6 6 6
11 4 11 11 4 17 4 6 9 28 22 29 43 43 44
13 12 19 48 47 53 12 9 19 13 16 8 8 8 7
7 7 9 4 4 9 0 0 11 0 0 8 16 16 18
14 14 17 14 20 13 30 21 37 44 30 47 43 31 43
45 31 47 58 44 61 44 30 46 15 4 14 83 76 78
180 178 168 212 214 196 245 244 230 234 229 208 57 59 48
255 255 218 182 195 140 127 152 80 115 140 64 132 152 69
177 189 97 234 227 132 121 103 29 109 137 236 247 255 255
255 255 255 255 255 255 242 255 255 180 223 255 105 151 231
48 88 145 28 103 122 99 86 121 255 255 255 255 255 255
54 119 171 159 72 33 247 167 133 246 183 155 155 117 108
52 34 61 27 24 49 90 46 47 138 70 46 64 154 201
255 255 255 149 250 255 0 30 51 3 16 38 92 110 50
217 233 171 206 220 195 63 76 63 176 173 157 193 190 175
85 111 61 255 255 255 255 255 255 146 171 139 55 84 58
62 80 80 30 44 64 12 9 43 16 7 52 14 16 56
80 53 33 196 162 123 188 161 116 62 54 33 13 24 75
59 59 110 81 68 123 73 59 116 85 63 120 70 48 112
51 36 108 57 48 112 57 49 114 57 45 111 63 53 117
57 58 161 55 72 215 41 73 212 11 36 140 20 21 59
11 28 23 7 11 7 7 7 20 20 5 13 27 7 22
19 17 24 17 17 22 16 18 13 19 18 7 23 21 16
27 27 27 29 29 23 24 24 14 18 18 6 17 18 3
24 22 8 28 26 13 17 21 15 16 20 20 30 23 25
40 27 30 39 33 30 37 34 31 39 39 36 43 43 37
48 48 34 57 55 31 60 55 25 58 54 22 57 52 25
59 55 17 63 60 13 61 65 16 53 61 15 38 50 20
26 41 17 22 34 13 18 27 20 10 33 15 60 74 37
63 96 46 21 44 14 11 9 3 25 20 13 22 32 18
19 32 17 17 27 14 12 18 12 15 10 16 13 14 13
6 12 11 1 17 12 4 19 2 8 16 4 8 16 5
8 16 7 4 13 6 4 13 3 11 14 8 2 9 4
16 21 12 6 20 18 24 47 45 78 111 103 158 197 184
224 255 254 255 255 255 255 255 255 255 255 255 255 255 255
255 255 255 242 255 255 151 188 177 86 114 116 43 64 81
161 160 113 255 255 255 255 255 255 164 156 228 61 49 160
27 14 127 32 22 111 40 36 107 28 36 86 27 13 34
54 28 16 41 15 24 39 21 23 52 20 21 107 37 34
203 118 119 223 139 154 148 75 88 113 61 62 128 93 93
137 122 125 142 138 157 66 63 108 72 77 21 114 117 33
52 44 107 70 113 255 30 45 184 241 157 54 254 167 121
208 142 153 212 196 203 124 119 126 209 174 246 210 175 255
60 24 116 30 12 89 43 25 110 35 22 85 27 18 55
21 12 51 21 11 38 19 8 23 20 6 25 17 6 21
14 7 18 14 3 15 22 6 12 12 6 6 8 6 4
16 17 18 16 15 18 12 4 15 21 17 18 21 15 18
20 13 20 13 10 10 15 11 11 13 8 14 8 5 12
6 6 6 10 3 10 13 3 19 7 8 14 28 20 28
44 44 45 13 9 21 48 45 56 13 11 17 13 13 12
9 9 6 9 9 8 4 4 9 0 0 11 0 0 8
18 21 19 13 12 20 9 10 8 18 9 32 24 12 37
19 9 25 42 31 48 48 38 54 58 47 63 41 29 42
33 24 41 64 57 67 68 64 58 148 145 136 255 255 247
142 152 99 181 185 140 255 255 207 243 255 187 228 252 170
223 247 159 226 239 140 197 189 86 55 96 175 255 255 255
255 255 255 255 255 255 247 255 255 203 228 255 202 235 255
213 255 255 154 204 255 83 160 201 148 141 173 255 255 255
255 255 255 44 80 135 151 66 36 236 157 125 249 186 156
177 132 121 58 30 55 34 32 37 90 52 52 125 66 49
70 150 200 255 255 255 151 255 255 8 52 69 5 6 35
85 102 46 175 186 133 165 176 152 110 119 105 135 144 117
184 190 162 79 74 77 198 229 154 255 255 248 233 255 219
141 171 138 65 91 87 27 40 59 23 22 54 15 16 54
27 19 54 85 57 56 186 150 127 178 148 116 61 50 36
9 26 60 37 33 85 72 55 115 86 73 133 92 70 132
75 55 125 67 57 126 74 66 129 74 65 129 75 65 122
79 67 120 67 66 156 55 63 194 32 53 182 26 21 118
29 12 46 14 30 17 10 18 6 6 7 18 18 4 9
23 4 23 21 13 27 17 14 22 12 17 10 13 20 3
17 21 7 24 26 21 29 29 25 25 25 18 19 20 7
18 22 1 28 27 7 31 27 14 25 29 23 27 30 34
40 31 42 47 38 44 45 47 42 48 50 44 52 52 49
56 56 53 54 56 45 46 51 26 42 47 13 39 44 13
38 44 22 40 49 14 44 55 9 44 59 20 43 54 17
38 45 13 26 36 16 23 34 12 25 30 9 19 26 22
34 55 18 61 86 46 38 65 29 1 19 6 25 30 13
29 38 21 20 38 16 15 32 5 9 24 2 4 16 13
8 15 14 6 15 14 3 19 12 4 17 2 8 16 3
8 17 3 8 17 1 4 15 0 5 16 9 8 9 3
9 17 15 60 78 77 137 160 162 229 255 255 255 255 255
255 255 255 255 255 255 255 255 255 255 255 255 255 255 255
255 255 255 255 255 255 255 255 255 255 255 255 255 255 255
255 255 255 109 125 153 255 255 255 255 255 255 231 212 255
26 21 118 26 18 123 38 26 113 39 33 99 33 31 81
21 13 35 47 26 17 44 16 24 40 17 20 40 5 9
73 12 9 167 82 85 238 147 163 200 114 132 151 80 90
145 95 97 144 122 123 124 112 124 79 64 99 40 49 13
117 124 40 85 77 49 35 63 218 44 97 249 133 62 68
213 129 80 178 137 156 157 153 160 154 112 162 255 232 255
136 108 187 48 10 108 44 12 112 25 10 92 31 21 82
25 18 63 19 14 49 22 13 42 22 10 24 20 6 23
19 6 22 15 9 18 10 4 15 20 2 10 7 4 6
13 10 10 16 19 17 11 13 11 9 8 1 16 18 10
13 6 12 21 9 21 13 3 13 10 6 10 13 7 17
11 3 14 9 5 6 8 3 6 12 4 13 9 9 14
28 21 30 44 44 46 13 9 21 48 45 54 13 13 15
13 13 14 11 11 11 11 11 9 4 4 6 0 0 6
0 0 0 48 41 37 39 32 33 25 25 23 26 21 40
30 18 43 22 8 27 40 28 48 40 28 54 47 35 62
57 45 58 33 22 32 47 40 51 46 39 44 78 76 75
235 237 201 255 255 192 73 90 29 134 123 94 168 169 120
197 208 133 201 217 122 172 186 91 79 86 39 255 255 255
255 255 255 250 255 255 156 145 195 139 126 147 59 52 98
63 87 142 151 198 254 197 255 255 154 233 255 177 168 209
255 255 255 255 255 255 47 45 110 146 68 54 223 143 119
246 182 159 202 155 145 72 38 59 53 56 26 94 67 46
99 55 47 87 156 210 255 255 255 147 255 255 0 73 93
12 32 47 70 81 31 137 133 93 163 154 130 152 146 130
107 116 91 120 121 109 109 97 92 58 92 24 207 248 142
255 255 233 216 249 196 138 168 133 101 125 104 74 94 89
63 75 75 80 82 80 110 104 97 173 149 135 149 126 106
46 27 33 37 27 48 21 6 44 33 36 90 80 82 131
83 78 127 59 58 114 52 59 116 60 64 123 61 62 121
62 59 115 68 58 107 55 54 133 36 47 166 30 37 149
44 11 92 37 3 29 14 25 20 9 20 11 4 6 12
15 4 9 20 6 22 18 10 24 16 12 20 9 14 11
9 16 4 13 17 3 20 23 11 29 29 24 25 25 24
18 18 10 19 22 5 31 28 15 32 28 18 35 39 28
38 40 35 42 33 36 48 40 34 45 50 34 47 50 37
47 48 36 49 52 34 49 54 36 46 52 28 48 54 16
47 54 17 45 52 29 44 55 24 44 61 13 44 64 20
41 61 22 40 56 9 32 49 4 30 51 17 32 52 15
36 48 30 21 45 10 42 63 30 44 81 38 15 47 18
18 36 9 31 43 20 26 44 21 19 38 11 14 29 8
10 20 17 6 18 13 4 19 12 4 20 12 3 17 0
8 16 0 8 18 0 8 18 3 4 13 6 13 15 4
22 25 4 56 75 66 208 228 218 255 255 255 255 255 255
255 255 255 255 255 255 255 255 255 241 255 255 220 250 255
218 245 255 222 239 255 245 255 255 255 255 255 255 255 255
255 255 255 255 255 255 255 255 255 255 255 255 255 255 255
255 255 255 41 16 130 44 33 135 52 41 117 34 25 85
30 22 70 13 9 28 31 22 11 35 15 23 36 8 16
41 12 7 48 9 20 113 44 40 216 128 146 227 136 158
187 102 121 178 112 122 172 139 141 114 93 97 82 57 83
16 28 22 102 116 44 94 92 22 30 10 148 59 97 255
33 28 179 153 81 54 131 146 160 144 115 112 255 255 255
244 219 255 69 47 122 35 8 91 55 22 114 44 18 102
27 7 85 17 3 60 17 5 47 19 7 43 21 9 26
18 4 16 16 4 16 11 9 17 8 6 16 16 4 11
5 5 11 12 11 17 16 18 18 9 11 10 9 15 4
15 23 12 7 1 4 16 11 16 12 1 11 11 1 10
12 6 15 10 6 17 9 8 9 8 3 4 11 7 8
8 9 6 28 23 27 44 44 45 12 11 15 48 47 50
12 12 18 12 12 8 12 12 8 12 12 6 4 4 0
0 0 3 0 0 6 31 34 21 33 28 25 14 8 16
16 10 32 26 16 42 34 13 44 48 35 60 39 27 57
35 22 51 52 42 58 42 31 48 51 42 58 51 44 55
54 54 63 165 164 140 255 255 182 174 211 102 123 162 115
99 136 110 91 118 94 82 98 61 60 86 19 102 127 168
255 255 255 255 255 255 89 128 166 193 147 143 182 161 165
92 62 89 72 17 55 49 53 109 100 174 245 181 255 255
212 229 255 255 255 255 255 255 255 49 17 97 124 59 79
210 133 131 243 179 174 216 170 173 101 69 100 63 69 48
82 68 28 69 34 35 98 145 202 232 255 255 140 255 255
165 255 255 170 255 255 101 182 207 27 39 76 126 87 49
145 121 88 112 107 71 91 110 73 91 105 72 15 45 16
107 164 58 250 255 183 255 255 247 255 255 247 247 255 211
192 253 171 155 200 134 116 155 99 97 131 78 132 143 105
99 102 70 47 38 31 46 44 51 40 66 70 4 74 92
68 101 129 70 102 133 45 83 120 32 68 113 38 63 117
39 63 119 43 62 118 55 56 108 46 49 115 27 39 132
32 25 112 43 19 71 37 24 27 25 30 15 19 21 9
11 10 6 16 8 15 18 6 25 15 3 23 12 4 17
4 11 12 4 14 8 9 16 7 16 22 6 25 23 15
29 24 25 27 20 16 27 24 12 35 28 17 34 27 15
42 43 26 42 44 17 38 34 6 44 42 10 40 45 11
36 39 15 34 38 10 42 48 5 57 65 17 70 78 28
72 81 31 65 80 35 63 80 46 62 84 58 56 87 62
48 86 59 40 80 49 44 81 41 50 87 40 49 91 38
44 83 26 46 74 31 38 70 26 33 69 11 38 82 37
21 51 26 8 25 4 25 42 16 26 44 19 22 41 11
25 40 15 23 34 18 15 28 10 16 27 12 14 30 9
9 25 1 10 18 3 6 16 6 11 16 9 24 22 5
42 34 4 30 37 10 156 179 141 255 255 255 255 255 255
255 255 255 245 255 244 186 202 210 131 137 177 105 102 178
98 89 191 102 91 201 92 75 189 81 68 170 73 61 174
122 107 218 197 188 255 255 255 255 255 255 255 255 255 255
255 255 255 242 207 255 81 44 173 67 39 146 60 41 111
46 35 71 34 26 50 17 13 19 20 17 15 13 10 19
18 8 7 42 14 11 54 19 12 89 54 38 152 91 97
194 112 135 208 116 140 234 146 169 238 178 190 157 116 120
94 58 78 39 39 37 82 105 66 75 82 54 64 44 115
50 75 245 51 108 255 96 110 137 125 170 168 161 102 85
255 255 255 211 185 251 72 38 108 54 29 84 57 16 102
61 24 118 46 10 94 37 6 63 35 6 57 32 9 52
32 13 42 33 12 29 34 14 24 37 19 26 35 17 30
21 6 27 11 3 26 14 9 31 20 18 31 11 9 20
8 16 1 16 26 15 6 3 3 14 9 9 11 4 10
13 0 13 13 6 13 10 9 17 9 8 15 9 1 6
12 7 6 9 8 6 25 20 23 40 40 43 11 11 18
41 41 41 16 16 19 16 16 10 16 11 13 10 6 10
3 11 5 0 12 4 0 12 8 20 19 24 22 23 17
15 10 16 14 10 22 22 14 28 43 22 49 48 34 66
34 19 54 42 19 58 58 39 69 50 34 64 53 41 66
44 37 55 55 53 66 134 127 111 199 196 124 132 168 76
126 176 123 135 185 128 153 194 134 166 204 124 89 110 55
232 255 255 255 255 255 255 255 255 75 44 74 182 119 97
211 187 179 134 125 140 59 35 65 70 31 57 23 50 115
121 204 255 255 255 255 255 255 255 219 225 255 57 31 91
97 41 83 197 123 132 234 175 173 205 158 167 104 74 109
41 54 46 58 61 27 46 34 46 68 111 171 163 255 255
196 255 255 255 255 255 236 255 255 198 255 255 137 226 255
34 102 131 56 25 19 95 81 48 80 104 68 6 25 6
113 89 104 109 77 112 36 87 16 189 239 129 255 255 217
255 255 255 255 255 255 232 255 222 163 231 160 92 164 97
82 135 83 60 96 54 30 86 47 18 121 89 50 146 121
26 130 115 60 142 137 81 163 159 94 166 171 93 155 167
84 140 157 74 128 151 73 120 149 84 113 145 82 96 128
61 72 99 35 57 81 38 60 64 58 67 32 58 57 16
47 44 12 42 44 20 41 42 30 34 33 30 27 22 21
20 15 16 14 18 16 10 21 12 10 26 11 16 25 13
12 16 7 20 15 16 27 21 20 31 26 20 37 27 16
34 25 11 39 36 21 48 46 29 51 52 27 56 56 23
53 47 21 48 45 22 41 45 17 38 42 3 42 50 6
43 49 12 35 44 15 28 43 19 26 39 27 24 44 36
22 46 41 17 40 38 13 38 31 21 46 30 32 59 33
34 65 29 31 59 21 35 58 27 40 65 31 40 69 29
26 55 27 13 32 22 3 4 6 17 36 12 24 40 16
21 33 9 21 38 14 24 43 3 11 28 7 17 26 14
16 39 4 13 36 7 12 25 15 5 15 20 16 13 19
25 23 15 34 25 12 38 56 24 252 255 207 255 255 255
255 255 255 126 161 131 57 81 103 58 67 119 55 49 110
76 59 139 82 64 163 92 74 182 93 72 188 73 52 167
48 30 137 47 28 110 59 33 102 59 35 143 152 127 248
220 191 255 214 179 255 140 102 230 67 34 144 47 21 103
35 12 70 29 9 40 22 11 20 17 14 14 20 17 18
18 17 23 19 17 17 30 9 6 84 44 25 108 70 48
97 54 53 115 58 76 164 88 108 228 141 166 255 200 222
235 182 192 144 115 123 94 92 85 92 109 94 76 78 78
69 40 112 40 60 210 114 174 255 99 172 255 88 94 88
255 235 219 255 255 255 144 129 184 65 34 98 53 16 91
45 25 105 50 41 110 27 17 76 29 12 57 29 3 57
27 8 48 23 10 40 18 7 25 20 7 9 21 8 4
26 13 17 33 11 38 34 11 47 31 13 46 29 22 42
17 10 30 11 16 7 21 26 15 10 4 4 14 8 8
10 6 6 11 9 11 13 12 13 10 13 13 10 10 16
11 9 11 16 13 7 17 16 6 19 17 14 27 27 28
6 4 13 29 29 29 18 18 19 14 14 12 15 9 13
7 6 11 8 2 11 8 4 12 8 4 12 8 14 12
19 21 19 18 16 20 18 11 23 28 16 30 46 24 53
46 30 65 41 21 58 54 30 72 50 35 69 39 25 55
48 36 58 42 33 49 64 54 68 124 109 99 150 129 80
64 71 24 17 50 49 40 98 13 96 154 66 174 222 128
101 122 63 255 255 255 255 255 255 185 255 255 92 17 61
146 64 37 209 167 137 175 159 152 67 75 89 12 40 65
88 61 75 118 120 150 255 255 255 255 255 255 131 129 172
56 42 64 95 43 57 195 123 122 223 169 162 195 147 156
88 53 92 28 45 42 54 64 46 64 62 66 79 95 145
152 189 232 196 218 243 144 201 227 124 167 197 111 144 168
152 225 245 143 229 240 59 143 140 21 66 49 27 17 14
134 125 119 202 211 197 219 219 206 201 193 190 107 96 106
22 12 13 109 136 107 197 255 207 232 255 255 235 255 255
211 255 250 171 255 215 137 229 183 124 222 172 121 220 171
106 206 156 91 196 141 114 218 162 159 255 202 196 255 237
211 255 250 203 255 241 184 255 226 180 253 228 198 251 243
210 244 236 198 226 205 181 215 180 167 200 149 139 163 98
99 114 50 57 71 18 47 63 20 46 57 20 40 47 18
40 41 9 41 38 11 42 41 13 41 40 8 35 31 1
25 17 6 18 7 9 17 9 17 23 19 23 29 27 25
34 25 20 26 21 13 23 24 2 40 40 15 54 60 21
60 68 20 60 60 20 59 56 20 56 56 18 50 50 7
43 45 0 31 33 2 25 32 0 29 39 2 34 40 0
31 42 1 30 47 2 31 51 2 33 51 3 35 51 3
33 51 1 26 47 1 20 37 6 12 25 15 4 26 9
10 30 8 7 18 3 5 25 16 12 18 16 6 21 9
18 36 14 16 27 2 13 33 7 26 50 21 5 27 25
11 19 28 13 36 20 17 39 27 10 34 33 4 23 33
11 18 32 16 18 33 25 13 31 66 92 42 255 255 251
255 255 255 247 255 234 57 86 93 51 64 132 58 61 151
45 47 134 66 61 116 81 76 102 79 75 113 75 67 120
68 56 115 58 46 106 52 38 99 61 34 92 63 31 74
44 33 47 44 37 45 39 22 53 30 12 60 30 19 64
26 14 51 16 4 35 10 15 25 20 24 19 25 26 17
20 24 15 19 21 15 15 19 11 22 17 14 90 42 23
111 63 40 75 37 36 71 33 41 98 43 49 158 88 104
225 154 179 246 191 208 199 176 188 126 124 133 75 87 86
55 55 57 60 36 94 37 57 177 149 214 255 171 242 255
138 83 16 255 255 255 255 244 255 85 74 121 47 31 84
58 32 107 63 44 122 51 35 107 10 17 59 12 20 41
20 4 50 27 6 46 34 11 45 32 11 43 23 11 24
10 18 5 16 11 28 35 15 44 40 19 46 40 19 53
39 25 51 26 13 39 20 20 18 27 27 20 19 12 15
25 16 19 25 16 17 27 17 19 28 15 23 25 15 21
22 15 23 22 13 21 27 12 12 26 13 12 25 15 18
33 24 27 31 21 25 46 40 43 49 43 43 49 44 40
50 43 39 37 24 23 29 16 16 28 16 16 28 16 18
11 22 18 26 24 24 26 20 26 24 16 30 31 20 35
46 27 56 49 31 68 46 23 63 49 25 68 41 27 62
41 21 51 54 35 59 59 45 59 81 67 79 118 100 94
126 98 60 57 47 14 33 58 37 81 124 64 116 166 96
159 203 117 66 73 25 255 255 255 255 255 255 142 234 255
88 27 71 121 43 44 196 147 115 196 176 160 98 100 107
31 52 66 120 87 89 203 156 170 255 255 255 255 255 255
52 53 81 49 32 23 110 54 49 205 135 131 212 160 155
186 140 150 72 39 78 38 54 53 56 62 52 72 63 48
72 59 85 126 121 157 144 151 184 127 189 224 193 192 221
68 45 69 44 94 116 152 223 231 137 243 239 35 118 110
56 31 30 204 194 183 195 216 194 120 126 96 181 173 153
175 179 145 184 192 167 131 150 116 18 29 31 105 144 133
166 216 196 207 255 231 217 255 238 206 255 226 189 255 209
166 239 182 143 214 154 130 215 149 132 226 157 136 232 161
137 233 159 140 225 149 138 207 132 126 187 114 120 168 121
138 169 147 179 192 170 208 220 187 226 246 188 229 254 164
220 243 144 203 219 137 157 168 106 112 122 68 97 106 54
101 107 51 106 108 49 109 109 51 106 104 46 96 95 36
75 71 25 45 35 15 27 12 17 25 10 23 23 16 23
25 23 22 26 24 20 19 18 11 13 15 18 29 31 7
52 57 18 59 66 21 63 68 22 66 70 22 71 71 21
70 69 13 68 66 4 56 59 3 48 57 4 49 59 8
52 61 12 51 65 14 49 68 12 49 72 10 56 79 15
67 91 21 70 98 25 62 97 28 54 96 33 50 93 35
47 90 33 41 88 35 36 73 35 27 58 29 26 44 25
9 12 11 9 20 9 15 28 5 19 37 4 31 57 22
17 41 9 10 29 27 16 36 31 19 37 34 8 36 32
5 26 27 11 24 21 15 21 20 30 19 35 76 114 40
255 255 255 255 255 255 201 243 186 67 87 98 93 103 176
82 83 189 53 51 158 51 45 119 54 49 60 56 51 58
58 51 66 54 46 69 45 36 67 37 25 63 35 13 49
37 13 27 43 27 20 53 41 36 59 40 47 47 28 44
28 17 36 11 6 23 13 10 18 19 14 16 20 16 17
17 14 20 11 15 20 17 15 16 19 15 4 24 8 4
75 20 9 100 47 36 79 47 47 71 38 41 81 38 33
118 69 69 175 122 136 214 168 182 219 188 201 158 138 154
72 68 75 43 43 54 64 44 79 53 58 156 164 235 255
241 255 255 142 94 41 255 255 255 242 217 227 120 113 133
104 102 123 104 92 143 102 87 147 92 77 127 79 66 91
63 48 67 59 41 65 72 50 75 87 61 87 100 71 103
107 82 116 110 90 121 104 90 117 88 78 99 79 70 88
87 72 99 97 79 104 98 81 101 91 79 91 80 70 78
71 62 68 74 66 70 79 71 75 82 73 76 84 74 75
85 73 75 85 73 72 84 75 70 86 76 69 90 76 71
92 76 74 93 78 78 93 77 77 101 86 86 99 85 81
96 82 78 94 85 82 85 71 73 80 64 68 80 64 68
80 64 68 22 22 22 31 23 27 30 22 27 25 21 30
30 24 41 48 31 64 53 29 68 41 17 59 41 17 58
42 25 57 53 30 63 69 49 76 87 71 89 109 94 105
113 98 93 108 81 57 70 58 37 72 95 59 118 156 98
134 174 108 126 176 82 23 23 28 255 255 255 255 255 255
112 200 255 80 33 80 98 33 59 176 125 87 199 175 156
114 115 117 55 75 84 134 102 112 227 168 185 255 250 255
227 184 219 28 44 48 57 41 27 112 57 48 205 135 137
214 162 161 181 138 146 49 21 49 36 60 32 46 54 44
65 57 43 83 63 57 115 84 103 71 98 145 232 255 255
245 243 255 72 38 34 73 34 37 89 166 183 176 255 255
91 193 191 65 55 33 231 220 199 193 206 184 51 41 49
101 85 88 78 89 42 127 140 105 192 222 177 112 134 84
27 51 29 8 12 16 36 22 17 43 28 20 24 11 27
31 40 70 75 86 128 104 113 166 113 129 182 121 139 191
132 152 206 138 160 218 136 160 220 124 153 210 110 140 193
99 131 180 92 127 163 72 100 128 30 58 96 20 32 64
64 47 22 125 115 42 186 177 94 214 201 125 201 189 123
189 181 115 187 183 109 181 179 105 166 168 99 144 144 84
118 113 65 95 93 47 62 60 26 28 15 23 24 10 19
16 12 16 17 16 19 20 22 21 15 19 14 4 12 24
12 14 21 40 46 24 47 54 20 52 61 10 65 73 20
81 85 29 89 93 29 91 94 25 79 84 20 68 80 20
66 83 21 68 85 24 69 85 22 63 83 19 58 84 16
57 86 23 55 89 26 55 92 28 56 89 31 53 90 35
51 93 35 52 98 35 52 102 38 52 97 38 49 85 38
50 69 35 34 37 19 17 9 7 4 12 15 7 30 17
24 54 30 21 52 25 6 40 7 17 40 8 20 39 12
7 35 11 9 21 7 19 15 16 21 14 26 30 15 34
68 107 31 255 255 240 255 255 255 217 255 196 83 109 103
121 136 196 129 133 238 59 49 167 17 6 112 7 12 77
15 11 50 24 16 26 26 18 25 24 14 31 16 10 30
10 13 20 23 21 3 40 30 17 54 45 39 68 59 58
64 45 54 37 20 29 24 19 10 23 19 15 17 7 24
9 6 28 5 10 30 10 16 29 16 20 22 22 20 18
29 10 17 66 12 20 90 33 31 80 50 54 72 40 45
70 21 21 85 34 31 119 68 73 150 102 113 200 153 169
181 146 166 76 51 72 40 33 55 70 52 73 68 54 137
170 242 255 255 255 255 73 41 96 255 255 255 252 234 235
156 143 158 143 130 152 144 128 171 139 120 166 132 115 149
130 117 144 124 107 132 118 100 121 118 97 123 118 91 123
118 87 125 120 87 129 120 89 130 115 93 125 112 100 121
117 109 125 130 119 138 143 129 148 149 133 151 141 123 143
122 104 122 104 90 101 100 86 93 103 86 91 103 87 90
100 89 91 101 90 93 104 90 91 107 90 88 103 86 81
94 80 69 89 77 65 88 76 66 83 70 60 85 72 63
77 64 51 69 53 48 70 59 55 61 47 44 56 40 36
56 40 36 56 40 36 18 18 18 30 21 27 30 22 31
25 21 34 31 23 45 49 29 66 53 26 67 35 15 57
36 13 53 54 31 67 76 50 90 95 71 101 119 97 118
130 115 123 102 89 87 79 58 45 68 58 27 84 112 51
120 165 85 112 157 64 75 134 28 31 33 63 255 255 255
255 255 255 90 170 229 79 34 84 90 26 65 163 108 65
185 155 137 104 104 106 78 86 100 134 101 124 195 135 161
255 230 255 223 177 207 41 56 58 68 56 56 100 48 55
192 127 136 229 179 182 187 146 162 35 20 53 54 77 57
44 48 55 53 44 47 93 72 50 134 97 85 37 66 122
255 255 255 255 255 255 30 11 59 122 87 70 26 91 122
173 255 255 157 255 255 59 76 62 232 219 184 171 175 151
53 27 71 75 50 78 30 33 52 62 66 76 171 183 164
110 110 78 15 32 32 35 91 86 116 182 173 201 255 255
255 255 255 255 255 255 255 255 255 255 255 255 255 255 255
255 255 255 255 255 255 255 255 255 255 255 255 215 255 255
171 255 255 132 216 255 96 176 232 71 147 194 58 133 179
52 119 159 39 92 121 21 53 80 31 29 48 64 43 16
91 72 23 97 82 27 85 79 16 74 76 12 67 72 8
68 63 23 67 50 26 78 81 33 60 63 15 28 16 24
24 9 15 21 6 14 17 9 20 14 17 19 12 18 13
1 12 18 9 10 29 28 33 30 32 39 15 41 49 5
60 65 17 79 80 32 91 94 39 102 106 45 94 103 42
83 96 37 77 96 35 73 92 30 72 86 24 69 83 25
63 83 25 54 80 25 44 76 21 43 79 17 44 77 16
45 74 21 46 76 26 46 80 28 43 83 25 41 88 20
42 91 28 54 80 35 45 55 28 28 35 15 17 22 9
4 13 9 12 38 17 23 52 27 15 44 18 14 39 10
19 41 14 6 35 16 10 23 21 21 14 25 21 13 28
20 9 26 40 78 18 249 255 178 255 255 255 255 255 240
107 139 113 128 144 187 162 167 255 61 52 171 18 24 95
20 11 88 33 21 66 41 29 43 43 34 31 42 33 35
35 25 35 21 25 37 11 23 23 28 24 15 48 37 41
63 56 59 65 52 55 46 34 28 37 28 8 31 17 21
20 9 34 7 1 30 3 5 33 6 13 31 13 21 24
19 23 22 30 14 20 60 6 13 81 14 20 77 42 49
73 42 47 65 16 19 64 14 12 82 24 27 94 40 48
175 120 139 199 159 179 95 64 89 70 53 77 82 61 88
81 48 127 168 233 255 255 255 255 8 64 164 255 255 255
212 197 200 97 86 112 100 85 122 119 103 155 111 96 147
94 79 115 97 81 111 106 88 119 107 86 113 102 78 110
95 70 109 91 63 105 92 57 101 93 53 99 90 57 98
86 64 95 81 67 89 78 68 89 77 67 93 77 63 90
69 53 78 53 37 60 41 24 40 42 28 39 44 33 38
47 34 36 47 35 35 44 36 36 41 35 37 43 32 33
49 27 31 35 13 15 19 10 8 24 22 25 8 4 16
25 27 33 18 26 27 20 23 28 34 36 39 19 18 21
15 1 4 16 0 4 16 0 4 18 18 22 32 23 33
30 22 35 24 19 33 32 18 46 48 24 66 50 24 68
36 17 60 44 22 62 75 47 90 102 77 115 115 93 115
132 115 124 124 117 118 71 63 66 35 24 35 54 50 7
99 125 53 126 172 71 95 141 28 45 100 3 71 79 93
255 255 255 255 255 255 69 140 201 80 32 88 101 23 58
163 103 54 156 123 103 76 71 80 89 83 105 115 84 116
148 94 129 255 216 242 237 187 218 36 53 58 82 64 65
96 44 54 169 110 118 221 172 180 198 167 185 89 83 110
77 92 96 51 48 79 38 28 59 89 65 49 150 116 95
27 45 104 255 255 255 255 255 255 39 49 98 135 108 93
85 67 92 141 235 255 210 255 255 29 79 98 212 186 145
141 128 110 78 43 80 72 40 61 55 29 47 112 101 103
150 145 124 73 67 28 61 127 145 185 255 255 255 255 255
255 255 255 255 255 255 255 255 255 255 255 255 237 255 255
188 255 255 152 244 255 135 226 255 118 213 249 106 207 241
98 209 241 94 216 250 101 203 255 73 160 239 21 116 186
35 109 161 54 90 141 41 57 111 21 32 77 39 53 65
52 66 72 58 71 86 70 81 105 81 86 117 81 82 119
71 73 106 68 70 86 70 70 62 64 72 31 39 45 7
24 17 18 21 13 7 18 4 10 14 4 15 7 13 12
9 14 11 3 14 7 9 17 12 21 26 11 23 29 9
33 39 16 46 53 23 58 65 26 70 75 34 86 88 40
89 96 47 83 95 48 77 91 43 68 86 37 62 82 34
58 74 31 52 67 27 49 63 21 44 61 16 42 65 11
37 64 6 29 56 17 26 51 20 28 51 7 20 51 6
11 65 23 17 81 41 37 72 41 36 59 28 26 54 11
24 47 4 12 22 0 6 12 2 24 42 18 22 44 20
15 37 7 18 42 10 10 35 9 13 26 9 24 23 13
26 20 18 18 17 17 16 56 4 164 202 102 255 255 255
255 255 255 188 220 190 127 143 182 149 150 232 71 70 176
14 9 103 39 25 98 44 29 75 42 30 46 34 33 23
30 36 15 23 27 14 33 41 34 20 27 29 24 19 34
42 32 51 48 39 54 52 37 45 44 29 28 32 19 17
31 14 31 31 16 37 19 9 31 14 6 32 9 3 20
14 14 13 21 21 13 35 15 9 57 7 8 73 13 25
64 31 40 67 36 40 65 21 22 59 13 11 69 6 12
69 4 18 147 89 107 191 143 164 122 89 113 109 87 108
92 69 113 75 39 128 165 223 255 255 255 255 55 110 210
255 255 235 203 192 195 57 51 89 49 37 93 78 65 131
73 59 124 47 29 86 38 23 62 39 23 61 33 13 48
33 9 42 45 22 53 82 55 91 134 107 146 186 159 199
192 164 203 141 114 149 87 67 100 60 43 75 39 24 59
31 19 57 38 27 56 36 28 50 17 16 23 19 26 21
29 32 33 31 32 34 30 33 37 26 33 44 26 33 45
28 31 41 41 35 50 39 35 48 26 35 47 31 40 52
19 31 43 27 37 46 23 35 40 26 34 35 23 26 27
9 3 3 19 8 8 20 8 8 20 8 8 14 14 18
29 19 31 27 14 32 23 11 31 34 11 48 48 21 65
48 22 66 44 17 65 55 30 75 85 60 100 111 92 118
114 94 108 125 108 114 104 97 98 36 26 31 13 15 48
43 47 4 112 136 63 139 176 72 93 128 20 35 79 0
98 98 116 255 255 255 255 255 255 45 115 178 77 24 90
120 38 40 170 113 60 122 90 62 44 36 46 75 69 82
68 57 76 115 65 99 255 220 248 229 175 203 36 53 44
85 63 55 100 47 44 145 87 87 170 118 131 178 146 165
94 78 105 69 70 74 50 38 74 40 29 73 95 67 74
168 137 129 59 60 121 255 255 255 255 255 255 74 85 137
141 123 112 139 105 97 111 195 242 247 255 255 51 115 156
184 144 109 161 140 119 76 45 55 72 40 45 109 80 77
139 120 106 52 41 8 139 188 220 255 255 255 255 255 255
255 255 255 255 255 255 203 255 255 152 213 250 122 183 219
126 177 209 133 182 218 114 165 203 95 134 171 76 105 142
57 92 128 35 101 136 35 125 164 88 168 231 131 212 255
126 214 255 109 206 255 80 162 232 31 89 155 45 12 75
65 31 34 40 22 38 31 30 49 48 54 68 55 62 80
59 63 86 52 52 75 37 38 42 39 42 14 44 48 15
32 33 14 17 14 11 16 14 7 11 10 9 8 3 13
6 9 13 9 9 14 2 8 11 5 17 6 17 25 8
20 23 12 24 25 20 30 33 25 35 42 13 41 46 14
54 53 25 61 64 36 59 70 40 58 72 34 55 69 27
47 64 21 40 56 16 31 48 13 25 39 7 21 33 13
24 32 28 22 33 31 21 26 38 29 24 48 40 33 55
41 40 62 38 55 64 34 66 57 37 54 37 24 45 19
18 54 7 27 59 3 17 44 0 10 18 2 23 29 14
23 36 19 15 34 8 16 39 6 9 31 9 9 20 9
21 19 16 31 18 17 25 24 17 11 48 7 93 133 42
255 255 219 255 255 255 255 255 255 117 133 170 93 92 157
106 101 174 63 56 133 40 32 101 39 28 88 38 28 62
51 43 48 68 61 57 79 67 66 66 55 49 21 11 5
34 32 52 41 38 62 29 27 51 32 19 37 37 19 32
30 10 36 27 6 35 37 11 29 38 17 29 30 14 26
25 5 14 27 16 6 33 24 11 40 18 13 56 14 20
66 16 30 48 19 28 52 24 26 61 17 21 64 11 18
69 6 13 66 10 16 111 50 64 158 105 124 132 86 113
120 85 108 90 65 135 53 34 144 166 223 255 255 255 255
104 152 254 255 255 226 236 226 228 78 71 107 51 44 91
65 58 115 53 45 104 29 13 77 27 13 64 34 19 62
53 39 67 90 76 104 126 110 141 148 133 167 154 139 174
144 128 161 137 113 144 135 111 138 96 79 109 68 56 86
49 36 66 44 33 66 45 34 56 38 32 49 34 34 44
38 40 40 44 46 43 45 46 42 44 48 48 45 49 53
48 49 51 48 46 47 41 35 47 23 17 33 10 9 18
22 20 21 13 5 6 31 27 25 30 24 19 34 22 11
34 19 13 21 11 10 16 8 8 16 8 8 16 8 8
42 30 34 44 29 39 27 13 31 15 5 28 38 16 50
58 31 76 59 33 76 45 20 69 47 25 71 83 62 86
100 80 96 96 70 82 109 93 93 87 84 78 10 11 24
17 16 48 36 54 6 102 125 54 153 174 78 102 135 31
25 67 0 148 152 170 255 255 255 255 255 255 48 96 157
79 26 90 147 68 13 183 128 72 92 60 27 17 25 41
31 23 34 24 18 17 109 52 88 255 216 245 208 155 175
51 59 40 87 68 55 95 49 44 124 68 69 132 80 90
141 107 121 75 57 82 38 34 46 27 14 52 27 10 51
117 85 85 193 163 161 77 69 128 255 255 255 255 255 255
81 77 136 141 123 105 143 103 80 94 169 230 255 255 255
118 191 234 123 96 66 164 156 123 117 95 77 116 86 71
125 96 74 17 16 40 197 213 255 255 255 255 255 255 255
255 255 255 233 215 255 169 149 211 151 132 198 149 134 203
165 149 210 200 180 235 236 215 255 255 245 255 255 255 255
255 246 255 219 198 248 145 128 176 71 58 111 39 41 107
55 83 169 94 147 244 149 220 255 187 255 255 158 223 255
50 107 186 64 34 50 94 72 38 80 67 47 71 71 59
44 51 44 6 14 12 14 7 47 12 9 40 36 33 43
55 55 37 51 51 21 32 31 5 23 23 9 15 15 20
6 6 25 5 4 23 4 7 17 3 3 14 8 4 7
3 11 13 13 17 18 10 11 14 9 3 19 8 4 21
8 12 14 27 27 24 37 38 24 35 39 24 33 43 26
32 42 21 30 38 13 25 34 11 19 30 3 20 35 11
31 43 26 34 40 24 25 33 22 16 26 21 25 34 24
40 42 41 33 41 48 24 38 42 17 46 25 20 54 6
12 52 4 14 60 11 29 71 14 25 64 11 6 35 4
16 14 9 27 23 17 35 39 18 44 57 20 48 56 25
48 50 25 43 49 20 35 40 9 25 35 17 8 55 16
39 90 8 219 242 165 255 255 255 255 255 255 167 156 153
139 112 96 192 164 177 194 162 186 162 128 148 137 99 130
114 75 99 110 74 80 113 83 76 113 79 73 97 59 60
83 46 55 70 43 53 66 36 44 51 23 27 41 21 32
35 23 43 31 12 41 31 6 25 44 19 12 62 30 20
66 39 33 55 29 24 51 32 14 53 35 21 38 16 8
41 6 18 58 16 31 41 19 24 39 19 17 48 7 9
59 7 12 66 15 15 63 13 16 77 23 32 104 55 69
85 34 65 75 33 72 77 56 141 53 48 160 172 222 255
255 255 255 156 190 255 255 255 208 255 255 255 109 102 135
56 50 90 53 46 98 35 26 85 34 27 82 36 27 81
92 83 113 194 185 212 218 207 244 150 139 181 44 37 73
46 51 19 102 114 80 126 126 106 115 96 103 89 74 93
85 71 93 67 51 81 48 34 69 41 31 53 32 26 42
35 31 49 27 20 31 11 5 14 14 9 19 18 10 23
23 10 28 23 10 21 17 11 17 14 11 23 8 7 17
3 3 9 14 14 8 16 16 11 26 26 26 18 18 19
11 8 6 24 16 13 13 8 10 3 3 7 2 2 4
3 3 1 40 22 36 44 25 44 34 27 38 25 19 35
55 30 66 76 49 93 63 37 80 34 20 55 37 18 58
85 67 80 90 71 83 92 68 77 104 90 83 79 74 62
20 20 20 9 15 42 24 46 26 86 103 49 160 171 89
117 154 54 13 44 24 255 255 255 255 255 255 255 255 255
43 53 116 78 2 77 181 112 32 208 156 96 83 67 41
38 55 51 38 40 33 43 22 30 116 58 99 255 196 226
197 146 167 43 54 32 80 67 57 77 32 35 109 53 60
127 78 86 115 79 92 69 51 72 37 26 50 23 14 49
17 7 37 141 109 99 197 172 161 66 64 109 255 255 255
255 252 255 68 50 117 131 118 87 119 79 51 80 151 218
255 255 255 158 238 255 48 23 23 108 105 72 138 121 91
113 92 58 30 51 97 248 255 255 255 255 255 255 255 255
246 236 255 163 119 201 158 103 180 177 120 194 198 139 217
198 138 218 196 129 204 199 125 196 207 131 195 239 158 216
255 208 255 255 251 255 255 255 255 255 219 255 226 146 202
129 74 126 44 39 75 24 38 94 24 78 170 107 166 255
185 255 255 173 240 255 46 98 179 59 25 35 85 61 34
91 81 68 78 75 72 39 47 48 13 15 44 9 6 38
2 6 34 30 30 14 48 49 10 43 44 11 37 38 12
30 29 8 21 24 16 15 19 24 9 6 21 3 7 22
1 2 18 15 9 24 7 15 22 8 14 14 10 9 3
15 10 17 11 9 26 8 10 29 20 11 18 24 27 8
33 37 28 32 37 25 27 30 13 16 23 10 15 24 11
22 34 15 39 55 36 45 57 34 47 50 33 63 63 51
74 78 49 72 76 44 46 57 28 30 52 19 21 62 15
20 69 9 20 67 20 38 84 43 58 111 59 62 116 54
37 84 31 9 34 3 24 3 11 32 20 17 40 38 23
46 42 29 46 40 33 40 33 25 22 53 23 53 144 89
139 239 183 186 255 243 207 255 255 255 255 255 255 255 255
172 143 139 155 108 50 180 134 119 211 163 166 198 149 153
172 121 137 136 82 98 115 59 57 101 54 33 84 36 14
79 23 31 106 52 61 120 74 72 127 73 67 126 69 64
111 62 61 85 44 46 67 22 23 64 23 14 63 26 4
66 25 8 72 34 30 68 36 23 80 56 41 80 56 49
56 40 35 28 13 4 60 22 39 41 27 26 30 16 14
41 6 7 61 20 15 65 30 20 52 25 12 56 27 23
70 39 44 48 17 41 28 11 56 51 44 129 46 45 160
171 222 255 255 255 255 173 193 255 252 255 207 255 255 255
108 103 131 51 46 85 55 47 96 30 20 74 32 21 78
43 38 77 154 153 158 167 165 185 70 66 108 113 111 116
122 123 104 137 140 111 142 138 112 130 123 107 123 105 109
102 81 92 72 57 78 47 35 68 38 25 62 32 22 52
24 16 38 32 26 48 22 25 36 7 17 21 15 17 27
16 18 30 15 19 34 15 17 28 10 12 24 10 12 29
7 9 23 7 7 14 13 13 15 20 20 25 18 17 28
9 8 20 1 3 17 16 10 24 16 13 28 11 9 29
10 7 29 6 3 25 16 24 17 25 23 32 23 13 31
41 29 46 61 37 76 69 42 87 44 19 61 14 7 36
29 15 44 81 62 72 107 91 93 128 117 104 131 129 96
84 91 45 27 40 24 25 9 67 30 41 65 106 117 67
163 170 99 109 139 60 55 60 97 255 255 255 255 255 255
219 252 255 56 9 75 95 34 59 207 144 59 225 169 107
78 65 47 53 72 64 35 38 31 57 21 49 125 69 110
248 185 216 186 137 159 31 51 29 73 64 57 68 22 27
101 44 53 120 75 83 95 58 70 65 44 61 55 44 61
45 38 63 27 21 45 153 120 113 192 171 157 78 80 107
255 255 255 255 226 255 63 50 112 115 111 82 88 60 46
60 128 191 255 255 255 184 255 255 3 44 88 38 35 8
45 56 28 102 127 169 255 255 255 255 255 255 255 255 255
235 222 255 153 115 215 158 101 192 184 121 207 188 122 208
178 106 192 174 91 172 176 87 160 189 91 155 206 95 159
207 88 155 216 91 156 255 127 189 255 188 248 255 232 255
255 222 255 255 195 235 183 115 148 25 32 75 40 27 82
29 33 132 90 161 255 214 255 255 198 255 255 70 132 210
47 9 50 106 69 49 116 87 89 90 82 83 47 57 42
11 23 14 15 6 37 12 7 43 22 24 31 31 37 23
34 40 11 40 46 7 41 48 14 34 40 11 26 30 13
9 8 27 4 6 35 13 13 34 7 9 27 13 19 27
16 17 24 13 9 21 22 17 27 27 21 24 34 25 14
34 34 19 34 37 24 27 31 20 19 23 12 11 17 10
10 16 13 14 24 13 30 44 28 37 56 36 45 60 49
56 67 56 72 83 52 85 95 59 67 81 50 48 68 45
36 65 34 28 65 18 21 60 28 26 61 35 18 67 4
49 88 35 45 84 33 14 79 9 6 97 4 15 118 13
20 128 21 16 117 25 15 117 37 52 164 90 118 240 162
227 255 255 255 255 255 255 255 255 255 255 255 255 255 255
214 255 255 53 72 147 59 19 82 68 10 85 110 54 94
141 88 106 154 96 108 146 81 86 135 65 55 125 53 37
112 38 29 106 36 30 114 44 47 131 70 68 150 84 78
169 96 93 179 109 111 166 99 96 138 69 63 122 52 46
100 36 28 74 15 13 66 13 29 69 26 20 96 71 65
93 64 59 93 74 71 59 34 29 84 42 52 43 23 20
14 7 8 43 13 16 77 35 31 72 41 32 43 33 22
43 24 24 62 36 43 47 24 46 14 20 53 24 23 106
31 34 151 194 248 255 255 255 255 126 143 255 255 255 214
221 217 205 85 83 109 48 46 79 58 53 90 17 13 52
20 14 58 69 74 76 147 151 142 62 59 13 212 208 190
206 200 185 117 116 96 77 77 59 56 44 29 55 40 38
62 24 60 45 20 50 39 24 55 34 21 54 37 20 55
31 16 47 23 13 29 31 23 41 20 22 37 7 13 18
15 14 23 15 15 27 11 17 33 11 21 34 7 19 31
7 18 33 10 19 39 12 20 46 13 20 48 14 20 51
15 18 52 15 18 51 13 19 53 17 15 48 13 14 40
4 6 38 8 8 41 4 4 40 24 18 27 35 31 38
28 8 33 31 10 40 42 20 61 51 26 67 33 15 49
21 7 37 37 28 42 87 73 72 142 133 114 155 151 116
109 108 63 37 51 16 19 38 52 41 49 71 55 88 19
158 170 82 163 177 102 82 113 40 137 133 194 255 255 255
255 255 255 98 129 195 58 7 69 100 31 54 207 140 70
227 165 113 58 13 25 43 68 70 35 37 42 57 18 49
135 77 114 253 190 220 172 124 144 36 61 39 68 63 56
67 20 29 98 40 51 101 59 69 74 43 51 62 44 48
65 53 64 61 62 77 37 34 48 155 122 121 178 155 145
89 86 112 255 255 255 234 196 251 43 43 83 84 85 64
57 36 59 35 98 158 235 255 255 206 255 255 30 85 115
23 16 60 143 170 220 255 255 255 255 255 255 255 255 255
201 186 255 155 117 222 144 93 194 167 108 199 183 118 204
173 102 187 154 74 155 144 55 133 142 50 120 147 47 102
157 48 96 160 45 95 167 47 97 197 64 114 249 110 159
255 177 225 255 204 246 255 244 255 255 212 233 149 112 145
46 55 111 42 14 89 39 55 153 118 190 255 218 255 255
190 255 255 62 118 202 66 7 51 101 56 32 103 79 62
79 80 57 60 76 39 39 58 12 13 28 24 13 19 41
17 24 39 18 25 28 32 40 24 46 52 18 52 59 15
51 57 13 38 42 12 22 24 20 20 20 19 24 22 12
29 27 14 32 30 19 33 27 13 41 33 14 42 38 21
38 33 17 31 30 14 24 27 13 22 22 13 14 18 10
9 12 7 6 7 4 2 11 8 21 33 23 27 46 29
15 36 23 3 26 17 42 47 24 58 60 38 39 42 20
21 20 14 20 33 16 18 45 11 3 40 16 27 30 31
72 51 58 65 55 52 7 91 2 69 187 69 129 255 132
169 255 180 197 255 217 211 255 244 215 255 255 247 255 255
255 255 255 255 255 255 242 255 255 186 255 255 178 251 255
155 221 255 89 145 224 12 66 148 34 44 121 26 35 116
42 28 104 79 43 93 112 55 77 130 62 60 138 69 50
141 71 51 143 68 55 135 61 53 122 45 46 121 46 47
134 58 57 150 75 75 170 98 106 178 106 112 168 93 92
162 86 86 149 76 77 129 61 62 111 44 51 95 43 40
104 74 72 91 37 41 112 87 84 77 31 34 101 51 65
70 34 40 49 20 26 39 10 8 85 51 46 75 47 40
31 7 7 35 8 15 61 39 48 48 24 50 12 16 48
10 3 84 21 32 146 245 255 255 255 255 255 51 71 176
255 255 208 174 171 149 104 101 109 89 85 87 81 77 82
50 47 46 30 29 28 106 111 89 87 87 40 209 199 191
241 225 216 165 148 136 123 105 91 104 84 77 95 70 72
108 85 92 105 77 98 89 62 85 83 58 81 77 53 74
72 47 70 62 41 61 53 35 44 54 34 48 48 29 44
44 21 25 45 22 26 43 24 25 40 22 21 38 16 22
36 15 22 38 22 13 41 31 3 40 34 9 38 34 15
40 34 23 41 31 23 40 30 21 39 31 26 42 37 21
44 45 17 42 40 14 42 38 17 40 36 16 39 21 42
37 27 40 28 11 31 25 3 36 33 13 50 44 21 58
38 22 48 55 45 57 84 81 72 119 118 88 157 154 113
135 134 90 65 67 43 22 40 44 57 85 10 121 151 69
182 211 110 202 224 124 130 177 88 45 97 10 238 255 255
255 255 255 255 255 255 17 43 107 54 8 66 101 35 43
203 133 65 230 168 119 62 19 14 50 75 81 35 39 42
51 10 33 145 83 113 255 198 225 157 108 128 46 72 55
68 61 57 65 22 34 93 38 51 83 41 52 49 21 31
45 30 24 57 40 46 68 72 79 46 40 43 164 130 132
156 129 123 104 97 120 255 255 255 223 177 236 20 38 50
53 62 38 35 17 68 20 81 139 220 255 255 215 255 255
29 85 104 150 173 218 255 255 255 255 255 255 255 255 255
111 107 215 128 99 179 162 104 190 146 88 179 150 98 176
139 89 160 109 56 126 87 29 94 76 14 73 71 22 62
71 13 40 84 10 27 104 21 27 109 22 29 114 20 30
135 33 49 194 96 116 255 153 174 255 245 255 255 255 255
255 223 245 195 166 197 46 56 104 78 40 36 44 25 119
111 186 255 236 255 255 187 255 255 42 122 214 54 15 74
106 69 23 97 90 46 87 110 56 82 114 54 59 85 29
28 47 26 12 24 37 7 21 38 26 37 46 43 52 35
60 69 18 71 79 28 69 76 35 54 59 21 47 50 6
48 48 7 48 47 7 46 47 7 47 45 8 57 49 18
53 48 28 30 28 19 16 12 13 11 15 18 15 17 24
13 20 25 10 18 20 4 13 13 9 6 3 11 6 4
8 19 3 9 27 9 19 35 3 46 53 27 54 58 34
43 44 21 33 20 19 25 24 10 5 48 16 31 92 49
67 144 81 120 206 123 164 255 165 200 255 202 227 255 238
239 255 255 247 255 255 255 255 255 255 255 255 255 255 255
255 255 255 218 255 255 151 255 255 94 199 203 61 106 153
51 69 135 56 65 139 31 33 125 43 39 108 40 31 109
25 19 112 25 20 105 41 21 89 65 22 67 78 27 45
79 28 27 74 21 17 71 15 15 71 13 25 71 10 33
63 8 18 66 12 2 78 18 14 110 51 59 140 73 83
159 83 85 176 99 97 185 105 106 185 103 107 169 88 94
125 44 48 102 55 58 83 10 13 116 78 78 105 28 44
143 76 95 133 71 84 125 73 85 76 36 46 72 41 31
72 54 49 26 23 20 35 18 21 63 42 57 46 22 47
11 10 42 19 18 75 20 38 158 255 255 255 255 255 255
44 36 97 255 255 223 200 197 169 171 164 160 130 123 113
98 91 78 61 55 29 48 60 41 71 71 42 180 171 149
255 255 255 199 182 167 134 117 100 136 117 108 143 117 113
140 108 118 152 121 144 162 139 154 164 136 149 160 132 144
156 128 142 151 123 140 144 118 132 139 115 124 136 110 119
128 104 106 124 100 94 125 100 93 123 99 95 121 97 97
119 95 97 117 95 88 110 95 68 98 92 47 91 92 32
90 94 28 91 93 29 92 89 29 92 88 29 93 88 29
91 87 22 85 84 14 81 79 10 81 77 7 80 76 6
24 6 20 20 17 19 24 16 26 27 8 39 34 16 49
48 31 59 57 47 61 84 78 80 96 96 81 107 105 70
122 117 76 92 92 56 60 65 45 86 105 33 149 182 76
173 222 103 167 207 101 115 132 41 43 68 37 9 23 98
255 255 255 255 255 255 255 255 255 48 32 76 79 32 38
127 68 24 224 155 85 255 196 144 111 90 68 103 119 114
69 67 53 60 31 27 159 93 117 255 205 232 143 93 113
59 80 72 70 59 60 61 28 37 87 40 51 67 29 44
27 3 20 18 10 8 34 25 31 57 69 68 50 32 34
177 141 144 127 98 95 126 115 132 255 255 255 216 168 231
20 42 49 37 56 40 27 16 72 17 82 136 214 255 255
208 255 255 99 105 148 255 255 255 255 255 255 255 255 255
95 90 197 58 53 154 159 128 224 209 143 229 161 98 174
131 79 142 103 59 115 66 24 78 48 17 56 45 6 43
42 13 36 41 21 18 39 10 1 57 7 1 65 9 2
56 4 1 59 4 6 94 31 38 157 72 80 255 167 175
255 242 255 255 253 255 255 252 255 207 170 201 34 23 54
116 82 7 49 14 123 130 195 255 232 255 255 178 255 255
45 123 209 71 44 41 93 89 30 84 104 47 90 121 67
95 130 64 76 103 41 50 67 15 28 43 14 36 41 51
45 49 54 50 57 23 67 76 21 78 87 40 71 74 37
64 64 22 62 62 18 55 56 13 49 49 9 52 48 16
62 54 21 59 56 37 44 47 40 8 6 14 4 8 18
9 14 24 16 23 32 19 29 33 14 28 27 13 24 21
23 8 11 24 6 16 22 15 8 37 35 21 46 46 29
43 53 22 42 54 18 22 54 24 47 106 81 126 197 163
207 255 246 255 255 255 255 255 255 255 255 255 255 255 255
248 255 255 193 255 252 149 255 220 111 240 195 87 217 184
92 219 199 101 221 217 79 196 202 51 152 176 43 105 161
35 63 139 40 42 124 53 39 120 46 14 92 52 30 71
30 18 90 12 15 104 13 11 92 20 4 80 30 9 71
34 9 63 27 13 60 16 22 57 10 28 51 23 27 38
37 13 33 29 16 30 25 20 24 32 17 20 58 16 23
92 36 43 124 66 59 150 83 83 171 93 100 192 104 119
202 112 130 164 72 90 117 33 50 101 7 25 129 57 65
143 57 78 181 119 132 173 113 118 186 133 142 156 113 126
117 68 76 98 55 62 65 26 34 54 17 26 60 32 53
39 20 42 15 14 48 22 10 84 52 62 185 255 255 255
255 255 255 105 90 52 255 255 255 215 206 182 143 131 132
97 88 80 58 52 27 80 89 88 82 95 112 103 97 107
255 250 251 226 206 211 140 126 105 131 113 99 139 116 120
144 122 120 144 118 124 140 103 138 144 113 140 146 124 143
144 123 140 143 121 137 140 117 136 137 111 131 137 109 124
136 108 118 128 104 106 123 103 100 121 103 98 119 99 93
119 95 94 119 95 94 115 96 85 108 94 70 101 90 52
95 89 26 94 91 20 95 93 23 96 92 23 96 91 23
95 90 25 89 86 16 81 77 3 76 70 9 75 70 7
73 69 11 44 24 36 51 33 47 74 57 77 95 79 99
108 96 110 118 108 116 127 120 122 128 127 118 112 115 90
107 106 65 113 112 56 106 116 41 133 147 61 174 194 105
162 204 95 68 109 14 61 58 143 162 174 251 186 220 255
181 234 255 255 255 255 255 255 255 226 239 255 66 40 54
125 79 31 149 91 25 237 172 105 255 207 157 104 86 68
122 143 140 90 84 70 73 34 27 175 107 125 255 211 237
131 78 98 71 89 84 67 57 59 58 29 37 83 36 50
56 20 41 20 16 23 12 17 22 20 22 31 38 54 49
63 35 37 189 153 158 91 67 74 158 141 157 255 241 255
197 150 217 46 54 71 42 61 55 31 30 81 28 92 140
197 255 255 171 255 255 255 255 255 255 255 255 255 255 255
93 89 183 27 27 118 127 113 203 211 173 255 200 132 204
138 70 131 94 45 94 70 32 70 41 7 42 32 12 31
37 13 29 40 3 22 28 13 3 16 26 9 7 23 7
14 13 1 24 10 3 29 11 8 26 6 7 55 8 6
170 62 58 255 137 137 255 200 212 255 255 255 255 252 255
173 121 158 36 43 23 126 102 27 69 26 100 109 170 255
230 255 255 173 255 255 38 120 180 50 64 43 73 82 30
79 100 52 100 137 77 125 156 97 116 132 85 73 86 46
40 48 39 45 45 60 30 35 29 40 47 6 59 70 29
58 66 31 53 55 22 53 50 17 47 41 12 39 34 3
44 37 16 52 43 23 54 57 33 72 74 57 49 55 38
38 42 27 24 24 17 9 9 3 7 6 14 6 13 16
22 33 29 18 39 27 34 61 51 37 64 49 46 69 48
42 62 40 38 59 27 46 54 21 29 89 74 158 234 219
255 255 255 255 255 255 255 255 255 215 255 255 167 255 241
134 235 211 102 201 183 69 165 162 48 139 157 30 117 152
24 106 159 47 117 188 64 126 210 53 110 201 48 90 186
48 72 166 36 54 137 37 47 132 31 37 128 7 16 96
23 22 81 4 15 95 14 24 99 14 25 91 12 16 83
3 10 70 15 15 58 17 21 47 18 13 32 25 6 16
30 20 4 37 6 21 28 17 29 25 11 1 35 20 10
42 9 7 64 25 20 94 51 43 103 44 49 116 50 58
144 72 81 184 110 122 187 105 118 163 72 92 151 59 79
158 69 85 152 79 92 165 131 131 144 97 98 183 134 136
205 162 168 210 170 172 217 177 182 200 161 171 162 128 139
107 78 90 63 36 50 42 16 58 35 10 98 63 77 201
255 255 255 255 255 255 158 143 91 255 255 255 157 143 120
79 70 77 21 19 35 120 126 132 191 195 206 77 75 113
254 246 255 214 197 221 82 61 99 42 23 57 66 43 57
75 52 81 72 52 68 75 60 65 72 44 87 62 30 82
46 30 52 49 30 51 52 31 55 51 32 56 52 33 49
53 35 44 51 34 39 48 29 34 47 25 31 42 23 27
38 21 19 38 20 21 38 21 14 36 22 13 37 22 49
42 28 56 41 32 33 40 32 27 40 34 29 41 34 32
40 35 33 39 37 33 36 36 35 33 30 39 33 25 41
31 23 43 29 21 47 108 100 108 128 120 131 167 159 174
197 187 204 210 201 214 214 204 212 218 206 210 213 203 200
201 194 179 194 191 158 195 199 144 204 222 134 204 245 125
158 211 97 69 106 17 114 121 188 255 255 255 255 255 255
255 255 255 255 255 255 255 255 255 255 255 255 181 188 219
75 43 47 149 105 69 149 87 43 225 163 107 254 196 155
49 6 21 109 140 144 80 77 70 67 17 13 186 116 128
255 217 238 117 63 84 77 98 87 63 49 52 54 23 30
76 31 46 48 18 34 20 20 21 14 25 23 11 27 28
20 34 30 87 54 62 196 156 169 64 37 45 195 170 187
255 214 255 163 118 183 56 59 81 55 58 71 43 30 95
44 95 144 167 243 255 186 181 232 255 255 255 255 255 255
140 136 217 53 40 107 98 84 170 178 151 224 159 116 178
128 54 103 95 17 56 59 20 33 49 31 26 39 27 15
27 13 9 29 6 8 29 6 4 10 10 11 4 18 11
13 27 14 5 16 4 25 3 4 29 3 7 16 5 4
14 7 8 58 10 2 160 60 44 255 144 142 255 215 229
255 244 253 255 215 232 150 106 135 105 111 81 177 166 78
80 40 78 140 212 255 246 255 255 168 255 255 27 109 134
45 63 8 57 76 23 69 102 42 103 153 68 129 166 87
103 118 72 42 55 19 36 36 51 20 23 36 13 19 16
34 44 18 33 44 18 24 35 8 23 32 17 21 25 20
12 17 13 26 28 21 36 36 33 29 42 17 76 89 63
89 102 82 78 89 73 66 72 60 50 54 45 35 38 29
30 24 19 17 1 9 43 62 57 120 140 140 189 212 212
252 255 255 255 255 255 255 255 255 229 255 245 184 249 230
239 255 255 244 255 255 173 247 239 79 158 160 58 123 136
45 111 137 38 99 139 33 79 134 27 73 144 34 80 166
39 77 172 44 73 180 60 82 197 62 78 198 45 55 176
48 51 165 44 40 142 24 20 107 28 18 105 29 19 105
26 22 88 24 29 77 3 5 61 17 13 50 6 6 48
15 9 50 6 1 43 9 14 37 12 18 29 20 10 23
31 28 24 37 30 9 45 19 25 35 23 25 39 25 11
49 33 19 48 26 16 58 30 18 71 42 32 55 12 16
59 8 16 79 20 31 124 67 78 157 90 102 162 87 105
160 82 101 153 81 94 111 55 63 110 111 102 89 65 66
123 67 70 180 130 135 241 193 202 255 230 240 255 236 242
246 210 212 184 154 152 121 92 92 82 53 67 54 26 92
51 68 194 206 255 255 253 255 255 143 140 121 255 244 169
123 110 95 103 94 106 122 108 131 239 235 249 146 142 158
172 163 182 255 255 255 119 102 148 66 65 103 74 74 115
54 56 95 37 45 79 38 48 74 25 22 54 30 19 64
24 14 61 11 13 37 15 13 31 11 13 33 10 7 36
16 2 31 14 1 21 6 4 16 5 7 18 3 9 21
5 12 21 9 13 20 9 10 25 8 9 30 7 12 33
18 15 74 24 16 87 19 16 69 16 17 68 17 17 70
21 11 73 20 8 76 20 7 79 19 7 82 18 9 79
20 9 76 20 8 76 20 8 76 72 76 84 69 69 82
85 81 99 79 68 89 51 38 56 53 39 50 76 59 68
78 62 62 84 64 51 98 86 62 123 130 78 149 192 79
117 198 57 54 127 26 60 86 114 255 255 255 255 255 255
217 255 255 168 255 255 74 185 214 161 181 229 255 255 255
255 211 218 97 6 80 125 115 131 140 113 115 209 169 139
229 190 163 91 66 64 106 123 124 75 64 63 63 11 8
199 127 137 255 221 240 96 43 66 85 104 90 82 65 65
85 66 61 79 63 56 31 34 17 15 13 11 37 10 27
49 16 37 55 19 38 140 93 108 214 161 178 65 26 28
227 185 210 238 175 219 137 100 148 79 65 90 99 73 108
110 70 155 117 113 200 191 214 255 255 255 255 255 255 255
145 128 233 53 38 122 94 62 145 176 140 215 173 137 187
102 57 94 91 11 35 82 6 17 44 7 11 35 17 16
41 20 15 39 14 4 27 3 0 22 8 0 3 19 13
9 10 10 17 19 12 12 17 4 17 6 4 21 3 8
15 4 10 12 16 15 4 18 20 74 32 17 207 107 100
255 177 182 255 239 236 255 255 255 255 224 237 127 105 127
113 124 71 191 164 81 61 43 150 209 255 255 255 255 255
101 217 255 14 32 59 34 58 6 9 33 18 17 43 31
54 103 28 100 124 70 80 95 43 42 46 35 30 35 35
19 29 10 25 34 16 17 37 7 9 33 8 13 27 24
18 18 23 11 10 13 25 23 19 40 29 40 37 31 48
12 33 23 34 54 16 59 79 39 93 109 68 101 107 77
70 72 51 44 39 24 49 37 23 87 81 67 143 143 147
133 154 166 155 200 207 235 255 255 255 255 255 255 255 255
243 255 255 230 255 255 165 218 216 75 109 125 27 53 91
51 70 137 64 82 178 74 80 197 76 73 208 68 64 211
64 58 200 65 49 181 67 49 175 67 52 167 55 44 140
36 17 105 35 12 96 20 13 80 22 26 71 22 23 77
30 30 73 11 10 50 28 27 42 22 23 25 7 13 29
7 12 25 14 8 16 6 4 21 4 17 29 3 14 33
14 10 40 23 25 48 14 9 38 35 9 42 30 8 23
38 24 11 41 25 14 40 20 6 51 31 20 61 41 37
45 24 30 46 20 29 40 6 20 49 28 31 72 33 47
86 37 56 99 51 66 126 80 91 123 78 87 99 76 71
65 63 57 53 40 30 98 48 47 158 103 112 171 107 114
187 129 135 229 179 176 239 193 182 216 175 165 174 143 134
124 94 116 76 57 175 134 171 255 212 255 255 61 32 146
236 180 140 181 151 153 168 140 159 213 181 205 222 201 217
89 63 85 246 238 255 204 186 216 98 74 110 92 88 107
104 102 124 111 110 142 83 88 120 54 61 91 53 47 92
44 27 90 26 31 70 17 23 53 19 26 58 23 26 66
18 22 67 17 16 68 21 18 70 23 17 65 22 11 58
21 8 53 22 8 50 25 8 45 26 8 42 29 9 45
30 11 51 37 12 88 42 19 95 33 22 63 24 9 57
39 23 84 83 54 132 102 72 155 92 62 146 78 47 134
85 54 137 91 52 134 87 42 122 82 34 114 22 7 5
40 27 27 83 75 79 110 106 111 117 115 118 119 118 120
125 124 123 114 126 115 108 136 111 109 147 104 130 168 96
155 210 67 80 146 18 22 9 27 201 255 255 255 255 255
255 255 255 86 115 128 188 139 111 175 85 48 202 86 103
255 246 255 255 255 255 160 104 132 82 85 106 140 129 125
195 173 156 172 152 135 72 56 43 74 75 77 68 48 57
83 20 31 227 155 168 255 213 236 68 20 49 100 109 100
110 85 91 95 65 64 57 57 37 24 54 36 44 37 40
70 35 55 76 38 60 76 30 52 170 125 135 187 137 147
74 75 81 240 179 218 193 115 164 111 78 111 71 49 69
112 79 107 128 82 160 157 130 221 226 203 255 255 255 255
204 159 248 16 30 92 45 16 96 115 83 150 151 121 170
112 83 112 58 19 37 73 1 14 77 8 8 30 6 1
24 12 14 37 15 13 40 15 4 32 9 0 27 3 0
15 13 6 15 13 8 16 13 6 17 13 1 20 11 6
23 8 13 20 16 17 17 16 14 13 20 22 46 8 1
126 60 54 203 126 123 255 226 222 255 255 255 255 255 255
247 200 212 40 14 22 205 183 130 118 85 1 106 166 248
252 255 255 179 255 255 40 151 194 26 17 31 41 51 35
46 55 37 30 36 31 35 69 30 73 96 54 11 26 24
10 17 39 37 30 25 24 19 24 1 25 13 10 37 12
17 37 21 22 30 23 13 22 15 7 21 5 26 18 22
51 33 55 57 35 75 31 14 56 43 45 29 56 64 35
79 89 60 74 82 61 46 40 30 49 31 29 70 62 52
165 168 168 231 235 244 151 159 164 48 78 89 59 100 104
140 159 155 101 153 145 153 212 208 99 135 149 63 79 123
55 65 125 73 73 161 81 71 186 92 72 203 104 79 218
97 68 210 80 48 181 67 32 150 56 24 127 40 15 99
20 25 64 9 33 38 13 39 36 11 40 29 12 29 38
11 22 44 25 35 41 19 36 24 23 35 13 29 34 17
20 21 27 28 25 41 19 13 21 3 14 14 6 19 24
4 8 25 14 13 36 22 22 55 10 19 58 16 17 47
25 17 25 40 26 18 43 24 17 41 26 14 47 34 27
52 33 36 36 19 23 36 26 27 26 18 16 24 21 16
34 8 22 48 22 33 61 36 43 88 62 64 110 75 74
95 50 50 67 27 28 55 44 37 73 72 61 98 99 97
78 92 79 52 35 23 106 61 61 175 126 117 197 156 141
187 160 125 131 107 107 95 69 156 111 119 254 255 255 255
137 136 242 227 160 120 182 146 143 180 149 163 202 175 191
131 109 118 216 192 215 239 215 247 113 83 120 92 84 92
90 88 97 92 87 101 108 99 125 108 100 133 75 71 100
52 43 86 58 40 103 48 39 92 36 33 69 41 33 76
43 34 82 38 31 79 35 24 80 40 25 88 44 23 92
44 16 84 44 12 74 44 11 72 47 10 74 51 12 73
52 15 71 52 16 72 44 10 78 37 7 80 27 10 44
30 10 45 75 55 110 118 89 159 115 86 163 128 96 174
131 93 177 126 84 168 123 78 159 125 76 153 125 73 149
39 27 31 33 25 26 44 30 41 50 44 53 53 41 50
66 50 64 91 68 79 69 55 51 74 78 63 95 122 85
132 173 111 200 255 122 134 198 58 66 87 90 255 255 255
255 255 255 105 229 255 176 102 72 213 168 128 168 126 76
92 50 68 221 190 233 255 255 255 215 187 198 55 45 17
138 134 121 184 173 166 140 129 120 35 27 16 47 49 54
62 42 57 104 52 67 239 175 188 245 187 211 35 14 17
112 114 109 120 92 98 90 50 58 24 26 20 56 70 58
61 56 48 50 26 26 41 27 34 51 24 32 156 127 126
130 95 95 127 135 147 255 201 243 200 144 180 117 115 123
67 81 64 94 93 71 55 43 27 78 45 87 143 101 149
145 96 142 70 25 72 35 27 53 82 53 88 106 89 120
96 81 106 50 38 53 14 9 6 55 13 10 69 16 17
33 21 20 28 23 24 39 24 21 40 23 13 37 21 6
35 20 3 22 13 3 11 6 2 9 8 1 2 7 4
9 6 3 16 5 11 17 13 15 19 9 9 9 17 20
33 8 13 74 9 16 129 45 55 255 185 185 255 255 255
255 255 255 255 239 247 110 91 107 127 117 81 151 134 81
64 59 108 144 216 255 235 255 255 146 255 255 10 75 104
52 65 29 54 56 20 7 23 13 38 54 40 77 93 66
26 26 32 29 20 48 45 37 46 11 11 37 16 11 27
26 33 2 43 54 17 51 59 31 41 45 27 23 27 14
9 21 6 17 16 7 25 10 26 40 31 54 66 58 74
51 42 52 21 36 14 74 86 56 53 63 40 19 51 33
86 124 109 188 225 214 235 255 255 158 188 187 38 61 65
61 25 30 75 54 52 57 103 97 97 142 150 40 62 97
40 43 107 29 29 100 35 30 102 49 36 108 63 45 121
75 54 122 78 54 114 65 39 100 47 21 81 30 5 60
19 7 45 20 12 44 27 8 50 23 10 50 15 14 35
9 11 22 3 10 14 17 22 18 33 31 26 51 44 41
65 53 51 66 51 57 63 52 66 49 44 57 28 32 34
9 14 22 14 7 1 21 16 6 17 11 9 9 3 11
19 11 10 39 34 30 47 33 32 45 26 25 42 24 24
44 25 29 42 20 28 34 10 17 26 19 18 36 35 30
50 42 38 70 55 51 81 63 58 78 55 52 68 38 38
58 26 33 59 25 30 83 51 51 82 51 48 47 29 29
67 75 73 83 103 90 70 89 71 25 47 35 24 19 5
98 81 47 146 125 59 81 63 57 55 34 125 86 90 216
242 255 255 74 138 255 141 80 14 110 89 76 142 133 128
144 140 137 86 84 79 255 253 255 229 195 233 78 68 89
80 88 91 84 88 102 81 77 100 89 81 108 105 100 126
105 97 114 79 57 89 64 24 89 56 29 80 51 31 61
52 25 61 56 30 67 55 28 65 48 17 63 45 14 65
47 15 73 53 21 82 56 22 81 57 22 82 59 21 88
60 20 94 60 20 96 59 20 95 50 24 81 44 12 75
45 18 68 62 37 83 113 92 151 119 98 159 113 87 147
177 147 201 215 183 235 188 156 208 161 130 181 153 122 174
146 114 166 20 24 22 18 20 19 33 21 32 41 34 44
51 37 47 67 48 67 87 61 76 55 31 32 38 32 19
45 75 34 87 137 65 211 255 139 165 219 90 118 114 168
255 255 255 255 255 255 93 129 151 206 126 92 240 201 158
169 142 92 36 37 61 190 170 218 255 255 255 235 218 235
45 37 42 129 129 121 175 167 163 135 127 119 33 25 15
48 48 51 58 38 55 112 59 78 241 181 193 226 175 194
13 23 8 126 124 122 121 95 98 79 43 51 1 31 22
58 69 55 53 50 42 35 17 16 16 16 19 47 27 21
152 129 120 97 68 61 155 156 166 255 246 255 239 176 207
122 134 123 99 114 96 121 122 105 116 101 90 117 81 88
120 75 95 76 37 59 47 12 31 73 36 54 103 74 92
98 82 104 68 55 77 28 18 32 14 10 0 49 16 5
61 13 12 35 16 16 31 20 23 39 21 23 37 20 18
33 16 12 31 15 8 23 13 5 13 7 4 12 8 4
7 6 4 6 4 0 13 6 7 16 9 15 20 8 10
11 13 15 23 16 17 50 7 5 101 21 33 242 138 140
255 248 254 255 255 255 255 255 255 198 177 188 13 15 25
126 118 77 98 62 31 34 75 124 201 255 255 234 255 255
84 197 223 18 49 54 62 40 17 41 54 30 34 58 36
55 72 43 13 28 3 7 9 17 19 24 15 23 19 26
47 41 33 59 51 25 66 67 29 71 76 40 64 67 41
45 42 29 27 21 10 36 25 14 47 34 29 40 26 27
32 13 37 43 40 50 38 52 45 37 71 39 51 85 42
40 75 53 98 134 120 191 227 210 186 224 207 94 121 121
44 20 32 104 72 90 51 34 52 92 123 131 70 102 124
25 34 84 26 18 91 18 8 87 24 8 89 42 17 92
56 30 95 67 39 80 76 48 78 71 45 77 66 39 73
57 29 63 48 20 55 42 20 56 39 18 54 40 22 49
47 38 46 46 45 40 34 37 28 21 22 16 22 13 6
37 26 23 41 31 26 30 16 21 30 24 42 43 45 63
39 42 48 18 18 27 24 14 18 30 24 27 33 30 36
42 38 46 55 41 50 55 34 43 38 19 25 22 14 11
27 20 18 44 26 30 54 29 37 61 38 45 59 46 51
66 59 59 82 72 65 97 86 75 101 85 77 94 72 67
81 54 55 72 44 49 70 50 48 84 74 68 68 54 50
38 29 23 35 33 39 74 79 73 59 67 51 50 62 40
54 68 46 93 90 55 112 93 28 69 45 74 63 37 115
51 55 176 174 208 255 112 171 255 31 44 135 111 108 120
131 125 105 63 69 49 41 34 31 255 248 255 219 190 221
61 70 78 63 76 79 78 78 97 88 76 111 91 77 114
90 85 114 91 89 104 88 68 97 75 31 92 67 44 74
68 41 62 68 35 62 71 36 68 70 35 66 63 24 61
59 19 61 57 19 64 56 22 72 57 23 78 59 21 82
60 20 86 60 19 90 60 17 94 60 17 92 62 30 83
60 29 81 58 29 84 66 37 95 103 81 141 123 102 160
209 176 232 255 254 255 255 255 255 243 213 247 208 178 217
218 190 229 228 200 240 9 5 7 20 2 17 22 11 22
29 21 33 52 36 48 71 51 71 77 55 68 60 37 37
34 29 15 11 47 16 81 135 50 236 255 150 169 228 93
197 198 244 255 255 255 255 255 255 134 61 77 218 146 113
254 220 178 171 147 97 29 21 64 167 151 198 255 224 255
238 219 237 70 61 68 124 124 115 169 161 159 130 122 114
31 24 15 46 43 48 55 34 51 120 66 84 252 192 204
222 178 192 12 33 22 143 139 138 128 106 107 75 40 51
25 45 42 70 76 68 57 51 45 35 13 13 23 9 11
66 44 35 156 136 123 80 56 47 168 165 171 255 255 255
247 175 208 85 54 74 109 86 92 125 105 108 152 123 126
165 127 139 109 64 86 44 25 39 47 12 35 100 60 82
106 77 102 77 57 83 35 23 44 4 5 10 14 17 4
44 13 6 53 6 7 32 6 5 28 14 16 34 17 15
33 16 14 28 11 9 23 6 4 21 6 2 15 9 2
13 9 2 11 8 3 0 6 3 8 3 5 10 6 12
14 8 10 13 9 6 13 23 18 25 26 11 65 9 7
179 78 76 255 199 202 255 255 255 255 255 255 255 229 240
107 83 111 74 84 37 127 104 49 95 44 28 90 169 228
229 255 255 180 255 255 62 143 179 31 10 49 66 72 47
64 72 55 61 74 55 47 65 46 34 52 35 36 53 32
48 63 41 58 72 47 60 70 38 59 71 29 71 80 37
76 82 44 63 61 41 43 32 18 24 3 11 21 24 24
10 37 26 54 86 68 173 204 182 255 255 255 255 255 255
222 251 223 60 81 58 103 110 116 224 232 238 241 236 255
199 177 209 176 145 171 127 93 124 99 106 121 137 157 183
72 90 132 49 47 98 53 39 101 51 34 102 58 35 113
74 45 125 84 57 126 96 66 118 120 85 130 131 94 135
127 89 128 111 74 113 86 50 87 55 18 54 27 13 24
21 26 30 32 18 31 44 33 25 36 34 19 32 29 15
39 29 19 48 36 31 41 37 31 26 23 9 9 11 27
41 37 56 57 54 65 44 46 50 19 21 27 20 23 23
25 26 32 44 34 45 60 39 49 59 30 39 48 14 25
38 3 14 39 19 22 57 39 40 61 42 41 62 43 44
59 39 38 63 48 43 78 68 58 93 86 77 101 92 83
108 93 86 108 89 83 96 74 70 78 68 54 69 60 55
61 45 47 58 53 46 52 34 45 81 72 77 43 32 40
4 23 3 33 46 24 53 48 18 61 42 31 80 55 97
87 62 101 49 27 118 77 112 232 102 165 255 93 163 255
108 131 170 82 59 34 75 50 50 49 18 35 235 206 220
203 180 200 66 83 82 57 68 78 62 58 86 85 73 112
94 82 120 82 80 109 70 75 97 73 60 97 72 39 98
73 54 87 74 44 77 69 42 75 68 43 78 64 41 75
57 30 68 53 25 65 53 22 63 55 18 63 55 16 66
53 16 68 52 16 68 52 16 68 52 16 66 52 17 62
63 28 71 76 37 86 74 33 91 77 39 105 96 67 132
189 164 222 255 255 255 255 255 255 255 255 255 255 255 255
255 255 255 255 255 255 255 255 255 23 13 24 28 20 30
23 20 24 28 21 31 58 46 57 78 61 76 73 53 63
60 38 38 29 24 4 16 50 18 110 159 74 239 255 147
146 193 74 255 255 255 255 255 255 225 255 255 160 49 46
212 145 113 251 219 182 169 153 109 86 75 108 166 153 196
215 185 220 210 190 209 76 69 75 120 120 113 162 154 156
120 112 104 25 17 9 51 42 49 58 34 48 140 90 103
255 207 221 203 164 176 20 39 28 141 137 136 123 109 108
91 77 72 67 77 64 94 90 82 82 64 61 59 35 34
55 33 32 87 61 54 149 136 117 55 34 28 160 156 157
255 246 255 230 168 192 151 118 135 161 129 142 158 127 142
160 127 143 145 108 123 69 22 48 21 21 23 60 27 54
109 73 96 94 67 91 45 24 50 3 9 10 10 16 4
13 13 4 41 5 3 47 1 4 30 4 9 28 11 16
33 15 12 34 16 13 30 13 11 23 7 4 23 6 1
21 9 3 16 7 5 13 7 6 3 8 4 6 0 6
10 6 9 12 9 10 19 20 7 13 17 13 16 37 16
38 24 0 115 23 26 251 141 142 255 255 255 255 255 255
255 249 255 183 140 165 32 64 22 121 115 66 109 61 12
15 63 123 134 226 255 222 255 255 155 255 255 30 93 132
45 47 14 69 77 49 71 81 63 68 84 69 55 75 64
49 73 56 51 74 47 48 69 40 45 58 27 34 51 12
47 63 23 73 86 43 79 84 53 63 60 38 37 54 35
71 113 96 158 199 177 255 255 255 255 255 255 255 255 255
255 255 255 255 255 255 255 255 255 126 146 125 81 93 93
205 195 210 255 234 255 243 212 236 169 146 174 181 190 212
181 188 233 88 85 147 54 40 95 59 40 101 63 41 112
73 45 128 83 55 135 82 60 124 67 45 91 58 35 70
64 38 68 79 48 78 89 54 85 93 51 87 82 41 76
71 25 59 46 18 31 17 32 17 26 41 42 20 34 37
21 23 27 34 21 19 50 29 26 49 30 27 42 28 16
27 28 25 38 59 63 70 91 97 77 101 102 47 73 73
13 41 41 34 38 38 49 33 38 47 27 35 48 36 39
66 50 54 79 57 64 80 54 62 74 45 50 55 33 32
45 38 36 34 23 26 27 15 14 52 50 37 75 69 65
82 77 68 91 90 78 107 102 92 104 90 88 67 57 52
36 27 26 54 42 39 51 43 38 76 62 74 89 76 91
54 35 51 46 30 43 41 25 36 41 24 26 39 26 54
45 33 83 59 42 70 51 34 78 22 34 151 56 113 250
137 205 255 140 192 246 36 18 42 132 110 71 145 145 107
249 228 220 219 208 208 133 149 137 120 129 133 97 98 120
99 94 127 107 102 135 105 97 126 82 75 109 73 57 105
78 55 117 79 56 109 78 44 95 75 46 93 74 50 92
70 47 86 60 34 78 57 27 74 59 27 75 60 28 76
60 29 76 59 31 76 58 32 76 58 33 74 58 34 70
59 33 70 72 42 90 82 50 106 88 53 112 102 67 132
142 111 177 255 255 255 255 255 255 255 255 255 211 180 225
242 211 254 238 207 246 178 149 187 126 100 135 17 17 17
27 21 24 21 18 18 24 17 26 57 48 60 82 66 76
71 48 57 41 21 23 36 35 13 73 101 53 145 182 110
208 254 122 113 141 39 255 255 255 255 255 255 165 255 255
167 56 35 191 126 96 230 201 170 154 145 113 102 99 132
151 143 183 166 142 173 158 139 158 68 63 65 118 118 115
148 141 144 104 96 90 11 3 6 63 52 61 71 46 57
157 106 119 255 208 221 174 141 149 38 50 43 137 129 129
99 78 83 43 18 23 46 60 51 87 78 72 78 59 55
72 49 44 75 57 53 98 72 65 130 119 101 25 10 4
157 151 152 245 203 215 157 106 121 85 65 72 114 91 102
135 109 130 136 106 131 99 60 83 37 8 26 38 4 31
83 52 75 96 61 83 73 44 63 25 17 23 14 24 12
13 18 3 18 6 3 36 4 5 43 9 7 40 12 11
40 14 18 44 16 13 45 18 14 44 14 14 37 12 11
33 12 9 28 11 4 21 8 2 15 9 0 7 8 3
7 3 6 12 5 9 13 11 11 21 27 14 17 3 10
21 32 16 28 25 0 67 9 4 204 98 101 255 255 255
255 255 255 255 244 251 228 168 189 18 39 38 100 106 61
97 63 10 62 6 59 20 98 154 168 255 255 221 255 255
107 201 242 6 15 48 40 51 16 51 61 27 54 71 37
41 66 41 32 55 40 27 44 26 23 38 10 25 27 17
22 24 17 13 35 1 49 72 29 80 97 55 81 91 56
100 110 81 126 135 115 139 162 132 203 242 198 228 255 229
165 213 173 84 115 104 208 207 220 255 255 255 245 255 255
216 240 231 171 192 186 85 101 97 44 27 22 124 120 129
255 255 255 238 228 255 84 77 150 24 20 81 25 13 84
24 6 97 39 12 109 51 27 105 43 31 87 12 8 39
22 26 14 23 22 15 35 24 24 51 31 31 73 36 48
92 40 65 107 45 76 107 37 67 92 14 41 88 10 20
97 19 25 110 32 38 126 46 44 144 63 57 156 73 71
161 80 79 153 72 71 120 49 41 62 26 20 33 68 72
36 91 92 12 84 80 34 73 69 54 56 56 60 47 50
60 55 61 72 71 81 87 82 92 93 76 88 80 53 66
57 26 42 42 24 27 23 25 18 20 29 19 57 59 50
78 72 74 57 54 53 29 44 34 54 68 59 70 69 63
50 43 41 25 22 17 39 35 28 30 24 25 68 61 78
64 54 71 35 29 37 45 36 44 49 38 48 43 28 26
15 6 38 27 26 64 46 44 75 21 21 90 14 13 125
22 62 201 97 164 255 164 231 255 95 156 189 98 115 84
172 170 119 255 255 232 255 255 240 243 251 224 231 233 223
184 185 193 141 137 163 135 129 159 148 139 171 128 115 160
101 83 144 97 76 146 86 63 130 77 49 105 79 49 105
82 55 106 79 54 99 70 42 89 66 35 81 68 39 82
73 50 91 78 56 94 80 56 90 80 56 88 80 57 87
80 58 87 82 56 91 79 49 98 66 38 96 73 44 109
101 74 139 194 169 234 255 255 255 255 255 255 40 57 46
185 207 174 250 255 244 255 255 255 255 255 255 255 255 255
18 18 18 29 20 24 13 9 8 13 6 17 55 50 62
86 71 79 66 42 53 29 13 14 77 80 58 152 177 120
163 187 118 155 182 78 76 90 6 255 255 255 255 255 255
127 236 255 164 55 24 165 104 70 202 176 145 126 117 93
78 82 119 115 108 150 114 97 127 102 85 99 58 53 52
105 105 105 128 121 125 84 77 75 10 16 23 80 66 78
85 52 65 162 103 117 255 208 214 158 134 135 87 90 84
217 204 207 227 209 220 222 215 225 203 207 214 160 153 160
101 79 84 75 41 42 68 39 35 93 67 63 108 95 77
34 22 29 162 151 153 218 182 188 117 77 83 69 57 60
104 84 93 133 114 126 115 91 105 61 37 55 20 26 26
61 33 48 95 61 78 71 37 55 48 24 34 18 22 13
17 24 14 12 15 5 23 9 7 28 4 10 36 13 13
45 15 15 46 18 21 48 20 17 47 21 17 47 17 16
46 15 15 45 17 17 39 13 10 25 5 1 20 11 0
14 7 1 10 4 3 11 9 5 11 12 6 18 24 11
20 10 8 26 27 11 31 19 0 44 18 0 174 78 78
255 251 253 255 255 255 255 214 217 250 173 190 79 35 72
71 84 37 102 79 21 76 29 32 48 26 82 54 143 201
223 255 255 192 255 255 26 79 114 14 16 13 32 32 1
46 47 8 24 43 8 8 32 15 2 18 20 14 14 19
21 6 27 33 21 33 31 29 24 21 45 9 48 82 34
67 98 50 96 109 80 166 174 153 255 251 240 255 255 251
204 207 196 143 130 130 142 102 120 164 125 140 146 118 137
103 117 128 209 231 238 255 255 255 255 255 255 251 247 246
65 53 56 255 255 255 255 255 255 155 141 220 40 39 97
36 32 96 30 26 103 36 27 111 46 35 101 39 40 80
18 18 52 37 25 41 58 44 46 62 40 44 72 38 43
92 43 55 122 55 76 151 72 96 185 92 118 223 116 139
247 132 144 255 142 154 255 156 165 255 167 177 255 177 189
255 186 197 255 196 207 255 205 215 255 195 202 255 141 148
171 54 59 93 24 19 50 64 56 48 70 62 70 67 60
82 71 68 67 74 76 51 70 73 44 60 66 49 53 63
53 46 60 55 43 56 51 39 50 34 25 33 18 27 19
52 61 49 79 79 77 60 53 55 30 11 20 57 48 56
55 41 41 39 32 26 35 37 34 23 27 17 23 23 33
50 46 65 40 30 51 10 9 21 24 23 32 49 43 45
52 41 38 28 15 13 43 39 43 46 42 67 16 22 98
10 16 120 17 33 168 33 82 205 121 189 255 197 255 255
142 220 255 33 101 140 157 117 81 248 231 182 255 255 220
255 255 247 240 244 241 157 163 171 131 127 153 159 154 189
154 146 193 111 96 162 97 74 155 85 55 141 67 43 106
70 46 103 78 54 108 76 54 102 68 43 94 61 35 87
66 43 87 80 55 98 86 60 104 86 60 103 86 60 101
86 59 100 86 58 102 85 59 106 84 59 111 93 68 125
115 89 150 136 115 173 255 255 255 255 255 255 122 113 154
233 241 218 255 255 255 255 255 255 255 255 255 240 253 245
199 212 204 19 19 19 32 21 25 13 6 6 20 17 24
58 54 66 82 69 77 58 39 48 53 43 42 146 145 119
196 216 131 123 145 61 86 110 23 49 58 32 255 255 255
255 255 255 110 210 255 149 42 12 145 88 46 175 152 113
98 83 59 67 70 109 102 91 131 80 69 97 55 38 53
23 24 13 78 75 76 109 99 105 61 57 57 33 31 32
87 73 85 92 56 76 169 109 119 255 206 208 130 113 114
146 137 139 255 255 255 214 196 205 153 144 160 202 206 216
235 231 240 191 174 181 129 105 113 83 56 60 94 65 56
90 72 51 56 41 50 167 147 148 194 163 163 104 69 75
88 68 76 111 91 102 111 98 105 45 28 36 15 41 32
19 16 18 90 64 78 99 66 83 54 30 46 27 13 25
8 10 4 22 21 18 26 23 21 39 27 27 45 25 26
48 27 29 57 28 28 65 35 37 72 41 41 77 51 49
76 53 51 65 35 34 56 25 25 47 16 13 40 12 6
34 16 1 26 10 0 14 4 0 8 3 0 15 9 1
23 21 7 24 17 7 20 23 6 24 17 0 26 15 0
142 62 57 255 233 231 255 255 255 255 192 195 251 161 172
149 89 118 31 52 10 107 94 40 72 36 26 47 6 62
35 48 106 151 255 255 246 255 255 86 171 203 3 18 42
21 22 4 49 37 3 36 43 17 13 24 30 4 16 21
5 15 13 10 15 3 24 23 23 35 22 24 37 26 23
20 45 6 43 96 30 89 152 81 139 215 135 176 229 170
220 221 215 210 190 198 168 138 149 105 73 78 48 25 35
83 81 96 64 79 98 141 156 174 134 136 160 167 161 173
255 245 253 255 246 255 62 52 72 255 255 255 255 243 255
91 90 155 60 41 124 38 9 103 30 8 104 41 27 108
32 25 79 36 30 65 30 18 43 34 23 21 65 41 46
99 59 67 132 75 86 167 98 107 205 121 129 249 141 154
255 157 179 255 163 186 255 160 187 255 153 185 255 145 179
255 144 176 255 151 177 255 153 174 255 155 175 255 187 204
255 216 235 255 187 202 250 109 122 189 45 60 161 16 30
154 17 25 142 34 40 103 61 60 58 67 59 32 55 44
25 43 36 16 34 36 19 32 39 24 33 43 36 43 54
45 50 59 41 56 53 58 69 61 48 45 42 39 17 23
67 54 60 52 34 33 28 14 11 29 40 35 14 30 20
23 30 41 40 39 57 36 33 56 27 35 48 31 46 54
66 69 71 73 70 69 46 41 25 55 46 29 38 27 54
20 20 91 20 20 114 24 34 162 22 48 174 55 105 199
157 231 255 215 255 255 232 255 255 129 202 253 44 88 71
125 127 69 209 236 170 255 255 241 158 171 157 96 103 114
133 133 157 176 170 205 152 139 200 114 89 183 86 52 152
67 38 115 70 45 112 77 55 113 62 43 100 59 25 102
89 57 135 109 81 153 111 79 151 111 76 153 116 80 161
118 82 163 116 80 159 111 75 154 103 70 148 103 77 148
108 89 150 129 114 167 237 226 255 255 255 255 255 255 255
135 137 107 255 255 255 185 190 190 97 100 102 71 68 75
63 54 69 48 40 54 24 21 23 33 20 25 21 13 16
27 24 33 56 52 63 79 67 75 70 59 63 114 108 104
180 179 144 147 169 80 43 71 3 58 78 16 45 45 51
255 255 255 255 255 255 84 175 244 130 36 34 134 85 40
152 134 92 69 52 21 58 54 101 78 59 105 44 32 64
38 21 37 12 16 22 81 72 82 108 97 107 35 39 39
54 45 46 91 77 90 107 76 94 174 117 120 231 176 177
92 79 85 166 150 157 253 237 239 201 190 186 94 81 79
93 95 86 184 169 175 159 136 143 149 118 126 147 112 120
125 102 94 71 61 44 66 49 59 160 134 136 161 138 130
99 72 70 105 87 95 116 98 109 72 54 64 14 28 20
20 45 33 48 25 33 101 77 86 79 54 66 32 20 26
6 10 12 20 25 22 36 32 30 43 30 32 51 38 41
56 37 42 52 28 35 55 24 28 63 29 32 69 35 36
77 42 44 82 48 48 85 53 53 59 29 29 41 7 7
47 13 13 43 16 4 38 13 0 23 9 0 9 3 0
7 2 0 10 9 1 9 6 1 8 17 1 11 18 1
24 9 0 109 40 34 255 193 185 255 255 255 255 209 212
255 156 163 197 127 151 19 15 25 96 93 47 81 58 20
45 23 56 46 28 82 65 177 249 223 255 255 160 255 255
26 89 108 11 19 37 39 12 22 60 49 40 16 22 36
20 14 17 7 19 9 6 10 6 18 14 16 54 69 39
119 150 94 213 249 180 255 255 255 255 255 255 255 255 255
186 244 189 103 134 118 121 115 118 115 102 110 65 68 74
41 63 74 79 83 103 51 55 89 142 154 159 51 51 75
113 110 123 153 141 158 255 248 255 212 203 200 154 139 194
255 255 255 170 171 243 104 92 178 33 14 109 17 10 98
44 37 120 37 31 89 34 24 59 41 23 51 40 9 29
64 26 30 90 39 43 114 50 53 139 65 70 163 71 76
189 73 76 201 71 81 208 66 82 214 58 81 216 47 73
211 38 63 211 36 56 217 39 54 222 54 58 223 65 67
231 66 84 255 121 141 255 183 197 255 173 183 248 114 123
204 68 76 201 40 58 220 58 76 210 82 93 143 36 48
87 30 15 60 47 33 43 48 40 24 39 37 20 25 29
18 33 34 8 30 38 6 27 29 36 44 31 48 44 30
49 34 30 58 46 48 31 25 24 15 1 4 16 27 25
8 26 15 16 24 33 37 34 55 44 43 65 38 45 60
29 47 47 64 72 72 94 95 94 79 80 70 60 52 22
23 21 36 12 10 69 11 9 89 19 23 134 7 30 146
7 41 137 50 111 189 117 195 255 188 255 255 231 255 255
165 255 255 26 87 106 137 165 99 245 241 207 225 229 198
190 202 191 175 182 184 176 177 186 157 151 184 124 106 184
78 46 137 48 18 100 55 33 106 81 65 120 65 46 113
75 46 127 119 91 168 128 96 182 118 83 169 112 78 162
109 77 161 103 71 155 102 70 156 107 74 162 107 75 156
89 66 131 105 97 146 227 220 255 255 255 255 255 255 255
141 136 160 255 255 234 255 255 255 139 142 150 59 57 72
44 28 54 46 28 61 47 25 63 31 22 27 23 11 16
20 14 15 38 35 45 79 76 86 119 110 116 131 126 126
144 144 137 127 127 93 72 83 13 80 84 56 99 117 43
43 38 70 255 255 255 255 255 255 50 139 212 115 30 39
123 84 38 134 119 80 51 39 21 48 46 93 57 46 81
37 34 51 51 41 49 7 13 10 121 110 121 135 125 135
55 56 56 83 70 73 98 83 98 111 80 92 157 100 98
193 138 138 66 54 59 156 137 142 213 197 197 165 154 155
93 82 79 122 115 108 187 172 174 141 112 112 117 71 73
146 100 107 149 119 116 79 72 57 65 44 58 154 127 132
131 114 104 54 34 26 94 89 94 97 84 86 50 30 31
55 57 55 3 23 11 72 55 62 96 78 84 59 38 47
20 9 3 24 24 23 44 41 44 51 41 48 48 31 44
47 33 46 53 34 44 50 23 28 49 18 19 52 16 19
48 14 14 47 9 11 69 31 32 100 67 67 66 31 31
37 2 1 46 9 13 45 11 6 43 9 1 33 10 0
20 15 0 14 18 0 14 14 3 13 7 9 13 17 8
7 19 6 17 6 0 79 18 13 246 145 130 255 255 255
255 241 244 255 180 184 227 151 170 68 30 61 72 76 36
102 88 39 64 48 47 31 31 93 18 116 206 153 255 255
206 255 255 112 232 234 20 100 111 28 27 43 62 35 18
55 63 31 36 58 28 27 46 26 27 37 27 22 36 18
42 87 35 124 180 109 244 255 223 255 255 255 241 255 227
181 232 175 157 186 163 126 156 143 89 111 112 85 88 104
88 84 101 61 61 71 38 42 52 12 13 41 127 136 125
52 61 57 98 87 115 117 103 135 166 154 176 255 255 255
31 45 11 255 235 255 225 220 255 130 127 213 51 45 136
21 24 106 51 49 128 56 51 113 50 36 68 61 40 51
61 29 35 67 16 26 76 8 25 89 17 36 109 34 54
120 30 40 125 24 7 113 15 10 106 5 3 108 8 11
109 8 13 109 7 9 112 6 0 115 5 0 140 30 14
176 61 37 163 47 37 150 40 46 195 89 95 248 148 152
228 140 142 178 92 91 148 18 18 208 65 74 255 139 152
255 140 156 219 79 97 136 29 39 68 69 63 29 76 70
37 46 47 45 25 27 40 6 13 33 11 4 39 25 11
63 52 37 68 59 43 50 40 27 20 17 13 17 3 13
10 13 22 7 10 8 15 10 28 38 30 57 46 42 64
38 37 58 22 27 34 36 37 33 94 92 93 104 105 96
84 82 59 43 46 17 22 23 40 22 20 55 27 28 95
20 27 104 17 4 96 15 29 117 15 64 144 46 132 201
170 255 255 204 255 255 128 255 255 37 100 131 142 114 60
238 241 181 255 255 222 223 235 193 184 192 161 166 175 165
139 133 175 94 62 141 68 38 122 64 40 122 91 73 137
83 59 136 94 71 139 104 84 143 85 55 130 83 51 128
76 49 121 69 45 115 70 46 117 74 50 122 81 55 125
90 65 127 92 76 124 187 194 221 255 255 255 255 255 255
83 79 103 222 220 178 255 255 255 245 242 247 136 132 153
74 61 94 37 22 66 34 17 68 32 9 63 48 43 46
20 21 21 34 30 30 94 91 101 150 147 156 165 158 162
129 125 125 67 64 57 54 51 38 91 94 97 94 103 84
148 166 73 37 55 116 255 255 255 255 255 255 22 106 182
106 31 41 122 87 38 118 106 67 38 32 35 38 33 85
38 26 63 33 19 43 52 42 46 50 55 54 175 164 175
158 149 158 90 88 88 133 119 122 122 108 122 116 87 97
166 111 105 185 139 132 39 35 28 153 138 139 194 180 181
133 124 126 58 55 48 113 108 106 185 172 172 137 106 105
92 59 56 124 79 84 153 119 116 85 72 57 74 60 78
172 153 162 142 138 131 46 65 75 97 109 115 51 51 52
49 45 39 65 68 62 26 11 23 95 79 93 89 75 83
38 21 29 18 23 19 38 40 41 55 51 57 58 48 58
55 42 56 60 40 58 69 44 59 73 42 48 71 39 40
73 37 41 73 36 39 72 34 36 88 45 47 114 73 75
83 41 43 51 13 13 52 13 14 52 17 13 48 15 8
39 13 1 27 14 0 17 13 0 13 12 8 11 12 13
14 17 10 13 17 10 8 11 3 47 2 1 195 104 84
255 238 225 255 253 255 255 207 212 253 173 186 133 89 110
33 42 21 115 107 72 81 80 71 22 31 94 8 78 181
80 189 255 208 255 255 232 255 255 117 231 240 7 91 100
43 59 27 63 88 42 62 92 44 53 73 39 39 65 32
74 118 44 127 197 110 186 255 174 210 255 201 112 193 116
11 117 37 39 96 44 97 119 110 141 159 156 130 145 148
75 83 103 58 57 84 70 64 81 11 20 30 23 25 40
82 87 76 103 111 91 17 14 24 90 72 105 147 134 163
255 255 255 159 173 146 208 186 237 255 249 255 134 127 216
64 49 151 28 11 110 51 46 120 75 68 129 60 41 83
46 16 43 41 8 27 58 11 34 75 10 40 96 21 48
115 36 59 120 31 40 121 24 11 102 13 15 88 4 14
87 6 13 86 6 13 83 3 8 83 2 0 84 4 0
93 10 1 122 44 16 152 73 44 138 56 48 128 46 46
184 110 109 244 182 184 218 152 156 119 24 18 131 70 62
225 92 98 255 170 179 255 185 201 255 135 154 148 61 71
34 100 88 10 104 95 27 63 63 40 24 31 36 13 16
29 14 23 33 16 19 34 26 7 26 24 3 16 15 7
16 6 14 8 9 27 3 6 17 16 10 26 36 28 52
41 37 58 35 33 53 36 38 52 9 14 9 73 69 73
98 96 89 91 92 71 54 60 27 22 24 21 21 16 48
6 10 78 16 11 95 6 9 91 27 6 73 52 8 76
44 56 123 82 169 235 173 255 255 232 255 255 213 255 255
103 177 242 59 78 91 140 169 77 196 231 137 200 216 157
194 208 170 170 169 169 126 111 150 98 83 139 85 76 134
98 92 144 94 87 142 110 102 150 115 105 148 102 91 136
94 85 133 78 70 116 75 68 110 99 92 130 113 103 141
117 105 142 137 129 165 195 194 226 255 255 255 255 255 255
24 19 54 255 255 250 255 255 255 255 255 255 197 185 205
123 106 147 72 49 103 46 26 87 45 21 86 40 16 80
52 52 52 46 49 49 79 72 74 151 144 155 148 145 155
83 78 82 28 18 20 82 80 86 105 105 113 89 92 98
102 113 54 170 178 89 140 168 233 255 255 255 255 255 255
18 61 141 104 37 43 137 101 50 111 99 58 27 23 35
32 24 74 32 23 55 47 33 52 36 25 29 66 66 70
167 156 167 122 110 122 38 30 30 121 105 109 118 101 116
121 90 100 210 158 148 206 168 155 20 27 17 161 151 149
179 172 171 109 102 103 37 30 29 102 96 97 172 159 160
104 74 80 47 3 12 116 71 75 150 112 111 59 45 37
130 123 137 231 216 222 188 186 178 117 131 143 159 175 182
60 73 78 59 63 52 47 49 42 58 47 54 108 97 102
60 54 49 3 14 11 28 36 41 50 50 55 60 54 61
61 46 59 58 39 57 59 37 53 66 42 55 78 46 58
87 54 62 96 61 71 102 67 77 104 69 74 115 76 77
134 92 94 108 64 67 72 30 31 61 24 23 60 25 20
54 23 16 41 16 6 27 10 1 16 8 1 9 12 11
4 16 14 11 12 10 9 13 16 10 17 12 24 17 7
147 66 46 255 186 163 255 239 247 255 207 215 255 186 194
197 147 162 49 40 55 114 111 99 86 98 90 10 29 81
19 47 151 49 99 166 103 223 251 240 255 255 234 255 255
91 231 233 1 82 72 13 11 3 17 30 3 9 59 3
92 151 54 222 255 187 255 255 255 255 255 255 172 255 175
63 147 74 31 116 69 53 112 99 81 95 110 107 104 127
142 139 160 168 165 186 159 152 178 122 108 139 76 66 91
64 59 78 11 4 25 98 101 79 114 119 94 13 9 14
106 99 116 255 255 255 251 255 251 148 135 163 255 255 255
139 124 218 81 65 168 41 31 126 48 39 117 71 58 124
43 34 80 36 43 63 49 50 62 70 43 59 93 32 61
114 37 65 121 43 67 113 31 42 109 21 13 81 9 8
54 5 9 48 7 9 44 7 8 42 6 4 40 6 0
36 6 0 34 6 0 45 15 3 90 50 26 113 70 51
82 49 45 120 84 74 220 187 179 255 218 217 182 124 118
104 61 55 103 62 53 171 58 59 255 162 169 255 217 234
255 153 173 146 69 68 15 125 107 37 125 113 43 58 57
56 17 22 46 18 26 20 17 32 11 15 29 11 5 20
18 12 13 14 10 9 3 9 25 6 5 16 17 10 19
32 24 40 35 33 54 27 28 46 40 40 56 20 17 27
48 38 47 76 70 72 84 84 73 59 66 44 20 27 20
9 1 48 18 14 64 24 23 79 26 26 91 24 20 87
25 9 79 32 19 84 12 57 125 41 115 191 118 201 255
205 255 255 253 255 255 166 255 255 29 66 109 145 176 95
167 185 113 172 194 122 180 197 143 133 146 125 89 101 101
78 93 99 90 104 111 96 112 112 123 134 128 127 134 130
114 122 121 109 120 121 114 127 126 125 140 130 146 161 146
168 183 170 199 212 205 229 242 240 255 255 255 255 255 255
78 80 102 245 251 216 255 255 255 225 216 219 123 109 126
106 88 122 88 69 120 59 39 99 51 30 96 48 26 95
43 23 86 30 30 30 16 15 15 108 93 97 139 134 146
68 73 82 64 61 62 114 108 109 110 104 110 68 61 62
53 66 16 116 128 51 124 120 47 255 255 255 255 255 255
187 255 255 76 9 83 127 70 47 169 137 95 131 119 88
74 70 80 70 62 93 59 52 76 79 67 83 58 47 51
89 89 92 175 164 175 156 148 156 114 113 113 122 110 113
110 87 103 130 91 105 232 187 172 200 166 147 23 21 32
163 154 152 163 164 156 89 87 84 40 32 33 98 94 95
126 116 116 90 68 74 83 53 62 142 97 100 150 109 109
26 7 13 168 159 173 242 221 231 142 129 124 85 104 118
174 184 194 59 69 76 69 69 64 29 28 31 85 76 80
91 83 84 17 11 15 26 38 37 38 44 47 52 52 57
58 47 61 57 35 57 49 30 51 46 26 39 51 31 42
70 48 53 93 69 74 116 86 94 131 99 107 134 103 107
143 110 109 157 119 119 136 93 95 92 49 50 67 32 30
67 29 28 62 23 24 50 17 14 32 9 6 15 4 2
10 17 12 9 20 17 12 6 8 3 4 13 8 13 11
15 24 12 120 42 25 255 150 123 255 211 217 255 183 189
255 179 186 233 186 200 110 95 111 95 108 107 68 92 81
9 28 61 20 34 126 69 52 106 40 72 115 115 242 251
255 255 255 196 255 255 46 184 169 31 103 43 93 171 73
163 244 123 223 255 179 255 255 244 228 255 232 130 224 134
85 151 93 59 118 71 84 137 127 90 116 136 71 65 96
61 48 85 69 58 99 107 98 128 138 127 152 135 123 146
117 111 127 102 94 111 92 87 99 50 56 51 163 165 142
112 111 90 53 53 63 236 232 246 255 255 255 78 77 79
255 255 255 140 120 216 80 62 168 61 46 148 43 32 122
50 45 112 40 51 81 42 60 71 58 56 67 86 45 62
119 40 74 139 50 78 127 48 71 101 32 38 96 18 19
62 6 6 23 2 4 17 2 5 11 2 4 7 2 2
6 3 0 1 3 0 27 11 0 32 9 0 51 21 7
75 42 30 54 47 36 68 53 35 144 121 110 185 165 164
210 180 179 182 142 131 95 46 30 55 37 47 127 57 56
255 160 170 255 247 255 255 215 232 184 44 60 31 106 91
18 136 125 17 89 83 35 35 40 27 42 48 16 45 52
14 35 45 13 19 28 14 10 12 8 7 22 11 7 16
18 11 14 29 21 33 28 30 50 21 24 39 30 30 44
36 30 40 48 37 45 58 51 63 65 72 69 56 68 53
31 38 23 8 11 28 21 14 41 23 9 43 20 9 57
28 20 75 29 26 91 14 26 89 31 24 77 50 16 75
52 32 102 29 125 195 186 255 255 253 255 255 200 255 255
135 175 221 61 60 57 152 173 81 208 238 150 166 199 134
105 137 93 89 120 81 87 120 79 86 122 72 107 137 90
96 125 82 98 127 89 149 176 139 222 251 213 255 255 255
255 255 255 255 255 255 255 255 255 255 255 254 192 220 190
35 47 47 200 198 180 255 255 255 241 235 227 83 68 81
60 47 68 98 86 122 79 65 119 51 35 98 47 28 103
43 26 98 40 24 86 52 52 52 52 42 44 116 99 104
90 95 104 45 46 49 90 90 88 75 74 74 37 30 33
70 63 34 91 103 50 121 132 65 29 21 68 255 255 255
255 255 255 62 123 173 125 58 33 159 104 43 192 163 121
140 130 101 91 91 103 89 80 110 80 71 97 121 109 125
107 96 102 89 89 95 167 157 168 146 138 146 107 106 106
105 95 98 102 81 92 141 107 113 211 173 154 157 126 104
40 41 50 154 143 143 141 147 135 69 72 63 46 38 38
90 86 86 68 61 59 51 31 37 106 66 70 173 130 131
151 106 110 11 31 29 177 168 181 225 197 209 124 100 94
127 136 141 163 168 180 12 17 24 82 72 71 39 42 54
116 105 111 73 64 66 12 14 13 33 41 37 46 50 50
56 53 59 57 40 58 45 28 44 35 21 35 34 17 21
41 23 23 64 49 48 89 75 79 112 93 98 130 110 113
140 116 121 156 126 131 171 135 140 158 114 121 112 62 72
74 34 42 74 33 40 67 27 33 56 19 22 42 10 11
20 10 1 12 17 15 13 19 22 16 9 4 11 10 13
14 6 7 15 20 11 107 25 13 243 128 104 255 189 193
255 148 150 224 149 152 234 190 200 145 128 145 75 93 98
24 61 51 22 22 37 26 30 94 47 28 98 63 5 64
9 91 119 175 255 255 255 255 255 161 255 255 117 226 158
184 255 171 205 255 191 198 255 194 146 255 149 121 193 127
90 124 103 11 49 17 49 70 48 81 100 126 68 72 116
53 35 73 55 38 76 48 39 72 37 30 54 21 16 34
15 7 28 49 48 56 70 68 79 134 130 141 131 128 141
136 134 119 205 201 184 34 36 25 152 149 164 255 255 255
50 54 50 255 255 255 144 119 215 52 34 133 79 65 159
57 53 130 37 44 96 29 40 71 23 32 46 60 23 43
103 36 60 145 59 87 157 64 90 123 53 66 87 30 31
82 13 16 50 5 6 11 0 9 8 0 10 10 0 7
14 0 4 19 1 0 23 3 0 28 7 0 40 16 0
46 17 0 36 11 6 28 21 6 58 34 30 102 78 72
80 63 64 87 73 75 146 128 123 153 126 119 99 60 57
65 0 9 142 59 56 255 198 205 255 255 255 255 255 255
233 116 127 11 106 94 48 135 121 42 62 57 60 78 76
44 77 82 41 68 77 29 47 64 10 13 30 11 2 20
11 4 16 16 9 8 25 17 29 22 25 42 16 21 33
18 19 27 41 35 35 47 42 49 44 40 54 40 51 50
43 59 47 42 51 34 29 29 2 25 11 24 32 5 31
31 10 26 15 8 27 20 14 54 34 35 78 12 27 75
27 7 71 51 15 75 43 36 101 42 139 211 168 255 255
255 255 255 242 255 255 137 170 234 109 143 101 228 255 158
214 252 157 150 200 103 141 196 101 152 207 112 172 228 135
196 251 168 197 253 173 212 255 189 248 255 222 255 255 232
255 255 226 240 255 210 210 255 186 162 212 147 106 156 98
71 88 46 153 146 134 242 242 228 229 233 215 115 106 101
53 36 55 84 80 104 91 85 127 51 38 99 36 21 90
40 26 103 36 25 94 30 18 80 25 24 24 68 52 58
112 97 103 65 73 78 46 41 34 57 57 53 16 19 16
36 28 16 89 85 53 113 121 63 129 132 67 52 57 139
255 255 255 255 255 255 29 44 104 139 74 17 189 139 56
203 176 122 120 110 71 64 64 88 82 71 112 100 87 118
165 153 170 133 124 129 45 45 55 135 126 139 97 86 99
10 1 4 46 26 30 66 43 51 128 94 99 191 152 138
128 98 81 41 43 46 140 132 128 123 131 119 49 55 49
24 27 19 67 64 62 39 34 34 38 17 23 126 87 88
185 139 142 135 87 95 23 51 58 156 150 162 178 151 158
107 94 93 149 161 168 127 133 143 63 53 46 100 86 81
59 69 75 141 131 139 60 50 55 11 21 17 31 39 35
51 53 56 55 52 58 51 32 46 35 18 27 28 13 22
29 12 18 46 29 18 72 57 47 88 77 72 93 88 81
95 91 82 108 90 87 144 116 116 170 134 136 168 125 130
123 72 79 73 28 34 80 32 40 74 32 37 61 24 27
49 18 15 27 14 0 12 9 21 15 18 20 24 19 15
19 15 13 25 17 6 20 20 10 97 17 8 228 112 87
255 179 183 241 117 120 183 101 97 214 159 156 150 120 128
74 66 80 34 23 36 19 17 27 35 36 66 38 25 93
37 16 81 49 34 79 61 153 192 241 255 255 255 255 255
218 255 255 205 255 231 134 241 158 88 194 104 30 122 42
60 76 47 116 124 118 101 114 103 83 85 89 97 89 134
89 74 133 81 56 101 94 71 113 92 71 109 66 47 76
22 12 28 22 42 22 32 51 29 23 31 29 132 127 143
196 192 210 68 76 70 242 238 227 106 109 101 61 57 72
255 255 255 113 111 116 255 255 255 158 129 223 10 25 78
73 47 151 72 51 142 39 23 87 44 15 68 48 7 36
81 25 46 123 56 77 159 77 102 156 70 97 110 47 63
71 19 31 62 6 14 40 3 7 18 0 4 21 0 6
24 0 6 25 0 6 27 3 0 31 3 0 34 1 0
42 16 0 31 19 0 18 25 0 40 16 9 73 54 40
80 58 55 67 50 53 53 40 62 60 56 76 73 63 58
161 139 127 145 108 103 87 39 36 118 51 46 255 176 177
255 255 255 255 255 255 200 92 100 115 113 104 107 45 44
90 78 77 47 84 84 51 85 90 52 88 100 19 43 60
14 1 19 13 6 16 17 10 10 24 17 25 19 20 34
14 15 28 17 13 19 30 30 33 25 32 40 21 28 35
16 25 25 31 42 32 44 57 43 41 49 24 24 21 13
11 4 34 10 4 29 11 8 34 17 11 51 41 38 75
27 29 72 15 4 58 33 14 61 41 20 76 34 46 115
35 71 145 57 108 180 145 237 255 255 255 255 117 181 217
154 187 80 234 255 178 236 255 178 236 255 183 247 255 200
255 255 225 255 255 236 255 255 218 244 255 196 173 231 143
54 95 40 45 14 47 112 88 104 179 159 161 237 222 208
239 223 207 185 181 157 133 149 111 155 164 148 195 196 192
156 148 147 116 101 115 111 103 136 61 53 108 25 7 83
31 13 95 33 20 100 28 17 87 21 15 61 54 46 58
72 57 72 86 72 88 39 47 52 30 33 13 26 27 29
33 17 34 52 39 39 89 91 59 136 138 82 142 139 73
100 109 195 255 255 255 255 255 255 46 25 89 129 60 27
210 160 73 215 189 131 97 86 45 54 50 101 95 81 128
123 105 134 190 175 190 139 131 133 66 62 69 165 163 168
112 113 119 46 60 50 62 60 61 78 65 78 132 104 120
214 174 180 147 117 118 56 59 58 148 146 137 115 118 111
38 34 45 20 24 16 57 49 52 44 33 44 51 32 38
122 80 88 175 125 133 129 84 95 18 42 50 130 129 130
130 110 107 81 80 72 108 128 129 33 48 50 118 107 101
88 71 62 87 98 103 142 137 143 46 34 40 33 45 41
54 60 57 60 57 60 54 43 49 38 20 27 26 17 29
31 20 35 45 20 31 65 39 35 83 68 58 90 87 77
71 78 66 33 37 29 49 28 30 126 105 108 162 137 140
160 125 136 115 77 84 71 43 45 83 50 50 79 43 40
67 30 27 59 22 13 44 16 0 40 17 19 41 27 21
36 24 23 25 13 11 34 20 6 27 17 7 85 13 2
201 93 65 255 170 171 248 120 123 179 82 78 205 133 126
187 143 139 138 103 110 85 45 58 13 18 18 41 44 51
47 34 85 40 26 90 59 51 99 90 104 144 139 234 255
255 255 255 255 255 255 241 255 255 179 255 255 104 183 193
39 83 108 7 24 49 89 90 75 182 184 175 130 127 148
108 91 150 96 72 139 84 57 107 100 73 117 114 83 126
125 94 131 126 102 129 102 85 103 41 30 42 38 54 43
118 122 134 183 178 203 71 72 93 195 195 183 177 183 175
19 29 33 255 255 255 145 143 144 255 255 255 170 143 227
10 44 54 63 31 130 78 47 143 60 31 103 69 31 87
72 29 58 119 65 87 155 92 118 152 82 115 123 51 86
86 24 50 64 6 23 50 2 10 40 1 11 30 0 12
30 0 10 32 0 7 33 0 4 35 3 0 38 3 0
39 1 0 32 8 0 13 16 0 9 14 0 48 26 13
65 47 30 68 50 44 92 71 73 116 93 114 58 51 82
54 60 84 25 21 18 113 111 89 136 126 117 90 70 69
85 74 85 255 194 204 255 255 255 255 235 255 255 168 190
255 142 165 215 110 125 75 31 34 28 67 64 56 105 109
50 85 100 10 34 50 11 15 25 23 20 23 22 18 20
24 8 18 32 17 31 9 7 21 28 23 13 33 30 31
21 34 33 12 29 20 3 13 7 28 44 37 42 58 40
29 32 13 18 12 36 21 9 41 18 12 43 10 3 46
37 33 66 34 34 71 3 9 58 20 13 54 44 12 53
81 48 76 134 81 83 176 91 53 98 119 170 226 255 255
213 255 255 23 93 174 119 142 44 175 232 136 192 255 156
194 255 158 178 255 148 116 200 100 39 106 43 16 54 12
87 93 54 183 187 141 239 255 186 255 255 204 255 255 222
255 255 238 255 255 237 255 255 210 199 230 154 131 150 102
128 127 134 141 133 158 150 134 175 125 108 165 51 39 109
26 6 92 33 16 104 27 13 100 21 9 81 10 4 48
36 29 44 63 50 71 59 45 75 15 15 42 12 16 25
20 3 35 43 26 42 60 47 45 94 94 60 147 147 86
131 130 56 203 206 255 255 255 255 242 255 255 74 9 72
129 55 34 220 165 73 216 194 133 73 63 27 89 82 130
111 94 132 117 99 120 184 165 178 146 137 140 88 82 85
213 211 212 118 115 123 17 24 22 44 39 33 56 47 55
101 81 96 230 196 217 185 157 182 80 86 76 167 168 164
93 90 99 16 8 35 20 29 10 50 50 34 54 44 42
68 40 44 109 65 70 161 112 118 139 99 99 22 40 21
120 125 110 102 91 77 61 58 52 46 72 73 45 26 30
143 129 121 37 17 17 111 120 125 112 108 112 36 19 27
60 70 65 68 72 68 49 43 46 37 22 23 24 8 16
30 14 28 50 26 35 67 36 39 72 46 43 76 70 65
77 86 79 33 53 51 39 41 58 95 90 104 150 140 150
166 154 162 138 117 126 95 70 72 79 52 52 85 55 51
75 42 36 64 26 20 57 11 7 38 10 4 31 22 6
23 26 12 17 13 14 13 5 8 24 11 4 28 6 2
73 10 1 159 66 44 255 142 139 248 123 122 169 61 59
162 74 75 180 117 118 190 143 150 134 94 99 37 23 24
50 51 30 41 26 61 37 19 61 67 51 74 92 74 93
42 81 141 81 169 236 127 219 255 137 228 255 143 225 255
153 201 255 127 148 213 89 94 155 13 3 51 204 203 180
215 213 225 74 63 130 46 23 90 52 35 79 67 51 80
42 26 51 25 6 32 51 33 56 98 86 104 107 97 112
92 93 102 118 122 140 115 112 142 126 122 146 97 101 86
234 240 222 63 75 60 255 252 255 152 149 143 255 255 255
175 151 216 3 34 53 53 21 115 82 48 144 84 48 128
81 39 102 83 39 86 131 77 117 136 78 108 99 41 72
69 12 43 70 25 38 77 20 22 59 5 1 54 6 3
51 7 2 45 4 3 41 1 3 40 1 1 44 3 1
47 6 4 40 4 5 29 4 3 26 3 1 31 6 4
35 23 14 40 30 20 41 29 23 61 44 45 146 118 131
146 123 128 48 46 30 43 49 65 40 50 60 87 94 73
105 92 84 46 39 56 91 49 44 255 255 255 255 236 255
255 187 208 255 203 229 255 244 255 212 117 132 74 17 10
12 66 68 52 89 101 42 65 81 7 25 36 22 17 18
21 1 9 30 17 15 35 23 29 42 30 45 13 10 7
51 54 48 37 32 33 20 10 17 5 3 8 28 33 34
46 51 44 34 37 18 14 36 10 6 31 16 8 28 14
22 23 20 35 23 37 33 25 45 21 14 41 30 13 38
58 38 51 89 74 88 97 69 90 127 45 42 107 14 73
78 187 252 216 255 255 168 255 255 65 156 220 13 46 58
46 81 21 37 74 16 16 33 17 108 107 77 172 171 124
199 218 142 196 229 140 175 214 130 122 168 82 74 126 35
72 117 56 76 118 65 78 136 31 137 188 91 188 221 153
192 211 174 179 183 192 175 167 213 149 129 192 96 74 142
43 29 97 27 9 89 27 14 95 25 12 92 18 7 72
7 4 44 49 49 61 54 45 65 40 27 57 17 13 39
21 17 35 25 20 30 27 22 14 58 51 27 94 94 47
145 152 72 91 96 28 255 255 255 255 255 255 174 231 255
107 34 64 146 73 23 228 169 85 212 190 135 57 51 20
108 101 144 111 92 126 108 86 107 184 161 173 149 140 142
88 87 87 234 230 230 125 118 126 24 24 23 42 31 6
39 26 17 65 49 50 219 195 215 197 173 211 91 101 103
159 164 166 63 61 81 3 6 25 25 33 11 51 54 32
58 40 40 73 33 45 109 61 63 161 113 114 141 105 104
13 19 14 104 111 93 77 65 47 40 16 13 3 35 38
75 50 48 134 119 107 17 22 39 116 120 128 87 79 89
31 20 23 64 76 69 55 65 57 21 14 17 15 1 2
19 4 9 40 13 9 69 35 31 71 46 46 56 51 47
53 61 59 47 63 61 30 50 55 61 64 75 84 81 89
109 102 105 131 109 105 130 85 81 116 56 54 112 46 39
112 39 29 91 19 11 73 20 4 63 19 1 51 10 6
51 26 0 33 24 4 20 6 10 17 4 10 19 6 3
29 3 2 61 7 3 131 50 35 222 122 113 234 121 117
158 55 51 109 16 16 130 49 58 190 135 145 168 131 136
79 53 60 46 40 28 24 13 44 28 21 31 72 62 23
79 68 20 52 29 51 34 6 85 32 13 91 43 31 83
32 44 102 80 107 180 139 155 223 139 154 209 102 114 142
176 174 132 255 255 255 125 128 174 11 12 55 32 34 58
43 52 58 45 61 51 52 68 58 36 52 46 36 38 30
93 91 98 138 136 151 132 128 154 76 69 102 140 136 162
32 37 41 246 250 231 132 140 123 191 184 191 171 168 155
224 214 244 185 160 212 6 32 44 44 12 94 100 62 141
110 70 145 95 54 111 89 44 94 111 58 120 96 47 105
63 26 75 49 26 58 59 32 60 74 39 54 72 30 42
71 28 44 67 26 44 59 22 37 52 16 32 49 14 30
51 15 32 50 18 36 44 16 35 38 14 29 34 4 24
29 6 24 23 14 24 25 25 27 25 28 27 22 26 25
71 60 61 140 121 123 168 152 156 116 107 106 45 43 57
9 10 26 71 60 43 53 31 10 46 20 25 176 136 129
250 184 178 205 154 146 255 168 172 255 255 255 255 233 247
173 99 102 61 21 21 16 57 73 46 62 76 21 26 39
11 15 16 22 32 29 20 30 27 22 16 20 49 37 51
25 18 30 29 32 24 68 59 59 64 56 56 41 36 41
51 46 54 31 19 24 24 26 19 27 32 24 28 27 20
34 28 25 39 27 33 46 30 34 47 33 33 44 29 31
41 22 30 40 23 52 31 40 78 13 54 95 44 47 88
87 38 70 25 71 113 114 226 255 192 255 255 198 255 255
123 245 255 26 118 110 45 116 77 88 155 84 149 201 118
156 201 128 124 178 107 90 149 66 46 107 27 47 63 73
74 66 99 89 87 99 96 94 99 66 69 65 68 73 61
55 63 61 70 76 84 101 92 136 106 92 156 82 57 123
59 40 95 48 35 90 34 18 84 25 14 84 27 14 86
20 10 68 13 8 40 55 55 63 47 42 53 35 27 44
23 22 30 25 25 21 27 26 25 19 20 21 67 63 31
103 101 52 147 157 63 33 39 57 255 255 255 255 255 255
127 178 255 133 60 67 173 103 40 238 179 111 211 184 135
49 48 19 120 113 154 121 107 139 124 99 120 197 173 184
138 127 128 98 99 103 228 220 225 121 112 124 17 15 25
25 16 24 26 14 40 56 42 56 203 186 201 189 170 208
100 110 130 143 149 159 54 50 81 21 18 39 34 41 33
57 60 44 52 30 32 69 26 41 122 66 73 165 112 114
122 92 91 9 24 29 84 97 81 66 54 39 44 13 5
24 15 25 92 63 61 123 107 95 35 42 58 114 118 125
66 60 71 22 19 20 69 81 73 51 59 52 21 14 16
2 8 15 22 4 4 52 24 16 79 44 40 69 46 50
43 44 39 34 46 43 32 44 43 16 32 31 34 28 30
57 42 41 93 72 69 131 95 92 161 114 111 179 116 117
187 111 109 186 101 94 162 69 62 124 31 26 88 13 6
59 29 4 45 28 6 24 16 8 17 0 4 18 4 10
15 4 1 28 5 2 54 8 3 121 45 28 205 117 98
231 128 122 179 73 75 106 14 16 94 22 26 160 102 109
179 138 145 125 89 103 73 48 67 40 19 61 23 10 41
60 53 17 70 70 9 46 40 36 29 13 68 33 8 71
37 17 68 51 33 51 40 17 80 69 80 156 165 188 242
192 209 250 50 53 4 255 255 255 250 253 255 110 121 120
83 94 95 74 83 90 44 52 58 30 35 44 27 36 44
20 13 23 66 66 71 127 125 138 150 148 161 145 144 152
206 203 223 103 99 117 160 164 149 212 214 203 183 179 185
167 165 163 189 178 208 233 210 255 20 12 60 74 48 97
140 104 149 125 86 136 103 64 115 86 45 87 80 33 94
68 22 98 54 24 89 48 27 82 57 30 85 68 42 89
74 48 86 74 48 81 71 43 78 66 37 73 60 30 64
54 24 59 51 24 59 49 25 61 47 24 59 42 25 55
35 11 47 28 4 40 20 6 32 17 18 26 16 27 21
13 29 15 20 33 13 56 51 46 102 81 87 120 96 104
79 59 57 68 53 43 82 71 46 81 71 41 41 27 30
91 61 45 184 136 124 165 125 111 208 134 131 255 245 255
255 255 255 255 181 192 136 68 66 60 64 75 47 67 75
33 50 56 25 47 46 26 52 47 22 42 35 29 33 30
43 37 46 34 25 37 23 7 17 15 8 9 64 50 59
97 89 97 71 61 68 37 38 40 23 33 29 50 39 44
56 41 51 53 42 51 46 38 45 32 29 34 22 19 20
16 7 18 20 9 28 24 20 47 29 39 69 41 60 89
33 62 91 48 33 59 52 31 55 21 111 142 109 221 255
204 255 255 229 255 255 115 250 246 20 117 94 89 88 24
138 147 75 119 147 70 37 77 35 30 48 50 26 45 46
27 35 42 35 56 44 96 103 99 120 118 128 97 88 107
82 72 91 64 55 87 75 65 107 102 89 144 83 71 132
46 27 84 46 25 81 64 49 106 44 30 93 25 17 81
29 18 86 23 15 67 16 13 35 42 42 42 35 34 35
29 25 31 22 24 22 22 26 11 23 26 17 20 23 32
76 71 38 113 110 60 141 152 56 59 51 138 255 255 255
255 255 255 78 116 206 150 77 59 203 134 77 250 193 141
211 180 134 48 43 17 128 122 157 131 117 150 136 113 130
204 183 189 122 107 110 106 113 119 216 205 216 117 106 126
7 4 42 22 20 55 40 36 76 59 45 73 190 174 184
169 154 188 91 101 126 113 121 130 33 27 59 20 18 35
45 50 43 68 68 59 47 22 27 66 23 32 137 77 83
167 111 111 101 72 68 14 32 45 66 79 73 58 44 39
47 10 16 38 3 20 113 83 77 109 93 81 64 69 85
113 117 125 40 38 47 26 29 27 71 84 73 35 46 38
31 26 26 5 17 23 28 11 6 64 38 30 81 49 44
61 39 42 32 28 22 23 33 31 30 41 43 20 35 37
10 9 11 47 26 24 89 66 63 135 108 107 189 155 155
245 200 205 255 226 230 255 232 227 255 214 199 253 173 147
200 122 87 152 75 45 111 44 25 62 24 15 32 9 6
23 6 12 9 3 3 22 4 2 46 4 1 112 30 15
189 102 75 225 132 121 199 96 97 119 24 26 72 22 19
119 55 62 164 115 119 149 104 118 116 77 103 82 51 92
47 22 68 45 34 32 58 59 11 43 47 34 39 34 51
43 29 49 31 20 64 49 31 51 81 60 39 25 6 88
132 150 223 254 255 255 186 181 247 122 125 86 255 255 255
255 255 255 212 216 221 135 137 149 48 49 59 16 16 31
30 40 47 14 24 35 38 34 31 103 95 100 133 123 132
151 140 143 234 224 242 238 231 246 71 70 75 130 129 133
255 255 255 255 255 255 255 255 255 255 251 255 57 63 94
121 98 161 177 135 195 113 76 115 84 52 96 70 30 86
53 15 78 46 1 88 37 13 86 37 18 85 45 23 87
55 32 89 63 42 88 68 45 79 65 43 70 57 36 63
47 26 52 38 15 44 35 13 42 34 16 42 37 19 44
37 27 47 32 13 40 26 9 34 19 3 27 13 9 20
10 17 16 7 21 11 3 16 8 25 13 30 11 7 11
71 49 53 77 56 51 80 67 58 77 65 48 93 87 65
38 18 16 42 26 22 109 64 51 111 58 44 134 59 52
255 154 166 255 255 255 255 238 255 231 141 152 125 83 92
55 64 68 29 51 56 22 45 46 19 40 37 24 37 31
33 41 40 42 42 54 43 42 54 44 38 48 35 35 40
81 69 77 100 89 97 38 18 30 56 74 61 63 65 68
52 55 53 48 52 50 29 41 33 9 29 16 4 21 7
14 22 7 13 26 8 18 26 15 12 19 16 16 14 32
19 22 60 16 45 85 12 47 80 45 26 54 59 38 65
35 87 132 75 189 239 196 255 255 204 255 255 84 184 206
68 49 39 158 128 74 145 125 84 81 69 61 39 48 43
14 65 6 45 91 45 92 117 99 124 130 136 127 121 143
102 90 114 65 56 79 46 40 75 70 52 109 79 61 129
49 39 99 26 31 61 40 16 77 76 59 121 51 37 101
27 12 78 31 16 86 26 13 65 20 12 34 21 21 21
23 25 23 24 23 23 18 21 14 13 17 4 14 16 13
20 24 29 79 75 41 120 119 66 121 134 45 162 153 240
255 255 255 255 255 255 44 55 146 148 75 51 217 146 105
255 204 170 216 186 149 56 46 31 129 119 154 137 117 151
139 120 131 207 189 188 104 87 87 116 122 128 196 184 197
115 102 126 28 25 64 35 41 85 39 45 93 59 47 69
185 170 167 144 132 155 70 84 97 76 87 83 8 12 31
15 24 26 56 59 51 81 77 69 53 32 28 81 38 36
154 98 95 165 113 102 83 51 34 21 35 43 54 60 57
54 41 24 52 18 20 56 15 14 138 109 97 96 80 69
93 100 115 109 117 123 17 12 21 41 49 45 64 78 67
14 28 21 40 38 38 6 21 25 36 22 18 72 52 40
74 46 39 48 24 28 30 18 16 23 23 28 42 48 53
64 72 76 66 72 78 50 49 58 21 20 28 35 34 36
90 80 82 138 122 123 191 163 163 240 202 199 255 231 227
255 241 234 255 232 210 255 214 175 251 192 158 199 155 141
144 119 123 113 91 99 79 61 62 52 40 35 30 19 13
87 13 4 173 84 56 214 126 111 198 105 104 130 41 41
72 30 23 88 24 30 129 75 78 137 93 99 138 97 112
121 84 116 82 50 96 45 17 59 31 35 32 30 44 43
46 52 42 57 56 30 52 49 48 60 48 38 100 77 43
79 53 72 78 68 151 191 196 255 255 255 255 182 180 223
116 122 92 248 254 249 255 255 255 255 255 255 124 124 137
11 13 33 18 22 43 33 43 55 16 23 41 46 44 59
48 44 61 21 15 36 110 97 120 184 173 187 205 203 212
211 208 223 188 183 195 100 106 104 255 255 255 255 255 255
156 158 177 193 168 217 229 192 251 97 61 135 60 24 108
58 13 99 43 9 81 38 13 76 21 14 68 17 13 68
29 17 76 37 20 77 42 23 69 47 24 61 47 34 53
41 34 47 30 24 35 14 8 22 10 7 18 14 12 20
15 7 22 21 22 32 19 13 29 17 13 27 11 8 22
4 4 16 4 9 13 4 13 10 12 22 6 21 7 15
4 15 30 24 20 35 30 18 7 35 16 9 56 62 51
72 72 63 36 15 7 41 31 37 75 27 13 105 37 31
98 34 28 180 82 88 255 222 238 255 243 255 255 206 219
208 114 121 79 39 41 25 28 36 12 36 44 2 22 27
18 23 16 27 36 33 40 38 52 42 38 53 38 29 41
7 13 9 69 59 65 86 73 84 40 35 29 56 73 65
51 43 57 15 8 13 21 22 13 24 19 10 12 20 7
18 56 37 56 98 75 89 135 110 84 134 104 45 97 58
19 55 15 13 29 20 16 8 58 16 41 78 16 28 60
61 10 34 66 10 65 14 71 133 91 174 219 199 255 255
198 255 255 77 154 194 86 64 23 157 140 85 96 107 44
35 72 3 42 81 34 66 94 75 87 96 99 96 90 112
103 86 118 94 78 106 45 34 65 30 25 63 79 62 111
77 54 122 34 18 86 34 40 68 47 28 86 76 60 119
47 32 95 22 4 71 27 14 81 20 8 61 13 3 29
3 3 5 14 11 9 18 16 11 11 11 3 3 3 9
15 11 13 25 25 13 75 71 36 124 122 73 92 104 27
255 255 255 255 255 255 255 255 255 54 13 104 128 55 44
197 127 98 255 201 182 237 209 184 91 81 77 129 119 151
136 117 146 138 120 122 207 190 185 81 65 60 129 132 141
171 161 175 113 99 126 51 50 92 47 55 107 27 29 82
76 66 50 182 169 152 120 106 126 68 81 89 54 64 61
6 5 43 11 16 33 62 62 63 85 77 79 59 29 33
98 47 46 162 108 97 156 109 88 61 31 9 34 47 61
44 46 54 47 36 30 59 18 33 83 41 24 162 134 118
87 73 63 119 131 144 104 116 121 28 20 19 62 68 65
54 63 54 17 3 9 44 44 44 8 19 23 46 34 30
75 62 47 65 38 29 33 10 14 32 24 24 47 46 43
80 78 72 111 106 100 139 133 126 158 144 140 166 145 145
158 134 137 149 121 123 144 120 121 123 101 98 94 61 55
104 48 51 125 74 84 139 103 114 154 125 131 199 158 157
209 172 167 179 161 156 152 142 143 117 109 110 93 87 84
65 61 52 68 29 20 156 80 53 193 114 94 171 87 86
128 47 50 82 30 29 77 17 23 95 37 44 105 56 61
127 85 92 137 98 119 108 75 114 62 33 85 20 9 58
11 37 57 37 55 45 58 66 30 56 70 42 66 62 14
143 116 103 145 109 138 114 84 146 111 106 181 255 255 255
255 255 255 255 255 255 121 108 122 119 126 123 255 255 255
251 254 255 75 81 93 17 19 35 29 36 49 56 60 74
63 64 86 37 36 59 18 15 39 50 40 60 78 66 74
151 140 150 255 255 255 255 255 255 255 255 255 88 72 83
255 255 255 255 255 255 255 244 255 209 175 222 133 113 171
114 92 164 75 47 129 53 11 93 44 16 77 17 27 54
4 30 50 12 15 58 19 1 58 18 11 45 26 1 44
39 32 44 40 40 42 32 35 33 14 23 12 11 22 5
16 23 12 8 14 4 10 13 17 13 12 22 15 15 23
11 10 19 4 4 15 2 1 14 0 8 15 24 14 18
26 21 6 23 27 37 12 18 42 19 34 45 17 28 36
71 81 79 40 47 45 27 4 17 50 30 44 66 20 29
108 37 43 90 29 35 122 36 43 233 143 152 255 182 198
255 226 239 255 188 195 165 82 84 84 34 36 29 38 42
10 23 29 14 16 10 13 25 17 33 34 42 69 68 76
91 96 94 72 86 72 101 99 100 98 83 97 41 32 36
54 69 64 59 57 64 68 57 64 54 29 44 14 33 25
51 99 78 94 152 132 121 183 161 130 194 166 108 183 146
97 161 122 39 95 49 25 62 14 28 34 23 35 22 55
28 33 59 30 2 41 62 23 47 53 30 84 60 97 149
158 202 255 248 255 255 248 255 255 117 136 209 117 120 57
133 156 83 58 87 61 45 62 53 64 72 73 77 69 88
78 58 90 91 69 100 93 77 108 38 26 65 23 16 59
76 58 109 86 61 124 46 28 96 44 40 79 53 43 89
60 46 100 36 20 83 16 4 62 24 15 75 16 10 60
4 7 22 11 11 18 20 8 21 11 9 6 11 11 17
6 4 22 23 20 15 38 38 4 66 61 30 127 123 78
64 76 7 255 255 255 255 255 255 219 232 255 70 12 84
100 27 56 166 94 62 237 180 156 235 208 182 79 67 55
102 97 122 120 101 123 125 108 110 200 184 181 69 56 57
127 130 143 149 141 157 113 98 129 77 71 118 67 68 123
21 11 68 109 99 58 168 154 130 84 72 95 76 85 96
54 59 76 33 30 73 30 28 56 70 69 79 95 83 94
80 46 65 111 54 68 159 103 96 145 97 85 32 8 51
45 60 91 38 41 69 43 35 58 70 29 60 108 61 42
179 150 128 79 65 55 139 154 166 103 117 121 38 38 33
70 78 75 36 40 35 42 25 36 46 42 44 5 10 15
57 45 41 78 65 50 52 27 18 20 13 12 38 36 37
75 73 68 110 97 92 123 101 97 146 119 113 182 147 141
225 178 177 255 207 207 255 227 222 255 253 248 255 255 255
255 243 233 255 223 210 242 199 186 202 165 151 161 132 116
125 90 83 97 48 36 85 54 49 71 63 69 37 39 47
46 55 62 57 69 68 76 63 54 144 98 72 158 95 77
131 50 51 114 35 38 94 24 31 82 13 26 75 16 28
74 18 24 96 47 50 124 83 98 118 90 121 81 58 107
43 26 78 27 37 70 21 46 49 39 58 27 42 59 31
93 76 40 204 177 153 184 147 151 113 81 137 95 80 149
163 160 230 255 255 255 255 255 255 255 255 255 170 156 164
170 177 181 255 255 255 168 173 181 50 58 76 22 25 47
16 16 39 22 21 45 7 10 31 14 8 25 27 23 34
33 27 25 70 59 64 152 141 153 255 246 255 255 255 255
255 255 255 38 52 44 255 255 255 255 255 255 215 181 216
93 61 108 130 98 157 111 82 152 74 35 105 52 20 83
14 30 48 19 42 41 9 21 48 17 11 54 14 17 41
19 9 44 41 39 51 47 50 49 39 43 39 21 25 17
17 21 8 21 25 13 16 20 13 5 9 19 12 13 27
16 16 29 11 9 27 4 3 27 3 0 28 1 6 28
35 1 36 14 20 38 40 45 62 8 7 45 29 35 57
27 29 39 76 80 74 20 30 27 30 16 39 45 35 55
45 25 34 91 33 33 84 16 23 86 4 13 143 67 68
184 83 98 255 174 191 255 215 228 255 142 151 164 83 85
80 41 40 43 20 25 26 12 6 4 13 4 31 40 38
114 116 118 122 127 129 65 73 58 164 162 165 153 144 151
79 81 80 72 90 85 31 39 41 23 17 24 49 72 70
95 138 120 130 188 165 129 193 173 90 157 133 41 104 76
49 113 87 112 171 141 70 137 98 34 91 48 38 62 15
55 25 27 78 20 57 91 35 71 102 49 78 123 71 94
162 118 160 219 192 253 255 255 255 255 255 255 255 255 255
255 255 255 220 216 236 147 135 180 102 80 144 73 67 106
83 72 108 80 59 93 82 62 89 82 71 99 53 38 76
35 19 67 65 45 101 89 66 125 69 49 113 48 31 87
46 38 75 35 23 73 21 5 66 15 8 55 24 17 71
16 10 58 4 7 18 22 22 22 22 13 20 6 6 4
14 13 20 8 10 11 31 31 4 43 42 11 65 59 34
132 129 82 22 32 51 255 255 255 255 255 255 152 165 255
75 17 83 83 13 72 162 89 50 246 189 157 234 214 183
84 78 59 89 92 103 123 115 125 150 139 145 219 204 202
97 83 84 108 112 127 140 132 155 110 98 138 90 83 139
57 57 115 57 52 32 111 97 45 116 101 100 96 93 126
69 67 95 6 20 51 27 41 43 9 25 24 60 58 60
85 69 73 92 53 74 128 70 90 173 113 107 120 69 77
65 88 142 91 104 153 27 34 81 43 30 25 86 47 41
137 85 9 197 168 139 52 42 31 157 173 185 89 104 107
70 66 61 82 85 84 40 23 31 64 48 59 51 44 47
17 17 19 71 58 55 89 72 59 44 29 20 6 27 22
21 35 34 54 57 49 92 71 71 99 56 60 111 56 51
128 64 56 148 78 71 190 116 111 230 147 137 248 158 148
255 172 163 255 186 175 255 191 177 255 188 170 240 180 159
227 176 156 212 176 168 190 168 167 162 150 149 120 117 118
82 81 83 59 57 61 36 37 42 51 13 15 117 62 43
148 78 66 129 50 51 92 21 21 73 1 11 75 8 16
77 19 25 94 46 45 113 64 61 142 94 103 158 119 141
139 105 143 105 67 112 71 42 88 44 16 58 27 10 33
18 27 30 108 85 66 234 209 178 202 175 140 83 53 75
64 39 110 80 62 131 121 106 179 169 149 222 255 255 255
255 255 255 44 36 41 255 255 255 255 255 255 255 255 255
216 226 248 82 87 101 32 24 27 35 30 47 56 60 69
36 41 43 17 20 16 28 28 28 57 57 59 108 104 114
238 234 244 255 255 255 255 255 255 91 67 76 255 255 255
255 255 255 66 25 57 103 69 114 141 107 165 96 61 120
53 26 91 23 24 66 17 30 47 6 27 37 26 31 49
27 35 36 31 33 39 55 55 56 56 57 51 36 36 44
14 11 46 4 7 45 17 14 31 31 21 21 30 20 23
19 19 33 17 16 42 9 7 46 3 6 55 15 17 67
18 22 71 40 29 84 46 41 102 33 27 81 10 25 39
34 41 48 31 37 17 74 85 46 62 67 36 57 50 54
47 44 58 28 21 28 68 21 11 81 14 19 82 14 18
97 34 34 112 20 30 220 89 105 255 180 192 255 190 202
255 168 178 194 100 103 89 22 17 29 11 18 14 9 9
27 39 29 115 120 119 140 139 147 105 93 94 238 233 235
161 156 159 42 49 47 71 80 79 15 27 29 45 61 60
121 150 145 136 177 166 92 144 133 37 96 84 6 66 48
19 51 40 47 74 60 87 130 109 84 149 120 36 131 98
46 131 96 77 102 57 123 41 49 166 64 93 197 102 126
249 153 178 255 169 214 255 183 250 255 234 255 255 255 255
255 255 255 255 255 255 255 255 255 243 186 255 205 152 255
204 162 250 170 137 205 109 87 135 66 55 81 60 54 73
57 39 78 49 25 78 64 44 101 94 75 134 87 61 125
48 28 84 27 26 45 10 15 36 13 6 53 17 3 60
18 10 63 17 12 51 13 13 20 24 24 24 16 15 12
9 11 6 14 16 16 17 20 12 31 29 1 38 37 7
73 66 42 131 128 83 63 51 125 255 255 255 255 255 255
81 91 217 71 13 90 77 10 75 178 105 73 255 204 178
224 205 180 74 66 54 52 51 61 72 63 66 133 121 121
227 211 206 121 107 101 95 97 117 147 136 168 113 101 148
86 82 142 26 26 76 68 62 23 33 22 50 90 80 120
100 93 127 68 65 108 82 87 113 75 87 61 57 71 41
68 73 46 81 70 39 89 53 38 133 69 77 182 119 116
73 32 86 88 124 164 41 48 97 68 70 98 35 30 50
93 53 61 185 130 40 221 192 160 17 8 16 179 198 209
63 80 81 110 105 100 65 68 66 67 46 59 81 65 75
51 44 47 6 14 8 81 71 66 97 81 68 42 27 17
13 32 29 20 34 33 59 62 58 120 97 101 116 71 80
98 34 31 96 19 17 102 23 14 129 42 20 148 52 30
143 43 28 146 47 38 159 64 50 162 73 56 149 72 52
135 69 48 129 70 52 131 83 75 131 100 101 110 96 99
79 76 78 66 65 66 68 61 64 70 53 58 82 55 53
124 79 65 174 110 92 166 94 93 94 29 32 61 9 11
61 3 5 59 31 23 78 50 44 96 50 49 129 77 87
164 116 139 178 136 169 169 123 160 140 94 133 101 59 97
70 30 65 60 17 55 127 93 94 230 205 182 198 170 136
88 66 36 28 15 64 16 24 76 33 33 99 78 60 151
172 151 229 255 255 255 255 255 255 26 16 18 154 164 161
255 255 255 255 255 255 255 255 255 130 137 143 51 41 49
49 43 44 49 57 56 62 68 65 49 49 49 19 19 19
41 41 44 89 89 95 235 240 246 255 255 255 168 184 183
255 255 255 255 255 255 63 25 49 67 31 70 145 109 158
100 67 118 57 28 89 23 4 65 2 19 46 3 23 44
29 22 64 38 32 55 40 45 45 44 48 67 32 32 82
26 16 96 29 16 104 36 20 109 43 30 116 40 30 115
29 20 104 22 15 98 24 16 95 13 7 88 20 21 95
37 38 113 47 46 128 55 41 129 44 19 111 23 13 87
18 24 78 31 16 81 13 6 60 38 55 8 69 82 34
60 67 40 36 38 37 20 13 21 47 18 3 73 19 11
83 20 22 85 25 27 89 10 17 142 27 37 235 99 108
255 150 157 255 178 187 255 193 196 186 91 90 48 21 30
34 8 16 31 31 24 81 83 82 141 132 140 158 139 142
234 223 227 87 79 82 111 115 114 45 53 53 8 21 19
93 116 116 121 160 157 90 139 130 24 78 71 17 47 39
34 24 16 54 27 28 67 49 43 104 91 79 136 113 99
133 60 48 174 84 78 255 175 168 255 189 201 255 204 227
255 228 251 255 214 249 255 150 199 222 107 168 202 101 181
202 119 218 246 169 255 255 219 255 255 239 255 255 221 255
255 219 255 255 201 255 191 140 225 106 74 131 46 33 60
47 43 49 40 20 60 51 25 79 84 62 122 99 82 145
84 58 118 35 16 68 12 21 26 14 30 17 10 9 51
20 11 68 13 12 52 22 21 45 24 24 26 6 6 8
6 12 13 9 3 12 1 4 16 1 3 21 22 19 19
41 40 16 78 72 42 120 117 76 124 112 187 255 255 255
255 255 255 16 25 159 66 16 97 62 6 87 177 106 91
255 202 194 218 195 184 100 98 96 95 94 95 91 85 78
128 115 104 215 197 185 127 116 102 84 85 107 155 145 178
126 115 158 76 72 132 22 22 52 25 18 65 73 72 137
67 51 79 128 121 130 98 100 127 44 39 89 95 90 116
60 58 93 63 53 64 75 55 50 75 32 45 115 46 79
167 104 133 79 59 120 29 67 86 88 71 44 71 70 82
15 12 69 70 23 82 209 152 53 236 203 169 0 18 30
185 205 215 46 58 61 127 122 115 37 45 42 100 82 93
92 73 85 29 21 24 31 30 24 85 78 72 84 76 62
37 21 9 16 27 24 33 25 16 79 54 39 148 98 103
148 84 94 120 44 44 107 28 22 120 36 15 133 44 7
118 22 1 107 16 1 105 13 9 107 21 10 104 24 11
97 25 11 90 27 13 78 26 14 63 23 15 46 22 18
33 21 23 30 23 24 31 24 23 32 24 19 35 23 12
40 21 6 74 29 3 161 103 72 182 118 115 103 38 41
68 11 15 58 10 11 31 32 22 27 36 27 33 8 6
64 20 29 112 65 87 153 108 139 175 130 161 174 132 164
135 97 128 88 45 74 109 57 79 163 121 129 197 164 150
155 129 97 81 85 23 41 72 43 30 65 58 36 61 84
47 45 123 79 50 144 218 194 249 255 255 255 255 255 255
255 255 255 254 242 255 37 27 38 255 255 255 255 255 255
184 188 194 34 31 35 29 19 25 72 82 81 72 74 76
13 14 17 21 25 26 27 42 48 103 117 120 255 255 255
255 255 255 253 219 227 255 255 255 137 101 124 50 26 46
126 95 130 86 56 103 68 37 93 42 26 73 9 25 49
6 28 53 37 29 73 53 38 73 15 33 79 42 16 138
99 66 199 124 92 226 130 101 234 156 126 255 206 170 255
249 206 255 255 223 255 253 222 255 234 206 255 199 173 255
155 130 255 112 87 216 73 48 177 51 23 139 36 22 109
37 3 118 61 26 140 60 27 135 48 21 110 25 8 82
6 28 55 5 31 45 6 25 44 14 24 33 32 26 16
58 27 11 74 28 17 78 33 20 88 26 18 107 18 14
153 35 39 177 47 50 223 90 94 255 218 220 255 162 163
115 35 42 58 9 9 35 17 9 40 48 43 46 52 58
80 66 58 163 154 157 13 25 26 125 121 124 30 9 10
23 22 18 120 144 142 104 151 146 63 112 106 55 62 57
96 61 54 152 107 97 198 150 137 231 175 163 255 228 219
255 255 255 255 255 255 255 255 255 255 255 255 255 216 218
255 153 162 255 148 157 239 113 135 183 68 112 129 29 88
87 25 79 72 31 95 83 22 122 104 27 154 173 91 226
255 178 255 255 186 255 201 127 250 154 101 189 91 66 114
15 20 36 31 39 25 37 27 57 54 28 84 95 69 133
101 86 147 81 60 117 40 21 71 6 22 28 18 36 14
7 14 46 20 22 68 16 29 54 17 29 46 19 31 33
31 34 20 21 29 41 27 20 53 21 18 43 6 11 24
26 28 11 51 50 20 89 85 49 119 118 69 181 169 242
255 255 255 255 255 255 23 11 124 55 8 111 44 24 106
159 89 82 242 180 186 202 175 177 97 88 94 84 81 80
76 68 63 108 91 82 189 169 152 122 112 94 73 72 92
162 151 184 148 133 178 71 65 129 23 24 56 26 31 111
54 61 124 156 144 128 208 202 209 55 57 9 179 177 172
219 213 238 192 189 221 144 132 147 94 70 90 81 51 108
129 89 147 178 122 166 121 70 110 60 28 33 76 60 60
46 42 58 45 26 60 72 26 89 213 156 51 239 201 168
6 28 38 177 198 208 33 43 48 122 118 109 20 28 27
120 102 113 92 72 84 9 23 18 54 55 47 87 83 76
70 67 53 21 13 14 32 35 35 83 63 57 136 99 89
170 111 115 163 91 95 129 54 38 102 27 9 99 21 1
93 25 0 66 7 3 65 13 6 66 14 4 65 13 3
61 8 3 55 6 3 48 9 2 39 11 3 32 9 2
31 13 5 29 12 10 28 12 12 28 12 10 28 13 6
32 14 1 39 12 0 69 25 0 156 100 62 181 119 108
102 45 45 69 22 21 65 17 19 42 26 17 28 29 18
21 8 9 29 6 4 63 26 39 110 67 94 144 96 125
180 140 171 176 141 169 127 78 108 185 131 151 215 162 181
167 115 128 91 55 42 51 65 22 44 64 27 19 31 32
27 11 87 48 19 123 64 36 127 117 86 161 201 180 235
252 233 255 255 255 255 255 255 255 255 255 255 175 166 181
175 179 174 255 255 255 214 220 226 33 34 43 47 59 60
100 104 112 28 31 40 22 30 42 17 34 51 48 59 54
222 230 219 255 255 255 25 43 45 255 255 255 255 255 255
113 74 106 109 77 106 79 48 91 74 44 95 70 42 97
37 12 76 20 33 46 44 47 52 25 12 93 96 68 187
154 114 251 175 133 255 186 140 255 189 143 255 208 168 255
242 205 255 255 220 255 255 239 255 255 255 255 255 255 255
255 255 255 255 243 255 203 163 255 123 91 221 79 51 169
78 30 175 110 62 195 94 49 179 73 44 152 52 29 117
29 4 99 37 15 94 29 15 84 13 18 70 6 23 52
20 26 34 43 33 12 61 38 8 69 43 16 81 42 20
105 31 24 133 40 45 124 9 10 164 29 33 255 177 177
255 193 195 208 101 106 113 43 40 44 17 17 62 68 68
45 63 70 97 87 85 143 135 140 10 28 25 95 80 85
52 16 19 47 33 31 114 128 122 118 144 137 117 115 110
224 173 167 255 255 255 255 255 255 255 255 255 255 255 255
255 255 255 255 255 255 255 255 255 255 222 218 224 118 113
111 10 11 47 84 71 91 116 91 56 73 55 31 92 82
38 116 92 37 114 70 18 83 25 42 38 53 84 32 114
124 70 160 144 75 184 163 75 209 203 132 250 201 144 244
117 69 151 45 7 58 15 18 11 29 23 52 61 36 98
85 60 125 99 80 140 84 65 126 48 30 87 16 20 39
19 33 23 9 22 41 16 21 59 11 24 53 10 23 42
11 23 25 102 109 65 83 95 76 25 35 34 48 54 36
72 81 28 94 99 49 92 96 51 120 120 73 132 132 81
255 245 255 255 255 255 255 255 255 32 21 115 42 15 127
41 27 108 142 73 53 214 153 161 184 158 163 74 62 72
41 38 34 41 33 28 92 76 65 177 156 135 119 106 86
66 61 84 156 142 175 156 142 182 107 106 145 71 67 99
69 71 149 49 44 45 255 246 236 148 143 154 188 188 150
236 236 208 130 122 151 187 190 211 200 194 187 102 80 92
82 96 155 149 127 186 233 165 190 195 129 135 93 57 59
48 31 58 35 31 75 58 34 72 99 47 78 221 163 59
240 200 168 13 39 48 165 190 199 18 25 32 114 112 103
2 10 8 131 113 124 86 64 76 22 41 35 75 81 70
99 96 89 66 64 53 23 33 46 74 71 73 140 111 103
171 123 115 167 101 101 149 78 61 112 40 13 79 16 0
66 3 0 56 21 0 20 18 6 17 13 8 23 20 8
22 17 6 17 4 0 9 0 2 3 4 4 3 9 1
6 4 4 10 8 3 10 2 0 11 1 0 9 1 0
8 2 0 13 1 0 22 0 0 54 16 0 140 90 51
176 117 95 105 44 45 71 24 25 66 22 25 46 25 15
35 29 10 30 8 7 28 9 14 39 7 4 66 25 45
100 50 72 163 121 147 201 159 188 185 132 159 254 203 218
246 195 211 189 140 165 123 78 114 84 41 81 92 59 87
107 73 115 117 84 148 125 95 179 113 86 178 101 72 159
95 74 147 84 62 132 76 57 111 131 110 162 255 255 255
255 255 255 255 255 255 52 57 44 255 255 255 158 164 163
88 89 93 139 142 148 77 79 83 21 31 53 15 30 57
18 32 53 92 100 91 255 255 255 255 255 255 253 225 253
255 255 255 255 255 255 176 142 174 110 79 111 59 38 67
49 27 69 66 37 82 32 17 66 49 33 121 174 141 255
251 205 255 236 180 255 178 122 255 127 71 222 78 24 173
53 52 137 76 101 119 50 104 68 62 113 44 61 106 56
30 77 78 58 65 125 87 68 166 122 96 207 148 115 235
138 93 230 128 75 215 121 69 202 118 68 206 133 81 219
97 42 184 56 8 142 37 11 114 34 10 106 30 13 98
10 17 79 4 21 62 24 28 39 41 34 14 52 39 5
63 40 13 98 47 30 139 65 61 119 24 20 124 20 28
251 107 109 255 191 201 255 184 194 211 120 125 74 27 31
84 68 66 64 65 62 135 107 108 148 121 130 51 16 23
80 54 63 57 20 28 53 41 41 94 87 80 142 115 110
227 153 146 255 255 255 255 255 255 255 255 255 255 255 255
255 255 255 255 254 242 224 158 144 138 64 49 90 38 45
71 48 67 63 85 100 11 90 96 90 141 129 91 162 152
144 202 192 157 204 190 133 174 152 105 129 99 91 95 63
102 88 103 104 71 125 79 30 111 117 43 160 221 138 255
255 175 255 225 153 241 192 143 184 151 115 131 83 66 60
40 20 75 68 50 112 97 73 136 89 72 137 55 40 103
20 15 49 14 29 29 5 23 41 11 10 54 4 8 51
4 4 41 1 3 19 124 136 76 148 162 115 127 138 77
131 142 76 142 153 90 148 155 93 144 151 97 142 145 88
105 103 54 255 255 255 255 255 255 255 255 255 19 7 127
33 25 135 53 12 95 130 62 31 191 135 131 178 154 155
71 62 71 17 22 3 38 32 19 102 84 69 179 155 132
106 93 73 58 52 80 122 105 140 141 125 158 143 143 167
133 138 179 133 137 212 125 120 62 252 245 244 25 30 30
255 255 247 237 232 208 69 55 83 157 163 169 216 212 200
140 130 157 153 188 243 146 112 165 255 243 244 237 168 174
84 43 67 31 13 56 31 27 89 36 11 84 113 55 69
241 178 83 239 199 168 23 50 58 152 180 188 10 10 15
106 103 95 20 13 15 132 113 125 76 50 62 34 53 47
95 102 91 113 114 106 54 55 44 58 70 85 128 123 125
168 130 120 153 90 83 123 56 47 108 42 17 81 11 0
54 15 0 47 9 0 42 10 0 13 7 7 3 3 8
8 15 5 17 19 7 23 13 4 22 8 0 17 3 4
11 8 6 9 0 4 10 9 1 9 11 1 8 9 3
8 9 3 9 11 1 13 11 0 18 9 0 37 6 0
119 80 42 166 114 85 98 36 40 68 22 24 68 24 31
46 29 24 39 31 19 48 22 22 53 18 20 55 18 18
58 17 28 77 35 46 124 86 106 189 144 169 215 162 185
246 196 211 184 133 152 152 109 138 143 107 142 136 101 137
148 112 142 139 99 139 106 73 131 79 51 138 65 31 140
90 77 121 83 84 88 49 60 51 32 49 39 40 47 55
50 29 84 194 178 220 255 255 255 255 255 255 99 106 94
205 212 205 146 148 153 185 186 195 188 190 190 68 72 88
35 42 83 46 50 85 16 15 53 155 168 141 255 255 255
130 145 140 255 255 255 255 255 255 255 255 255 218 182 217
102 68 110 44 27 59 73 41 76 38 20 102 181 156 249
255 244 255 234 187 255 157 97 236 91 43 165 75 80 122
60 97 81 67 127 16 127 184 50 164 220 78 178 235 93
199 255 116 223 255 139 222 255 138 174 229 90 93 148 25
42 70 96 69 34 146 62 11 142 46 18 124 77 31 164
157 99 249 177 112 255 116 58 212 45 4 137 26 11 108
34 10 112 30 8 105 19 10 86 4 15 65 18 20 42
29 25 18 42 30 10 75 44 18 133 81 64 137 69 60
107 31 47 172 53 67 255 138 149 255 214 229 255 201 210
96 34 44 59 34 37 91 84 79 190 164 165 154 123 127
70 60 54 68 51 59 62 28 34 89 39 41 130 65 64
198 104 106 255 229 230 255 255 255 255 231 227 232 167 163
215 156 148 176 121 109 83 30 19 53 32 42 29 40 49
31 51 61 54 64 80 100 117 131 70 112 124 103 146 151
133 165 173 153 175 179 124 142 142 96 106 105 134 128 127
150 145 132 118 119 97 48 36 48 53 17 76 96 46 125
197 121 229 255 189 255 255 204 255 227 178 234 178 136 171
115 98 82 23 30 22 53 37 97 92 64 131 94 74 143
65 49 115 27 12 64 11 25 36 4 18 45 12 10 55
4 10 50 6 5 40 4 7 18 20 30 56 97 113 48
155 169 94 142 154 84 108 118 62 94 99 47 96 102 46
95 97 43 19 25 25 255 255 255 255 255 255 226 221 255
14 10 128 35 19 129 69 7 84 125 60 36 183 131 117
178 152 150 76 68 74 16 19 1 53 47 29 121 102 86
179 157 131 86 72 52 53 51 80 75 57 101 76 54 102
68 60 107 123 125 198 186 189 255 160 152 104 196 189 196
208 211 194 255 255 255 211 201 195 75 75 103 131 135 130
160 153 154 218 219 254 200 216 255 232 157 156 255 255 255
219 149 166 72 30 70 27 11 59 14 14 86 15 21 104
105 43 64 255 193 106 238 198 169 33 59 67 142 170 178
24 9 6 99 95 87 39 31 35 128 108 120 59 31 43
53 69 65 114 120 110 114 119 109 27 30 21 101 113 129
171 166 166 166 115 106 117 48 41 91 33 15 78 27 1
59 9 0 41 17 0 35 10 0 30 4 0 7 4 6
19 6 7 33 15 10 46 27 22 55 35 28 58 34 24
51 26 13 39 14 3 26 9 0 14 11 0 8 14 2
8 15 2 8 15 2 8 14 2 12 15 0 16 13 0
22 9 0 106 72 36 160 108 78 84 27 34 54 25 15
65 28 24 47 33 23 40 32 21 47 29 28 57 33 39
54 27 38 50 21 39 58 30 44 74 39 63 126 87 110
161 118 137 140 96 109 60 20 37 51 29 50 75 53 75
86 58 81 89 60 81 55 28 60 31 19 58 49 38 88
77 60 123 103 83 138 66 46 113 34 11 83 31 19 76
46 45 71 46 66 28 50 67 14 161 148 187 255 255 255
182 176 190 81 89 75 155 156 157 221 221 229 255 255 255
157 153 143 47 50 97 24 27 61 31 27 41 43 57 25
255 255 255 255 255 255 175 157 164 255 255 255 255 255 255
255 255 255 236 201 239 126 95 144 97 57 126 129 109 185
244 225 255 209 174 255 57 13 122 65 89 71 89 115 90
83 102 88 58 60 90 53 18 106 53 7 112 52 7 111
59 13 116 58 9 116 48 22 106 31 30 85 7 53 54
40 87 22 73 112 17 66 99 10 30 65 37 19 57 52
40 56 73 69 35 143 151 109 234 171 116 252 107 54 194
51 10 133 41 13 115 39 8 113 33 6 99 19 2 81
6 4 58 7 9 35 19 13 23 33 20 28 85 52 30
126 86 64 95 35 46 107 53 68 194 64 68 255 216 224
255 255 255 141 58 73 28 16 9 65 58 55 165 136 137
85 51 47 64 86 81 65 43 42 133 81 85 213 139 148
255 171 182 255 203 212 255 255 255 255 220 218 150 60 56
94 31 37 101 42 32 73 27 23 49 25 27 60 17 9
39 19 20 21 48 58 42 72 85 118 129 143 89 91 107
17 27 18 28 17 14 78 72 68 35 34 23 59 57 70
138 130 140 163 151 147 128 120 101 56 58 19 32 29 27
47 40 60 92 42 134 156 89 195 170 97 207 167 97 206
161 113 176 122 103 101 43 44 27 38 25 78 82 55 122
96 75 141 74 58 123 36 16 78 11 22 43 10 14 52
16 8 63 4 9 54 4 1 42 3 3 17 105 110 152
89 83 84 91 97 38 80 88 44 5 13 34 60 51 79
53 45 55 22 20 13 101 102 101 255 255 255 255 255 255
155 157 255 28 22 108 47 8 114 75 10 81 125 64 40
186 134 114 168 142 137 69 63 67 28 21 6 73 58 42
131 114 97 175 156 127 68 56 29 61 60 91 72 57 106
80 65 125 54 57 112 109 106 194 224 228 255 166 158 124
175 172 185 255 255 255 255 255 255 126 113 127 107 121 143
116 116 120 80 73 122 131 131 188 138 84 92 255 255 255
255 255 255 187 118 145 64 23 70 9 19 53 6 9 90
11 23 113 103 40 60 255 191 112 240 196 170 42 67 75
138 162 172 37 22 16 94 89 83 54 46 50 125 105 119
36 11 23 77 92 85 124 132 120 97 102 90 19 14 32
137 145 161 195 183 177 151 90 78 89 22 13 76 22 6
63 22 0 52 11 0 43 16 0 38 10 0 43 9 0
50 14 11 61 23 20 71 31 29 80 39 34 86 48 39
86 52 42 80 48 36 69 37 17 56 24 6 33 8 1
9 4 1 4 7 3 4 7 3 4 5 1 11 6 0
13 6 0 15 8 0 101 66 35 153 102 73 76 18 29
46 17 10 56 15 14 42 23 18 39 23 22 45 17 25
49 15 22 42 7 16 38 3 14 38 17 16 42 16 16
63 27 37 74 43 44 38 8 10 10 22 23 16 13 12
29 11 29 29 3 25 27 21 22 11 25 21 56 54 63
64 51 77 61 41 96 65 43 122 85 62 145 105 80 164
112 88 172 109 87 166 58 30 108 52 78 31 56 62 62
212 198 230 255 255 255 213 209 215 120 110 120 116 116 117
255 255 255 255 255 253 101 99 102 37 34 38 38 35 44
15 18 14 219 234 213 255 255 255 196 208 182 209 191 198
203 178 194 238 208 227 255 255 255 222 193 224 169 140 199
199 179 247 205 182 252 90 49 139 57 108 10 96 132 70
85 112 78 41 51 46 64 24 91 129 88 155 175 132 196
202 157 216 217 171 222 217 171 216 209 165 207 192 149 192
164 118 167 137 90 143 118 70 127 70 27 93 22 22 51
4 46 39 53 87 18 64 102 15 29 25 92 141 94 212
166 109 249 106 50 195 54 10 144 41 2 134 35 6 131
24 4 116 13 5 89 3 6 59 6 6 41 10 9 44
43 21 12 92 70 40 98 53 52 97 58 62 156 39 26
255 208 202 255 255 255 206 106 117 92 70 62 76 68 60
130 91 96 50 18 28 42 70 64 126 65 65 242 163 166
255 208 214 255 241 247 255 253 255 255 229 223 197 94 88
115 53 57 106 35 22 106 45 30 89 44 44 78 40 33
92 53 40 65 59 49 53 75 80 39 59 62 99 98 104
165 158 159 218 214 202 209 201 191 200 194 184 159 159 152
113 122 124 123 124 133 133 121 123 106 86 79 92 73 45
61 57 6 21 39 45 26 21 90 91 27 153 154 85 215
209 151 255 207 163 224 116 96 103 30 28 45 25 16 69
73 46 116 97 74 139 81 62 125 39 18 82 7 17 43
10 13 52 19 7 65 12 10 58 11 8 48 9 8 24
113 123 116 173 177 159 49 48 40 79 75 74 53 44 56
63 53 65 79 67 78 38 16 29 166 163 156 255 255 255
255 255 255 65 81 176 47 21 100 67 17 110 76 25 101
120 55 49 196 141 122 149 131 121 46 49 46 48 27 19
74 50 43 127 113 91 167 156 118 44 44 25 82 82 117
97 87 132 98 85 147 54 59 111 133 134 219 219 224 255
163 154 119 139 136 156 255 255 251 255 255 240 60 46 68
100 120 140 96 87 150 98 82 163 44 22 51 236 193 159
255 255 255 255 249 255 178 106 147 44 18 63 13 34 50
27 18 108 32 19 110 123 49 49 255 190 113 235 184 159
52 75 87 129 146 159 49 39 24 80 78 70 66 56 69
118 100 116 18 7 25 105 115 112 159 159 153 115 105 92
86 74 87 180 178 192 206 182 166 127 66 51 61 6 2
63 18 3 51 13 0 51 10 1 66 23 6 83 22 13
93 20 16 96 20 20 100 30 30 105 41 38 111 56 47
114 66 51 111 70 57 104 69 61 92 58 47 85 45 27
67 26 11 39 9 3 25 4 1 16 6 0 6 10 0
8 11 0 11 11 0 21 9 0 95 59 34 137 95 67
77 34 32 40 13 6 47 13 10 52 23 29 57 17 36
63 11 33 67 15 27 61 17 21 55 7 9 57 13 12
62 26 20 62 26 23 42 16 6 28 15 22 31 7 16
28 9 13 17 15 22 7 19 12 24 31 15 41 42 33
56 45 49 88 67 80 110 104 89 102 112 56 77 86 17
27 41 66 46 30 139 103 83 193 135 111 214 72 42 137
37 46 62 84 76 104 115 100 130 168 155 167 237 223 231
213 209 209 132 138 124 255 255 255 255 255 255 255 255 245
224 229 194 127 132 113 58 64 62 209 223 215 255 255 255
97 85 92 187 165 174 90 64 81 226 195 210 255 255 255
255 255 255 255 255 255 181 131 200 46 61 58 68 111 39
49 66 56 62 40 55 119 92 90 199 169 166 255 249 253
255 255 255 255 255 255 255 255 255 255 255 255 255 255 239
255 239 189 233 174 139 196 132 108 227 153 145 255 177 193
228 154 188 163 97 145 67 21 74 42 91 31 65 106 30
56 30 107 179 134 255 227 178 255 190 140 255 124 75 255
69 24 216 37 6 183 24 8 145 10 9 101 6 8 71
6 6 62 20 3 45 58 35 23 86 46 42 86 42 37
127 23 9 255 173 161 255 255 255 245 126 130 140 87 80
105 75 70 103 51 55 66 11 9 109 34 23 245 145 143
255 204 199 255 170 164 255 152 145 255 139 133 219 95 88
154 55 56 155 77 78 145 71 57 114 47 32 104 47 43
95 38 18 77 27 12 62 55 53 75 80 79 61 69 65
53 58 62 52 56 57 80 84 73 94 76 83 153 128 129
164 143 151 129 121 140 131 135 153 116 119 126 59 63 59
89 70 42 81 69 12 39 33 55 23 29 85 104 43 178
233 169 255 255 227 255 204 163 225 91 63 93 38 34 72
37 23 84 75 50 125 105 80 149 81 59 124 30 7 70
19 20 50 14 10 57 14 6 60 14 10 54 15 5 45
16 3 29 116 114 126 169 178 156 65 74 50 78 77 71
81 84 81 66 85 70 55 74 70 16 24 25 216 219 204
255 255 255 255 255 255 32 48 141 53 17 111 58 16 100
63 13 89 112 42 43 205 147 132 130 126 101 21 33 17
53 24 27 62 33 33 122 110 82 163 161 113 34 35 13
94 88 124 99 81 129 73 55 119 31 28 109 194 198 255
153 161 255 210 203 138 102 93 91 255 255 236 255 255 255
92 76 141 115 123 184 117 104 179 90 72 133 155 127 121
223 166 166 255 223 239 255 253 255 182 106 160 26 37 50
16 30 59 56 31 111 28 22 97 147 63 36 255 204 119
223 170 141 62 82 92 112 126 140 58 51 31 60 63 47
74 64 76 107 94 102 12 12 17 133 132 137 202 195 200
102 91 78 153 133 146 232 215 227 192 162 144 91 39 25
45 10 4 59 20 7 53 12 4 67 30 16 99 50 35
127 57 54 141 62 64 146 67 69 150 74 72 142 73 71
124 69 65 107 59 51 99 54 48 97 58 54 93 54 53
96 54 47 78 37 24 46 6 2 36 9 2 26 11 0
17 8 0 14 4 0 17 3 0 34 3 0 81 43 27
114 82 62 84 53 46 34 15 1 28 19 23 44 22 23
49 8 18 52 8 20 52 13 21 51 24 26 49 11 14
54 17 18 59 27 24 50 18 16 34 3 8 30 1 19
25 3 14 17 6 9 21 11 20 21 16 22 20 20 20
27 23 22 32 16 23 94 75 90 93 76 103 23 18 53
35 47 38 58 70 37 37 52 50 33 24 108 92 70 175
116 89 197 92 65 160 87 77 122 108 108 122 107 110 112
143 136 140 238 233 236 169 164 178 84 89 43 255 255 206
255 255 255 255 255 255 255 255 255 255 255 255 222 223 235
231 235 244 34 29 51 222 201 214 77 59 66 55 44 64
229 206 231 255 255 255 255 255 255 251 224 232 151 156 126
91 94 74 82 61 68 175 165 128 255 255 213 255 255 255
255 255 255 255 255 255 255 255 255 255 255 255 255 255 255
255 255 255 255 255 255 255 255 255 255 208 157 207 148 113
234 171 144 255 210 200 255 217 230 255 194 228 167 113 150
55 49 54 70 107 77 106 100 157 231 196 255 255 238 255
222 172 255 100 60 229 34 3 184 40 8 175 28 4 139
9 9 92 4 3 72 10 11 70 13 4 41 35 8 19
52 11 14 106 3 2 255 131 123 255 226 233 235 106 116
91 17 15 81 41 42 112 51 54 133 58 57 214 101 97
255 186 185 255 161 154 236 77 71 183 32 22 140 16 2
111 16 7 102 24 20 109 47 47 100 42 43 83 30 45
74 25 41 57 9 21 34 27 42 50 54 62 34 34 36
52 56 51 69 69 70 66 60 58 89 92 67 23 35 23
61 39 23 91 64 54 69 61 83 112 120 135 98 109 111
62 83 81 56 69 51 54 59 19 37 40 60 47 15 111
158 97 239 255 255 255 255 243 255 154 120 179 78 56 90
52 44 79 57 44 104 91 67 148 120 92 169 73 47 118
20 17 51 23 14 55 20 4 64 16 13 54 23 16 56
25 13 47 27 12 39 75 75 72 129 143 109 72 91 47
52 54 38 94 94 74 90 98 73 60 70 50 55 53 30
255 255 255 255 255 255 255 255 255 79 98 177 28 16 121
35 28 106 71 37 70 131 61 55 199 141 124 113 117 78
11 23 17 47 21 34 58 35 28 120 117 79 155 162 110
48 61 15 108 106 137 124 109 153 52 42 106 86 90 166
255 255 255 92 97 177 255 255 189 65 66 75 255 255 255
255 255 255 126 106 131 108 124 135 62 68 72 92 85 87
155 124 132 192 136 146 255 220 241 255 255 255 199 123 177
30 37 44 33 18 64 65 33 99 4 19 83 154 66 29
255 212 120 226 172 141 63 80 86 113 124 141 53 47 29
57 60 44 80 71 78 104 94 97 21 9 9 149 138 147
218 210 217 51 63 54 192 169 180 250 225 237 160 128 120
78 42 19 66 41 36 81 49 45 92 61 50 104 74 64
115 81 80 122 78 83 128 83 83 133 88 87 129 82 88
113 68 77 93 51 58 77 31 39 72 28 37 71 37 38
69 32 34 89 57 51 77 49 37 37 9 3 39 9 1
36 7 0 33 7 0 33 13 0 34 15 0 35 14 0
64 22 19 98 67 52 84 54 51 37 22 19 15 20 24
16 18 26 16 3 6 21 7 4 18 6 5 10 19 23
12 5 8 22 16 13 27 24 20 18 13 7 9 3 6
9 4 11 13 9 16 20 13 16 25 17 20 34 22 28
35 29 33 31 33 31 33 35 33 86 81 82 143 137 142
146 138 153 107 94 122 60 54 73 22 32 43 19 8 80
44 24 114 96 69 173 134 108 212 138 119 206 119 103 167
86 77 121 135 128 164 254 250 255 255 255 255 255 255 255
237 238 255 93 96 114 129 127 96 214 210 199 216 211 210
203 200 200 140 142 146 84 92 87 216 201 207 216 206 207
34 44 55 174 188 222 118 120 155 146 145 107 245 250 201
161 177 124 120 119 100 165 161 126 255 255 205 255 255 255
255 255 255 255 255 209 139 137 88 55 52 30 62 57 32
120 111 84 214 205 169 255 255 254 255 255 255 255 255 243
146 127 108 140 122 110 175 156 119 229 206 176 255 249 239
255 243 246 170 132 145 28 66 50 155 195 172 93 125 123
193 152 235 255 254 255 170 120 255 75 40 184 68 29 178
62 21 159 26 0 113 4 11 82 10 6 75 13 20 52
9 20 38 28 14 26 98 3 3 255 120 114 255 225 228
244 127 133 60 33 18 76 57 55 132 51 63 197 94 101
255 153 156 255 169 170 215 98 97 140 27 23 95 16 11
59 4 20 47 15 18 40 10 18 38 9 33 52 33 58
58 39 63 43 21 42 28 22 41 75 67 84 86 80 106
58 57 91 41 35 54 76 78 65 60 71 39 118 119 78
70 73 50 63 54 26 60 40 12 76 88 92 104 118 113
57 66 51 35 49 38 42 62 39 40 62 44 24 12 104
147 100 222 246 188 255 255 255 255 255 205 255 100 65 117
74 63 84 50 48 79 64 53 113 101 80 159 130 103 184
80 48 128 18 22 59 22 7 59 15 4 60 15 20 46
16 13 50 16 9 44 16 5 35 107 107 112 152 162 140
125 147 96 50 60 32 10 12 4 14 27 10 22 20 11
166 173 129 255 255 255 255 255 255 252 255 255 156 193 255
12 36 129 49 19 108 85 50 100 146 85 79 178 129 102
94 98 55 15 19 21 44 23 38 59 45 36 116 121 80
138 147 101 50 48 47 146 132 183 191 175 229 140 133 183
175 176 238 255 255 255 92 96 150 255 255 212 229 229 235
255 255 255 195 175 169 116 119 114 166 187 192 155 160 179
118 109 137 84 52 86 150 92 110 255 227 252 255 255 255
214 138 190 53 22 62 49 4 76 67 32 95 16 11 72
160 68 25 255 207 120 243 185 158 49 66 72 132 141 162
37 32 18 70 74 60 80 73 80 108 103 105 23 9 12
150 141 149 213 208 215 32 44 36 215 192 204 241 212 224
114 81 83 74 56 55 106 86 88 129 103 103 144 117 116
143 116 116 121 93 97 94 63 71 78 46 52 64 32 39
44 13 25 34 5 17 37 0 13 47 13 23 65 25 38
71 36 39 68 32 35 92 55 53 98 61 61 86 53 55
82 49 44 75 44 35 65 36 30 53 30 26 47 27 24
37 30 19 44 10 9 84 55 42 75 50 46 42 24 27
20 22 27 11 19 26 8 12 10 15 9 7 14 4 9
4 16 23 6 8 11 19 17 14 24 24 20 16 14 7
6 4 7 5 10 7 9 15 13 17 18 18 20 20 18
25 26 21 31 33 29 33 35 29 31 37 29 39 45 37
62 63 58 89 84 82 104 94 99 93 83 96 61 54 84
40 28 90 34 20 94 64 45 127 119 98 190 154 135 228
170 154 235 200 191 250 230 223 255 248 240 255 255 255 255
255 255 255 255 255 255 255 255 255 230 237 239 76 83 78
7 5 23 53 45 52 68 63 61 76 89 72 122 118 105
255 255 255 191 186 165 145 155 191 238 242 255 73 79 58
242 253 200 128 149 80 118 123 88 234 245 176 255 255 251
255 255 239 205 211 129 50 59 19 130 127 129 181 178 180
188 188 170 160 163 124 69 71 21 143 149 82 255 255 214
255 255 255 81 83 64 145 149 145 201 201 164 240 233 187
242 223 190 255 249 228 255 255 245 165 134 125 58 95 97
204 244 226 65 85 52 243 197 255 244 187 255 188 134 255
105 60 212 58 20 157 44 8 134 25 4 113 6 18 75
6 16 42 9 21 44 25 24 36 91 4 4 255 126 115
255 232 225 240 122 130 92 42 50 132 86 93 173 83 95
234 119 127 255 150 153 229 120 123 167 59 64 108 27 28
64 27 27 38 12 9 31 18 6 30 13 11 35 13 33
54 35 62 59 40 65 38 19 37 52 42 57 128 113 129
106 94 127 59 63 97 57 64 49 113 119 77 124 139 88
131 137 86 67 83 48 88 91 54 58 60 44 90 105 109
66 78 70 23 20 6 4 18 17 18 29 16 25 12 57
139 101 211 255 239 255 255 255 255 255 254 255 230 175 255
101 63 111 79 77 90 58 63 96 63 48 111 95 75 150
127 106 182 94 64 146 39 20 86 35 11 74 24 5 68
7 19 48 2 16 41 0 12 36 0 9 25 71 71 65
128 136 122 118 139 104 72 80 55 71 73 51 64 75 45
40 51 23 255 255 207 255 255 255 155 195 169 133 166 186
255 255 255 60 78 160 76 43 76 80 45 90 137 90 73
156 118 79 72 74 36 17 16 26 33 20 40 57 52 51
109 119 85 117 122 93 73 54 113 226 213 255 246 236 255
187 186 235 159 165 220 205 211 255 105 117 195 224 235 218
192 202 202 63 46 46 152 159 152 220 233 235 179 190 206
95 99 129 50 40 78 39 14 58 133 71 115 255 221 255
255 255 255 212 138 192 71 14 80 66 11 89 74 33 97
25 8 69 177 77 22 255 201 126 255 196 174 32 42 45
149 161 179 27 19 26 82 85 70 77 69 76 114 113 113
16 6 9 150 145 152 215 213 219 23 28 22 241 215 230
230 198 212 62 33 35 76 76 82 110 95 102 132 111 113
146 122 126 142 112 115 119 80 82 85 44 48 61 18 27
49 13 19 42 8 16 36 2 14 36 2 9 43 8 18
61 23 35 83 44 53 105 65 75 128 90 97 134 106 111
124 105 110 114 97 97 100 85 78 84 69 59 69 54 47
60 46 40 48 50 36 32 27 17 67 40 31 61 39 32
37 20 21 26 15 23 16 9 17 11 9 9 14 9 8
14 9 8 7 17 21 3 9 8 19 15 13 23 22 18
16 15 7 7 11 9 4 7 8 16 7 14 22 11 20
25 8 18 26 6 14 24 9 14 23 8 10 17 6 7
14 5 10 17 6 16 24 19 29 32 25 45 42 26 55
43 33 67 31 22 71 15 3 71 26 18 83 62 40 127
90 71 159 91 79 155 123 116 176 115 107 165 90 82 133
89 82 124 116 109 148 173 170 202 241 245 255 255 255 255
255 255 255 203 213 206 165 179 176 93 99 104 82 89 94
93 104 101 161 156 148 255 255 255 77 83 45 254 255 255
26 33 36 234 245 189 124 148 67 150 152 121 255 255 201
255 255 200 207 217 106 66 80 52 216 217 193 229 223 242
182 175 221 178 173 190 232 233 203 174 175 97 28 27 8
244 255 152 255 255 255 93 95 76 233 234 222 235 229 191
255 255 216 255 255 241 255 255 255 255 255 255 255 255 255
245 207 196 35 73 76 137 177 145 55 73 76 149 106 189
255 205 255 219 169 255 85 43 184 45 3 142 49 4 150
17 22 92 3 20 40 25 25 56 26 26 41 93 14 0
255 131 114 255 220 207 200 94 102 140 94 106 165 102 115
178 85 98 232 120 121 229 110 104 157 46 47 123 11 17
82 19 25 49 24 34 37 6 14 28 14 8 22 6 13
35 13 38 57 34 68 62 41 72 35 11 44 70 53 75
146 132 145 66 52 55 128 143 124 147 162 124 112 127 61
67 84 27 54 51 34 16 33 30 72 76 34 53 59 49
51 67 80 7 28 43 25 10 46 16 19 44 35 28 58
76 40 113 198 151 255 255 250 255 255 194 255 219 151 255
137 81 184 60 21 75 62 70 81 75 78 115 54 38 98
81 58 129 120 98 170 105 78 151 57 34 100 49 29 91
46 28 89 30 18 72 24 13 64 24 11 61 24 11 57
50 52 47 119 128 107 91 113 81 41 51 35 48 51 41
56 62 51 33 37 33 255 255 246 255 255 255 70 114 93
85 43 51 255 255 255 224 230 255 94 71 133 69 39 75
136 103 59 135 108 59 48 51 31 11 13 29 15 17 40
56 61 57 103 116 84 91 94 76 91 77 144 255 250 255
210 209 255 108 113 166 58 61 123 141 148 230 188 211 255
110 129 125 154 181 160 159 183 180 158 175 181 108 117 126
72 73 86 56 58 95 62 57 109 55 47 100 152 96 155
255 232 255 255 243 255 194 119 181 74 8 82 79 24 93
82 40 100 26 13 68 196 90 41 255 192 134 255 202 182
51 24 22 151 166 183 46 44 58 91 89 75 73 58 68
128 122 124 22 16 18 150 149 154 227 227 233 31 34 30
255 234 249 224 191 209 44 38 33 106 108 119 124 110 120
137 115 114 133 104 103 115 82 87 98 67 68 72 48 42
48 19 16 51 16 21 74 42 49 89 62 70 98 72 80
105 77 85 103 76 85 94 71 77 87 63 69 89 55 58
74 44 40 52 32 34 50 34 40 45 33 35 36 27 26
21 16 15 9 8 10 13 28 19 25 28 16 50 31 22
43 25 18 27 10 10 26 8 13 24 5 9 16 7 4
14 11 2 11 10 9 8 17 21 2 8 6 19 15 13
26 22 20 18 19 10 4 12 9 25 14 27 44 30 41
53 38 45 58 39 47 60 43 47 60 46 46 59 46 45
56 47 47 48 43 44 44 37 43 68 55 70 98 82 98
112 96 109 102 91 102 78 73 69 54 55 34 54 50 55
79 72 89 50 43 79 8 22 66 35 45 68 10 12 65
54 51 87 65 60 97 60 47 102 60 50 113 67 67 104
147 152 165 197 203 211 169 173 176 152 163 163 130 149 141
65 82 80 134 149 136 58 70 42 255 255 255 215 213 166
166 170 197 73 69 118 177 180 163 64 86 27 206 202 178
255 255 204 235 254 93 49 58 19 218 223 189 255 255 255
163 160 187 66 57 109 116 110 127 226 224 227 249 248 194
210 209 142 237 250 150 255 255 210 68 67 59 255 255 240
194 184 136 184 165 101 251 227 157 255 255 218 255 255 255
255 255 255 255 255 255 255 255 255 190 151 170 104 91 90
157 146 139 255 214 255 255 255 255 229 180 255 84 33 183
58 11 171 28 21 115 6 21 51 30 26 65 16 16 45
122 45 27 255 142 123 255 179 165 130 54 57 136 113 116
144 83 95 160 69 78 211 106 100 191 86 71 118 22 9
98 9 4 58 16 21 31 21 32 22 6 18 16 10 17
18 3 27 37 13 52 57 36 81 63 43 86 32 3 55
60 42 64 133 128 112 107 124 46 148 176 130 85 110 92
66 53 105 69 53 126 64 36 114 43 25 87 21 25 41
26 33 49 8 20 52 16 17 53 12 9 40 15 16 33
53 16 78 91 43 128 165 119 232 255 226 255 243 204 255
156 112 246 50 20 107 26 21 46 49 57 71 91 85 132
50 33 89 67 39 109 109 80 156 107 80 152 62 38 98
48 30 85 52 31 93 44 26 83 37 24 77 36 21 79
36 17 80 63 64 50 120 127 97 95 109 78 57 66 46
48 56 40 72 70 65 11 6 17 255 255 255 255 255 255
108 150 138 206 177 164 96 117 161 250 251 255 221 216 255
116 105 162 126 104 65 115 99 51 27 25 41 9 14 32
4 19 37 55 73 55 102 118 77 64 72 47 96 100 149
255 255 255 154 163 203 38 51 98 42 49 110 161 171 240
201 229 255 114 111 69 255 255 255 132 171 173 28 32 50
40 23 32 57 62 104 146 144 197 169 163 214 131 131 182
183 133 202 255 252 255 255 208 255 164 85 156 61 7 69
87 33 92 94 51 105 24 11 66 205 96 63 255 176 136
255 208 189 109 76 66 132 153 168 67 75 87 100 92 80
67 47 57 148 135 139 50 41 44 151 150 153 244 247 249
55 57 51 255 249 255 229 196 216 67 65 64 140 143 157
138 127 135 130 110 104 108 78 71 94 72 66 85 75 74
59 51 45 44 22 17 63 48 52 81 71 72 82 75 71
76 70 64 69 55 53 65 37 43 69 48 48 97 76 78
130 102 108 131 105 113 113 97 106 101 93 96 87 82 80
72 69 62 59 59 48 51 51 41 33 25 21 40 22 18
35 31 20 25 16 8 17 3 2 14 4 7 20 4 3
20 5 3 16 10 1 6 6 11 9 16 18 3 11 4
20 17 11 26 22 18 17 18 9 3 8 4 42 32 42
49 35 45 34 22 21 38 26 24 41 29 23 45 30 26
47 35 30 49 39 34 56 43 39 69 48 51 85 66 75
86 69 80 71 52 67 50 32 47 47 37 25 58 53 17
75 61 66 81 68 83 62 60 40 75 73 30 102 99 40
92 91 41 48 34 46 59 56 103 71 67 136 47 52 110
29 41 63 49 58 73 111 119 140 127 132 146 78 85 80
114 133 109 114 128 98 177 189 154 180 203 133 248 252 201
255 255 255 139 139 94 51 48 54 89 92 82 71 74 45
255 255 222 255 255 174 100 116 11 115 116 88 255 255 231
222 226 197 69 79 26 107 114 67 93 98 59 87 81 116
214 209 216 255 255 243 242 249 189 132 133 110 90 87 80
229 216 192 124 117 88 36 51 42 42 42 37 68 42 17
153 126 89 255 239 187 255 255 255 255 255 255 255 255 255
255 255 255 194 176 170 158 125 184 255 255 255 255 255 255
209 150 255 87 19 208 36 17 136 19 13 62 30 18 68
57 16 52 174 98 90 245 155 144 194 114 101 57 40 41
85 87 82 90 45 40 151 71 64 192 98 83 160 60 42
106 11 8 81 8 15 36 9 28 11 18 39 10 4 34
13 8 37 20 3 51 44 13 75 60 39 100 66 42 108
38 1 94 29 9 90 70 62 77 54 78 31 63 94 95
57 30 139 133 104 200 93 67 171 68 36 133 46 14 94
12 18 69 10 28 62 23 27 39 17 22 39 13 35 32
29 22 37 96 50 110 102 48 133 151 95 213 242 188 255
252 198 255 167 121 255 41 12 95 30 13 45 42 40 65
91 78 132 53 35 89 57 31 95 99 68 143 107 79 154
63 32 101 35 10 72 35 14 74 36 15 71 36 19 70
36 16 75 36 13 81 41 44 42 84 92 63 76 86 54
68 83 57 104 113 85 72 66 57 74 89 55 255 255 255
255 255 255 149 186 188 253 239 243 199 206 217 45 70 108
128 120 164 187 173 221 137 121 140 84 76 75 11 3 50
6 15 30 8 28 28 64 87 52 109 125 75 56 65 27
109 120 154 255 255 255 140 155 184 51 69 108 133 145 195
205 222 255 82 101 148 231 241 210 255 255 255 74 110 126
59 47 55 31 35 79 115 119 187 161 149 224 143 138 194
140 150 192 192 146 223 255 246 255 243 164 234 127 50 122
42 25 57 90 37 87 106 59 107 18 12 61 201 91 72
255 154 128 255 210 194 171 133 125 100 128 142 76 93 108
106 98 88 51 40 47 156 145 149 72 64 66 150 148 150
255 255 255 67 70 65 255 253 255 232 203 220 71 74 67
151 157 165 105 101 106 67 53 43 64 51 38 92 88 79
85 78 79 50 37 28 74 59 57 101 96 96 81 83 78
48 41 28 67 43 51 138 105 119 187 156 160 210 174 167
212 161 150 191 138 126 152 113 98 121 95 81 101 85 69
78 72 53 54 58 38 33 41 25 16 26 17 63 46 40
70 46 41 34 27 27 20 13 15 10 6 6 5 6 9
9 6 6 10 8 3 7 11 4 9 8 14 12 14 19
4 9 8 20 17 13 24 25 19 17 20 16 8 13 4
42 37 40 44 42 47 25 25 30 28 22 32 25 20 26
23 17 23 20 14 18 19 7 17 30 3 19 50 23 34
59 40 53 54 38 53 32 23 41 13 32 37 15 40 44
6 30 45 30 32 75 43 43 99 31 13 75 61 36 63
78 60 46 97 86 49 93 82 58 59 40 69 47 36 120
63 57 136 64 48 94 82 66 89 140 143 160 171 174 180
85 91 78 82 102 78 131 150 125 139 161 130 154 186 115
84 97 39 255 255 189 255 255 231 255 255 204 184 193 141
112 115 71 255 255 227 231 243 137 15 23 20 125 130 87
204 215 189 239 243 219 255 255 255 255 255 255 255 255 230
188 197 146 79 89 37 20 13 53 12 18 25 20 20 26
80 76 64 172 158 138 196 201 155 228 244 186 249 255 212
231 249 217 157 176 175 44 51 78 109 81 34 202 176 126
255 255 218 255 255 255 161 127 158 52 93 72 97 58 161
255 255 255 255 255 255 156 74 255 54 13 166 26 8 72
29 11 60 94 52 57 206 142 133 218 145 137 115 52 54
10 59 62 43 56 54 79 38 36 171 92 78 183 86 65
136 37 12 96 15 14 61 7 28 17 7 49 9 12 56
16 10 56 16 13 63 25 10 81 49 18 104 63 40 124
70 39 133 51 10 124 44 9 131 76 30 154 95 48 180
116 84 209 126 87 218 114 78 194 31 20 118 87 88 114
57 70 74 21 45 62 14 36 69 26 43 39 31 43 30
17 36 37 50 16 64 126 76 136 131 73 159 245 179 255
255 255 255 255 255 255 186 135 240 83 51 100 49 23 48
49 37 68 81 65 121 52 39 90 47 29 83 91 64 132
110 86 156 69 41 106 33 12 67 16 6 55 40 29 71
55 37 89 56 36 95 56 36 96 51 50 59 46 58 46
41 55 33 98 112 91 125 136 100 28 21 18 224 244 197
255 255 255 255 255 255 80 100 116 125 108 123 167 166 188
192 191 202 110 113 123 44 27 74 108 98 117 80 75 106
44 43 83 29 28 64 23 44 39 98 118 66 119 130 69
48 47 20 119 131 167 255 255 255 147 164 187 106 126 155
208 223 255 115 132 173 123 119 85 255 255 255 195 236 231
28 59 82 62 49 57 60 74 134 156 161 236 120 110 191
52 64 108 62 90 118 163 112 188 255 210 255 196 117 171
82 6 60 43 35 29 100 46 88 104 55 93 10 21 46
168 63 50 250 130 117 255 217 204 243 195 192 43 82 89
104 125 142 94 90 76 52 54 51 159 152 158 107 103 103
137 136 136 255 255 255 76 87 81 254 231 244 247 222 235
80 73 70 134 145 147 67 67 77 26 30 28 69 76 75
91 95 94 58 51 49 72 61 60 125 120 120 98 96 92
64 39 32 145 116 118 199 160 170 215 170 181 202 158 155
168 116 108 117 64 63 73 35 32 52 28 13 42 26 5
36 21 3 31 17 1 22 15 0 27 16 4 74 45 33
132 98 88 109 77 76 72 54 56 56 38 45 43 27 33
44 27 34 50 32 43 55 34 51 51 33 54 37 23 51
21 9 41 10 8 26 20 24 20 21 24 20 21 10 25
26 7 30 37 28 40 30 22 33 16 20 7 25 27 23
30 28 27 34 24 25 28 19 20 25 9 15 46 17 34
57 30 47 52 30 46 45 25 39 25 7 25 9 17 14
2 25 20 8 29 30 22 41 51 47 62 84 71 77 114
59 62 109 14 35 68 19 17 39 64 39 59 97 74 93
95 72 125 119 108 181 122 116 151 129 123 130 125 129 138
71 85 88 107 111 115 187 189 193 255 255 255 255 255 255
255 255 255 196 226 162 61 56 24 202 211 120 255 255 181
253 254 204 123 128 78 255 255 211 128 135 87 67 61 59
66 75 34 110 115 102 201 201 189 239 239 216 220 222 186
218 225 182 255 255 216 245 255 189 125 138 103 85 84 93
71 71 80 23 21 40 72 65 40 135 143 100 188 199 166
216 226 203 255 255 255 255 255 255 243 255 255 105 129 163
33 40 46 97 71 23 255 255 219 255 255 255 128 146 164
134 169 98 225 197 255 255 255 255 232 153 255 68 4 195
17 12 82 31 13 38 139 99 83 221 163 145 177 109 99
63 22 55 30 67 78 51 53 54 117 69 53 190 110 88
156 60 47 94 13 41 63 5 56 31 6 71 10 4 86
30 10 97 41 12 113 39 11 125 40 9 133 59 20 149
71 39 164 74 38 163 41 32 136 71 31 164 174 118 255
195 145 255 163 128 255 115 74 222 81 35 181 79 56 165
102 54 186 86 42 168 37 10 112 17 5 87 18 11 91
14 18 68 41 6 76 83 37 109 120 62 127 164 103 179
255 255 255 255 255 255 255 227 255 138 118 147 69 61 66
46 34 32 61 46 72 70 53 107 51 37 91 54 40 88
100 78 142 129 110 178 72 48 108 35 6 66 27 25 55
46 43 66 55 46 89 65 56 106 68 60 112 49 54 54
38 51 45 60 70 58 135 145 118 79 88 60 116 130 104
255 255 255 255 255 255 243 255 255 74 25 27 68 19 23
63 19 42 113 80 72 141 120 99 95 88 47 65 60 42
90 81 104 84 80 113 58 63 87 70 88 69 126 140 95
102 106 53 27 26 51 134 150 190 240 255 255 146 162 177
163 180 192 223 236 255 43 42 23 230 245 221 187 216 200
113 148 149 37 31 44 50 28 31 92 99 171 154 150 233
58 43 130 42 66 61 9 44 70 164 103 170 246 178 222
146 75 103 72 67 13 89 65 33 133 78 102 97 49 76
13 20 37 117 19 24 213 95 90 255 199 192 255 243 239
67 25 20 127 157 170 57 54 44 89 93 85 121 117 124
141 138 138 118 116 116 251 252 252 131 141 131 215 192 204
255 255 255 109 85 90 93 107 104 52 62 73 55 60 59
85 91 91 67 74 73 25 11 10 98 99 102 64 67 67
87 59 59 199 160 167 245 201 205 214 163 166 161 108 102
119 65 47 71 16 11 30 11 0 17 12 0 22 16 0
20 6 0 22 7 0 56 29 16 99 59 45 144 91 78
182 124 117 178 126 132 129 80 91 107 71 79 104 65 77
103 61 76 107 70 82 111 80 92 112 84 102 106 80 104
85 64 94 55 40 75 36 27 58 28 23 46 24 17 40
28 20 42 35 27 46 38 25 46 27 6 28 13 11 14
18 13 8 35 23 24 47 27 34 43 26 36 44 23 37
64 33 54 62 33 57 46 18 44 45 20 43 51 17 47
68 36 58 84 55 76 90 62 91 90 63 95 73 46 77
44 16 69 54 51 93 27 46 71 23 46 65 37 49 80
15 24 70 20 9 90 63 73 144 82 87 129 60 69 89
83 95 104 105 117 115 103 107 109 122 120 135 142 156 147
197 219 191 255 255 251 255 255 238 177 197 151 118 127 105
153 155 101 194 186 156 125 125 81 221 222 159 23 28 19
57 57 46 49 58 36 98 105 85 169 170 155 187 187 172
117 116 101 28 30 2 144 150 102 245 255 176 147 170 93
35 41 56 30 30 44 52 53 69 49 54 77 43 59 78
75 69 107 86 66 108 33 26 45 94 117 99 183 200 205
160 175 178 79 84 61 75 57 48 255 255 255 255 255 255
131 126 167 245 255 227 85 72 113 255 255 255 255 213 255
92 18 221 19 4 94 66 47 30 170 129 99 199 144 112
125 58 42 23 27 43 46 66 73 79 70 64 128 79 58
166 91 77 132 44 77 80 4 86 45 4 98 26 7 116
37 4 131 55 8 145 67 7 166 81 12 186 104 34 212
129 57 241 143 73 255 141 69 255 146 78 255 243 176 255
255 255 255 255 238 255 255 223 255 219 175 255 208 162 255
234 194 255 255 218 255 255 228 255 255 239 255 231 205 255
145 129 215 41 26 109 66 28 91 89 38 105 90 27 92
187 130 191 255 255 255 255 255 255 89 58 148 108 122 64
68 74 42 47 43 24 70 52 70 55 40 80 33 22 71
40 22 76 107 87 146 145 131 191 51 28 96 41 36 75
44 43 73 44 45 60 22 19 49 11 4 46 5 3 47
87 100 86 85 98 82 101 110 95 114 120 90 13 21 16
255 255 255 255 255 255 255 255 255 58 99 107 102 54 34
75 35 31 71 31 35 127 93 41 175 150 100 142 129 86
82 72 52 54 38 59 61 70 78 62 80 69 94 109 79
117 127 98 88 85 89 42 46 104 144 170 215 210 232 255
127 142 154 222 237 244 211 216 226 127 137 126 209 230 215
58 77 72 108 125 131 47 57 76 44 27 47 121 122 186
146 139 208 52 52 66 57 78 20 39 9 71 184 122 178
212 145 183 88 37 32 85 108 68 126 92 70 182 126 141
119 73 91 30 23 42 89 13 27 196 84 78 246 170 167
255 230 228 185 127 125 80 119 124 91 105 108 78 81 74
44 41 47 129 129 129 88 88 88 224 225 225 177 183 173
137 117 129 255 255 255 176 153 166 30 51 45 60 75 88
66 72 75 91 102 99 32 43 39 72 71 75 67 75 83
77 67 68 212 184 187 246 204 208 200 156 144 125 77 60
82 33 19 67 16 6 40 7 0 32 3 0 23 4 0
6 9 0 19 13 0 70 33 20 164 103 88 243 163 155
255 186 187 235 155 168 153 80 98 96 28 42 86 34 41
95 43 56 104 54 70 109 63 79 106 63 80 96 61 80
87 63 75 75 56 66 51 34 60 47 36 64 40 28 58
27 19 51 20 13 46 24 11 45 22 5 39 14 7 29
15 6 35 30 10 46 45 24 53 51 28 55 46 29 51
37 22 44 52 25 50 45 20 46 26 14 36 40 23 52
52 31 71 67 37 89 85 49 109 94 59 123 101 68 130
114 84 141 115 86 142 95 62 127 75 44 110 74 44 106
61 28 93 23 8 68 13 33 72 49 71 111 88 98 126
95 106 120 77 90 103 63 79 83 116 118 107 178 168 172
161 163 144 188 207 166 170 193 156 157 173 148 186 194 161
180 186 145 196 197 140 170 162 146 176 172 131 182 182 125
51 53 41 57 64 27 106 121 70 252 255 219 255 255 255
255 255 255 255 255 231 142 143 95 49 54 18 210 222 124
221 244 145 68 88 36 17 11 51 27 24 46 54 61 74
77 89 100 113 115 141 145 137 166 188 191 178 255 255 255
255 255 255 206 211 166 54 40 3 225 211 190 255 255 255
255 255 255 139 138 169 251 255 252 161 169 177 255 247 255
255 199 255 114 44 240 24 18 98 79 56 19 163 123 83
166 116 79 102 55 44 63 65 64 71 69 59 74 61 40
112 68 69 144 81 94 130 49 96 85 9 95 35 3 110
34 7 139 67 4 170 92 4 196 108 18 215 133 50 238
175 89 255 214 127 255 228 145 255 221 143 255 234 160 255
255 215 255 253 201 255 114 59 198 137 125 210 97 81 177
63 26 144 70 33 155 95 51 188 142 111 220 242 213 255
255 255 255 255 255 255 200 175 255 127 97 181 91 42 121
79 24 99 190 136 193 255 255 255 255 255 255 134 112 183
48 71 25 83 96 38 69 68 50 80 64 69 40 28 45
13 3 47 58 35 83 137 121 165 125 112 164 22 4 75
22 32 57 30 32 55 42 44 56 37 37 61 50 48 78
66 62 94 97 110 82 113 123 82 106 116 72 69 72 43
73 81 85 255 255 255 255 255 255 182 218 216 54 12 12
102 51 40 71 33 52 72 34 42 134 105 53 168 141 103
118 101 71 41 27 24 42 47 44 62 79 63 66 83 63
76 82 71 109 108 124 151 152 185 159 172 211 156 194 236
162 196 222 149 173 191 255 255 255 158 166 171 193 224 226
162 190 182 3 31 42 81 109 147 31 47 105 47 34 45
115 110 171 133 124 192 64 68 61 48 63 22 94 47 104
201 146 188 167 102 136 39 64 41 75 117 94 128 75 67
216 150 169 153 105 120 48 35 42 76 13 13 188 86 73
233 151 149 255 203 205 255 214 214 83 61 48 117 147 149
50 57 53 30 33 29 90 90 90 36 36 36 173 173 173
201 203 194 21 25 30 219 200 215 228 205 222 67 45 46
28 42 46 59 70 66 88 102 94 13 11 29 118 119 128
31 5 9 196 177 173 235 205 207 179 140 141 111 64 55
69 24 5 57 37 8 48 38 4 28 36 2 30 29 2
4 12 1 9 9 0 29 6 7 143 89 73 238 176 175
253 183 199 221 146 162 172 99 116 121 60 74 83 36 39
67 9 16 76 19 38 87 41 56 88 49 62 75 43 55
58 33 46 70 52 45 75 60 58 55 41 65 51 41 67
43 29 55 25 14 41 6 7 33 10 12 30 17 11 36
33 16 59 50 31 80 59 37 88 52 29 80 39 12 60
32 24 40 32 37 28 51 45 35 45 42 36 25 38 34
46 42 67 64 50 94 63 47 106 59 31 110 57 31 108
60 29 110 90 56 143 134 102 187 152 123 200 150 122 196
163 138 202 165 146 194 148 128 163 120 98 119 77 71 88
64 63 82 53 48 57 64 70 83 125 141 142 119 134 113
153 147 139 201 195 189 182 191 170 161 174 156 116 119 121
109 109 121 84 79 99 144 136 111 107 96 97 226 225 171
231 232 167 40 41 38 122 130 81 231 246 184 255 255 212
117 122 96 148 153 121 255 255 255 242 246 171 44 47 20
134 151 52 244 255 143 133 158 70 25 16 70 34 24 53
30 34 38 35 51 48 65 73 92 121 126 119 236 251 200
255 255 223 167 183 124 64 54 6 215 200 166 255 255 255
255 255 255 255 255 255 81 80 104 173 200 176 125 129 149
197 162 255 221 146 255 107 35 235 24 20 99 63 39 14
138 98 70 147 101 90 105 77 81 85 87 80 73 72 42
57 45 20 97 58 48 126 74 77 120 52 104 89 11 135
84 11 172 112 27 205 151 44 242 184 66 255 199 93 255
216 130 255 242 155 255 249 159 255 219 135 255 172 98 236
128 59 185 110 89 139 119 143 93 142 186 95 184 221 157
171 207 143 176 207 136 188 218 145 150 186 118 106 160 41
100 139 40 83 40 146 255 240 255 255 255 255 190 179 255
75 57 133 60 16 87 188 137 184 255 255 255 255 253 255
208 176 247 83 62 113 80 85 55 83 84 65 81 72 57
28 18 17 3 11 24 83 62 106 145 124 178 88 69 134
18 8 72 10 26 40 19 35 20 50 60 55 113 118 136
204 202 228 255 255 255 35 38 18 82 94 31 61 74 15
32 41 6 178 194 177 255 255 255 255 255 255 32 69 75
90 47 49 88 35 26 65 20 47 58 25 48 102 79 28
154 134 99 128 118 89 30 16 24 72 64 69 83 72 86
114 104 121 143 136 163 177 175 212 207 211 250 216 230 255
180 214 239 176 220 241 255 255 255 255 255 255 38 40 52
219 255 255 108 146 146 27 67 87 92 125 186 28 41 111
25 28 85 99 89 167 104 89 176 11 14 78 32 9 82
142 99 156 201 152 190 116 57 84 31 96 89 31 95 90
131 54 70 243 168 188 171 120 128 48 33 34 61 6 3
148 58 41 216 137 122 255 200 193 255 251 250 195 139 131
46 81 85 69 83 81 25 28 26 56 57 57 36 36 36
100 101 100 192 199 191 132 144 137 114 106 126 183 161 177
145 119 126 104 88 84 99 95 81 108 110 93 126 115 114
158 154 158 123 101 89 255 255 244 197 159 148 85 52 48
55 11 7 71 52 30 86 62 35 75 55 29 51 45 23
51 48 18 35 43 10 44 19 8 115 68 59 244 177 170
255 211 223 210 139 153 129 60 73 106 65 71 116 77 87
114 57 68 119 63 75 128 81 93 130 93 104 116 89 99
95 76 86 76 61 69 81 66 71 94 83 97 95 90 114
91 88 117 86 77 108 76 61 100 63 49 93 54 41 85
48 34 80 50 31 80 52 27 84 51 21 83 36 10 73
21 13 61 23 16 58 38 19 69 51 18 71 41 16 62
42 28 79 81 68 126 119 101 173 138 119 199 150 128 214
164 141 228 182 155 249 205 178 255 196 172 255 163 143 223
115 93 167 82 59 133 66 51 106 91 79 115 144 129 147
185 178 179 217 213 211 236 231 224 231 226 219 192 192 188
156 163 149 122 127 109 106 101 99 76 84 71 98 117 93
55 73 60 40 52 62 7 10 18 155 145 116 120 109 111
224 223 166 255 255 191 55 56 48 222 233 171 255 255 205
160 178 113 40 42 34 61 68 38 255 255 255 255 255 227
40 46 15 93 107 13 239 255 128 158 185 89 26 20 67
42 37 51 56 48 75 47 27 82 44 61 9 140 159 98
168 192 131 121 143 76 58 46 22 233 219 157 255 255 255
255 255 255 255 255 255 249 223 233 26 19 37 113 142 98
37 34 74 160 122 233 166 97 255 68 11 196 45 28 103
42 13 30 102 68 50 118 81 78 88 66 71 60 68 50
46 48 35 39 36 58 76 54 51 91 55 90 105 41 165
163 77 253 233 124 255 255 157 255 255 186 255 255 222 255
255 252 255 255 255 255 255 255 255 255 237 255 240 176 247
153 108 149 72 30 63 45 31 40 24 53 32 44 77 64
77 93 95 72 79 87 44 49 57 46 58 59 71 108 52
111 153 39 150 167 119 138 128 147 98 72 162 205 216 247
149 172 185 35 71 66 55 35 31 224 180 211 255 255 255
251 231 255 129 111 173 57 33 96 57 57 46 66 70 49
77 77 41 36 38 14 6 11 4 74 57 91 138 117 166
98 85 136 80 79 116 87 100 107 171 183 178 255 255 255
255 255 255 255 255 255 255 255 255 95 92 110 102 114 72
24 35 4 69 81 43 255 255 255 255 255 255 255 255 255
41 5 21 78 33 40 74 21 30 72 18 36 44 8 52
53 39 15 137 124 86 172 163 132 91 79 83 129 110 129
177 160 178 191 175 199 189 177 205 159 159 189 127 138 164
118 135 154 137 175 194 247 255 255 255 255 255 114 123 125
140 168 176 194 246 255 61 110 116 71 116 148 81 105 183
35 38 87 36 35 104 99 87 168 97 77 168 48 34 112
82 64 129 161 127 174 165 119 150 72 10 33 20 94 99
22 70 75 155 84 102 245 170 187 165 109 113 35 20 18
50 4 0 90 16 11 185 100 83 255 189 172 255 231 227
255 223 217 105 68 66 40 60 61 27 36 37 32 35 35
45 53 50 28 35 34 138 148 145 187 198 197 128 139 139
57 51 61 78 54 63 85 70 72 102 98 87 145 137 129
210 193 194 199 185 187 232 211 198 255 255 255 220 162 155
87 31 38 36 30 24 37 43 35 70 35 35 79 46 49
65 42 48 64 49 43 57 59 35 95 57 50 207 154 152
255 244 254 255 199 216 155 92 106 92 44 53 95 63 69
123 81 90 142 93 101 159 115 122 159 128 132 148 127 129
129 109 117 108 92 99 85 75 73 65 57 54 48 39 54
47 40 61 70 63 96 101 91 127 139 124 166 173 157 204
198 182 235 192 176 232 156 139 197 135 114 177 117 99 164
91 76 142 63 48 118 56 34 111 80 51 126 72 45 121
54 37 103 74 61 121 108 99 160 133 116 193 134 117 198
130 109 197 143 125 217 168 151 245 164 149 240 132 119 203
140 134 204 155 143 215 130 114 182 95 82 134 116 111 147
198 202 219 255 255 255 255 255 255 255 255 255 245 243 235
188 185 181 86 88 81 68 73 73 195 194 199 247 246 247
255 255 255 255 255 255 255 255 255 255 255 255 240 237 215
166 164 145 249 249 185 255 255 215 95 102 65 211 221 165
210 226 171 122 136 98 40 40 45 85 91 70 255 255 255
255 255 217 35 44 6 148 166 54 242 255 143 153 177 89
58 58 63 78 73 91 78 66 117 77 75 72 155 165 102
141 162 92 51 75 25 74 66 61 201 194 154 255 255 243
255 255 220 231 213 184 255 229 229 216 186 212 17 49 7
125 159 89 52 46 77 173 136 242 122 63 255 31 28 160
38 21 110 21 13 54 68 44 46 90 65 65 75 60 66
53 55 48 39 41 67 12 29 86 49 32 88 69 31 155
152 101 255 255 189 255 255 255 255 255 255 255 255 255 255
255 255 255 255 255 255 255 255 255 255 255 255 255 255 255
255 255 255 255 234 219 152 122 100 122 85 62 127 93 64
128 101 76 130 111 96 130 117 105 124 113 102 99 81 94
12 25 38 150 175 112 223 230 205 94 93 94 101 116 131
223 239 255 145 160 182 25 50 75 65 33 55 255 234 251
255 255 255 255 255 255 192 214 199 72 99 65 35 49 27
41 49 33 63 69 22 58 65 25 13 26 3 46 45 56
115 107 132 136 139 151 180 192 189 255 255 255 255 255 255
255 255 255 230 236 255 74 77 114 53 48 23 118 114 135
146 157 128 36 49 22 124 137 95 255 255 255 255 255 255
159 201 172 78 30 40 77 31 40 71 21 50 72 19 44
31 7 61 25 9 42 111 97 67 189 176 153 173 161 154
117 100 114 132 116 127 134 122 133 122 111 117 89 76 78
51 33 52 27 56 78 146 193 218 255 255 255 148 185 182
137 156 153 242 255 255 153 187 198 68 107 113 68 115 157
55 66 158 13 15 89 40 37 112 91 80 152 90 69 151
68 51 123 100 81 137 142 107 143 113 65 85 48 20 18
9 65 76 60 49 60 162 93 105 216 141 153 148 87 85
29 14 9 44 9 0 45 8 0 141 57 47 255 152 134
255 189 189 255 237 232 233 192 187 70 48 49 22 39 38
34 43 41 47 59 57 54 66 69 73 73 86 144 150 152
172 182 178 140 152 147 109 114 112 84 85 87 25 35 35
67 43 57 136 117 129 126 109 122 229 204 201 255 255 255
255 255 255 243 185 182 85 46 46 39 51 45 63 45 52
97 63 70 95 69 75 84 63 67 58 58 52 96 47 65
227 178 189 255 234 248 190 126 140 92 66 70 70 50 53
76 52 60 92 59 69 88 56 67 84 69 76 78 76 77
66 63 61 67 49 48 88 64 63 96 71 50 105 92 51
99 98 75 76 85 64 38 50 23 21 19 37 69 59 90
117 104 140 148 138 178 173 166 207 202 191 240 222 206 255
217 207 255 196 192 246 147 141 192 82 69 129 55 30 90
32 10 67 33 16 70 63 49 98 82 77 123 106 96 143
116 107 145 107 91 139 85 64 140 81 65 145 68 52 134
87 72 149 171 158 230 255 247 255 255 255 255 255 255 255
255 255 255 255 255 255 207 211 213 102 99 91 86 79 62
170 167 169 209 210 215 236 235 239 255 255 255 255 255 255
255 255 255 255 255 255 255 255 255 229 233 221 232 235 216
216 219 202 179 181 163 255 255 225 255 255 255 129 133 100
111 118 86 195 206 183 193 199 189 172 171 174 230 236 214
255 255 241 168 165 122 102 108 48 219 234 127 235 255 157
130 147 80 70 72 62 56 55 71 69 77 22 190 203 109
218 231 153 98 119 45 79 74 75 170 162 172 255 254 238
224 220 183 125 121 75 178 158 142 255 237 250 215 180 224
104 138 83 179 212 142 138 118 175 197 164 255 98 54 240
20 21 156 30 16 101 39 14 45 56 19 15 61 22 18
44 23 33 27 30 41 39 32 95 18 25 116 28 6 127
81 55 205 175 130 255 255 190 255 255 218 255 255 230 255
255 242 255 255 246 255 255 238 247 255 204 205 222 173 171
226 178 150 255 240 185 255 255 255 248 224 181 156 137 77
193 180 120 244 232 174 254 244 194 233 223 182 217 207 174
196 179 166 115 84 102 150 172 136 229 239 198 57 75 9
68 50 116 242 229 255 255 255 255 107 99 156 71 47 85
255 232 232 255 255 255 255 255 255 119 144 108 146 168 117
76 99 70 49 71 33 62 79 29 80 93 44 70 84 49
79 92 64 113 119 110 140 151 135 209 229 195 255 255 255
248 255 246 50 56 69 161 163 127 255 255 228 255 255 255
108 111 109 157 178 148 49 73 40 166 192 136 255 255 255
255 255 255 83 126 94 101 60 78 77 34 53 68 20 58
54 9 64 19 15 77 34 10 60 117 101 105 179 164 161
198 184 178 105 99 111 22 9 63 34 28 68 76 62 66
106 75 56 53 27 48 63 108 129 217 255 255 215 255 255
59 73 61 249 255 255 187 243 255 68 121 131 59 91 101
41 81 131 28 38 139 24 21 127 71 64 140 96 82 148
97 74 145 101 77 138 120 95 138 117 86 110 66 27 39
33 29 28 41 31 41 78 33 46 142 73 82 178 103 113
137 74 70 45 19 11 35 13 1 31 8 2 87 17 14
197 100 75 227 146 138 255 187 187 255 215 208 182 152 148
42 33 34 64 76 76 69 79 81 99 110 114 87 87 101
43 41 47 104 106 103 149 151 151 166 166 170 145 152 150
119 123 123 119 110 123 142 136 153 120 119 137 82 77 77
255 255 255 255 255 255 255 255 255 177 123 123 89 69 72
94 88 99 120 88 95 129 90 96 114 85 85 67 73 62
62 24 41 236 189 201 255 234 247 148 78 93 21 50 38
24 36 32 29 31 34 40 32 35 18 7 2 6 36 33
4 37 34 37 8 15 90 55 58 138 102 110 146 119 109
129 121 91 83 85 81 66 64 79 77 78 79 94 96 95
110 114 111 122 126 119 126 127 118 108 111 97 74 70 67
77 54 91 104 87 135 168 165 206 192 186 231 152 140 197
100 81 149 79 59 128 85 67 136 94 79 150 96 85 161
113 96 178 152 134 211 204 183 255 244 225 255 244 231 255
228 217 255 216 204 255 188 176 234 119 115 159 99 100 129
132 129 157 136 131 156 46 21 52 135 137 136 199 207 208
246 249 248 248 253 255 241 241 255 233 229 255 189 176 206
132 114 141 108 99 117 149 153 156 220 224 232 222 217 223
231 227 220 196 198 199 127 131 126 185 185 147 255 255 255
252 255 236 44 49 51 104 115 105 145 148 163 175 171 197
188 188 192 113 111 97 85 85 33 136 141 62 253 255 166
196 213 125 92 96 55 49 41 33 61 70 16 209 226 121
255 255 168 180 217 106 61 99 14 188 195 158 255 255 245
222 217 174 96 89 63 47 38 7 176 157 136 255 255 255
176 139 194 238 255 189 216 239 155 255 237 255 228 203 255
53 40 210 48 25 135 88 31 67 117 53 56 129 68 71
117 64 65 89 50 54 60 38 58 35 14 101 22 20 133
27 22 160 86 67 227 159 121 255 211 157 255 218 162 255
193 130 206 156 99 116 130 95 70 84 55 35 6 25 58
48 75 114 86 92 103 105 84 24 255 255 193 255 255 235
137 127 59 243 237 188 255 255 216 255 255 255 255 255 255
255 255 255 255 255 255 255 255 255 239 228 219 224 218 209
112 102 107 77 65 87 123 128 164 239 245 255 107 107 144
59 55 80 208 194 178 255 255 255 255 255 255 85 46 75
104 132 85 115 148 111 104 143 94 98 139 70 87 129 49
93 132 55 100 136 64 95 123 78 87 116 67 168 199 139
182 199 163 39 37 51 195 189 173 238 245 202 197 205 158
120 125 90 119 156 138 129 170 127 49 70 39 164 215 132
255 255 255 255 255 255 232 241 240 151 133 153 107 81 114
99 70 118 76 64 131 58 56 141 63 48 134 113 97 149
141 126 150 180 169 172 125 121 133 37 39 89 22 17 89
72 45 82 110 75 79 36 42 53 99 161 168 217 255 255
111 138 150 160 222 185 233 255 255 124 201 212 20 96 115
16 59 83 13 37 105 33 34 149 76 67 181 113 99 170
105 80 133 101 65 122 122 82 132 118 78 110 76 40 52
6 40 37 72 82 82 120 89 84 158 105 93 212 135 122
248 156 150 211 128 112 116 54 32 32 8 2 31 6 4
45 9 6 132 45 21 204 114 93 219 133 136 235 164 162
255 207 207 173 142 144 20 2 11 62 73 83 96 104 118
122 121 142 102 101 115 40 38 49 70 48 69 103 87 99
107 107 104 131 131 120 149 142 140 167 160 168 196 189 205
155 166 181 78 87 65 255 255 255 255 255 255 253 195 179
116 71 61 103 96 101 102 54 51 114 65 63 117 104 93
98 104 86 58 48 44 232 181 190 255 248 255 207 145 158
49 25 32 13 53 55 52 62 79 54 48 69 16 27 36
13 44 40 19 22 24 68 40 52 132 101 118 168 135 156
156 129 133 99 91 90 46 38 81 35 17 71 53 35 75
81 65 94 112 99 124 139 132 155 160 154 177 170 165 186
180 172 196 185 181 199 158 159 156 81 94 55 40 54 72
148 132 198 255 236 255 255 255 255 255 255 255 255 255 255
255 255 255 255 255 255 255 255 255 255 255 255 211 196 255
77 68 119 22 23 53 30 32 24 116 127 91 230 239 213
239 249 230 182 189 174 141 156 137 227 244 240 213 243 232
154 195 182 130 146 144 116 101 98 98 68 61 63 33 65
53 27 76 83 57 94 101 70 120 121 108 144 199 191 219
199 188 213 164 155 170 157 152 176 147 147 163 125 124 102
249 249 205 255 255 255 250 255 212 119 136 66 45 56 18
35 41 32 81 89 45 100 110 36 169 177 62 233 243 116
255 255 194 165 165 90 80 54 45 51 41 28 157 175 114
255 255 176 197 221 108 59 85 31 131 141 89 255 255 255
255 255 236 130 125 61 47 43 50 72 58 51 221 195 201
255 255 255 77 46 137 255 255 238 96 125 54 255 255 255
231 218 255 47 14 146 122 62 89 169 76 76 206 103 116
216 111 131 200 103 120 170 95 103 129 80 85 73 44 80
21 13 135 48 42 197 82 69 232 158 121 255 231 181 255
245 192 255 182 143 164 104 96 36 32 30 44 90 103 138
177 189 219 175 185 219 194 205 208 78 90 96 115 111 85
255 255 252 119 112 74 255 255 251 192 193 128 204 202 137
231 234 174 255 255 232 255 255 255 255 255 255 255 255 255
255 255 231 96 89 77 24 21 41 167 172 190 219 217 238
67 57 85 52 70 52 194 205 170 255 255 255 255 255 255
147 136 143 64 136 29 131 203 87 127 203 95 120 192 89
89 171 39 80 169 22 63 147 15 51 121 37 87 149 49
171 207 147 87 105 81 164 157 145 221 220 193 133 140 95
104 109 88 44 46 73 56 85 86 78 101 65 46 34 24
128 190 91 255 255 251 255 255 255 255 255 255 255 255 255
222 223 245 133 132 170 80 88 143 69 77 148 90 93 170
99 95 168 80 66 124 151 139 147 147 139 146 57 49 89
34 25 85 59 25 88 99 71 102 25 85 81 155 216 212
158 210 217 75 108 95 206 255 255 174 255 245 63 157 164
43 74 112 32 23 85 10 2 94 48 46 165 105 100 211
112 91 153 81 49 88 87 40 87 122 76 123 73 41 76
20 48 50 114 135 130 164 172 164 208 183 177 241 188 182
255 173 167 255 177 179 250 164 156 173 94 63 64 15 0
9 16 6 34 13 1 91 22 4 182 97 64 200 114 109
202 125 124 225 162 159 255 231 232 188 159 155 27 36 26
58 68 86 100 104 127 125 126 146 135 138 147 115 115 116
55 55 48 22 20 16 89 86 75 138 131 125 154 151 152
203 200 203 229 237 244 121 142 155 207 179 166 255 255 255
255 255 242 124 70 48 44 60 73 42 38 46 126 118 114
154 149 127 118 102 77 46 42 32 184 129 131 255 215 231
255 211 223 117 62 74 56 90 99 82 88 105 62 52 70
47 63 63 28 55 55 32 4 15 115 80 92 166 126 143
171 134 150 143 112 114 77 65 84 51 33 95 41 25 76
35 19 61 32 13 54 37 17 53 40 23 54 35 23 55
56 34 74 98 69 120 117 100 146 144 134 161 141 137 143
101 98 96 108 88 123 140 117 173 142 127 197 192 182 255
255 255 255 255 255 255 255 255 255 167 149 213 68 49 85
155 170 134 255 255 255 255 255 255 241 255 251 246 255 255
222 241 241 168 180 183 160 166 170 124 150 155 168 194 214
77 107 126 42 67 87 44 39 72 81 33 44 129 85 65
131 88 82 89 51 88 116 87 135 142 117 161 92 77 123
90 99 134 77 79 118 20 23 54 35 39 74 99 101 136
93 90 107 122 114 127 208 215 193 255 255 255 255 255 255
255 255 214 229 233 170 223 231 146 241 253 144 255 255 174
255 255 197 251 255 175 124 116 70 81 70 66 109 113 101
226 235 176 205 209 107 142 148 25 79 92 41 255 255 229
255 255 255 202 202 141 59 55 27 40 32 26 133 112 120
255 255 255 237 208 255 72 96 32 255 255 187 84 93 192
255 255 255 144 140 236 145 83 96 186 101 84 216 120 108
250 143 157 249 137 164 225 120 150 195 104 121 169 103 91
130 88 78 68 28 145 57 44 216 71 58 222 177 141 255
255 254 255 255 255 255 191 181 137 100 114 29 77 70 123
180 178 205 130 127 155 122 122 148 202 202 218 184 192 203
124 124 138 182 182 179 66 65 55 250 255 221 32 44 41
57 48 59 8 7 47 43 47 20 116 120 52 229 230 158
255 255 213 250 233 190 78 64 72 65 65 45 233 232 239
233 228 251 32 39 56 126 153 101 255 255 253 255 255 255
255 255 255 193 237 145 91 166 33 85 169 36 86 166 50
100 177 85 91 184 45 99 194 37 112 200 51 129 211 75
165 230 134 124 164 113 39 45 21 183 181 145 157 173 141
102 118 104 99 108 98 48 54 68 134 140 122 121 133 93
60 73 38 193 249 146 255 255 229 145 170 139 45 62 54
223 243 242 255 255 255 255 255 255 178 214 229 102 137 156
75 102 117 57 81 93 25 49 64 104 94 106 154 150 157
61 66 64 44 23 27 67 4 41 55 46 68 102 167 157
189 230 233 1 7 28 198 251 222 194 255 255 95 196 174
8 81 101 42 38 92 54 31 104 36 8 111 57 55 168
116 116 211 111 80 134 56 24 52 68 25 64 101 61 104
43 49 54 137 144 134 204 208 197 205 206 196 181 166 162
152 109 107 190 130 141 208 151 166 194 132 141 178 109 79
114 49 16 38 1 4 13 9 4 51 17 4 135 75 40
178 109 89 184 117 107 163 106 92 228 168 167 255 219 221
141 116 108 11 15 25 65 69 91 75 76 98 122 118 134
180 166 178 174 162 161 111 110 98 29 41 33 93 85 79
146 146 143 192 193 188 235 246 238 194 213 213 84 68 66
255 255 255 255 255 255 174 129 112 29 16 31 72 64 65
142 131 116 142 123 91 100 49 28 4 28 17 123 76 72
234 157 170 255 230 240 189 128 132 77 92 101 79 87 90
48 35 40 74 85 82 52 65 69 45 27 33 146 107 113
181 131 135 157 113 115 115 85 74 42 40 45 29 24 68
24 18 50 19 10 44 17 8 42 23 18 36 33 23 30
30 21 25 37 17 42 60 30 83 71 47 107 74 47 114
64 33 95 87 69 109 160 149 168 182 179 175 153 161 144
177 177 177 185 172 193 22 51 26 142 168 137 183 213 192
228 255 245 221 247 240 166 190 192 121 137 161 86 102 129
50 68 81 84 62 33 165 144 123 66 55 71 107 134 173
76 97 156 22 14 84 50 21 73 53 20 54 60 22 57
94 41 88 132 76 116 118 68 99 149 109 123 157 124 128
67 34 59 54 71 109 92 102 143 25 32 86 28 36 80
69 77 125 128 122 184 124 108 170 51 46 79 87 87 84
210 212 205 255 255 255 255 255 255 255 255 244 255 255 240
248 255 220 180 189 156 95 101 78 55 65 47 104 111 104
199 196 188 198 200 149 113 118 11 148 145 45 119 116 94
255 255 255 255 255 251 76 71 55 29 22 45 54 37 44
217 193 220 247 225 255 45 34 70 211 215 132 127 131 37
146 154 237 199 215 255 62 14 89 180 101 101 191 99 103
228 145 133 237 151 161 222 136 158 212 134 164 197 120 142
203 132 130 191 133 129 134 84 150 72 30 197 81 55 217
214 183 255 255 255 255 255 255 255 170 169 123 90 104 74
158 157 175 163 168 160 150 159 126 129 137 98 54 56 74
135 127 166 166 161 188 94 95 93 38 40 40 168 177 146
162 171 143 168 174 177 163 171 192 149 158 177 99 107 126
38 35 73 155 158 105 255 255 244 94 76 72 49 50 33
213 202 211 252 238 255 160 172 142 255 255 237 255 255 255
255 255 255 255 255 212 134 194 71 36 110 10 48 98 18
56 113 42 65 148 57 114 202 77 138 233 98 156 255 113
175 255 129 135 210 106 46 110 15 155 156 135 137 135 116
70 98 43 105 131 80 111 128 87 67 81 50 106 123 104
161 162 128 38 63 29 255 255 255 255 255 255 255 255 255
255 255 255 238 192 209 72 90 84 218 255 254 255 255 255
218 255 255 130 181 168 69 119 102 66 119 100 103 151 139
162 204 196 88 155 126 67 101 96 59 41 53 51 117 84
188 242 223 87 112 116 189 220 189 200 255 233 73 163 127
16 80 66 54 17 46 44 39 86 68 48 129 70 46 147
64 60 165 105 100 191 119 87 140 53 10 44 41 1 34
74 52 72 148 145 136 236 230 222 232 222 217 173 162 162
89 70 73 191 160 169 244 206 213 143 98 106 138 74 87
201 140 124 167 103 69 91 36 20 59 19 14 50 11 13
72 33 12 131 85 61 153 98 85 151 92 81 156 94 89
211 155 149 238 202 191 144 123 110 29 20 43 31 31 57
34 30 54 77 65 80 159 145 147 198 193 184 126 136 132
28 22 27 102 102 95 151 153 146 205 217 208 209 226 219
85 96 92 200 178 168 255 243 235 236 199 190 157 122 120
142 103 103 171 142 129 142 106 74 91 21 10 21 24 6
65 30 34 177 110 118 255 220 227 224 160 162 64 57 62
79 86 87 48 30 31 86 91 89 59 68 70 51 28 28
156 116 117 184 135 133 146 101 98 91 63 48 26 18 21
9 10 55 9 8 37 10 6 35 18 14 42 28 24 40
40 20 35 31 15 27 28 9 31 30 6 48 70 45 106
94 68 140 57 28 93 58 33 80 102 82 114 127 109 129
199 181 203 252 226 240 72 96 92 247 255 255 255 255 255
179 213 216 122 150 165 62 85 113 20 23 46 76 47 47
98 70 64 126 101 54 189 164 108 131 105 42 60 67 106
75 94 151 31 25 96 40 23 87 39 22 103 18 14 106
28 28 118 78 48 129 108 64 122 103 47 79 167 119 119
180 140 130 84 44 64 25 45 115 67 102 169 74 96 160
82 95 147 80 89 141 141 136 217 196 184 255 114 108 151
24 27 24 72 75 47 54 56 50 130 132 150 149 152 168
118 123 132 90 93 103 31 41 49 26 29 24 25 33 21
142 143 136 233 233 220 118 128 81 71 92 59 133 140 44
177 177 163 255 255 255 178 180 144 37 24 47 47 36 60
105 89 114 209 190 223 125 114 139 178 174 118 127 117 53
61 77 147 162 184 246 74 76 129 146 83 87 161 74 99
151 62 75 194 131 104 179 118 116 136 69 76 161 103 119
191 124 142 226 148 168 241 165 173 199 135 140 112 49 172
126 84 236 255 244 255 255 255 255 255 255 255 143 140 89
88 101 82 184 192 184 255 255 235 255 255 255 255 255 226
200 217 162 107 117 66 33 30 65 36 32 62 10 10 16
78 80 67 118 124 118 150 154 167 149 155 165 169 181 164
160 167 157 69 67 86 169 171 110 255 255 223 75 61 63
17 16 12 144 127 137 226 215 203 255 255 255 255 255 255
255 255 255 255 255 224 161 218 98 49 112 16 14 77 0
44 90 16 45 113 34 63 143 49 87 166 71 74 146 63
43 102 33 6 58 5 11 54 27 87 133 52 163 205 133
96 134 54 95 118 61 138 163 96 160 179 119 151 169 106
99 91 97 179 175 144 55 73 43 255 255 255 255 255 255
189 200 182 255 255 255 255 255 255 255 255 255 190 146 159
27 67 57 193 237 229 255 255 255 255 255 255 255 255 255
255 255 255 241 255 255 172 252 217 182 238 223 157 211 197
183 255 221 174 236 204 108 142 114 250 255 255 89 186 142
47 62 26 65 23 23 45 10 40 24 18 95 84 65 155
101 81 179 61 56 156 76 68 156 115 83 133 60 23 46
43 48 28 126 131 111 234 230 215 238 226 222 152 137 136
49 30 36 145 141 148 255 255 255 185 160 158 78 59 61
185 143 154 255 198 201 229 166 146 126 72 56 49 19 15
40 16 20 44 20 34 83 46 57 108 63 77 134 80 83
137 80 71 136 81 59 202 160 138 225 195 176 129 113 91
16 9 24 16 18 45 10 17 19 66 58 66 183 176 171
197 204 205 102 106 111 80 80 76 102 102 96 145 154 151
180 197 191 105 119 118 86 72 61 180 149 147 255 255 255
255 255 255 255 255 255 255 255 255 244 194 171 118 40 36
30 18 1 24 17 9 126 61 58 255 197 195 238 181 188
45 18 22 68 81 85 29 10 11 89 85 85 77 77 78
77 54 48 162 124 113 174 131 123 126 85 83 69 45 37
30 20 35 14 13 49 9 9 35 10 8 28 22 15 37
33 23 38 36 20 34 26 15 32 31 10 39 22 12 38
52 24 90 88 60 137 57 30 104 40 13 68 55 30 72
144 118 153 255 255 255 157 122 135 184 207 204 191 210 211
82 107 114 34 58 74 43 61 94 64 77 119 56 63 111
67 57 96 96 78 100 88 78 103 42 47 122 80 98 185
108 122 201 39 57 151 6 20 134 22 34 149 39 37 140
25 22 124 33 27 118 69 45 121 77 43 113 65 9 82
152 99 101 198 148 117 146 100 35 85 44 45 9 35 113
34 67 132 15 42 105 47 35 93 63 54 133 111 104 191
166 157 206 109 104 136 89 101 65 192 204 162 150 160 126
48 54 27 43 42 53 25 22 44 39 39 43 28 29 30
18 21 32 130 133 132 217 221 219 184 190 190 187 201 171
187 198 150 255 255 255 255 255 255 85 88 65 4 7 25
21 23 32 76 65 88 119 106 103 187 177 147 93 76 77
72 96 155 127 158 218 56 82 134 121 63 64 172 104 103
148 65 128 126 46 84 142 105 61 137 122 109 61 51 37
76 26 36 137 79 95 196 124 147 249 171 174 255 182 165
175 96 183 173 122 255 255 255 255 255 255 255 236 231 191
65 61 14 25 24 24 55 65 63 128 145 119 157 174 138
199 216 163 247 255 204 255 255 204 119 127 95 52 48 82
25 24 25 17 14 30 18 11 49 69 60 109 48 57 5
246 245 206 226 222 198 43 29 25 212 209 160 188 185 165
102 108 65 174 181 130 248 252 201 255 255 255 255 255 255
255 255 255 255 255 221 167 223 112 55 108 20 0 37 7
11 42 6 31 70 7 44 92 20 45 87 22 16 36 10
67 86 42 151 179 123 191 212 162 169 170 153 53 56 56
117 144 96 180 198 147 186 196 139 208 221 145 253 255 184
255 255 211 99 103 100 165 169 134 118 139 100 255 255 255
255 255 255 148 160 141 178 156 172 255 244 255 255 255 255
255 255 255 236 200 201 82 64 46 95 120 108 167 196 180
202 242 222 189 242 217 124 179 149 61 117 82 112 150 132
178 228 203 170 255 198 23 77 49 237 255 254 195 255 247
4 117 67 47 53 24 27 41 49 29 49 86 57 53 125
83 68 160 94 81 175 43 35 130 55 39 116 108 74 121
68 38 62 64 82 55 181 201 171 225 231 208 130 122 114
32 28 43 128 137 150 242 247 254 216 206 210 60 27 28
198 201 201 197 154 166 255 204 213 255 196 188 188 132 114
77 49 37 44 21 39 56 31 58 76 55 87 80 58 89
76 29 39 138 85 64 128 75 47 122 75 48 193 160 129
194 172 145 85 73 49 34 50 60 33 46 59 10 21 37
88 83 81 176 183 187 119 124 133 40 40 42 66 66 58
101 105 101 136 149 145 113 130 129 47 71 77 126 111 126
255 232 243 255 255 255 255 255 255 255 255 255 255 255 255
191 99 92 58 16 0 20 21 0 101 37 24 255 184 173
247 196 205 45 12 6 62 78 82 20 20 20 69 61 63
92 87 85 116 97 82 167 136 115 154 119 102 99 62 60
48 26 20 23 14 35 18 15 48 17 15 38 16 13 31
26 14 35 32 19 31 29 20 24 23 15 28 31 8 41
35 9 56 60 40 100 70 42 119 47 23 100 38 20 70
80 56 104 255 247 255 255 252 255 79 105 103 246 255 255
107 113 127 70 74 100 89 93 133 98 102 153 97 98 149
107 103 158 116 112 176 138 132 204 163 164 255 208 212 255
187 194 255 126 132 242 83 87 203 68 69 186 47 50 161
31 31 126 20 15 105 30 16 97 60 36 99 59 22 86
55 17 57 127 72 21 230 173 109 255 213 140 225 182 95
143 101 15 62 18 59 60 54 107 96 85 137 137 127 169
192 197 202 170 179 164 95 95 108 75 63 123 10 13 55
137 143 99 231 238 191 215 221 177 111 119 78 33 40 14
17 15 39 31 23 59 102 97 123 198 194 216 229 225 246
255 255 255 255 255 255 255 255 255 138 153 129 85 75 96
127 113 120 109 99 99 65 50 67 67 48 11 59 47 96
149 164 229 84 118 180 22 29 87 125 69 52 168 112 83
144 83 70 126 64 126 111 55 117 97 58 22 119 103 92
86 77 67 62 35 47 90 45 78 134 77 110 206 140 140
255 194 179 227 147 204 188 136 252 255 255 255 255 255 255
159 173 123 25 23 49 119 116 117 195 189 186 255 248 226
206 193 182 66 64 66 109 119 69 240 250 177 184 196 131
47 52 50 17 17 15 22 20 33 36 35 65 82 81 96
204 202 162 255 255 255 141 135 122 168 149 129 236 217 204
25 38 17 227 243 166 255 255 210 255 255 215 255 255 215
237 255 185 186 213 137 164 212 112 78 148 46 9 48 9
9 2 15 6 20 17 6 25 6 8 22 2 12 9 1
36 92 16 146 210 104 199 241 173 162 201 135 172 198 159
184 200 180 134 153 134 68 89 74 17 36 35 27 26 1
70 65 37 99 92 63 106 104 108 141 139 125 191 211 172
255 255 255 255 255 255 120 127 114 134 120 132 165 149 163
209 184 191 255 247 248 255 255 255 255 255 255 255 255 255
255 255 255 241 250 255 172 175 192 147 143 165 146 153 171
116 129 132 36 76 38 40 89 53 120 143 119 255 255 255
106 228 179 43 94 44 29 63 43 12 62 82 34 47 101
33 31 101 42 26 114 91 76 143 93 77 134 80 61 117
104 72 113 68 34 66 73 101 69 202 231 197 161 173 147
32 34 48 148 158 173 210 221 232 197 202 209 56 25 27
196 195 198 198 194 197 121 65 72 209 151 154 255 179 180
255 206 192 159 130 105 46 29 55 35 24 53 53 38 69
118 107 136 132 140 170 84 105 130 70 19 14 112 59 35
156 114 81 205 177 150 181 157 139 73 58 41 28 35 45
4 20 30 23 29 32 130 137 138 140 147 157 49 50 58
65 61 54 91 91 83 106 112 108 134 144 146 158 173 182
168 188 200 128 134 143 149 120 124 255 220 212 255 255 255
255 255 255 255 204 192 137 58 49 72 24 14 121 56 40
255 201 188 240 195 201 32 18 16 64 79 83 35 37 34
34 27 27 66 59 54 117 93 76 152 119 102 120 87 71
66 35 27 31 13 15 13 5 37 13 1 45 17 4 34
20 5 34 27 13 35 32 23 34 32 27 34 30 23 38
29 15 40 51 27 79 70 44 118 44 12 95 26 21 73
48 30 82 157 133 181 255 255 255 109 70 77 252 255 255
191 191 213 83 70 103 76 60 104 78 63 120 60 42 109
66 41 100 79 52 115 96 72 146 129 110 200 157 143 250
151 139 248 125 115 223 108 99 211 95 82 195 73 58 153
36 20 104 10 2 75 9 10 60 29 14 54 54 34 61
52 27 40 76 57 25 121 97 58 178 135 79 236 179 119
255 201 129 218 171 87 122 76 13 55 39 100 56 83 154
111 147 237 155 180 248 179 180 155 178 180 106 87 92 28
59 49 120 172 166 182 237 238 185 255 255 255 255 255 245
179 186 134 120 128 78 104 112 66 87 95 54 27 34 11
46 39 76 106 111 109 125 137 105 45 30 49 190 171 187
233 212 223 165 140 145 192 186 205 89 110 140 99 139 153
109 144 181 96 106 164 133 86 103 187 133 103 189 136 97
148 96 60 88 41 54 76 25 95 71 34 103 67 42 35
114 96 82 115 92 84 88 62 72 75 41 90 78 38 101
130 85 125 209 149 155 230 160 183 183 133 215 255 255 255
255 255 255 93 126 75 101 79 112 240 226 228 255 255 255
255 255 255 255 255 255 255 255 253 50 41 57 167 182 95
219 235 140 95 106 47 16 14 22 9 9 41 30 31 37
150 145 94 255 255 216 184 177 157 65 68 42 255 240 223
131 96 119 188 202 172 248 255 171 168 195 87 110 127 53
76 80 34 59 55 50 69 97 23 92 154 62 18 82 11
17 10 23 33 49 33 49 72 43 64 88 48 68 96 39
71 133 29 117 221 60 186 255 134 138 194 127 34 104 40
46 117 20 143 209 125 228 255 212 255 255 241 255 255 239
250 255 229 234 255 220 226 253 219 100 110 102 125 124 114
243 253 229 255 255 255 255 255 255 50 60 43 45 33 49
115 99 115 205 183 193 231 207 213 208 198 211 210 222 241
255 255 255 255 255 255 255 255 255 255 255 255 213 254 255
164 199 220 191 230 238 200 255 234 130 179 136 113 128 114
246 255 255 103 233 188 59 104 65 37 78 61 34 72 94
29 22 87 34 51 57 75 71 81 118 107 133 139 123 172
129 103 161 109 81 119 61 30 61 77 110 71 196 224 187
119 136 114 102 111 124 195 208 222 176 186 199 57 53 61
183 177 176 255 255 255 138 102 105 136 100 99 111 49 55
216 140 146 255 251 245 229 194 164 38 17 30 22 23 43
74 64 95 255 255 255 255 255 255 255 255 255 148 196 228
128 71 62 164 111 87 192 155 130 216 183 167 200 170 162
99 76 70 27 29 41 44 50 58 102 107 111 192 193 205
113 119 128 67 61 56 91 89 81 83 86 83 123 127 131
203 211 224 246 255 255 175 193 202 18 44 52 137 114 97
255 255 255 255 255 255 255 255 255 244 162 152 154 92 77
178 110 98 255 228 221 207 166 173 31 51 51 78 91 93
30 29 19 6 3 20 38 19 4 101 69 56 114 83 67
73 44 25 32 6 14 18 7 29 13 9 35 4 8 37
6 10 28 13 7 32 24 18 35 34 30 41 37 31 46
37 30 50 39 33 60 51 34 91 52 22 104 34 27 70
37 41 52 81 56 118 238 218 255 255 255 255 112 124 137
255 255 255 81 64 104 46 13 65 43 15 74 47 33 90
61 37 104 83 54 112 84 50 125 94 65 154 99 72 167
64 39 146 53 29 136 78 53 157 70 50 149 49 33 127
69 55 123 62 45 97 22 23 53 36 50 30 63 63 14
85 72 42 75 55 17 73 59 33 74 71 65 63 40 46
127 71 29 216 159 94 253 194 115 222 168 95 180 127 89
125 73 74 34 85 166 197 249 255 246 255 255 88 107 191
113 95 12 243 222 171 255 255 255 189 178 147 199 194 160
194 189 178 90 84 68 68 62 35 103 96 48 153 145 92
139 133 108 81 82 115 69 80 106 165 163 149 171 151 145
139 109 107 74 42 37 99 110 120 209 211 234 137 114 148
86 37 54 125 72 74 199 142 140 224 172 160 193 146 118
131 86 64 66 34 57 45 17 69 61 20 89 38 4 94
53 35 9 128 112 93 127 104 96 84 61 73 54 32 82
38 22 98 60 42 134 111 78 141 166 119 125 147 115 170
242 255 255 224 255 241 43 76 27 172 137 176 255 255 255
220 192 199 116 111 116 255 255 240 255 255 255 129 113 117
113 132 43 253 255 156 162 170 125 78 75 91 66 64 94
87 88 54 217 217 155 193 195 152 50 59 21 241 246 178
233 204 207 37 84 24 255 255 231 155 162 114 59 50 39
141 145 94 161 170 133 116 122 121 106 130 87 99 156 81
16 78 15 39 75 44 75 111 69 95 132 76 110 159 91
106 168 84 104 199 60 132 254 76 146 231 111 85 159 81
28 119 25 40 121 41 68 142 58 91 164 78 141 204 137
190 240 191 214 255 217 221 255 227 226 255 234 158 163 151
166 167 145 255 255 248 255 255 255 255 255 255 46 53 46
28 20 38 85 64 75 168 145 154 194 175 190 172 170 194
129 157 188 99 137 171 104 132 155 142 173 187 160 205 218
101 154 171 10 81 102 40 106 119 134 223 216 200 255 238
29 43 36 213 255 233 178 255 255 39 135 100 30 82 70
36 92 109 34 47 98 34 58 42 52 53 40 31 26 86
111 90 167 159 129 194 125 102 139 52 32 56 93 124 84
174 197 161 76 95 77 117 126 140 181 190 207 118 125 137
91 81 76 255 255 255 181 179 184 154 124 118 173 156 150
10 60 54 93 14 31 255 238 240 253 206 178 104 62 42
66 26 11 71 82 115 255 255 255 255 255 255 255 255 255
255 255 255 76 138 160 125 72 45 169 122 103 178 133 122
214 182 171 191 172 172 82 56 63 32 23 32 64 74 76
222 223 233 177 185 200 23 16 20 83 72 69 59 54 55
74 75 80 186 190 200 255 255 255 200 215 229 106 117 122
62 73 69 156 134 123 255 255 255 255 255 255 255 255 255
255 255 255 255 220 227 239 199 200 108 77 82 66 86 87
80 90 85 8 8 6 6 5 24 62 38 27 102 70 62
94 70 53 58 33 16 34 22 7 33 26 13 35 34 16
26 26 34 27 24 53 48 45 69 56 53 73 42 38 59
32 23 47 31 22 50 24 11 59 23 8 64 38 25 72
32 27 66 24 9 69 191 172 228 255 255 255 106 85 86
210 216 247 186 182 234 74 43 101 88 52 118 97 61 129
88 59 129 51 21 82 64 60 44 23 25 57 33 16 100
57 31 97 44 23 87 25 22 96 25 6 91 53 40 84
27 13 80 52 33 98 93 68 120 92 64 110 80 59 93
36 37 35 71 70 35 91 79 52 56 36 6 10 35 66
25 68 107 25 42 86 117 71 35 191 133 56 231 169 102
253 195 136 255 199 137 229 160 88 84 41 88 141 189 255
226 255 255 205 199 255 255 252 233 237 200 158 68 28 63
186 180 169 198 169 123 200 159 91 174 139 81 139 110 72
112 80 17 208 194 184 174 169 185 30 51 108 206 203 221
202 204 219 77 100 126 24 67 86 87 87 96 180 146 152
255 213 221 255 222 225 226 167 154 163 110 97 103 61 98
42 30 108 32 64 143 53 77 153 42 53 130 47 42 116
30 25 89 85 69 32 146 128 107 121 100 94 76 63 70
60 59 84 47 55 94 39 46 130 43 43 153 88 74 111
91 94 143 175 222 247 167 218 201 14 49 13 220 175 207
255 255 255 161 131 130 50 67 52 255 255 231 255 255 255
141 125 124 137 157 65 255 255 225 223 228 202 127 125 144
101 97 92 194 194 127 244 248 199 60 57 58 213 233 133
246 252 179 87 71 89 142 195 120 210 226 182 111 118 66
197 197 145 227 225 192 221 222 210 178 194 168 166 194 142
126 166 104 52 108 43 64 106 63 85 115 70 60 99 27
48 111 23 62 144 51 84 196 66 91 214 67 95 168 82
84 141 88 81 157 80 104 177 99 98 160 93 71 127 70
53 102 61 49 91 63 73 106 89 106 133 120 124 151 134
159 159 158 205 205 169 255 255 255 255 255 255 255 255 255
56 62 64 30 16 40 95 65 68 121 88 90 120 93 121
135 131 171 117 132 177 77 96 141 85 85 111 100 98 111
170 171 174 142 149 160 57 30 58 66 27 47 16 111 112
149 255 227 174 235 196 65 117 83 217 255 255 87 208 179
26 75 70 11 81 100 40 71 116 18 31 66 47 37 49
39 49 111 136 122 194 175 148 209 124 102 137 12 22 16
142 168 127 172 187 153 43 41 25 118 116 135 165 167 184
68 73 82 153 149 146 252 255 255 75 76 81 212 197 189
179 161 155 34 74 75 51 28 18 255 183 190 255 192 178
230 171 164 212 153 148 96 61 84 255 255 255 255 255 255
141 116 147 255 255 255 237 255 255 97 36 43 161 109 92
133 82 79 193 158 150 237 213 213 151 122 126 79 56 58
13 23 27 192 195 203 225 230 247 71 79 89 54 38 34
50 33 35 46 36 45 160 158 167 247 250 255 165 173 193
116 115 125 126 126 137 53 61 75 136 110 103 255 255 255
255 255 255 255 255 255 255 249 255 161 128 133 26 28 30
90 106 103 69 75 64 27 28 29 22 15 24 77 52 35
100 69 55 88 64 43 57 32 23 28 3 22 8 11 40
32 34 65 82 76 108 119 116 142 122 118 139 99 95 114
59 55 77 9 13 35 32 37 28 46 52 42 37 38 53
35 11 79 44 20 94 140 116 176 255 255 255 217 206 220
137 152 164 214 213 255 126 116 190 84 65 136 78 50 119
66 34 106 50 13 82 91 90 50 90 98 26 37 68 57
30 63 72 39 50 34 33 27 53 2 28 55 25 48 25
37 46 30 14 20 44 22 11 46 54 27 72 97 65 104
129 95 133 115 86 119 54 34 68 20 26 47 38 36 64
27 34 72 25 49 86 18 52 96 38 25 71 75 37 43
97 42 46 118 62 51 141 84 37 196 117 33 212 129 41
189 117 53 245 200 200 255 255 255 191 181 236 105 158 242
185 249 255 60 123 212 141 81 12 214 160 87 191 147 106
93 43 50 53 13 79 176 148 143 255 241 200 199 166 82
186 161 143 138 117 147 93 88 137 48 24 71 106 53 19
153 99 66 174 119 97 172 123 143 109 75 133 40 51 141
78 102 198 96 120 215 97 111 207 77 82 176 71 70 157
86 74 145 79 63 102 116 97 89 155 136 131 133 110 122
96 76 102 75 76 107 81 102 102 81 105 102 45 64 127
40 38 130 14 50 151 119 171 221 157 208 208 13 58 36
212 171 182 255 255 255 194 174 177 170 176 179 255 255 255
255 255 255 71 55 67 230 248 139 255 255 255 203 205 189
75 77 71 225 223 163 255 255 248 159 164 139 139 155 93
255 255 187 174 183 108 35 85 29 173 222 147 133 151 125
56 81 35 98 103 87 92 91 100 74 77 87 111 136 78
201 225 175 132 153 111 24 65 8 63 85 56 76 100 53
44 81 7 38 89 7 55 131 30 83 189 68 85 182 75
72 133 64 93 122 100 96 134 104 115 158 119 123 169 130
102 146 116 72 106 91 62 85 85 80 99 108 103 119 134
114 126 148 153 153 153 202 205 160 255 255 255 255 255 255
255 255 255 52 57 73 30 13 29 103 71 71 93 54 79
82 58 112 96 78 139 93 72 134 97 65 111 103 81 113
94 89 127 187 187 210 163 178 205 34 51 92 54 37 72
65 47 64 34 143 144 191 255 251 116 129 123 149 232 199
182 255 255 32 121 118 39 74 81 59 99 132 48 66 127
20 11 74 26 41 111 141 121 197 167 132 197 84 54 95
67 89 59 204 225 188 189 201 171 97 91 93 165 161 178
169 169 184 40 40 47 195 191 188 242 241 243 35 27 25
231 220 212 148 128 121 95 90 91 113 79 76 225 152 157
255 195 194 255 227 217 255 245 216 223 174 138 110 150 168
255 255 255 255 255 255 255 255 255 255 255 255 148 89 95
178 118 95 119 69 61 160 122 117 225 197 191 202 176 176
136 117 117 35 24 13 134 139 147 228 228 245 135 142 156
9 10 23 46 33 32 48 36 46 151 147 157 241 238 254
132 134 153 63 59 66 104 101 112 163 160 177 140 144 154
96 91 88 149 109 106 173 139 143 119 102 103 74 66 72
85 89 95 85 93 84 39 39 25 11 21 34 19 4 18
79 55 36 95 64 44 77 48 30 43 29 37 41 48 74
65 68 100 100 94 122 122 113 137 95 86 109 42 31 56
29 30 18 50 54 31 26 39 23 10 19 34 17 19 49
47 24 80 74 46 121 148 127 192 255 255 255 255 255 255
46 62 55 255 255 255 147 145 223 74 69 160 46 35 110
34 24 71 9 16 59 45 39 51 112 94 91 77 52 91
45 29 105 31 16 87 33 13 59 37 13 53 36 12 48
35 10 46 38 9 51 40 3 49 39 6 40 36 11 33
56 19 47 102 55 89 139 97 131 150 114 154 125 102 145
82 72 111 27 22 60 32 34 38 40 44 51 42 23 40
54 27 46 47 13 66 46 8 79 53 9 77 104 39 57
154 76 18 214 132 69 250 184 164 243 230 255 111 183 255
255 255 255 204 255 255 209 255 255 175 247 255 189 243 255
164 211 255 91 148 249 95 154 255 86 139 237 100 94 158
106 59 49 95 68 88 63 37 126 89 78 171 92 96 185
58 80 163 17 58 140 11 51 137 106 110 197 140 139 239
109 119 229 112 122 235 79 82 198 54 50 164 43 36 144
56 43 141 86 61 146 129 99 162 186 155 194 237 209 237
255 220 255 247 207 255 197 157 238 112 72 181 98 68 154
91 64 169 79 46 188 58 57 210 123 161 250 154 201 237
36 80 90 129 86 80 255 237 224 255 255 255 255 255 255
255 255 255 186 171 154 102 123 47 255 255 235 255 255 255
105 105 100 150 157 124 255 255 255 255 255 209 49 73 31
255 255 232 255 255 212 179 182 129 153 186 93 194 242 137
107 142 84 59 92 45 44 54 65 72 39 111 119 82 160
71 66 83 208 221 181 151 162 133 13 25 26 62 67 60
71 95 54 48 89 30 64 108 50 92 150 76 99 177 82
83 138 74 67 94 58 94 101 98 122 127 136 118 122 135
94 105 119 91 105 117 85 99 118 76 86 125 82 89 140
80 86 143 73 78 140 144 144 138 171 181 127 255 255 255
255 255 255 255 255 255 43 50 76 34 12 52 95 60 83
85 41 97 81 53 123 100 64 135 119 75 138 125 83 131
111 79 127 87 70 130 193 174 213 203 204 242 39 80 132
28 47 95 68 31 64 63 54 67 100 182 187 210 255 249
3 42 30 192 255 255 108 199 195 59 95 103 30 82 130
66 103 168 8 42 106 31 45 111 137 111 194 152 114 186
60 34 68 106 123 94 220 244 206 161 178 145 91 81 98
207 204 221 176 174 189 12 10 16 225 219 217 231 228 232
57 50 42 225 219 212 87 74 65 118 115 116 107 82 83
158 100 103 182 116 116 196 128 117 246 173 143 255 214 179
161 109 83 85 102 143 255 255 255 255 255 255 205 181 185
105 55 48 178 111 76 139 85 77 118 71 74 170 132 129
209 181 182 181 163 163 99 85 71 64 68 81 199 200 216
181 189 205 60 71 86 30 21 10 51 45 46 142 136 146
227 222 240 130 127 145 56 50 51 82 72 75 127 114 131
169 163 178 170 183 188 180 202 201 194 206 208 157 164 168
128 128 134 112 106 110 68 62 57 14 27 21 22 33 40
40 20 7 79 52 30 85 56 34 60 34 28 28 23 43
21 25 59 18 23 51 49 35 49 55 46 56 62 70 66
89 98 84 97 103 80 72 77 45 26 34 18 20 7 55
30 19 76 63 42 108 169 148 214 255 255 255 255 251 255
28 16 33 247 255 255 235 235 255 94 86 183 61 51 159
35 20 101 47 41 80 20 15 69 37 22 73 93 69 105
103 69 132 116 82 152 120 81 145 121 79 131 123 78 123
127 77 120 131 75 119 133 75 118 133 75 113 124 66 106
110 49 91 110 47 84 133 69 106 164 102 142 183 128 168
172 124 165 133 90 134 96 62 96 74 57 78 38 34 65
2 6 50 25 25 42 38 29 51 53 40 57 67 49 41
97 65 32 132 86 47 136 78 62 96 66 122 72 121 216
141 196 255 155 195 255 20 59 153 89 108 194 74 133 241
127 166 255 52 90 199 11 38 152 65 91 201 95 136 255
88 131 251 61 100 220 62 95 218 80 97 227 108 114 246
144 151 255 165 178 255 148 165 255 96 119 241 86 91 211
156 139 248 145 131 255 120 114 248 93 84 209 76 63 181
66 51 162 58 41 139 53 33 111 47 20 81 75 56 63
112 110 92 127 121 107 141 120 138 143 107 181 177 133 233
223 182 255 203 165 255 159 121 255 123 109 255 158 172 255
166 198 255 117 152 194 36 65 81 117 69 59 160 127 151
157 142 166 99 89 96 91 115 39 255 255 204 255 255 255
179 187 156 35 37 41 255 255 235 255 255 255 156 170 97
216 244 150 255 255 255 255 255 173 122 118 120 178 194 133
194 229 129 198 239 161 255 255 227 229 255 201 140 183 112
24 52 49 75 64 87 181 184 156 131 144 109 6 36 14
61 54 60 79 81 67 62 64 41 74 87 47 101 140 75
84 146 58 61 96 48 80 82 66 121 115 123 141 135 158
118 109 144 63 51 95 47 35 75 51 48 83 37 32 95
51 44 114 47 40 113 32 26 102 125 125 99 133 148 82
255 255 255 255 255 255 255 255 255 63 58 98 49 18 72
89 49 83 79 32 98 69 30 108 87 26 97 119 55 109
135 79 129 122 78 135 95 52 121 187 142 192 229 209 255
84 107 171 24 44 111 35 41 91 73 20 45 11 76 85
180 250 239 136 159 146 100 144 141 153 240 236 48 143 159
48 107 155 51 106 164 21 57 120 48 55 127 118 85 182
120 83 163 45 28 55 111 133 102 215 244 207 130 151 116
102 91 118 236 231 249 176 172 189 27 28 18 247 241 242
199 196 201 108 102 97 205 202 194 17 13 9 108 110 116
56 36 45 87 46 47 87 30 32 96 39 40 156 92 90
213 130 116 240 163 138 235 177 147 157 113 96 79 56 64
44 38 41 51 17 4 146 87 58 147 94 87 119 68 69
136 92 91 182 150 149 200 177 180 167 151 146 64 50 44
132 132 148 199 204 218 113 126 141 8 27 30 61 67 61
131 125 128 183 180 198 131 122 141 56 37 48 60 50 41
38 28 27 69 56 69 109 106 110 139 146 141 147 142 144
122 107 115 92 77 83 71 52 58 30 15 13 17 24 37
29 24 6 78 54 37 84 53 33 82 49 21 50 23 3
23 9 24 20 17 36 30 32 27 53 50 38 60 60 58
64 67 67 63 65 61 46 48 39 15 24 37 30 17 61
42 31 75 64 52 106 122 109 167 255 255 255 255 255 255
38 54 41 255 255 255 230 227 255 144 139 209 70 55 171
39 18 137 25 18 77 49 40 79 34 14 81 51 27 97
93 61 122 129 89 153 152 108 169 159 109 164 164 107 156
169 106 145 175 104 138 176 101 133 175 99 125 176 97 120
182 102 132 186 110 146 184 109 145 185 106 147 190 111 152
197 119 155 203 123 158 192 115 152 182 118 146 176 120 147
154 104 138 120 79 121 83 50 100 51 29 89 27 26 82
11 28 59 42 49 58 63 58 58 51 40 54 20 8 85
47 52 134 86 92 165 38 41 125 45 39 107 31 36 120
58 55 163 71 71 184 37 57 159 36 27 110 119 111 165
66 64 171 25 44 179 32 45 184 40 57 195 52 65 204
75 85 227 127 130 255 176 171 255 187 178 255 150 141 255
68 53 219 160 133 255 191 169 255 124 100 241 61 48 165
19 22 103 51 66 43 117 129 53 186 193 135 248 254 206
255 255 243 255 255 255 255 255 255 255 255 226 215 244 175
178 213 118 141 175 35 87 90 114 131 94 255 180 157 255
203 197 255 190 203 255 170 201 255 140 186 211 141 175 161
151 174 135 168 193 133 214 236 155 255 255 232 255 255 255
206 214 167 31 35 23 178 180 171 255 255 255 238 249 176
83 109 33 255 255 255 255 255 255 175 184 98 102 84 133
180 179 147 100 107 46 173 184 167 251 255 241 252 255 239
228 255 210 137 171 111 118 136 80 150 155 115 87 94 61
27 25 13 52 37 46 77 75 61 73 75 58 98 98 77
119 134 97 78 121 59 35 77 20 67 78 62 114 109 122
123 111 140 86 72 116 28 12 67 16 27 37 21 31 43
17 3 78 45 33 106 39 28 101 23 10 89 90 91 53
79 96 46 255 255 255 255 255 255 255 255 255 88 70 123
60 31 69 77 37 60 68 22 81 72 14 82 82 13 70
104 35 83 127 62 108 128 74 123 106 54 111 164 108 161
231 194 252 132 140 213 47 47 122 39 58 119 28 57 94
53 52 54 90 167 165 197 249 235 43 57 44 144 221 222
138 235 253 85 162 201 40 76 124 17 52 113 74 72 151
106 74 181 93 62 147 22 3 42 108 133 101 204 232 201
111 133 102 122 106 136 247 238 255 166 162 181 59 59 47
250 249 251 149 146 154 158 153 148 175 173 165 50 48 59
91 91 103 32 44 43 75 84 74 81 85 85 99 89 100
118 89 103 114 51 68 154 63 51 220 139 115 255 199 178
206 155 134 86 56 31 51 18 3 89 49 36 128 86 77
144 98 89 131 86 80 140 106 99 177 155 150 197 184 180
142 139 129 66 58 74 171 169 182 135 144 157 42 58 59
70 78 70 109 106 101 128 123 139 120 105 126 68 50 65
30 19 13 55 56 44 64 66 55 82 86 78 83 91 80
91 67 76 82 40 59 52 21 26 37 28 24 16 29 27
10 21 37 65 53 31 108 91 73 102 79 65 102 81 66
76 67 60 54 49 52 33 30 44 14 16 19 24 13 4
19 11 16 16 18 20 11 15 24 12 9 46 44 31 82
81 68 116 105 95 140 117 105 155 154 141 191 255 253 255
115 87 105 253 255 255 212 213 242 98 88 141 89 81 163
34 21 141 14 25 95 15 24 57 37 25 66 43 11 81
64 31 98 83 46 111 105 64 124 109 61 114 106 44 89
110 41 77 118 44 76 126 49 75 134 54 72 143 58 71
151 63 75 163 76 90 178 93 115 179 94 121 167 82 110
158 72 100 157 66 95 165 77 101 172 87 111 182 106 125
201 132 145 201 136 151 180 117 142 152 95 134 128 80 130
105 67 123 77 36 108 78 40 118 84 52 134 70 44 129
60 33 115 92 76 128 86 68 129 43 24 122 51 50 123
29 4 114 97 81 158 94 69 182 110 106 217 93 82 214
149 142 243 122 112 227 95 86 221 106 98 236 111 109 247
118 118 255 127 129 255 138 136 255 147 131 255 181 157 255
215 191 255 188 158 255 156 119 255 153 135 234 103 118 93
190 214 97 255 255 184 255 255 241 255 255 255 255 255 255
255 255 255 255 255 221 214 211 161 161 162 107 154 158 103
182 199 137 254 255 196 255 255 241 255 255 197 161 178 46
113 82 255 212 191 255 194 187 255 167 180 255 167 200 235
234 255 243 255 255 255 255 255 255 255 255 255 255 255 229
183 195 158 63 73 36 89 90 89 255 255 232 255 255 229
46 56 15 255 255 203 255 255 255 255 255 255 104 103 80
129 113 151 201 194 165 49 39 28 194 190 209 116 111 125
123 134 106 173 191 154 182 206 163 212 235 183 166 191 136
77 92 49 31 26 12 45 54 39 78 98 52 72 95 35
73 88 41 98 104 85 105 121 101 86 103 84 92 105 100
116 125 136 110 105 137 70 58 110 37 24 71 43 37 51
24 17 62 27 15 90 41 29 102 34 24 93 17 10 72
70 74 39 68 71 46 255 255 255 255 255 255 255 255 255
69 50 104 59 41 46 64 28 53 60 20 75 82 23 64
88 18 59 94 24 65 113 47 79 131 73 99 122 66 103
141 81 134 203 156 220 171 166 247 86 86 160 52 64 128
29 70 124 41 51 69 46 123 125 198 255 255 90 123 104
150 214 212 197 255 255 71 178 209 55 46 90 12 45 104
84 74 159 94 70 184 82 54 146 27 16 41 97 124 93
182 209 182 104 122 100 131 110 144 234 223 247 146 141 162
87 90 77 233 232 236 84 81 91 188 188 180 142 142 135
87 84 90 92 89 98 101 103 102 114 115 113 97 98 109
74 73 87 78 45 61 75 16 35 83 7 18 124 34 29
222 144 132 245 180 166 135 97 78 28 21 13 39 29 16
91 61 51 146 103 96 139 92 89 103 56 56 116 87 83
171 158 150 186 180 169 105 96 95 109 97 114 111 116 130
56 71 70 60 72 62 87 93 82 83 84 93 78 61 84
79 64 81 69 52 60 88 79 79 97 99 89 75 87 72
67 72 63 78 51 62 72 28 45 47 7 14 33 5 8
35 21 13 63 48 42 115 102 87 129 118 98 113 93 73
105 85 69 71 68 67 51 58 72 34 38 62 24 15 28
17 5 12 10 1 12 14 16 28 39 42 54 51 51 78
60 52 99 79 73 116 81 73 119 59 47 94 168 157 199
239 220 252 87 106 100 255 255 255 115 116 157 59 51 109
37 27 115 16 35 103 7 32 97 13 13 51 25 8 49
43 13 64 51 20 72 47 16 67 44 21 51 33 21 28
33 30 12 43 24 13 57 13 20 77 6 28 98 19 36
117 32 45 130 43 55 134 50 60 130 49 63 130 48 69
126 40 64 120 29 57 115 25 53 120 38 54 131 48 64
137 55 73 150 72 87 155 91 101 151 86 98 153 85 108
157 96 127 156 99 136 152 89 139 166 104 163 195 137 202
209 156 224 209 159 226 209 167 225 175 131 198 139 102 180
114 89 158 65 19 111 112 89 140 99 61 142 102 69 168
137 99 213 185 150 252 180 140 247 161 116 241 158 128 251
145 129 250 146 135 255 139 129 255 97 86 220 52 26 168
68 60 149 78 76 162 84 97 146 82 116 24 210 238 131
255 255 212 255 255 255 255 255 255 255 255 255 255 255 218
218 203 171 160 139 108 119 97 69 84 64 31 53 53 23
95 98 89 114 117 125 65 81 72 161 178 73 255 255 240
255 255 246 145 171 20 119 86 255 199 171 255 160 146 255
117 126 183 164 152 133 178 172 137 167 186 147 158 177 134
97 114 74 39 46 42 25 38 24 136 143 124 255 255 219
198 204 150 243 245 190 255 255 255 255 255 255 178 178 122
60 51 93 126 117 136 181 168 146 139 121 160 212 200 234
54 41 76 101 105 77 104 111 92 161 173 159 255 255 248
255 255 255 190 212 179 79 105 80 66 90 55 98 119 67
81 102 36 55 81 16 46 70 20 69 81 57 78 80 75
106 105 108 158 155 170 174 163 193 119 112 155 33 28 81
29 37 37 27 26 52 15 11 76 35 32 85 30 30 69
11 21 29 34 39 18 170 154 163 255 255 255 255 255 255
251 227 255 26 20 67 34 29 39 50 17 74 57 18 77
76 25 63 85 23 64 89 25 62 103 42 61 127 70 78
123 68 91 132 65 116 151 98 166 164 157 236 121 128 213
58 55 147 24 37 120 19 42 86 69 146 152 188 255 255
41 89 68 195 254 249 171 255 255 33 153 177 44 61 99
25 48 101 66 55 138 71 57 174 89 75 170 61 53 103
60 88 60 147 172 136 106 123 100 122 102 136 197 187 210
119 114 132 106 110 101 206 202 208 31 31 32 198 200 188
104 108 98 87 88 90 82 84 84 89 91 89 64 64 65
50 47 62 13 20 25 51 10 20 81 23 33 75 5 13
85 10 10 169 78 74 251 165 156 207 149 130 85 60 40
8 15 3 42 33 18 119 89 75 159 115 109 112 51 54
71 21 24 113 89 81 166 153 139 135 124 112 61 46 51
60 61 78 49 59 67 32 43 39 74 76 70 92 90 100
58 57 71 28 36 46 8 6 5 64 64 58 71 85 65
42 70 36 40 53 32 58 29 37 59 9 25 38 8 7
34 9 10 62 47 35 100 84 69 128 112 96 119 101 75
99 71 44 69 45 26 28 24 51 39 48 76 44 41 69
34 24 37 22 20 29 20 15 9 41 39 58 44 43 76
40 41 74 31 25 75 58 50 98 70 62 110 141 130 175
255 255 255 136 127 137 255 255 255 239 245 255 67 56 113
38 23 102 24 15 93 25 16 116 24 5 114 17 3 57
26 4 51 32 4 54 20 13 42 16 32 29 18 53 24
20 60 29 25 44 20 42 28 12 65 23 17 90 22 25
112 27 35 129 42 47 142 52 55 144 48 52 130 39 47
129 42 55 139 48 64 144 47 61 139 44 56 140 46 55
146 50 60 142 50 59 138 50 63 134 58 69 132 53 68
150 65 87 175 93 119 189 112 140 197 121 155 198 122 164
193 115 165 203 124 181 216 141 198 208 138 195 187 114 184
206 141 216 245 183 255 237 170 255 209 148 241 182 128 221
180 128 229 197 148 254 190 141 250 150 110 212 80 35 156
48 14 128 10 10 100 38 39 72 96 97 31 172 181 68
247 255 149 255 255 206 255 255 225 255 255 238 255 255 226
255 255 226 255 255 220 213 220 171 139 142 108 89 92 66
68 67 50 52 48 31 45 37 18 57 34 27 62 38 37
46 28 28 76 86 53 124 137 133 68 89 101 20 35 56
179 191 87 255 255 255 255 255 234 81 109 91 178 144 255
170 142 255 57 51 192 105 63 61 140 91 3 50 33 12
4 21 16 32 44 33 48 49 46 55 58 46 135 140 122
252 250 223 255 255 251 255 255 255 255 255 255 233 222 212
30 17 41 95 108 116 96 100 81 85 62 112 192 171 255
178 162 241 84 70 138 101 96 124 74 74 139 126 137 188
211 230 250 255 255 255 255 255 255 179 201 190 61 89 63
75 83 40 79 78 41 52 70 12 65 88 39 64 85 56
27 47 35 36 36 40 105 97 116 176 158 188 188 179 209
149 145 173 92 93 111 41 46 73 18 18 78 34 25 89
31 24 70 13 13 25 29 31 35 255 255 255 255 255 255
255 255 255 156 123 188 30 3 88 28 11 88 27 3 88
49 13 85 67 24 79 73 21 68 82 25 58 101 42 59
121 67 75 122 70 88 131 66 115 118 77 137 114 117 194
126 147 238 105 106 209 46 55 148 16 60 102 62 151 160
170 255 254 9 63 37 204 255 255 130 220 239 13 123 138
23 86 106 21 58 90 33 44 117 48 44 168 72 55 191
70 48 156 22 50 80 102 128 71 77 96 41 75 54 94
159 150 175 107 105 114 117 115 118 201 196 208 55 54 53
205 213 200 86 94 79 75 84 81 47 57 54 14 23 30
22 12 8 53 44 44 57 56 48 59 46 49 85 50 63
102 44 61 126 46 67 175 66 84 255 151 152 255 179 169
153 88 71 72 21 11 26 10 8 59 54 38 157 124 109
147 82 80 74 11 7 63 32 25 101 82 69 109 95 76
77 70 59 47 46 46 22 17 25 12 12 12 71 70 67
126 118 125 66 53 69 48 36 46 50 39 40 78 74 70
83 92 76 61 84 57 48 58 37 46 23 22 53 21 23
36 18 20 40 20 30 83 68 60 120 108 81 111 94 65
83 59 34 55 35 9 24 23 18 20 34 50 35 48 63
36 34 59 24 11 42 24 23 17 43 50 46 48 47 76
27 24 77 7 16 63 6 14 56 43 34 88 151 145 198
255 255 255 181 176 194 224 224 241 255 255 255 125 114 188
34 19 84 36 12 116 47 8 127 51 22 133 30 21 98
13 5 58 17 5 46 11 6 43 3 14 30 11 21 15
11 26 2 32 24 17 70 27 37 101 34 41 144 56 58
173 68 67 184 72 62 184 70 53 174 59 46 162 50 40
161 51 41 167 57 44 171 64 49 177 70 57 180 72 64
181 72 68 181 70 71 177 72 76 175 72 79 170 62 77
161 52 77 146 39 72 144 46 77 145 59 89 151 70 102
159 76 112 165 79 120 173 84 132 186 98 150 199 113 171
214 127 196 247 163 242 255 213 255 255 234 255 255 225 255
246 192 255 200 151 255 165 128 232 84 56 171 36 59 61
147 162 52 223 224 118 255 255 160 255 255 203 255 255 248
255 255 255 255 255 255 255 255 255 255 255 218 222 227 186
158 161 138 107 100 94 70 60 69 45 38 52 30 27 39
10 12 27 13 3 15 8 27 17 3 29 19 16 3 10
12 3 27 17 6 41 48 64 22 103 127 104 86 113 109
35 64 85 31 35 70 227 252 153 255 255 255 255 255 162
90 52 230 185 155 255 126 109 255 53 36 151 155 118 65
79 48 54 40 13 57 31 29 80 64 55 95 77 65 87
121 102 114 206 180 196 253 221 252 255 222 255 174 152 195
22 47 47 88 116 85 65 87 99 55 27 139 127 102 242
154 140 255 79 62 200 99 85 176 85 74 179 27 40 186
33 52 179 89 106 183 189 210 244 228 251 255 171 196 213
87 116 114 33 60 17 74 58 57 93 85 74 90 96 76
51 68 68 60 75 77 90 94 104 93 84 113 103 87 132
96 82 136 67 54 117 45 38 103 33 26 96 36 22 93
33 18 91 30 16 71 13 12 25 73 67 76 255 255 255
255 255 255 255 255 255 103 76 152 25 11 98 38 17 84
27 4 83 39 10 79 64 27 69 68 21 54 73 18 43
91 34 50 112 61 66 118 64 74 112 56 88 117 75 126
109 99 177 108 121 216 130 139 245 82 104 196 4 62 116
41 104 132 177 255 255 85 144 112 181 215 233 198 255 255
68 170 162 2 116 105 4 85 89 18 52 105 39 35 144
69 47 171 67 41 154 14 40 92 79 106 59 64 89 30
48 29 86 150 141 172 117 116 118 135 125 143 218 208 228
80 73 69 223 229 223 97 95 96 54 49 51 57 49 47
61 49 49 60 49 43 66 54 46 60 55 50 46 42 45
63 51 61 97 70 86 130 82 106 164 85 108 249 159 166
255 183 190 214 124 125 138 77 67 86 43 33 9 23 13
116 108 89 153 99 93 104 39 36 74 31 27 78 48 44
77 53 38 74 65 56 69 70 62 59 61 53 39 41 31
77 73 73 131 123 124 80 78 76 46 61 56 42 59 52
55 53 48 77 73 60 87 100 79 60 67 47 34 10 10
47 8 13 36 6 7 46 15 10 102 78 68 143 129 109
101 86 62 43 28 9 15 17 11 16 28 26 20 35 34
24 36 44 28 31 47 20 23 38 36 36 45 46 44 65
30 17 58 25 13 55 26 12 63 12 12 52 34 22 82
255 255 255 255 255 255 207 209 211 255 255 255 196 175 247
43 20 113 33 13 99 29 16 107 9 39 95 19 43 76
17 20 62 7 4 38 6 8 25 6 12 23 3 11 22
11 7 24 21 13 25 56 19 27 107 48 55 139 66 66
157 72 67 159 67 60 153 60 46 143 45 31 123 27 17
108 21 11 113 26 16 120 29 18 118 28 17 122 29 22
129 36 30 131 38 32 131 34 34 145 54 60 166 75 87
179 82 102 178 82 106 161 71 99 149 65 95 146 70 102
146 78 109 153 89 123 170 99 140 170 95 143 160 91 141
158 92 148 146 84 146 120 62 134 103 53 125 75 30 110
37 13 82 42 68 28 132 153 53 211 225 124 255 255 176
255 255 234 255 255 255 255 255 255 255 255 242 255 255 219
255 255 197 245 238 159 173 168 106 105 97 55 57 48 26
38 31 40 38 32 43 42 20 42 43 24 51 34 23 46
27 18 39 30 24 40 13 4 15 10 25 22 0 33 25
17 0 7 12 11 27 11 14 28 29 47 12 74 101 72
105 132 127 72 101 119 47 38 94 49 64 65 255 255 255
255 255 255 107 150 41 145 119 255 170 152 255 46 30 243
116 107 133 82 58 111 65 45 128 65 44 127 51 27 101
47 34 90 77 51 106 111 73 134 124 76 154 94 52 143
38 45 91 11 56 67 59 30 143 136 88 239 192 147 255
200 176 255 121 108 255 106 82 181 108 87 168 80 58 166
28 9 156 41 6 128 86 63 133 169 167 215 202 201 255
136 140 206 74 100 126 64 99 76 25 54 31 76 65 66
126 122 121 73 76 58 63 67 67 96 84 109 121 106 136
178 163 198 180 169 207 134 126 164 84 73 125 53 38 109
39 23 94 23 8 77 23 13 61 11 13 23 63 53 65
255 255 255 255 255 255 251 221 255 57 42 121 22 28 96
22 5 72 32 14 66 42 16 46 64 29 29 68 22 33
66 16 26 83 25 31 106 51 53 112 53 59 82 17 40
105 41 93 123 95 169 106 103 195 140 148 248 102 128 217
36 57 128 56 80 116 157 242 239 184 255 227 62 94 103
224 255 255 191 255 255 91 210 195 21 135 116 7 65 75
36 44 109 78 55 148 55 33 129 29 44 71 76 99 44
64 86 34 42 19 90 149 141 178 114 110 115 151 136 157
197 183 207 84 92 71 188 191 183 100 89 97 122 109 118
110 98 102 79 68 74 54 46 50 38 29 33 32 21 28
34 27 35 49 44 51 67 57 70 76 60 79 114 82 90
214 157 166 255 195 207 255 205 215 226 163 171 161 101 94
47 1 4 75 87 66 135 100 89 116 70 60 90 51 48
84 48 50 59 37 32 40 35 30 38 44 35 43 52 42
50 52 47 88 81 85 115 101 111 90 82 87 94 95 94
118 114 115 121 110 114 88 75 75 82 88 70 62 73 50
23 9 2 43 16 11 46 17 9 59 26 18 108 81 68
143 123 112 86 76 55 21 22 12 3 14 13 2 17 20
6 24 22 16 25 31 23 26 36 20 18 36 31 19 57
47 37 78 44 37 70 49 47 56 63 55 88 49 35 83
44 26 87 255 255 255 172 161 183 255 255 255 251 243 255
66 57 108 59 45 118 50 34 114 36 32 89 17 11 78
22 6 66 13 14 55 7 11 20 2 16 7 4 14 9
9 6 10 24 7 9 35 16 21 76 33 39 128 64 66
144 71 70 116 53 42 79 29 16 63 23 7 40 14 0
40 8 7 40 3 2 44 8 7 46 4 0 50 6 0
52 13 5 62 22 13 63 25 15 59 18 6 75 17 23
103 46 54 126 73 76 143 93 94 159 110 115 168 121 131
165 122 139 156 119 138 146 112 129 128 89 107 97 56 89
46 12 68 18 46 30 79 99 29 141 149 82 186 184 116
235 224 155 255 255 213 255 255 255 255 255 255 255 255 255
255 255 255 255 255 255 255 244 186 211 179 120 151 128 67
104 96 37 65 67 36 23 26 57 13 10 72 13 11 68
12 11 47 19 15 37 15 20 53 56 58 74 84 88 98
101 110 121 94 105 115 44 53 68 16 19 36 17 29 56
13 22 62 13 9 56 4 15 59 8 6 58 13 30 56
34 70 69 83 126 130 71 111 145 53 42 120 40 28 149
164 208 83 255 255 255 255 255 255 40 13 134 182 164 255
96 74 255 55 69 129 112 102 71 112 86 108 93 58 142
92 73 180 109 100 205 114 102 203 108 93 191 113 87 192
125 88 202 143 100 215 171 126 244 200 153 255 211 166 255
194 163 255 140 133 247 88 62 156 142 110 129 116 87 107
84 51 86 48 17 76 38 9 72 65 48 116 169 170 244
202 203 255 96 99 192 33 46 97 75 82 97 89 101 107
65 65 74 69 62 78 110 111 96 123 123 109 78 64 87
89 74 113 138 132 171 92 86 135 60 63 89 45 53 75
24 20 80 25 9 81 17 1 66 20 8 56 10 6 27
42 34 46 255 255 255 255 255 255 255 227 255 38 27 104
17 23 102 13 16 90 25 6 59 44 17 25 64 29 11
64 19 22 61 16 22 82 26 31 108 49 53 112 53 63
80 13 38 93 39 81 103 81 142 100 89 172 150 143 240
123 131 225 54 66 145 30 55 109 133 210 218 193 255 255
58 128 79 102 164 178 201 255 255 188 255 255 98 233 201
22 102 88 30 47 102 64 55 142 46 31 116 44 48 74
72 92 61 58 76 56 43 21 103 144 135 185 98 89 113
137 128 141 137 128 145 115 123 107 119 121 113 54 46 51
102 95 96 85 77 80 55 49 55 34 29 35 20 13 20
21 16 26 32 29 39 47 44 57 52 48 64 44 46 56
72 69 67 160 132 137 226 189 199 255 233 240 255 255 255
255 199 191 97 38 40 50 68 44 126 101 88 122 81 70
87 50 41 84 45 43 55 24 15 25 8 10 10 9 15
11 12 16 33 35 24 78 73 72 112 95 108 113 100 108
116 106 108 124 108 112 114 103 107 84 82 86 47 54 37
47 57 35 30 24 22 50 22 19 59 20 14 73 41 30
113 85 74 131 106 101 71 60 42 16 14 5 4 16 10
4 21 15 12 24 17 14 21 22 15 19 27 19 13 33
24 7 50 31 11 68 30 20 69 44 48 46 48 44 86
64 57 109 79 59 117 255 255 255 79 70 94 255 255 255
164 156 210 18 21 74 32 25 108 44 43 103 55 58 86
48 42 90 51 36 70 35 13 34 18 14 6 4 19 7
7 13 12 22 13 18 42 18 21 52 24 30 99 51 54
140 77 75 134 69 62 102 48 30 65 25 11 48 19 4
23 13 0 25 8 6 31 6 4 34 7 6 36 3 0
46 8 0 47 13 5 53 21 12 56 23 16 46 15 14
37 2 19 40 9 20 57 21 26 67 32 35 74 37 45
71 37 52 59 28 49 43 13 40 11 12 32 37 50 14
89 91 19 128 127 58 174 169 103 227 214 150 255 255 191
255 255 213 255 255 226 255 255 222 255 255 206 255 235 186
233 181 136 167 120 75 103 60 18 51 9 30 30 14 50
32 9 45 23 21 36 11 18 37 9 13 46 8 8 56
15 12 69 24 25 75 62 58 82 209 204 236 255 255 255
255 255 255 255 255 255 255 255 255 166 173 195 37 39 71
10 21 84 25 8 76 18 21 69 13 27 71 8 16 71
1 23 68 19 61 77 68 123 129 55 113 142 12 56 119
55 68 165 45 76 128 255 255 247 255 255 255 152 179 112
187 159 255 179 146 255 44 18 200 82 92 74 161 154 68
171 152 93 131 95 145 118 91 217 133 130 255 149 151 255
166 162 255 173 156 255 170 141 255 165 133 255 149 122 239
114 93 203 70 55 157 67 11 98 155 98 62 191 147 102
143 111 62 93 62 19 55 27 26 26 9 47 32 30 99
169 170 255 227 227 255 88 95 203 40 34 75 51 46 70
66 69 93 61 63 69 22 28 23 99 92 92 167 164 154
87 85 90 102 95 124 120 115 151 51 44 93 5 20 51
22 40 44 13 22 61 26 9 77 20 8 66 21 14 57
14 13 31 80 73 85 255 255 255 255 255 255 237 207 255
61 49 125 33 34 112 30 15 76 27 2 57 39 10 30
65 27 11 62 16 17 58 15 22 76 27 31 106 49 51
110 55 68 96 39 62 106 61 96 80 70 113 67 55 127
131 110 208 137 129 227 80 92 180 35 83 151 168 238 254
129 231 207 81 163 117 80 117 64 63 160 141 207 255 255
197 255 255 47 163 150 29 52 105 28 50 133 39 39 121
48 50 96 63 78 85 50 63 75 40 18 111 135 121 189
97 84 128 101 99 101 78 83 77 138 140 132 75 75 73
86 86 92 58 61 51 31 38 32 34 35 35 42 38 42
24 17 25 11 1 16 14 22 18 27 33 38 29 28 36
25 30 38 48 57 65 104 101 108 157 136 145 223 172 185
255 255 255 255 255 255 184 113 108 13 32 14 116 94 73
135 94 84 108 64 54 103 58 55 70 34 27 35 23 22
26 41 42 41 56 55 28 38 40 27 21 15 87 75 74
110 97 95 105 94 89 81 74 68 52 55 51 49 54 62
11 3 30 34 40 36 44 40 41 67 38 35 81 39 34
97 62 54 123 91 87 117 89 86 55 40 30 9 4 15
3 13 9 7 17 9 9 18 16 9 14 15 13 11 21
19 6 31 28 9 50 30 10 65 28 20 59 35 43 35
24 14 76 51 43 102 131 111 164 255 255 255 93 91 110
255 255 255 100 90 155 15 15 78 25 10 113 16 20 84
38 48 46 10 14 52 22 13 30 36 19 15 29 22 8
13 24 16 16 15 17 35 25 28 57 35 41 67 37 47
110 64 64 137 76 64 113 54 31 84 30 7 52 11 0
37 11 0 25 9 0 23 5 3 31 3 2 31 4 3
34 7 0 46 16 0 51 20 5 52 26 7 52 24 6
41 13 8 32 17 9 31 37 7 39 49 11 49 55 12
68 65 23 85 84 44 100 108 70 118 128 84 156 163 96
209 208 118 242 230 146 253 236 174 252 233 178 253 227 170
255 218 160 242 201 143 205 163 109 152 104 58 119 72 49
91 56 64 41 42 76 14 51 86 5 48 77 5 31 58
17 21 46 26 24 51 12 19 50 3 7 46 16 16 43
10 12 46 14 13 68 27 26 85 126 126 127 255 255 255
255 255 255 255 255 255 255 255 255 255 255 255 226 227 231
56 51 40 27 30 78 40 26 57 25 22 58 20 32 59
14 27 54 13 26 50 6 56 57 54 120 115 69 140 159
37 92 133 31 54 136 52 11 160 153 206 97 255 255 255
255 255 255 91 47 184 240 194 255 159 117 255 45 34 194
97 101 69 221 210 75 255 254 133 235 198 131 117 73 122
48 29 168 49 42 179 48 43 174 55 42 178 53 42 173
33 27 149 24 16 116 61 39 79 145 84 53 226 151 100
210 160 114 138 101 51 86 50 9 49 29 35 21 28 56
8 22 90 145 148 247 242 242 255 120 132 250 30 18 88
41 27 31 9 14 41 46 45 53 78 83 77 33 22 33
148 141 138 158 160 153 150 149 161 134 130 159 54 45 94
9 10 60 18 33 40 2 18 57 30 11 82 20 14 70
23 19 56 18 15 28 167 159 172 255 255 255 255 255 255
176 149 214 73 61 137 29 26 114 34 20 64 27 7 59
37 10 34 63 25 11 60 14 15 59 15 18 72 25 26
102 48 46 106 55 66 104 57 77 125 82 111 83 65 104
47 30 90 95 68 154 121 102 201 101 106 203 98 135 211
192 255 255 44 139 138 124 132 117 179 255 194 106 113 78
133 255 204 251 255 255 123 253 237 10 95 135 13 61 132
27 51 125 34 46 103 44 56 96 39 52 92 25 8 122
116 102 191 102 92 161 62 61 72 27 40 19 134 127 132
41 38 33 122 121 123 64 69 64 9 17 16 31 35 43
65 64 78 68 60 79 42 33 50 12 13 4 40 46 43
53 54 53 53 57 61 69 81 90 72 78 82 91 74 78
137 92 104 255 245 255 255 255 255 255 213 208 75 25 30
72 68 45 130 95 82 149 93 88 149 90 87 119 67 60
78 42 27 47 42 33 40 54 55 51 66 77 59 71 81
35 44 54 1 14 20 19 13 2 13 11 22 50 52 65
67 67 90 37 35 63 35 36 35 61 43 42 85 50 49
109 65 60 129 90 85 130 97 93 97 70 65 36 23 20
11 10 22 4 8 11 6 11 11 10 11 17 11 7 15
13 9 20 19 13 31 32 24 53 41 37 70 42 42 57
20 22 51 36 25 92 61 55 109 191 172 218 255 251 255
166 164 178 255 255 255 42 35 102 4 11 76 20 7 107
9 25 77 40 48 44 15 15 47 13 6 26 31 17 21
35 29 24 18 26 23 16 16 20 44 35 44 70 55 60
81 54 64 109 66 61 118 62 37 94 32 7 67 8 0
39 9 1 37 11 3 32 12 3 20 2 0 30 2 2
30 1 1 37 15 0 47 23 1 52 25 10 51 28 11
51 21 8 37 11 6 47 30 6 54 46 19 55 58 27
76 72 37 103 93 61 125 121 93 139 143 118 151 154 125
184 175 136 213 188 150 215 178 153 205 166 142 176 140 106
148 109 71 130 81 50 109 58 43 79 27 29 68 18 31
64 29 46 46 33 61 19 35 66 12 35 59 13 28 45
13 16 32 10 19 33 17 23 54 37 36 75 46 48 83
49 51 83 43 39 76 39 33 82 42 39 95 97 99 83
255 255 247 255 255 255 255 255 255 255 255 255 255 255 255
241 237 198 59 52 22 27 29 91 33 17 62 19 13 54
13 21 48 11 22 42 16 25 40 8 52 42 47 114 103
87 165 181 41 104 146 17 28 88 44 30 115 33 82 74
255 255 255 255 255 255 168 194 110 186 140 255 206 162 255
140 116 255 49 49 186 93 88 69 231 210 100 255 255 189
249 197 142 163 116 65 132 99 41 114 84 51 99 66 68
89 61 58 94 72 31 124 102 44 155 120 50 233 155 99
255 200 152 229 174 122 153 111 54 110 81 40 83 65 41
65 55 30 46 33 40 92 88 185 201 208 255 166 180 255
42 57 155 31 17 57 39 21 25 64 50 58 88 88 89
102 110 104 33 23 47 115 115 115 191 190 198 209 201 229
92 77 130 37 36 60 30 39 34 13 14 65 34 16 89
18 12 68 20 14 51 14 10 24 217 207 221 255 255 255
255 255 255 109 85 148 53 40 119 35 31 118 19 7 77
23 14 64 40 18 29 57 23 9 52 11 12 55 14 16
68 19 21 97 44 41 101 51 63 98 58 77 125 87 114
94 73 104 40 27 70 63 44 114 92 72 164 101 98 195
127 154 239 187 252 255 48 103 125 136 105 112 138 236 190
204 255 214 63 127 69 193 255 249 208 255 255 66 181 195
20 96 142 12 60 129 15 37 111 29 37 102 36 45 99
3 11 122 88 81 185 99 97 190 47 53 106 26 37 80
132 121 155 34 40 60 110 109 108 85 92 88 34 40 51
57 59 84 85 84 108 113 104 123 107 95 114 66 57 75
32 38 46 77 82 84 93 100 103 71 81 86 49 40 44
54 27 33 75 31 42 231 158 167 255 255 255 255 255 255
177 110 108 16 17 6 95 65 49 157 96 84 181 109 106
178 106 103 160 98 89 136 87 73 108 69 49 54 27 13
28 50 74 72 93 118 78 95 118 58 69 94 54 53 84
71 69 96 56 55 85 11 3 32 68 50 28 92 58 54
108 67 66 133 89 83 149 110 106 124 94 88 74 46 45
33 17 25 26 14 26 16 11 12 11 12 11 9 9 9
8 8 4 14 13 9 19 20 17 29 33 39 37 39 60
32 29 63 41 27 88 58 48 115 111 102 156 209 194 232
115 102 119 220 214 231 208 199 252 27 22 89 22 15 90
21 12 97 13 25 70 34 39 44 25 22 37 16 7 16
25 17 25 37 35 35 22 32 28 13 16 19 55 47 58
87 74 79 93 67 73 96 53 40 91 38 11 80 20 0
55 9 0 35 21 6 45 20 10 42 23 10 24 6 6
25 2 0 17 6 0 37 20 0 54 27 6 54 29 19
50 28 16 49 22 13 37 18 14 57 36 14 65 46 23
56 36 20 75 54 36 98 75 62 114 91 82 105 92 79
97 80 61 124 82 49 124 77 38 99 57 45 87 52 47
61 24 14 50 20 25 59 39 48 65 54 68 56 55 73
42 43 63 35 37 57 31 38 55 25 36 55 31 35 55
40 38 54 44 44 55 41 40 55 43 36 57 49 44 62
54 51 65 44 45 58 27 34 52 28 35 60 43 52 81
19 29 60 144 136 95 255 255 233 255 255 255 255 255 255
218 220 158 75 75 53 13 16 87 14 23 98 22 11 64
18 13 44 8 8 34 2 3 31 12 9 29 9 45 27
41 110 98 97 184 194 53 126 158 47 60 39 22 58 52
21 51 77 166 223 113 255 255 255 255 255 255 19 67 67
199 146 255 198 162 255 139 121 255 53 50 187 94 88 109
233 203 187 221 167 157 168 98 50 177 112 33 173 108 54
158 95 52 157 97 30 185 128 54 224 164 99 245 175 116
255 194 156 255 195 163 190 134 91 122 79 33 97 74 55
84 76 63 71 59 42 51 23 43 48 35 126 116 130 252
177 197 255 110 129 233 63 65 125 81 64 78 87 72 73
78 72 76 126 125 122 149 149 151 69 68 80 121 118 134
255 255 255 162 149 192 27 33 41 45 52 36 22 19 70
30 15 82 19 9 62 23 10 48 18 9 20 196 187 201
255 255 255 255 255 255 112 84 155 36 21 106 35 31 119
7 10 92 20 8 63 42 19 23 53 23 7 46 8 9
49 11 14 66 11 18 90 41 38 93 48 59 102 66 89
123 93 128 86 63 93 36 21 48 60 47 99 92 80 151
102 105 184 134 157 241 147 195 255 35 73 112 106 79 84
39 123 116 167 239 222 192 226 211 30 55 40 229 255 255
142 253 252 21 129 147 10 68 116 14 36 107 30 26 98
43 38 92 17 19 108 58 58 164 83 82 187 49 62 133
51 64 126 136 128 185 79 82 120 76 79 84 106 112 116
70 71 92 78 72 105 74 69 99 105 97 117 138 123 144
130 117 137 86 83 97 88 97 99 102 114 114 43 47 51
25 19 21 35 11 16 51 10 19 140 68 79 255 255 255
255 255 255 255 195 198 101 39 37 45 23 8 107 63 38
151 88 78 179 106 104 199 125 118 207 140 127 200 144 125
190 145 122 157 118 95 81 42 34 13 33 61 29 52 87
25 26 77 47 38 75 30 33 41 68 52 15 106 72 49
108 68 60 117 74 70 139 95 91 148 111 111 107 76 74
49 23 26 30 23 32 25 15 26 16 13 17 11 12 16
7 9 8 6 12 4 9 20 6 10 28 13 9 31 41
12 16 66 40 28 95 61 52 112 67 55 121 166 153 207
162 154 185 69 67 60 216 214 240 128 123 181 34 30 94
37 33 100 31 33 82 25 32 67 31 36 50 35 34 31
24 20 21 25 22 31 40 42 41 28 38 33 14 14 18
68 56 68 106 88 94 101 79 72 74 38 22 64 20 1
69 20 0 50 17 0 42 25 10 56 19 13 54 30 13
33 13 11 23 7 5 8 8 3 40 24 4 59 28 17
58 29 26 51 25 18 48 16 16 37 12 17 60 32 11
67 46 21 58 32 12 79 47 31 97 61 57 104 67 66
83 59 51 72 37 17 101 42 11 108 60 27 88 69 51
71 64 53 45 46 32 35 46 38 47 52 47 59 59 59
68 73 75 83 93 94 93 100 101 93 94 98 89 85 94
84 75 87 80 64 76 75 59 64 63 51 52 47 38 43
41 38 38 33 33 38 25 27 38 23 31 36 58 67 70
111 120 130 131 139 162 87 98 124 21 12 31 51 50 4
37 40 36 21 25 63 22 22 78 15 16 72 1 19 67
12 20 45 21 29 34 15 16 25 13 12 20 14 13 16
17 45 24 36 112 98 114 210 212 84 172 193 70 93 50
44 88 7 20 41 67 88 130 82 255 255 224 255 255 255
255 255 231 97 40 169 226 175 255 208 177 255 152 139 255
10 31 125 190 168 139 209 157 130 166 93 31 192 114 57
204 117 90 181 97 67 167 82 31 186 104 61 207 122 96
204 112 89 191 89 89 147 67 97 60 68 97 35 79 106
54 97 119 80 112 126 67 90 106 26 52 105 14 34 121
46 68 181 137 163 255 132 156 255 97 102 171 96 87 112
71 61 67 63 48 55 64 53 68 105 102 106 146 147 142
22 23 30 255 255 255 249 238 255 27 22 67 65 74 44
16 22 51 24 9 72 21 8 60 26 11 47 18 10 19
139 132 138 255 255 255 255 255 255 167 139 211 27 14 98
29 25 113 9 20 103 18 10 69 48 23 27 53 25 15
46 14 11 48 4 8 68 16 10 90 44 38 90 46 57
121 89 118 144 120 157 106 86 108 85 77 80 101 90 107
138 124 166 150 146 201 144 153 219 89 116 179 17 48 101
57 41 57 70 43 44 7 96 96 184 237 238 140 169 179
112 131 116 217 255 255 132 238 237 40 123 147 9 67 115
21 42 106 40 34 99 34 24 101 34 42 146 54 59 168
51 68 139 42 56 130 115 110 184 117 118 175 48 57 100
117 115 136 100 93 124 78 69 107 50 41 74 42 42 72
85 80 109 126 118 144 123 119 134 79 87 89 64 75 74
25 20 17 17 28 21 14 15 7 38 5 12 85 29 36
255 178 189 255 255 255 255 255 255 186 98 90 60 5 4
48 33 7 99 58 30 130 76 57 158 94 81 184 116 99
194 128 106 200 143 119 213 165 139 198 151 125 150 109 75
87 60 6 67 45 17 90 67 28 95 80 22 130 98 57
143 97 65 135 91 68 166 118 105 169 121 111 129 90 86
81 53 55 36 14 0 43 34 34 38 29 32 24 23 28
16 14 24 3 12 14 4 23 12 8 31 11 6 29 24
6 27 48 29 17 95 64 54 121 37 28 86 81 67 129
204 192 240 74 69 92 167 168 170 163 167 201 66 65 121
24 16 90 18 8 90 20 27 63 21 27 56 20 27 34
28 32 4 27 29 26 34 37 42 42 48 42 23 30 24
32 20 33 88 69 82 112 92 101 90 72 64 51 29 12
50 14 0 55 23 7 66 58 26 82 55 35 89 39 16
73 32 13 45 10 8 28 4 2 19 9 3 55 34 21
71 44 43 69 41 44 55 26 34 41 8 27 32 3 25
54 24 3 62 40 17 64 51 27 94 75 47 119 92 75
126 95 91 109 85 82 92 61 51 105 48 30 111 56 22
92 64 42 75 61 45 70 61 47 68 58 45 61 48 36
57 44 36 65 55 51 81 71 66 93 81 79 97 82 81
93 75 73 84 66 63 77 57 55 72 52 46 68 55 45
67 56 53 68 58 57 65 54 62 62 52 63 48 45 48
52 52 50 62 64 59 42 38 55 99 104 103 42 52 60
11 20 47 10 16 47 12 15 45 7 3 42 15 7 36
2 23 38 1 18 21 12 24 17 13 16 13 14 14 9
6 15 2 17 46 28 26 112 97 128 232 225 106 218 227
59 77 43 77 130 65 30 66 52 64 103 84 105 128 81
255 255 255 255 255 255 165 212 125 141 84 196 210 159 255
223 190 255 132 128 217 62 62 66 191 143 100 176 101 64
159 73 44 189 87 90 215 107 96 231 123 102 233 126 110
208 103 96 159 60 58 100 5 33 63 49 67 47 68 78
12 55 64 32 57 66 64 66 68 56 46 34 20 15 67
15 35 117 44 58 149 108 131 244 143 173 255 91 116 198
53 57 105 31 27 54 56 35 43 48 32 69 30 27 57
116 118 109 122 124 111 171 165 190 255 255 255 117 112 153
49 67 4 22 30 41 33 22 69 21 13 50 18 6 45
8 4 25 85 77 82 255 255 255 255 255 255 210 182 252
13 10 81 19 16 105 25 33 116 16 19 83 51 25 27
53 22 17 51 20 13 55 13 4 75 28 21 98 52 45
95 52 63 128 99 135 156 131 170 120 89 107 93 81 80
113 102 112 162 143 177 164 156 205 112 106 160 39 36 98
14 32 86 27 32 71 69 38 49 74 25 40 72 140 147
165 233 241 85 118 132 123 161 135 232 255 255 193 255 255
130 209 225 105 167 201 79 127 182 42 75 146 38 60 149
18 27 129 34 51 108 25 38 117 74 76 158 126 128 199
84 87 157 116 107 157 120 112 153 74 68 106 34 27 63
13 14 44 26 28 54 61 61 89 87 79 106 61 51 71
17 22 25 18 17 8 2 14 7 8 9 4 19 10 3
45 16 5 181 104 118 255 255 255 255 255 255 255 154 153
109 32 23 15 8 0 46 29 4 72 39 14 92 46 27
116 59 39 133 69 48 140 76 69 151 98 85 165 118 76
184 140 93 165 123 72 143 110 38 154 118 48 168 135 63
173 128 70 145 95 45 152 105 74 181 135 120 141 98 80
92 58 40 69 41 42 42 20 13 44 29 29 45 27 40
34 24 46 27 15 42 18 10 35 19 18 38 15 18 40
18 7 50 27 10 75 42 35 116 50 42 97 52 43 97
201 192 249 229 225 255 58 66 61 185 190 201 111 115 157
41 40 99 21 10 86 14 2 84 12 20 63 20 26 45
22 29 22 25 28 18 32 39 30 41 48 45 34 37 29
13 13 18 58 48 57 99 82 94 94 80 92 60 46 44
43 24 4 50 21 0 46 41 18 72 75 50 102 58 42
141 80 43 99 44 22 43 11 8 20 7 5 31 14 3
71 44 32 80 56 51 80 51 54 75 57 68 75 64 81
72 66 87 52 49 68 26 9 31 42 31 20 82 67 40
125 104 71 153 125 103 156 128 117 146 116 100 150 101 79
146 91 62 122 81 55 100 68 44 99 66 50 103 65 47
94 56 34 77 46 32 67 42 31 60 30 21 59 31 22
63 40 35 66 45 38 66 48 43 67 52 47 73 56 49
73 59 51 63 53 47 57 49 41 57 48 49 60 48 55
39 32 37 11 11 9 57 58 54 65 68 60 65 66 58
41 44 40 24 33 37 16 25 36 23 30 46 26 36 51
25 34 42 15 30 28 7 16 7 6 18 9 13 18 9
20 20 13 7 23 11 17 49 33 20 108 92 128 242 222
118 255 248 42 35 13 97 164 121 32 80 45 42 90 47
69 91 54 139 152 73 255 255 255 255 255 255 74 123 34
154 95 190 214 157 250 195 161 243 117 109 173 51 36 27
114 57 39 108 26 16 125 33 46 155 50 53 183 78 78
193 88 96 168 62 75 124 21 34 97 17 19 110 41 53
132 86 86 133 99 93 133 109 103 134 112 103 128 107 92
103 83 60 66 47 66 43 23 86 16 39 159 89 119 242
68 105 210 24 50 126 23 19 66 65 41 56 66 52 92
49 47 78 90 91 95 171 173 167 24 18 37 255 255 255
255 255 255 150 153 160 60 55 93 33 18 68 15 10 40
16 10 39 13 15 21 107 107 103 255 255 255 255 255 255
232 201 255 25 11 86 28 24 114 33 41 120 6 11 80
44 25 26 47 21 6 55 24 18 68 22 16 86 34 29
101 55 49 93 53 65 119 86 128 146 116 157 128 88 104
98 63 75 98 71 98 146 122 161 123 118 173 48 43 107
30 5 66 25 18 74 13 35 88 29 39 84 54 29 69
16 61 91 84 165 178 156 228 238 97 115 141 97 148 115
209 255 255 182 255 245 169 227 231 172 217 245 159 190 240
144 170 239 103 115 190 93 106 158 96 103 173 118 121 198
154 156 233 153 157 230 149 148 214 132 129 180 75 71 112
38 36 79 30 26 50 22 28 36 18 18 38 47 37 65
56 39 62 34 23 42 42 27 40 35 27 38 28 23 31
36 24 22 90 70 64 158 118 122 255 203 217 255 255 255
255 190 195 164 69 62 60 17 9 6 3 1 28 16 8
52 18 20 77 30 33 101 48 51 122 65 73 130 74 77
115 63 54 124 77 47 159 111 54 156 107 31 128 79 4
122 77 10 133 81 30 146 98 44 164 124 88 139 97 85
80 42 50 59 30 38 54 31 34 18 6 22 52 47 62
63 51 74 47 39 67 40 27 58 30 25 51 39 33 63
54 39 81 64 43 97 61 42 109 57 54 127 130 125 181
255 255 255 255 255 255 155 153 161 192 200 197 177 183 201
78 77 125 42 34 101 16 2 77 9 1 78 6 15 61
22 26 38 28 31 11 25 28 4 35 44 22 42 50 40
28 30 30 15 18 28 64 52 59 89 70 85 69 57 70
40 26 24 33 16 0 50 27 0 53 47 29 53 65 62
98 34 16 171 105 61 126 55 31 45 3 1 11 4 2
25 8 3 67 41 30 97 72 61 105 73 67 91 68 74
95 92 102 101 107 123 85 100 121 57 80 100 31 56 65
10 26 30 59 32 3 114 87 37 153 125 78 178 143 101
205 150 111 206 142 111 179 119 99 147 87 68 123 61 42
120 56 32 117 57 26 97 41 18 72 25 2 45 16 21
29 14 28 29 15 16 33 20 9 42 30 24 51 38 39
60 49 50 65 54 53 51 42 41 38 32 28 38 32 37
51 39 48 54 42 45 46 38 33 42 34 26 42 35 29
50 48 43 52 52 47 49 51 44 42 44 43 39 45 42
38 46 36 39 44 35 33 33 27 21 22 18 13 22 10
20 23 22 26 27 24 26 32 27 32 54 43 32 110 94
135 255 227 130 255 255 40 14 11 101 168 150 21 71 50
27 68 27 74 95 39 79 92 28 255 255 185 255 255 255
255 255 255 28 59 51 201 132 216 179 116 211 168 127 205
98 89 141 24 8 36 80 36 23 84 33 38 65 6 15
67 39 34 71 39 43 57 19 8 49 33 20 28 34 27
42 50 61 57 66 71 30 53 61 81 95 109 100 112 127
87 95 115 61 64 88 22 20 82 47 27 84 57 48 124
59 82 195 44 83 192 32 58 146 42 39 95 76 52 76
69 53 91 42 32 72 62 57 74 152 153 159 189 189 187
86 77 108 135 134 157 207 204 224 195 186 218 109 102 136
37 34 69 22 17 49 17 19 20 150 150 156 255 255 255
255 255 255 243 205 255 51 22 106 40 36 129 20 29 111
15 11 67 33 22 41 41 17 5 56 23 18 77 30 25
93 39 36 100 54 49 89 46 56 103 63 107 123 91 135
125 89 106 127 87 102 134 97 124 149 120 157 108 101 155
35 34 98 12 17 65 19 20 71 20 16 75 29 20 74
47 27 77 38 33 81 20 91 123 85 163 180 181 254 255
102 125 147 110 148 122 90 133 124 55 45 44 29 32 42
66 80 114 160 172 222 205 211 255 183 184 235 162 158 215
154 150 213 161 156 219 149 149 208 114 117 171 82 80 118
40 34 72 21 25 77 24 20 47 20 20 31 18 16 34
40 34 59 55 48 69 49 40 61 40 27 46 21 21 30
41 39 40 74 59 60 132 103 106 141 112 117 167 114 129
255 202 218 255 209 213 207 103 106 102 31 37 46 11 16
25 9 12 49 14 21 71 22 35 97 40 57 118 63 58
134 78 101 117 83 155 50 76 162 20 51 117 64 24 61
77 37 44 68 32 47 64 18 64 65 25 92 69 47 126
80 52 125 48 18 77 30 7 70 19 9 66 33 36 54
74 64 79 60 45 69 43 33 61 40 25 59 29 23 52
37 27 67 68 50 99 101 88 139 134 129 182 204 207 255
255 255 255 255 255 255 75 71 88 206 206 210 255 255 255
127 128 162 49 40 95 36 26 90 3 15 61 15 20 71
17 22 60 17 25 39 27 28 16 27 28 10 41 48 18
45 49 29 23 23 14 14 11 14 61 48 55 80 60 75
58 46 57 43 33 18 51 40 4 59 40 1 56 48 38
54 62 68 104 39 11 181 112 67 140 63 35 55 3 2
11 4 1 8 3 1 43 18 14 100 68 61 145 114 105
132 101 98 88 65 69 50 62 77 47 73 101 45 78 107
37 71 94 27 64 71 16 32 30 61 26 1 100 64 23
126 84 41 172 110 58 211 138 87 217 142 112 201 125 104
178 97 75 162 80 53 142 68 35 112 39 13 89 30 27
69 24 24 54 8 26 45 10 18 33 14 15 28 14 9
29 13 3 31 18 15 43 33 22 51 41 36 49 41 41
48 42 47 57 47 52 64 50 52 60 50 40 56 48 32
52 45 29 50 47 32 46 47 34 43 46 30 36 39 28
30 36 25 27 34 20 29 35 18 33 30 23 25 20 22
11 14 17 21 15 26 21 21 22 21 27 24 30 48 39
32 108 92 149 255 246 147 255 255 51 20 35 112 169 167
22 58 59 21 33 42 36 48 29 53 55 39 113 124 53
255 255 255 255 255 255 255 255 228 114 44 115 214 139 220
178 113 200 174 121 191 121 87 133 24 6 29 46 43 42
50 18 21 56 27 26 47 28 41 22 23 27 28 37 35
33 49 48 48 76 87 99 121 133 133 150 166 158 169 194
137 145 173 110 116 146 99 106 138 89 98 158 66 75 161
41 50 163 42 69 198 32 67 182 25 45 139 47 37 97
71 50 71 54 34 69 27 13 59 20 12 37 49 46 59
146 145 156 210 206 215 161 158 158 30 27 58 148 131 173
153 141 176 78 72 106 53 49 74 20 20 28 184 174 184
255 255 255 255 255 255 233 193 255 65 34 123 46 42 134
14 20 102 30 27 60 21 17 58 32 11 13 52 19 13
80 35 29 97 44 46 101 48 51 88 39 54 95 55 98
112 78 125 122 88 114 141 106 125 158 115 146 164 128 168
141 128 174 92 85 139 33 34 87 9 19 71 6 9 70
35 25 70 45 21 67 31 13 68 28 38 84 23 61 91
155 255 255 163 228 240 125 142 129 167 211 202 151 158 164
190 179 183 176 159 147 93 81 53 16 16 80 49 39 92
35 25 74 26 15 68 52 49 75 45 43 61 13 16 22
36 32 22 38 37 52 18 21 56 5 3 28 11 11 23
14 18 29 30 27 47 47 43 63 46 41 57 25 24 39
37 44 47 61 57 59 99 87 91 158 127 136 119 84 95
85 51 60 211 142 156 255 202 203 226 125 124 136 49 61
88 25 34 50 3 16 44 4 26 48 5 46 72 12 69
78 23 80 212 180 255 255 255 255 255 255 255 255 255 255
255 255 255 255 255 255 255 255 255 255 255 255 255 255 255
255 255 255 255 231 255 99 72 166 17 1 77 15 8 71
47 50 53 78 62 65 52 25 41 44 20 50 33 12 49
17 16 43 30 16 62 80 65 107 115 115 159 179 187 237
229 235 255 161 160 191 84 75 77 255 255 255 255 255 255
144 141 176 39 36 78 36 33 77 20 22 62 32 36 46
39 42 62 40 42 67 35 40 50 37 41 24 40 43 21
50 54 22 46 46 26 20 16 11 22 17 20 57 47 53
71 52 66 51 32 49 48 38 21 58 48 20 60 44 18
52 43 42 47 50 68 108 45 9 194 116 71 152 67 35
64 3 1 16 6 4 15 4 3 27 3 2 85 46 46
161 123 121 169 138 133 100 71 60 25 32 41 35 60 80
34 58 85 11 44 71 31 72 91 33 83 81 24 73 61
31 56 50 40 46 45 64 24 30 132 57 9 189 108 58
207 128 87 208 128 94 204 121 87 190 112 75 166 86 53
137 58 29 118 47 16 108 44 24 97 41 18 81 38 15
67 36 15 60 38 19 58 42 29 62 46 33 63 48 35
54 47 33 49 46 40 54 48 40 61 51 44 60 53 40
53 49 33 52 43 26 51 41 21 39 35 16 32 31 12
20 18 6 14 12 6 13 14 2 20 17 9 30 18 18
24 19 18 7 9 19 20 8 18 12 12 14 12 16 18
23 40 37 16 104 83 161 255 255 161 255 255 64 30 58
124 180 184 18 55 54 44 21 44 7 19 38 33 25 59
22 11 64 155 173 82 255 255 255 255 255 255 161 228 119
157 75 147 202 113 197 201 119 202 199 128 193 111 60 114
35 23 54 20 18 11 30 22 12 9 6 30 21 31 46
33 36 51 22 14 23 66 60 35 99 97 67 126 121 94
167 160 136 184 181 150 171 170 133 136 135 91 70 68 45
34 22 109 80 82 188 96 115 244 68 103 225 7 47 142
42 9 68 58 30 48 41 17 54 32 20 63 15 11 38
30 27 46 83 72 107 118 118 135 194 194 194 186 188 182
97 89 117 112 96 140 82 73 112 65 60 82 22 22 26
215 204 215 255 255 255 255 255 255 203 163 239 66 34 126
42 38 129 14 18 94 28 27 58 9 12 70 20 3 22
45 15 7 79 36 24 96 46 44 96 42 43 79 30 44
85 47 83 99 66 110 113 82 113 141 112 135 158 118 150
170 130 171 178 153 196 159 143 189 95 82 135 45 41 98
39 40 102 40 36 96 27 8 72 16 17 77 18 21 81
52 25 60 121 235 231 182 255 255 98 120 89 206 255 243
86 158 134 102 121 120 190 173 170 206 196 176 124 132 114
74 85 88 88 91 112 116 115 138 111 109 122 77 74 88
46 45 61 35 28 46 35 23 43 30 20 35 17 16 8
3 18 18 16 28 28 25 24 38 36 30 50 35 37 55
52 63 75 74 82 84 76 76 76 112 100 104 160 126 137
97 59 71 43 36 33 154 106 112 255 177 174 226 127 121
163 66 72 121 37 44 72 5 24 50 0 42 19 0 65
44 0 87 83 37 128 255 255 255 255 255 255 255 255 255
255 255 255 255 255 255 255 255 255 255 255 255 255 255 255
255 255 255 255 255 255 255 255 255 165 126 226 35 10 93
4 7 58 50 51 50 62 46 35 54 30 26 58 30 50
32 4 39 11 15 26 35 16 58 96 81 116 113 111 150
88 97 146 94 98 110 196 193 191 225 216 231 207 202 228
121 122 153 37 29 77 30 16 77 27 23 75 20 29 32
45 48 30 48 51 50 47 50 67 41 46 59 41 47 30
45 47 27 51 48 25 43 35 20 21 7 3 32 23 27
55 46 54 55 43 56 38 17 37 45 42 27 51 46 35
56 47 35 51 39 41 45 41 62 114 55 16 207 123 73
165 69 33 75 6 0 21 6 7 16 1 4 16 6 9
68 32 33 152 112 109 182 148 142 141 103 89 106 70 66
109 93 97 101 75 81 72 21 10 17 43 60 50 96 110
74 124 127 77 128 123 74 121 119 41 98 106 31 49 69
102 27 4 156 83 32 190 118 62 211 136 85 222 153 103
228 154 107 210 135 93 164 96 57 132 71 39 120 65 31
107 57 29 93 53 34 84 52 39 79 53 43 76 53 36
69 48 28 54 40 27 46 39 37 45 42 32 52 48 34
56 50 33 49 46 27 55 48 31 58 51 30 44 37 14
37 31 17 23 19 17 16 12 15 14 14 11 25 14 14
30 14 19 24 20 24 16 16 24 26 14 23 15 15 20
9 13 19 22 38 43 8 103 87 172 255 255 168 255 255
76 44 84 128 191 203 11 51 44 52 11 17 7 17 23
29 29 56 4 17 58 25 32 47 227 243 153 255 255 255
255 255 255 86 158 49 171 82 155 204 116 188 195 103 181
176 97 165 124 62 118 74 27 64 30 6 32 40 33 44
57 38 57 50 28 54 39 35 46 82 89 73 117 123 90
155 158 121 178 180 151 171 173 143 153 156 119 142 145 95
139 138 70 123 107 13 62 40 101 93 107 233 131 162 255
49 93 194 53 23 56 71 43 32 40 16 49 35 25 63
23 20 49 54 49 76 113 102 131 38 31 61 75 80 58
102 107 84 69 76 77 65 50 93 80 70 107 68 59 79
28 31 34 255 250 255 255 255 255 255 251 255 166 127 201
62 31 121 29 25 117 4 7 91 18 14 62 4 12 73
12 2 27 38 14 3 83 38 25 100 48 42 88 39 35
66 20 24 68 27 53 73 37 76 88 64 95 130 104 127
134 101 127 132 94 129 165 128 167 188 158 196 163 137 179
108 89 139 78 67 119 52 51 105 35 42 99 51 55 105
61 64 113 37 53 96 101 217 218 197 255 255 27 43 18
226 255 255 149 219 194 53 125 109 95 84 77 171 154 129
111 114 77 38 51 60 75 68 121 93 86 133 67 68 93
41 44 64 17 16 42 25 13 27 25 8 28 23 10 25
22 24 11 14 27 18 19 32 18 16 16 17 22 33 42
50 67 81 91 105 114 93 102 103 85 81 85 123 103 110
139 108 121 74 47 60 37 37 39 118 87 87 217 142 137
219 118 112 181 78 82 143 49 48 86 9 31 54 4 60
7 8 84 41 12 104 149 106 202 255 255 255 255 255 255
255 255 255 208 206 255 255 252 255 255 255 255 255 255 255
226 216 255 255 255 255 255 255 255 255 255 255 172 128 236
86 64 163 44 40 91 22 25 50 46 31 9 69 45 37
61 34 47 43 18 39 22 17 29 40 21 60 94 80 110
123 114 137 132 124 123 217 206 198 216 209 219 159 155 177
116 116 153 82 84 126 45 39 86 25 21 67 5 10 42
36 37 12 44 44 13 38 41 37 37 38 60 32 32 56
31 34 20 40 40 16 56 48 24 57 45 29 47 36 25
57 40 37 68 50 57 54 41 49 48 44 36 68 68 51
69 60 54 66 58 47 53 41 37 50 40 55 126 66 27
218 134 78 178 75 34 86 7 0 28 7 10 13 3 8
8 8 9 46 16 15 120 80 77 184 145 143 210 173 171
216 182 178 201 174 168 159 122 115 137 95 75 92 64 55
62 77 91 73 108 121 76 116 128 65 108 123 67 110 134
78 109 134 32 58 68 68 27 16 115 55 14 145 83 37
172 116 69 207 144 101 229 163 122 201 140 95 160 106 67
143 93 55 119 72 37 86 46 20 60 26 14 45 14 13
44 17 9 51 28 12 47 29 24 41 29 32 37 29 23
42 34 22 48 37 24 42 36 17 53 50 31 61 60 37
54 51 35 50 45 39 38 34 42 33 27 45 31 27 43
37 28 40 38 27 38 35 32 37 31 31 35 33 26 33
26 24 33 15 20 26 22 40 48 10 103 94 178 255 255
172 255 255 84 55 97 133 198 216 20 55 48 57 21 18
12 28 25 27 35 45 19 22 44 6 8 56 57 61 27
255 255 223 255 255 255 255 255 255 28 102 30 179 92 163
182 81 164 185 94 164 176 99 161 139 77 127 91 48 84
76 47 66 65 26 53 47 10 38 74 44 62 114 102 120
109 116 143 98 96 134 124 114 159 143 132 180 132 122 166
102 89 131 72 60 80 118 106 34 126 103 16 27 25 149
143 171 255 117 155 255 35 16 93 91 58 43 57 39 61
44 36 68 26 20 43 62 59 73 113 103 130 32 31 53
80 88 58 62 73 28 25 39 17 35 20 62 57 48 78
59 52 62 57 57 52 255 255 255 255 255 255 253 219 255
131 94 165 57 28 116 19 15 108 10 13 99 17 17 68
11 10 66 8 2 30 39 19 4 90 46 33 108 56 50
91 48 43 67 33 28 55 22 26 41 7 37 58 40 68
115 95 118 115 89 112 76 47 77 103 70 104 158 121 155
177 146 178 140 116 150 78 61 99 38 39 81 69 69 94
103 99 124 80 87 143 45 96 145 82 190 199 198 255 255
31 32 39 233 255 255 172 245 218 80 155 138 67 53 45
170 145 112 125 125 67 24 38 30 87 69 133 96 81 141
48 50 84 58 63 83 59 60 98 75 74 112 75 67 93
45 36 39 31 34 27 21 30 19 20 29 9 10 8 8
34 53 58 80 100 112 107 116 127 90 88 94 90 72 80
123 98 101 102 80 90 51 35 44 44 42 38 96 72 66
181 105 102 214 108 104 192 85 85 155 57 49 94 10 41
51 7 74 28 13 93 50 18 107 255 232 255 255 255 255
255 255 255 168 126 168 22 41 4 10 26 16 14 29 13
123 136 90 255 255 255 255 255 255 255 255 255 184 159 230
141 96 202 99 64 170 36 28 90 32 23 88 29 15 56
60 40 38 46 28 29 45 25 39 29 11 43 34 14 55
67 50 81 124 104 136 141 121 146 125 106 129 93 77 122
117 106 153 119 108 164 76 64 125 41 34 72 24 25 58
22 16 53 41 36 38 42 39 24 28 27 28 24 20 55
23 16 54 18 21 16 35 32 6 74 59 32 79 65 48
69 65 56 77 69 58 88 69 70 77 57 59 76 66 52
91 83 68 84 62 63 79 61 58 55 28 29 56 30 51
139 68 33 227 141 87 186 86 40 97 13 0 40 9 13
15 4 12 5 9 9 21 1 4 60 27 25 111 73 72
149 108 104 166 123 113 156 115 98 137 92 70 176 137 113
162 130 120 95 79 82 40 61 80 27 62 87 17 53 78
42 72 102 89 111 146 80 106 122 32 51 58 54 23 35
75 27 35 83 27 13 117 56 21 179 112 74 215 148 103
204 144 101 184 128 83 153 101 55 109 64 20 68 32 29
38 14 49 25 8 49 37 8 26 47 18 28 39 16 33
30 13 22 29 14 11 37 20 17 41 23 16 47 35 23
57 51 38 64 55 43 61 51 41 51 42 42 46 38 44
42 40 42 45 39 39 47 34 35 44 33 35 39 33 29
36 29 23 34 26 33 25 25 33 24 43 54 16 104 96
180 255 255 176 255 255 94 74 108 146 201 223 36 64 59
65 37 33 32 42 39 38 43 52 45 48 66 22 27 61
18 13 52 120 115 29 255 255 255 255 255 255 255 255 212
89 29 72 182 99 142 161 72 135 170 88 143 156 87 133
117 57 95 84 28 62 54 4 38 37 12 27 53 9 37
93 62 85 124 115 142 150 135 169 173 155 188 163 143 175
140 121 151 128 111 143 119 101 144 87 66 108 102 84 39
70 52 84 82 110 240 143 176 255 57 71 146 92 65 56
76 58 72 40 26 59 25 13 44 73 68 91 120 109 143
55 47 82 119 122 121 91 90 88 53 40 70 50 35 76
31 18 51 21 19 27 26 35 20 255 255 255 255 255 255
248 216 255 97 60 132 61 31 124 20 16 113 10 16 105
10 11 76 18 11 60 13 6 30 44 26 8 90 51 41
114 65 61 109 65 62 96 70 67 64 62 55 31 44 19
51 33 45 100 91 108 106 87 106 57 43 58 51 47 53
80 60 68 93 73 78 105 85 99 96 73 103 33 40 51
73 60 13 42 15 58 49 77 146 67 112 160 93 182 192
193 255 255 35 33 48 243 255 255 190 255 232 80 158 138
66 18 5 177 152 112 131 135 69 28 53 25 90 76 138
117 111 166 69 58 108 96 89 116 90 85 123 68 70 117
84 81 116 92 86 103 51 53 59 30 36 25 27 24 9
14 17 30 85 102 107 130 144 148 127 126 132 95 86 88
85 67 67 100 76 80 74 56 67 52 48 44 61 72 51
81 67 51 150 72 70 199 95 94 190 86 88 176 69 74
111 22 48 59 8 88 59 14 95 83 25 113 255 255 255
255 255 255 255 255 255 48 6 43 25 47 19 26 34 14
47 63 16 164 171 135 255 255 255 255 255 255 255 255 255
182 151 229 140 104 196 91 61 155 38 20 82 45 6 91
39 10 83 32 20 39 36 27 21 38 21 32 30 13 39
25 5 47 38 13 71 63 32 110 69 36 128 54 27 113
47 34 108 32 10 104 28 6 98 24 13 80 44 33 79
37 23 89 47 35 86 61 48 76 46 41 68 41 43 70
38 43 76 25 33 61 26 30 17 56 46 20 98 81 59
83 70 52 53 53 45 69 67 56 71 58 59 63 32 34
69 45 21 78 58 33 68 33 33 82 64 61 49 9 21
52 17 44 157 73 40 236 137 88 194 86 39 108 13 3
43 6 12 12 3 12 1 6 3 4 8 8 14 3 10
29 5 4 45 10 4 61 15 9 64 13 8 88 39 23
186 139 119 226 192 183 144 127 135 52 66 102 32 59 99
43 59 102 61 82 122 105 120 155 100 122 144 46 88 110
55 91 111 47 83 103 31 74 100 20 62 94 62 18 50
139 54 15 193 112 55 221 151 80 222 163 88 198 145 72
166 121 49 123 85 33 68 29 46 41 2 52 47 13 37
44 8 31 40 8 10 37 12 11 42 20 25 51 26 36
51 26 36 52 32 35 66 44 39 76 54 42 74 58 36
65 52 22 50 44 21 42 39 14 42 27 3 44 22 10
44 24 13 48 36 21 52 42 38 44 39 40 33 53 60
32 120 111 185 255 255 149 255 233 111 105 133 136 176 198
18 52 51 56 25 27 30 25 39 26 13 36 35 23 43
42 43 61 4 20 65 47 30 48 176 161 71 255 255 255
255 255 255 167 211 106 105 47 83 141 76 130 166 89 141
153 82 122 106 39 64 84 9 36 74 13 38 63 14 39
55 11 39 57 11 28 61 31 38 77 37 50 101 64 76
107 67 79 113 74 81 115 78 89 122 84 109 120 83 142
93 58 133 87 53 109 54 66 208 128 159 255 42 72 155
70 46 6 83 51 68 33 7 52 30 5 63 95 79 129
139 122 172 77 42 117 126 120 144 115 106 132 69 44 101
69 39 96 63 36 79 54 30 68 49 25 59 255 255 255
255 255 255 255 255 255 77 48 115 70 46 136 25 22 128
6 5 101 3 1 92 16 11 62 24 16 27 47 27 12
82 46 45 117 69 72 128 79 81 111 68 69 49 57 55
50 72 56 76 69 71 95 88 108 113 92 116 111 96 111
137 131 132 154 151 146 140 144 134 137 133 136 112 102 125
41 63 59 88 89 65 80 77 125 102 116 175 72 99 143
70 161 165 171 255 255 42 46 70 227 255 255 238 255 255
133 216 199 42 11 36 177 158 107 135 146 75 47 73 9
58 55 113 141 148 199 114 118 164 40 30 73 65 54 63
33 30 57 48 52 76 106 106 133 105 105 124 75 80 87
54 62 65 76 87 92 148 162 169 151 161 161 113 110 110
75 67 65 60 43 39 76 57 60 78 68 73 79 76 67
73 78 61 64 53 37 119 45 42 167 69 69 165 76 76
194 87 98 133 44 48 47 6 89 43 16 82 140 93 166
255 255 255 255 255 255 254 215 244 11 48 33 38 61 39
57 65 46 65 78 28 109 114 93 236 229 237 255 255 255
255 255 255 212 191 253 149 122 204 91 61 150 39 4 82
18 24 64 16 27 64 13 20 40 40 33 27 35 33 28
18 14 12 15 4 34 22 6 57 16 12 63 16 14 77
30 13 91 25 30 86 10 36 69 6 30 61 14 17 58
32 14 64 22 10 65 36 27 62 59 47 73 54 49 75
51 55 72 45 54 72 32 45 49 59 57 33 83 73 51
94 87 61 71 62 38 30 28 32 66 72 75 49 49 58
39 19 14 49 31 5 50 38 20 41 35 41 76 70 67
38 18 37 50 13 41 188 93 59 251 132 83 208 77 29
112 16 9 27 8 11 4 3 3 0 4 8 0 7 6
3 2 6 7 7 6 11 8 4 20 8 4 25 10 5
39 7 5 154 113 108 255 243 239 210 181 189 75 75 106
68 91 121 72 81 119 71 85 123 131 134 167 92 101 123
55 85 101 88 120 130 89 130 140 85 134 148 68 127 150
41 106 131 25 64 86 92 33 22 169 93 38 215 150 79
225 170 102 228 179 110 221 177 102 178 132 51 122 72 24
92 41 12 72 25 21 51 6 5 37 3 17 40 10 19
52 23 30 63 31 37 67 34 38 77 46 43 90 62 47
93 71 45 91 68 39 82 62 37 71 59 24 66 54 17
65 46 20 62 43 29 64 56 39 68 59 51 58 53 51
40 66 66 80 158 144 196 255 255 90 196 160 117 110 139
95 117 134 5 39 46 34 16 25 23 8 24 33 18 13
35 24 11 30 30 34 19 24 60 27 15 62 43 34 48
255 255 170 255 255 255 255 255 255 97 125 36 81 42 89
161 99 151 174 113 155 127 54 73 108 24 36 104 27 44
84 20 31 61 12 5 62 19 9 66 16 11 76 25 26
105 58 64 117 64 73 118 58 65 111 49 50 97 40 48
92 43 83 100 51 126 98 52 131 76 78 230 142 164 255
56 78 173 64 44 22 93 53 88 50 11 77 38 13 69
102 87 130 139 124 166 54 18 90 104 112 105 99 101 99
39 19 69 53 23 74 56 29 70 58 36 73 57 42 73
255 255 255 255 255 255 255 255 255 113 86 145 60 39 125
35 34 138 10 4 103 6 4 98 12 9 71 31 18 25
44 24 4 69 39 40 110 68 73 134 87 93 129 79 79
60 18 12 24 34 34 34 17 34 71 53 87 127 100 131
141 124 141 138 130 132 128 123 119 111 110 101 82 72 75
44 22 64 34 39 41 33 37 46 30 39 110 36 64 123
17 46 83 55 133 133 183 255 255 102 126 148 155 225 179
250 255 255 237 255 255 86 118 138 140 125 75 137 159 82
66 99 16 18 17 75 127 127 189 159 162 213 74 72 120
32 17 27 43 36 37 44 43 43 77 78 89 109 109 118
116 121 126 123 131 134 133 142 150 155 162 170 116 119 124
50 44 52 19 7 20 39 24 29 67 56 54 85 80 81
87 73 76 57 47 53 39 9 17 103 26 30 136 44 42
128 55 49 188 100 95 157 70 72 50 10 65 28 20 87
255 255 255 255 255 255 255 255 255 91 57 88 37 57 41
57 68 44 46 50 48 24 29 29 34 40 30 172 168 158
255 255 255 255 255 255 192 182 235 123 107 178 89 69 146
47 26 95 28 7 66 36 14 66 35 19 51 43 39 34
30 31 23 6 9 13 10 10 24 14 12 31 15 13 30
19 9 34 20 6 35 9 10 36 6 12 39 6 12 32
8 4 22 19 4 18 13 3 18 23 13 26 39 31 40
37 30 37 21 17 22 11 14 31 33 33 11 78 73 49
94 90 69 87 89 56 60 53 27 25 31 41 65 72 83
41 41 48 52 46 35 56 48 42 40 30 25 38 48 49
62 63 60 37 38 52 54 30 48 213 113 72 255 135 86
218 74 25 108 18 12 14 8 9 0 1 4 0 4 4
1 4 4 1 1 6 2 4 6 4 4 3 5 4 1
12 6 2 10 3 2 110 83 88 255 246 250 255 228 231
104 64 67 18 54 53 3 38 42 95 93 111 151 142 169
46 39 51 70 75 76 96 103 103 90 102 105 87 99 103
86 107 118 100 128 146 89 126 143 43 94 86 52 22 14
121 62 25 153 97 52 190 128 88 231 167 127 250 191 141
225 171 121 184 126 88 137 82 60 82 35 13 43 3 25
31 2 30 40 11 17 57 32 13 70 48 33 76 54 38
82 55 39 89 58 45 98 65 55 106 72 62 108 77 63
100 80 62 90 77 57 80 67 58 73 65 58 73 63 64
63 60 67 54 81 81 119 188 169 197 255 255 54 148 122
118 98 129 71 76 94 6 34 47 26 15 32 29 11 18
36 23 15 33 23 16 16 17 17 8 14 33 22 22 47
21 32 62 96 106 40 255 255 255 255 255 255 255 255 205
67 89 12 126 78 117 200 142 184 196 116 145 177 88 105
163 73 89 139 59 67 97 14 17 110 4 6 131 19 17
138 38 36 141 66 67 126 66 73 98 30 55 84 8 22
73 10 11 61 8 38 53 6 86 46 17 118 92 96 248
160 172 255 66 74 178 64 43 9 96 53 104 55 13 92
42 18 61 105 93 123 137 123 155 27 12 44 103 116 82
90 99 73 18 10 32 37 24 47 27 19 36 25 22 33
24 24 32 184 181 180 255 255 255 255 255 255 196 168 222
41 21 100 42 40 142 6 7 112 10 10 92 8 6 76
28 14 30 39 18 8 61 32 27 96 60 61 120 82 85
123 82 79 107 65 52 50 16 4 21 33 7 64 47 68
149 126 147 182 164 176 150 135 146 89 75 85 35 25 20
6 25 13 51 57 55 60 63 74 31 27 98 25 36 120
4 33 96 39 25 58 28 115 108 194 255 255 156 182 204
74 144 92 143 255 198 194 255 255 169 193 214 169 171 160
135 161 122 64 92 59 22 19 68 88 87 155 151 147 209
115 114 171 38 39 92 9 7 33 18 12 8 35 35 39
58 56 55 78 82 84 102 108 116 119 120 136 120 117 133
81 77 94 23 17 35 6 13 16 47 37 43 70 63 63
81 71 77 77 63 63 50 47 42 43 35 31 112 47 44
124 39 36 101 33 46 162 97 82 173 100 98 98 50 59
102 95 159 255 255 255 255 255 255 255 255 255 11 35 7
44 55 29 49 60 25 26 12 50 34 31 41 84 94 66
255 255 255 255 255 255 255 255 255 148 141 194 95 84 152
70 55 127 64 51 108 41 31 75 32 24 61 31 24 48
37 35 30 23 22 20 7 4 26 16 18 33 16 21 26
14 21 12 10 21 7 10 9 7 3 8 18 3 13 22
2 12 14 7 4 13 16 3 13 16 4 7 16 2 7
27 15 7 35 25 22 18 10 13 14 11 30 40 36 12
86 82 58 103 99 79 101 99 67 57 49 24 35 40 53
53 59 72 42 38 42 68 67 58 64 65 58 49 45 48
58 71 70 44 49 47 54 66 74 59 47 58 230 131 85
255 154 98 226 79 31 111 17 10 15 8 11 1 3 1
3 3 4 4 1 4 4 2 10 4 5 10 4 8 4
3 8 4 8 12 5 11 11 5 74 57 58 234 201 206
255 255 255 254 211 221 214 176 188 234 200 212 255 248 255
212 191 213 106 95 91 134 132 124 95 92 88 56 56 66
62 51 60 83 81 91 117 128 142 137 160 177 112 149 147
22 66 55 52 2 0 89 27 15 126 56 35 168 90 64
213 135 89 235 166 105 229 164 119 209 146 119 166 106 75
119 69 32 82 42 16 58 25 19 48 22 24 47 25 17
50 25 9 54 24 11 63 27 15 73 32 28 82 39 37
89 44 41 92 53 45 83 60 46 67 52 46 60 48 42
66 50 50 64 57 62 80 100 96 146 201 183 190 255 255
39 125 102 115 91 123 61 65 84 6 28 41 27 15 29
27 14 17 31 23 13 27 27 14 20 24 19 18 23 29
13 18 33 13 19 32 30 36 28 173 183 95 255 255 255
255 255 255 238 248 129 63 21 44 166 106 137 217 138 165
225 133 155 237 138 157 247 145 160 228 112 120 234 102 105
238 101 100 231 99 98 208 94 93 171 75 75 131 41 55
110 27 33 94 21 15 78 21 45 59 7 86 47 14 120
101 101 246 166 172 255 70 72 176 68 45 14 89 53 103
49 16 94 47 26 64 108 96 124 137 121 152 26 13 36
104 115 80 85 96 64 21 15 30 36 26 44 20 17 27
20 19 24 20 20 26 85 76 74 255 255 255 255 255 255
255 255 255 37 17 90 47 40 142 7 11 119 15 14 88
6 3 79 20 10 28 30 10 13 55 21 12 82 45 45
106 67 69 113 74 71 125 85 74 82 47 36 23 36 11
38 20 35 117 99 108 193 179 180 215 203 205 166 157 160
79 70 73 47 62 42 44 58 32 31 23 69 53 45 129
29 38 122 7 19 86 39 22 63 20 111 102 188 255 255
155 171 196 144 214 163 180 255 225 119 194 167 16 53 73
133 142 118 109 132 120 43 53 84 10 2 67 40 52 114
111 105 172 124 118 185 82 78 139 45 38 78 20 16 34
13 14 9 46 45 47 67 68 76 84 83 98 87 84 105
68 64 85 35 33 51 11 14 27 35 32 48 69 64 76
82 72 83 79 61 77 61 44 48 31 29 18 33 21 18
122 57 42 126 47 30 80 8 43 119 59 52 163 101 88
132 83 76 229 225 255 255 255 255 255 255 255 82 58 83
35 48 29 44 58 25 33 45 15 61 48 73 73 83 59
255 255 255 255 255 255 255 255 255 126 126 148 110 99 158
110 97 166 49 39 108 27 16 81 34 23 76 29 22 60
25 19 41 28 27 22 13 10 22 14 11 34 24 22 38
19 21 27 12 19 13 7 23 6 3 16 8 8 10 20
3 15 18 2 10 16 5 3 16 14 1 9 18 3 5
18 2 4 26 11 8 28 20 12 16 12 20 14 7 23
53 48 16 108 101 76 123 116 94 108 103 70 46 36 15
38 42 57 40 42 54 58 47 43 80 73 61 67 56 56
71 70 73 79 92 90 30 30 29 79 94 100 62 47 62
250 151 106 255 172 111 232 82 33 115 14 8 18 6 11
9 1 4 10 3 5 8 3 7 7 4 12 8 3 10
6 0 0 4 0 0 1 3 0 4 4 0 34 25 21
140 116 115 255 225 227 255 255 255 255 255 255 255 255 255
255 253 255 176 133 125 232 215 199 188 184 178 74 79 76
70 75 82 98 85 93 85 82 92 82 98 109 129 152 163
141 168 175 52 87 87 6 49 41 13 45 31 27 37 26
54 22 16 102 24 3 156 80 28 199 127 71 228 158 120
236 161 128 211 141 103 162 102 61 108 57 18 65 22 20
49 7 30 43 6 24 40 5 22 44 11 16 51 12 9
56 14 13 60 16 14 71 24 13 68 33 13 42 18 13
33 11 9 47 24 19 55 47 40 100 115 108 169 213 196
173 245 222 27 95 72 105 81 106 49 54 67 9 26 26
24 21 22 20 22 17 25 29 17 20 33 24 23 37 30
16 35 32 8 33 41 4 31 47 15 45 60 59 81 54
235 230 140 255 255 255 255 255 253 184 181 83 60 26 27
126 58 89 172 81 105 219 113 129 255 157 173 255 171 180
255 174 171 255 170 163 255 158 156 255 130 133 205 88 93
158 54 60 131 39 41 111 33 27 89 36 59 57 13 90
43 10 123 109 105 242 173 173 255 68 74 170 68 47 19
82 56 99 44 21 93 51 35 72 110 98 126 133 117 151
25 10 38 101 112 80 80 89 58 22 15 33 28 19 38
9 6 16 11 6 19 12 4 23 22 27 17 255 255 255
255 255 255 255 255 255 58 37 107 48 40 139 9 12 115
15 14 86 4 6 80 16 11 29 24 6 20 45 10 9
68 29 30 90 50 51 95 55 57 115 78 68 104 73 59
56 45 21 37 29 19 70 62 47 151 143 129 224 215 202
218 214 199 137 129 119 48 53 33 10 30 22 44 22 96
58 47 132 17 24 104 9 26 82 19 46 83 33 131 120
173 255 255 84 93 119 226 255 240 200 255 236 141 168 153
124 100 100 160 153 109 55 65 16 34 29 75 15 34 69
17 48 89 66 63 126 101 88 161 91 83 152 62 54 106
44 41 71 50 50 54 59 60 63 59 59 71 55 51 72
39 35 60 9 8 27 20 22 11 33 24 31 61 50 62
78 67 86 81 64 83 65 44 60 43 24 27 20 15 4
27 9 15 119 55 33 131 57 35 74 10 49 86 25 45
147 89 58 122 80 74 255 255 255 255 255 255 255 255 255
59 75 61 18 35 6 40 55 24 32 42 19 77 76 73
237 248 207 255 255 255 255 255 255 155 156 155 30 28 33
122 114 143 204 191 247 112 99 162 41 37 67 52 45 82
45 37 75 22 17 37 17 17 20 8 2 30 20 17 38
27 25 40 18 20 27 6 10 11 9 22 5 2 17 10
8 10 20 4 14 17 3 8 22 6 3 20 15 4 12
18 4 11 18 6 11 22 13 18 25 22 24 26 19 16
53 39 17 103 94 68 147 134 112 145 134 113 95 87 60
24 16 27 28 35 50 31 24 29 64 53 40 71 66 50
56 44 47 95 94 98 93 102 103 27 20 12 103 114 119
69 41 50 255 177 135 255 186 121 231 80 27 113 8 11
27 10 10 14 6 2 9 4 4 8 3 6 6 3 9
7 1 6 8 0 0 4 0 0 4 0 0 3 3 0
6 6 1 33 24 25 99 77 74 159 127 122 174 135 135
144 100 107 94 57 61 156 108 82 255 255 255 224 212 212
58 68 71 60 78 81 86 81 82 50 63 69 72 95 99
127 146 152 144 157 166 67 94 107 72 110 116 77 122 119
74 124 114 62 118 107 28 95 84 38 40 45 108 36 7
166 93 49 219 143 94 239 164 115 221 151 106 174 112 72
118 63 27 86 34 14 73 25 13 65 19 8 59 17 6
60 19 4 64 21 10 65 24 18 76 30 18 75 33 16
49 15 9 38 11 21 40 23 27 51 44 37 119 127 115
185 220 201 151 206 182 23 67 50 94 79 95 43 55 61
19 40 35 22 38 33 17 40 35 31 48 39 35 55 50
35 58 46 20 51 41 32 66 61 45 79 80 41 76 75
60 88 72 131 128 67 255 255 173 255 255 255 255 255 206
170 157 83 50 51 22 76 17 14 125 21 36 189 74 87
245 121 128 255 143 142 255 145 146 255 139 141 237 118 120
195 84 92 154 56 58 120 40 42 105 39 37 96 46 76
52 18 96 35 13 126 118 108 241 177 176 255 66 76 161
67 48 23 77 58 96 40 25 90 54 42 78 114 102 129
130 112 151 23 8 38 97 108 80 72 81 53 22 18 28
20 16 34 9 7 22 11 5 23 12 4 19 72 83 68
232 207 215 255 255 255 255 255 255 98 78 145 48 42 134
10 10 105 13 12 84 8 8 77 17 15 32 23 6 23
40 4 17 58 19 27 79 39 44 83 40 49 83 50 40
103 79 52 100 81 56 65 59 28 46 49 6 80 71 53
163 151 140 191 185 169 158 146 133 82 70 65 26 18 58
56 28 108 39 27 109 7 20 81 9 28 83 5 66 100
64 176 165 172 255 255 31 17 23 254 255 255 124 208 166
38 75 57 78 49 53 178 165 137 148 150 118 66 83 68
21 49 55 4 40 74 40 39 101 69 56 127 68 65 134
47 45 106 77 74 111 81 82 98 35 46 47 30 32 41
26 22 43 14 13 28 20 22 17 4 16 6 66 56 64
79 69 80 52 37 52 52 35 44 36 19 18 26 17 8
20 20 17 30 12 23 108 46 25 127 55 41 73 19 61
76 20 57 136 84 55 105 97 141 255 255 255 255 255 255
227 202 233 85 100 81 54 66 46 26 39 10 40 52 8
99 109 74 205 220 183 254 255 230 222 226 203 126 126 126
131 136 116 166 168 160 255 255 255 211 202 255 84 86 103
51 45 97 45 37 90 3 8 31 4 10 27 12 8 37
24 20 37 27 24 38 15 15 23 4 6 9 11 21 4
4 15 12 10 9 21 8 12 20 4 6 24 10 4 20
17 4 12 19 4 10 15 3 8 13 6 11 29 15 9
63 45 29 108 97 76 149 136 112 153 140 120 115 105 88
43 34 23 26 25 53 11 21 37 38 23 12 60 54 37
52 51 35 39 36 38 107 109 116 98 103 111 39 23 15
115 125 132 70 30 30 255 202 163 255 197 124 221 76 17
102 6 18 37 12 13 18 13 11 5 4 4 6 6 6
1 3 7 4 0 4 6 0 0 4 0 0 4 0 0
6 9 3 9 12 4 8 11 3 7 6 0 22 3 3
28 7 6 30 8 4 35 8 4 154 109 82 255 255 255
255 244 249 61 45 48 14 46 51 48 30 36 3 30 46
74 103 111 129 149 156 114 125 132 87 109 116 123 148 156
127 159 170 121 159 168 114 154 165 102 149 157 58 118 120
4 65 73 55 25 30 121 63 17 181 119 57 217 154 97
212 150 107 175 116 83 122 68 35 94 46 20 88 41 14
76 33 11 69 29 11 68 30 14 68 34 17 83 44 27
92 55 28 79 47 16 69 38 22 51 23 20 55 42 26
133 137 115 199 219 201 132 166 143 36 51 47 86 81 91
41 63 65 30 57 49 28 58 47 30 63 52 41 70 55
45 78 62 52 83 62 41 77 59 56 87 69 56 94 66
46 85 61 70 99 41 127 134 63 161 124 46 255 220 151
255 255 223 237 181 122 107 72 41 73 40 15 80 32 12
113 34 25 149 50 40 155 53 52 152 52 57 155 56 58
154 66 62 146 69 68 122 46 47 88 25 25 89 35 42
98 51 93 50 20 100 33 16 130 126 114 243 179 179 255
64 74 151 67 49 27 73 55 92 39 25 88 61 48 84
120 108 133 128 106 149 17 9 34 94 105 76 63 75 47
19 15 34 22 20 41 20 20 30 20 19 27 20 17 25
88 99 87 175 152 159 255 255 255 255 255 255 145 124 187
46 39 126 6 6 97 7 9 83 9 5 71 18 16 34
21 9 26 36 2 25 54 13 30 73 31 43 79 31 48
49 19 26 64 39 26 92 60 55 69 48 49 44 20 60
83 62 109 135 116 149 136 126 142 132 115 121 99 76 96
55 37 91 64 35 112 31 18 98 22 17 88 45 47 107
60 86 119 87 183 170 142 255 241 62 41 31 255 255 255
127 193 154 7 70 44 20 24 34 100 81 62 135 129 97
92 98 58 43 45 20 7 20 58 42 33 99 64 52 116
63 65 120 46 55 107 93 96 136 97 96 122 29 37 46
28 33 33 38 39 47 46 47 49 61 61 60 69 64 71
89 82 93 81 69 80 47 28 41 44 25 32 29 10 11
25 6 9 33 18 7 54 27 16 99 40 8 102 33 27
66 20 65 74 22 64 120 71 66 198 210 255 255 255 255
255 255 255 102 87 100 78 102 66 66 73 56 30 33 29
60 71 35 107 118 78 174 184 161 255 255 255 255 255 255
218 220 211 186 189 164 66 64 93 233 219 255 177 163 244
52 41 117 68 57 126 42 33 89 9 15 31 2 4 34
14 10 37 27 24 37 25 24 36 10 10 20 4 8 10
9 19 11 1 12 17 11 9 22 6 12 21 3 8 25
13 6 17 20 4 6 20 4 6 20 3 4 27 14 7
55 38 26 103 87 72 145 131 110 152 137 112 106 97 78
41 34 14 18 27 44 29 33 58 10 4 22 54 37 23
57 48 32 41 34 20 34 34 36 111 115 123 97 100 114
46 33 26 117 127 138 72 21 12 255 223 183 255 206 120
207 69 7 86 22 23 41 13 9 31 22 12 7 4 1
7 7 7 6 4 8 6 0 4 6 0 0 3 0 0
4 0 0 7 11 4 4 7 0 12 9 4 1 5 3
9 15 6 2 10 4 22 7 5 38 14 8 118 77 50
255 255 239 255 255 255 153 124 122 27 52 57 37 55 63
27 44 57 81 108 122 141 158 169 63 72 81 64 81 84
88 101 109 85 98 111 78 92 105 73 89 103 86 108 122
78 116 128 59 109 121 45 93 88 42 45 30 105 41 7
168 106 42 191 134 76 196 142 102 138 88 60 80 29 12
77 30 4 65 24 3 54 18 6 46 18 12 42 22 11
61 36 7 86 61 29 94 73 38 92 70 38 66 38 9
63 45 19 145 145 118 210 216 195 115 129 110 42 49 54
74 75 83 35 58 59 31 55 46 30 56 45 30 63 51
32 70 49 34 78 53 49 90 58 55 93 58 44 68 29
31 58 11 45 68 46 88 105 17 140 129 45 140 103 31
242 181 107 255 255 195 255 173 120 152 77 46 106 42 32
88 37 28 92 52 20 85 31 3 54 12 11 38 12 9
64 4 3 106 43 24 124 67 51 106 38 40 72 12 10
84 30 46 98 51 104 48 18 108 36 16 134 133 117 245
181 180 255 63 72 142 69 48 31 72 50 91 40 24 88
68 53 90 123 111 135 124 103 146 10 10 31 92 104 71
58 72 38 16 13 36 25 22 43 24 21 31 24 20 30
24 20 34 88 95 92 128 104 110 255 255 255 255 255 255
166 147 204 39 27 112 10 4 96 2 4 86 7 4 68
22 15 37 21 11 29 29 6 22 53 13 23 72 29 39
78 31 47 45 10 40 39 9 51 77 27 68 87 46 86
101 73 122 140 119 173 173 153 207 162 146 200 147 127 182
121 95 157 89 68 137 91 67 137 71 63 122 59 56 99
38 41 88 18 61 85 39 134 119 129 255 244 17 80 90
240 255 242 220 255 237 72 127 104 17 46 42 60 25 16
91 64 47 99 82 54 66 57 18 13 30 35 46 34 85
68 53 116 67 69 125 38 49 111 86 86 149 101 92 141
33 27 64 42 43 53 65 66 74 65 65 70 71 73 71
83 82 80 85 81 82 67 53 60 44 22 34 39 14 23
34 11 10 44 21 15 61 41 21 75 46 27 78 28 34
81 17 42 60 8 50 59 14 38 69 33 66 255 255 255
255 255 255 255 255 255 22 39 18 68 95 50 48 50 47
39 41 46 68 76 59 110 115 99 157 160 146 232 241 211
255 255 255 255 255 255 123 121 148 255 255 255 255 255 255
196 185 253 102 96 149 53 46 108 19 10 67 9 4 51
22 18 54 25 20 52 27 24 48 21 20 41 7 8 29
2 6 23 11 21 11 12 17 9 18 16 20 11 16 21
7 10 25 16 3 13 24 6 4 22 4 1 21 6 4
56 39 33 113 92 81 139 118 106 125 108 86 96 90 58
49 49 36 37 50 59 33 44 57 11 13 21 47 31 21
84 61 49 84 68 57 58 43 39 50 49 53 110 114 122
92 95 110 60 47 39 121 129 142 84 31 16 255 236 194
255 214 118 194 57 1 79 42 28 55 28 20 54 38 23
21 13 8 13 7 10 10 3 7 2 4 2 7 9 3
8 9 3 7 4 1 3 7 3 7 10 4 7 9 3
6 10 4 6 8 4 6 8 4 5 8 4 20 6 1
56 23 13 207 168 150 255 255 255 255 255 255 140 100 92
24 21 29 55 51 48 188 183 188 192 180 186 55 30 18
96 99 98 70 76 76 49 55 61 47 45 56 58 52 63
57 57 66 44 58 68 66 97 107 75 116 117 45 85 65
35 23 11 100 41 8 154 92 25 223 164 92 221 163 108
147 90 60 96 48 20 57 17 17 52 27 16 57 36 7
46 22 11 30 16 23 38 25 14 77 62 35 105 94 58
82 69 33 78 66 34 160 154 123 201 199 174 97 98 85
44 53 64 63 69 78 40 63 64 44 74 66 56 81 71
47 75 59 32 66 42 32 68 42 47 77 38 60 86 46
53 66 20 72 69 13 87 70 40 110 88 13 153 115 50
220 165 83 255 255 187 255 251 198 247 160 125 153 74 52
99 40 22 71 34 17 59 35 5 38 23 13 21 26 11
16 25 14 36 9 6 96 40 14 123 63 44 106 37 47
81 9 25 92 32 65 83 33 101 57 17 128 87 61 189
159 138 255 157 153 255 41 54 115 63 43 29 69 45 92
47 30 96 70 49 87 123 111 135 121 106 147 4 8 28
90 102 65 48 64 27 31 25 47 30 20 40 23 13 27
21 16 32 20 19 36 79 87 87 70 47 50 255 255 255
255 255 255 171 152 206 39 27 104 23 17 104 8 2 87
2 3 68 21 14 37 22 9 28 23 7 27 49 12 33
70 26 50 74 30 63 52 9 64 53 20 73 93 57 102
130 99 143 163 134 183 180 159 201 179 160 202 156 144 184
136 122 165 107 86 138 81 64 115 73 54 102 21 16 61
37 33 34 57 60 78 68 92 112 70 127 130 133 244 235
130 241 253 96 57 28 255 255 255 231 255 255 72 119 105
62 29 27 71 24 23 87 57 42 73 72 38 56 63 42
50 40 47 55 32 97 69 76 138 26 42 116 72 72 153
108 96 169 68 58 111 55 51 88 44 40 69 33 32 43
36 35 30 48 42 35 55 47 45 49 37 39 34 24 22
29 6 10 34 15 3 45 29 4 52 37 6 55 27 17
56 11 53 74 18 51 53 7 55 47 6 50 102 125 182
255 255 255 255 255 255 175 170 183 35 54 18 48 60 37
58 58 49 66 65 52 83 85 62 85 87 64 51 63 22
126 138 105 150 153 138 215 212 224 255 255 255 255 255 255
186 173 252 51 40 117 19 21 77 20 23 68 22 16 71
29 21 74 25 19 57 25 20 53 19 14 45 11 11 33
6 9 21 6 11 15 18 29 14 15 24 1 21 22 27
16 23 27 3 9 24 16 5 8 25 10 6 25 9 2
30 16 9 96 78 72 139 115 105 86 64 54 43 39 17
74 78 61 60 62 56 14 24 33 31 31 4 61 55 30
66 49 37 90 67 57 88 75 65 57 45 48 76 76 82
109 113 121 82 89 103 69 56 51 125 130 144 94 39 23
255 243 202 255 222 124 185 45 0 70 54 36 57 36 36
77 55 40 53 42 32 12 9 8 8 1 4 7 7 1
13 12 4 9 11 4 12 11 4 3 1 0 3 2 0
3 2 0 3 9 3 8 16 6 9 16 6 4 9 3
16 8 2 23 3 0 86 53 50 255 231 214 255 255 255
255 255 255 255 255 255 255 255 255 255 255 255 243 211 202
201 183 170 136 134 130 62 75 79 44 54 61 59 59 68
93 86 96 77 67 76 40 40 48 64 80 86 89 118 123
63 91 90 15 38 23 31 26 8 49 12 7 123 75 35
193 143 89 191 139 102 146 98 72 75 28 11 35 19 33
38 18 20 54 29 9 47 24 3 29 30 33 47 30 16
97 86 55 92 89 45 109 100 60 175 163 128 170 164 137
75 72 65 47 63 72 52 64 66 36 50 49 20 46 32
30 50 30 38 54 28 40 59 24 34 53 10 30 39 20
49 55 46 73 62 43 98 66 31 131 88 17 208 152 56
255 228 145 255 255 220 255 255 224 255 191 148 178 102 73
101 34 18 87 34 3 65 33 6 32 13 8 27 6 10
17 7 11 17 15 11 31 14 7 82 32 6 114 57 31
106 36 44 102 26 53 101 38 90 63 11 96 98 55 180
174 145 255 166 148 255 96 95 198 4 13 69 51 33 23
63 37 92 55 36 109 61 38 79 122 110 134 120 108 148
0 15 25 85 97 58 30 41 18 28 20 44 18 10 24
11 1 21 8 6 23 7 7 18 94 100 98 58 51 51
255 255 255 255 255 255 207 185 240 59 48 121 38 33 116
12 4 85 1 4 65 13 12 40 20 11 31 27 9 29
51 17 44 76 34 62 81 38 74 77 42 89 108 82 123
157 133 162 182 158 188 171 145 177 134 112 134 108 89 98
92 85 73 89 83 68 96 88 79 94 89 87 101 95 104
114 116 128 115 115 134 73 74 113 40 58 96 12 57 73
61 133 141 171 255 255 123 222 244 103 93 65 255 255 255
190 236 216 44 58 48 59 17 24 57 13 10 62 48 28
62 49 31 40 52 11 19 34 75 75 99 156 35 66 129
48 55 131 89 78 162 89 75 144 81 71 125 43 33 78
16 14 40 28 25 21 43 35 26 50 42 40 49 36 31
44 37 23 37 29 17 37 17 12 41 27 13 39 34 24
48 25 45 63 15 53 56 3 70 48 12 69 44 9 61
247 255 255 255 255 255 255 255 255 79 76 72 30 37 6
43 60 13 55 71 20 58 66 27 41 52 17 124 133 106
229 236 211 253 255 244 255 255 255 255 255 255 255 255 255
219 204 255 53 39 123 23 30 82 13 25 77 10 6 69
31 16 77 30 15 71 19 7 45 12 0 32 4 8 22
4 15 13 8 20 3 11 24 4 15 27 10 6 12 16
17 24 31 15 23 28 2 8 22 18 6 7 29 9 8
30 10 5 54 38 31 114 96 90 105 82 74 35 28 35
38 43 51 68 68 45 71 61 42 58 54 32 76 70 54
78 66 53 57 37 30 76 50 43 77 67 55 40 27 40
94 90 100 115 120 129 76 91 101 77 66 62 133 139 150
94 44 20 255 252 210 255 227 130 181 38 1 60 59 43
47 46 60 87 65 55 104 92 81 48 44 37 4 0 0
4 6 1 19 16 7 2 3 1 14 16 7 3 3 0
3 0 0 4 0 0 6 0 0 8 0 0 7 1 0
3 2 0 8 7 6 11 4 12 11 7 17 81 52 40
225 189 178 255 255 255 255 255 255 255 255 255 255 242 226
215 168 147 255 255 255 156 140 134 15 47 56 10 31 43
27 37 50 90 95 107 123 121 130 89 89 95 79 90 93
110 129 132 77 92 100 12 32 29 64 81 63 82 111 76
60 93 63 66 51 17 149 102 74 175 125 101 133 81 60
61 14 12 20 17 42 34 21 25 67 43 25 54 37 38
37 17 24 86 68 38 102 95 52 137 127 85 176 164 128
139 129 103 50 52 49 50 68 70 50 62 55 37 45 31
18 25 8 10 13 20 15 17 26 28 27 25 35 24 41
54 29 47 103 60 25 145 92 38 201 130 30 255 224 128
255 255 239 255 255 255 255 255 228 241 164 128 151 72 45
91 23 7 61 5 4 76 34 3 70 42 4 34 21 6
28 30 10 10 24 11 25 9 8 41 12 4 87 41 9
113 58 35 99 32 51 98 28 72 95 32 98 83 28 132
175 135 255 209 183 255 105 96 223 30 34 130 28 14 54
52 26 43 59 33 97 48 28 109 55 34 77 122 110 134
120 108 149 2 22 27 80 92 53 18 27 13 18 1 35
3 14 10 5 4 19 4 9 16 4 8 7 109 114 108
43 52 55 255 255 255 255 255 255 229 204 255 72 61 133
51 47 130 23 13 91 12 4 69 2 4 47 14 11 33
32 15 24 57 27 38 82 41 52 84 36 56 104 59 96
127 87 121 125 87 109 117 73 96 92 47 72 93 74 83
125 115 124 148 142 151 157 151 164 162 154 172 165 158 182
164 158 187 135 133 167 71 74 123 44 51 99 48 53 82
18 20 56 13 46 78 80 160 190 200 255 255 137 193 225
138 161 129 250 255 255 61 115 98 55 11 8 47 11 3
42 8 3 44 24 3 65 105 73 50 87 97 101 135 180
82 126 176 39 50 119 55 50 137 90 80 157 91 79 141
57 45 93 29 21 55 35 27 28 44 35 25 44 37 35
40 31 23 36 36 15 37 35 17 35 25 22 36 18 22
33 28 25 46 27 38 69 22 44 48 9 69 77 44 27
14 48 87 255 255 255 255 255 255 248 247 255 33 42 23
6 18 0 14 18 0 20 33 0 45 59 21 168 178 128
255 255 255 255 255 255 255 255 255 255 255 255 255 255 255
255 254 255 124 107 183 31 13 95 24 6 94 29 9 98
34 16 89 39 21 83 34 18 67 28 16 46 20 11 39
13 12 29 4 15 16 6 20 7 9 20 3 4 12 4
7 4 12 12 19 21 8 17 22 9 9 20 21 6 5
36 13 11 40 18 16 72 53 49 100 84 77 59 38 31
13 19 30 35 24 9 88 78 48 88 79 58 69 65 41
73 62 42 70 55 45 53 33 43 69 44 38 76 68 56
35 27 42 100 97 114 127 132 143 72 92 100 94 84 78
150 158 167 98 55 29 255 255 222 255 232 137 178 40 6
66 65 51 60 85 103 110 95 102 167 144 140 114 103 98
17 9 7 4 3 0 13 12 6 8 6 4 11 14 6
3 6 0 3 0 0 7 0 0 11 0 0 10 0 0
12 0 0 11 0 3 8 6 19 8 7 23 2 3 18
20 7 10 62 39 23 106 75 64 114 81 74 83 51 49
56 17 16 218 178 159 255 255 255 205 171 166 33 16 16
4 38 46 17 27 38 18 40 55 85 91 108 118 117 132
122 126 131 122 131 135 58 79 84 72 84 88 119 124 128
89 112 124 71 101 118 15 48 71 81 38 15 156 107 82
186 134 109 148 102 81 83 47 24 39 35 37 36 17 29
48 14 25 50 18 17 82 59 25 116 100 55 163 149 108
175 162 128 110 96 72 25 31 23 50 62 48 62 64 35
70 64 28 73 56 20 71 44 22 68 35 22 73 36 30
102 53 28 174 110 24 251 169 78 255 234 142 255 255 235
255 255 255 255 255 255 255 255 162 210 132 69 99 36 6
58 31 32 57 45 38 63 38 27 73 44 15 77 50 9
67 31 3 61 17 0 42 6 0 56 19 0 70 28 6
101 54 30 107 51 58 81 19 62 74 11 77 81 22 111
147 93 215 255 219 255 206 185 255 82 86 188 37 41 108
37 25 58 69 44 75 56 35 110 31 14 100 54 34 78
123 109 134 120 108 151 3 20 31 75 90 50 15 26 17
16 1 34 8 14 10 3 3 20 6 4 19 8 7 16
103 109 103 20 47 50 255 255 255 255 255 255 225 201 248
59 49 116 53 51 128 34 27 99 17 14 77 12 7 54
7 5 40 31 9 39 59 33 56 82 44 64 77 33 57
113 69 92 123 78 95 112 72 88 136 101 122 134 111 135
121 108 133 113 102 130 110 100 137 111 98 147 117 101 156
116 102 161 107 92 152 86 71 133 84 83 129 75 80 116
27 30 89 27 40 100 32 51 98 44 67 108 106 187 223
230 255 255 44 61 92 237 255 231 174 215 198 30 39 22
67 8 22 57 15 20 61 34 23 119 148 116 79 106 92
116 160 190 135 188 228 29 47 123 30 31 121 88 83 162
94 84 149 65 49 105 35 22 65 35 24 34 41 23 28
35 17 31 31 7 21 26 18 6 29 26 15 32 23 29
35 22 28 44 37 25 58 44 27 67 29 44 83 46 38
100 70 31 177 212 255 255 255 255 255 255 255 110 106 125
13 26 4 27 53 0 11 45 0 52 78 25 165 181 117
255 255 255 255 255 255 255 255 254 175 183 180 218 204 220
255 239 255 159 142 196 73 55 131 47 29 102 60 42 116
59 42 109 54 35 98 51 31 86 40 23 59 34 23 42
29 22 37 23 17 31 14 12 24 8 10 15 9 6 13
10 8 15 16 16 16 8 11 14 4 11 18 9 9 20
21 4 3 40 21 17 49 26 24 73 51 49 81 67 57
42 21 20 27 2 11 70 55 31 96 86 59 83 71 50
73 66 43 76 72 49 61 53 34 41 31 40 57 39 29
63 60 46 29 32 48 104 107 128 136 141 154 64 84 95
117 109 102 170 179 190 99 58 41 255 255 238 255 238 151
173 40 13 67 69 60 83 125 149 123 118 130 201 172 168
185 164 159 40 24 22 13 8 4 1 1 0 12 10 4
8 11 1 1 6 3 8 0 4 12 0 4 11 0 6
10 0 10 11 0 12 13 0 13 10 10 28 5 3 16
12 10 17 8 8 11 8 3 10 17 3 6 23 7 0
25 6 0 31 4 0 165 127 110 255 255 255 255 255 250
146 95 93 35 28 35 17 54 63 3 42 55 27 50 65
128 127 146 187 186 194 88 93 94 61 73 88 139 143 158
128 133 146 64 87 109 71 95 121 47 73 102 11 25 50
77 40 13 153 107 80 179 137 113 147 108 83 82 43 18
38 6 38 42 8 39 62 18 11 88 48 17 138 111 69
192 174 138 171 156 133 80 67 56 20 29 31 57 56 38
65 42 18 68 31 27 77 32 42 104 40 37 143 68 7
187 105 22 227 132 38 255 186 91 255 255 175 255 255 228
255 255 238 255 255 177 247 174 84 128 70 23 79 70 45
73 104 83 59 81 85 69 66 64 73 51 41 67 47 20
62 44 10 70 38 10 83 36 9 77 32 8 87 43 17
90 44 31 106 54 65 99 41 85 71 18 82 63 8 100
100 38 164 227 175 255 255 255 255 172 149 255 77 78 147
58 54 93 47 31 63 84 58 104 62 41 128 24 10 96
53 37 79 124 108 135 121 109 153 2 16 33 70 91 46
10 25 20 12 3 34 11 14 13 5 4 27 8 4 28
8 4 23 85 96 92 29 46 37 255 255 255 255 255 255
207 184 226 32 23 87 43 41 113 39 29 100 21 14 76
10 10 51 24 16 45 52 37 60 80 62 85 95 66 91
82 54 82 94 59 72 85 43 42 63 23 44 86 42 72
90 46 81 74 45 82 65 50 86 66 55 101 80 69 127
101 86 150 97 80 148 81 58 125 92 75 124 103 96 148
81 81 148 70 67 149 83 94 151 78 86 141 56 79 121
35 91 131 186 240 255 174 200 237 114 111 86 255 255 255
152 203 182 48 103 84 22 63 46 24 37 27 141 162 143
117 118 101 126 171 183 160 218 245 20 49 123 21 30 122
89 85 165 93 83 152 64 46 111 38 21 70 36 24 37
41 22 30 35 12 30 33 3 24 25 4 17 23 14 9
23 19 33 31 21 34 51 43 20 65 54 20 58 36 53
87 46 17 51 55 102 255 255 255 255 255 255 255 255 255
16 11 27 43 53 18 78 91 47 141 162 102 245 255 201
255 255 255 255 255 255 255 255 255 244 255 240 206 210 209
235 219 232 205 181 212 101 84 136 59 40 114 60 40 118
65 44 120 57 41 98 57 37 95 56 36 79 44 27 51
38 27 37 35 28 30 30 22 28 23 14 25 20 6 22
26 9 24 29 21 26 19 21 22 14 11 14 11 4 12
7 9 19 20 2 4 43 27 23 56 34 32 72 48 46
65 49 41 35 15 9 44 22 7 83 69 41 83 73 43
70 59 35 85 82 58 87 89 64 61 57 37 41 37 36
52 41 31 50 43 31 42 48 64 111 115 135 139 140 157
53 71 82 144 134 131 192 199 212 94 58 42 255 255 253
255 245 167 168 37 16 65 70 70 95 144 176 95 104 126
192 162 165 218 194 190 58 35 34 14 2 2 14 8 5
6 4 0 7 4 3 5 3 4 9 1 4 9 0 4
6 0 8 7 0 12 8 0 12 10 0 10 3 12 24
7 1 4 16 12 24 0 1 7 2 1 7 10 6 8
14 3 3 27 6 1 37 9 0 96 61 46 248 209 185
255 255 255 255 255 255 231 180 177 99 56 52 15 55 66
33 54 72 191 190 202 228 226 227 26 9 13 151 146 163
159 162 180 107 115 137 69 87 112 87 104 129 52 77 105
20 49 78 4 33 54 65 25 3 129 85 65 156 112 98
136 91 71 87 38 30 64 11 42 74 17 12 106 53 28
173 140 110 214 192 163 151 132 117 48 38 34 47 46 33
74 60 36 82 39 29 92 35 36 108 40 43 139 52 30
178 89 30 214 119 31 240 125 22 255 197 110 255 255 208
255 255 151 255 178 74 163 86 23 70 26 13 58 66 43
141 147 110 120 127 103 67 60 64 67 56 56 69 60 44
52 51 23 30 30 3 44 16 16 71 30 27 89 47 39
99 52 51 89 38 56 93 43 85 89 35 102 71 29 109
74 32 139 168 110 250 255 255 255 255 254 255 113 86 229
74 74 103 67 59 78 51 31 65 86 59 118 73 44 143
27 12 100 50 40 80 123 109 137 125 111 156 3 13 35
69 91 44 8 24 20 13 6 39 11 13 21 13 11 34
15 12 30 13 12 19 87 96 96 22 38 35 255 255 255
255 255 255 202 180 219 22 8 71 38 34 102 44 33 102
22 11 70 11 9 42 32 25 43 59 47 65 79 57 77
79 43 66 53 20 41 65 28 10 69 29 29 54 17 43
67 17 51 77 19 58 65 28 66 51 37 74 43 32 80
42 33 94 62 44 108 91 74 129 100 78 133 99 77 129
88 77 139 101 96 162 128 121 187 113 110 166 83 80 140
64 94 144 34 92 137 112 165 213 209 249 255 90 112 132
152 161 143 233 255 252 175 228 210 139 191 173 116 162 152
139 180 171 117 129 128 147 206 207 168 236 255 19 43 115
13 28 124 89 85 167 93 81 153 63 45 115 44 22 76
39 27 38 39 24 29 36 13 27 36 11 22 31 15 19
24 19 4 19 21 34 27 18 41 52 45 18 67 56 10
66 39 46 30 17 66 255 255 255 255 255 255 255 255 255
40 53 78 186 196 150 251 255 221 255 255 255 255 255 255
255 255 255 255 255 255 255 255 255 255 255 255 212 221 209
175 179 174 158 139 149 108 82 110 54 35 91 47 31 107
64 44 132 48 24 114 30 21 77 33 13 82 32 16 63
33 24 33 35 30 26 38 34 31 33 25 29 27 16 23
28 15 23 33 22 25 30 27 25 20 19 21 25 14 15
13 4 6 6 11 17 23 3 7 47 33 29 63 44 41
75 48 47 56 34 34 27 11 8 50 32 14 89 71 43
74 62 34 69 63 39 114 111 89 92 94 74 54 51 40
48 43 39 55 49 41 41 34 27 63 70 86 120 120 137
131 130 152 42 60 70 164 151 154 209 218 227 91 51 37
255 255 255 255 254 182 162 33 17 56 71 82 75 123 163
55 85 105 183 160 163 208 183 180 66 43 40 19 8 4
17 7 4 0 4 0 5 5 4 8 6 4 11 3 0
8 0 0 4 0 8 3 0 8 4 0 0 10 0 0
6 9 15 13 8 16 12 9 20 0 1 7 2 4 7
6 6 3 8 2 3 9 6 3 17 9 6 29 12 6
101 67 55 227 190 171 255 255 255 255 255 255 255 255 255
206 154 145 176 151 151 255 255 255 197 190 182 154 143 146
227 214 229 132 132 152 90 98 123 93 105 129 114 128 152
67 88 114 28 52 82 24 56 74 6 32 47 57 18 1
110 71 64 133 95 87 129 83 74 110 53 51 105 36 20
148 84 62 222 183 164 219 192 176 102 85 82 44 23 13
79 62 25 99 72 20 124 70 6 146 81 18 159 83 34
162 70 22 158 72 44 153 73 69 202 103 60 255 226 157
255 255 203 214 135 86 97 28 1 41 18 8 119 95 61
183 165 136 193 175 156 85 70 62 81 76 91 85 86 85
65 69 48 41 47 19 15 19 13 34 8 28 60 31 38
84 47 57 84 38 54 70 22 48 78 33 87 88 37 118
87 33 135 103 55 173 255 202 255 255 255 255 221 181 255
53 33 144 71 72 64 70 60 64 58 40 71 81 54 123
72 37 147 32 6 101 52 40 80 124 112 140 129 112 159
4 13 36 70 88 43 8 24 21 20 13 51 12 13 31
16 16 34 16 16 25 16 16 16 102 111 102 38 65 63
255 255 255 255 255 255 228 204 242 35 18 81 47 38 106
42 33 99 13 4 60 11 13 37 28 23 25 54 34 41
64 35 35 64 34 24 74 53 52 98 68 85 108 73 99
97 63 97 93 55 96 96 55 107 100 64 121 92 68 121
69 51 104 31 16 85 29 12 80 79 61 113 119 100 151
110 90 137 54 47 84 8 9 60 37 32 80 40 25 100
44 31 113 38 73 144 49 104 162 35 77 136 128 174 216
192 236 254 97 110 121 60 67 52 134 147 139 201 219 209
216 233 222 202 237 230 150 187 183 207 255 255 200 255 255
12 64 129 10 41 134 88 89 171 96 84 156 68 51 122
50 29 87 40 31 46 40 27 32 38 19 27 39 20 25
40 22 24 30 20 10 22 18 40 27 10 50 51 44 31
73 57 22 80 35 21 87 136 182 255 255 255 255 255 255
120 133 181 243 255 206 255 255 255 255 255 255 255 255 255
255 255 255 255 255 255 255 255 255 255 255 249 194 191 188
160 154 156 108 95 105 50 14 36 43 38 45 49 51 88
58 52 122 76 52 151 37 11 107 21 27 52 18 17 75
26 21 72 20 14 28 33 30 13 36 37 30 29 26 26
20 15 14 22 19 15 25 24 21 22 23 21 27 10 18
32 16 16 16 7 4 6 11 17 24 6 6 49 37 33
68 49 46 70 43 43 46 24 25 25 13 7 57 42 23
92 72 47 64 52 25 70 66 42 141 135 117 91 94 73
43 42 35 50 43 43 51 46 47 33 35 40 86 94 110
124 126 139 116 119 139 39 55 69 172 157 158 222 234 237
86 41 23 255 255 255 255 255 191 159 28 20 51 69 91
31 75 117 55 79 89 174 160 163 169 143 142 62 36 32
21 4 2 17 3 1 9 7 1 10 5 3 13 9 3
18 6 4 19 1 4 18 0 8 17 0 12 18 0 12
24 0 12 28 4 13 26 3 9 21 4 10 13 4 10
9 7 7 10 9 3 10 9 1 9 11 4 12 9 7
10 2 0 21 2 5 51 27 23 123 91 85 255 231 220
255 255 255 255 255 255 255 255 255 255 255 255 156 114 89
255 255 255 249 235 247 73 84 103 66 85 100 91 102 123
129 142 166 92 111 133 37 64 93 31 61 79 17 37 50
33 16 26 65 27 16 90 53 42 119 85 60 123 76 47
126 55 30 200 130 116 255 226 215 205 178 175 44 28 63
76 53 45 106 70 21 125 74 17 149 69 16 150 55 21
132 44 51 124 30 57 125 38 51 127 54 61 255 188 140
255 255 233 250 186 156 107 63 58 25 14 6 110 78 51
222 174 140 249 200 177 141 99 92 81 68 95 118 118 127
87 91 74 38 44 18 33 25 1 31 12 20 53 31 49
65 41 52 66 32 46 50 16 36 38 10 40 65 31 96
91 47 140 94 44 156 106 67 184 255 255 255 255 255 255
117 106 208 61 77 69 66 66 38 69 61 65 71 56 92
76 53 125 60 27 137 29 2 98 58 38 84 126 114 144
129 112 159 6 11 37 71 85 40 9 24 22 28 22 60
11 15 36 14 16 27 13 13 20 12 12 13 105 116 111
80 104 95 255 255 255 255 255 255 255 237 255 54 35 94
49 36 105 35 23 94 19 21 66 7 18 39 17 13 8
44 21 25 63 36 47 75 43 73 81 43 95 89 41 103
103 47 102 110 49 104 110 47 104 104 39 105 105 45 118
107 63 126 96 68 117 55 29 92 25 17 78 55 36 84
122 104 142 139 127 167 81 75 105 50 62 18 81 94 11
58 83 30 10 40 75 40 61 152 75 108 202 31 61 154
60 97 166 122 178 214 153 214 220 188 249 247 151 200 196
83 131 126 34 71 75 63 100 101 62 57 58 188 244 233
255 255 255 109 183 229 30 72 153 76 83 167 99 94 178
66 61 147 47 39 123 48 38 92 39 22 54 37 11 38
47 16 35 56 24 33 39 25 37 20 33 86 20 21 98
67 56 68 90 64 42 31 40 105 255 255 255 255 255 255
255 255 255 120 115 71 255 255 245 255 255 255 236 253 226
228 238 226 208 213 199 159 162 146 135 130 122 107 101 90
98 85 86 89 62 86 77 36 75 48 45 56 10 37 22
47 55 82 76 79 135 79 72 149 43 58 99 50 65 78
38 45 96 47 42 96 16 2 40 38 30 12 35 36 25
27 23 22 19 11 10 13 9 4 1 8 11 18 10 13
32 13 10 37 23 18 23 16 7 15 17 19 24 11 7
45 33 29 66 45 44 70 46 46 46 28 23 35 25 11
73 60 40 92 72 51 55 44 26 70 66 47 148 142 128
88 91 72 27 29 15 41 29 15 34 22 21 19 32 47
118 127 144 122 128 139 93 102 113 31 47 66 175 162 149
225 240 234 75 36 10 255 255 255 255 255 200 165 39 18
50 71 99 60 57 94 103 65 66 206 157 146 252 200 190
151 108 92 47 20 13 27 16 4 31 12 6 24 3 3
31 6 3 42 6 4 48 2 4 55 0 6 59 0 10
62 1 12 66 3 12 70 7 13 71 9 7 65 8 11
55 6 10 44 4 2 35 5 3 27 3 2 18 3 3
4 4 4 13 9 8 16 6 4 22 14 8 20 3 3
68 50 45 168 145 138 255 241 229 255 246 229 205 168 149
181 138 125 255 255 255 255 242 249 52 76 93 72 108 117
75 96 109 103 117 137 98 119 140 72 100 127 45 82 99
6 56 67 21 38 53 40 11 26 52 19 8 70 52 11
96 77 26 130 83 52 232 169 158 255 250 237 192 150 144
91 49 50 147 99 68 148 73 13 151 55 31 164 51 43
120 4 74 64 55 118 88 37 87 164 85 51 255 188 150
255 255 255 255 255 248 132 89 89 30 18 27 110 55 25
235 163 116 255 209 175 214 142 118 70 31 45 128 127 139
129 120 117 77 67 55 19 16 4 22 12 9 28 6 27
53 34 58 55 34 53 44 20 41 36 17 41 28 14 55
58 33 109 81 52 145 111 87 194 220 213 255 255 255 255
255 255 255 115 172 143 117 144 72 81 78 48 78 62 77
66 51 93 68 48 118 50 17 124 25 8 93 64 40 92
123 111 145 126 113 156 12 4 44 73 84 39 20 32 23
37 24 67 27 13 52 17 2 31 9 5 19 3 10 7
105 114 102 78 100 69 255 255 255 255 255 255 255 255 255
72 49 99 37 20 87 31 20 91 24 18 79 6 12 45
8 5 24 28 6 23 45 16 45 51 16 61 49 5 69
59 5 76 80 16 81 99 30 83 103 35 82 86 10 67
75 1 65 85 35 69 96 63 75 67 31 54 26 10 36
42 20 37 100 81 103 142 133 164 118 112 149 39 42 82
16 20 44 38 55 44 51 49 77 55 43 146 95 102 214
83 100 209 81 108 201 68 108 174 84 127 137 108 175 186
190 248 255 209 255 255 218 255 255 215 255 255 181 243 255
51 73 84 201 241 240 249 255 255 100 162 220 55 85 157
100 112 197 73 89 184 61 73 164 68 71 148 44 49 112
48 49 96 63 44 84 55 28 75 15 45 110 33 69 144
50 30 93 111 79 53 91 56 33 146 193 255 255 255 255
255 255 255 123 133 171 181 189 139 255 255 247 255 255 255
189 190 182 135 126 126 98 83 90 73 55 75 81 60 85
70 54 65 44 32 38 3 29 6 22 56 27 32 62 37
20 38 41 34 30 70 70 72 119 62 70 121 52 65 81
48 59 78 58 54 112 66 56 111 11 10 43 39 31 18
34 34 22 22 18 19 15 6 13 12 3 12 18 10 23
28 18 27 36 23 19 40 26 20 25 17 13 16 17 20
19 11 16 37 25 23 58 36 35 82 58 56 61 45 38
42 33 25 79 67 46 79 58 41 42 27 14 71 65 47
135 130 117 82 83 66 38 38 9 50 43 9 49 43 16
39 42 59 157 169 184 110 121 128 63 78 86 11 29 51
174 165 140 216 235 217 47 19 9 255 255 255 255 255 214
176 69 6 46 77 109 88 96 124 187 174 172 255 255 247
255 255 255 255 255 255 116 76 68 17 17 7 24 7 1
25 13 7 37 7 1 44 6 0 52 1 0 58 0 0
63 1 0 70 4 0 73 6 0 73 4 9 71 4 12
73 7 13 73 6 6 63 6 1 49 10 3 36 12 4
26 10 3 23 4 1 19 3 0 2 4 1 19 20 7
22 21 9 9 7 6 2 4 0 21 13 14 41 20 16
34 5 4 167 130 122 255 255 255 255 255 255 134 93 83
52 76 88 75 97 111 87 106 120 97 122 139 93 126 146
81 124 138 47 100 108 17 70 85 15 53 71 40 57 78
54 59 88 52 33 74 99 64 64 217 166 146 255 251 222
244 187 141 188 121 60 174 94 55 137 35 33 123 9 62
99 44 98 38 85 141 93 26 72 255 167 129 255 255 255
255 255 255 255 255 255 158 133 124 17 10 24 109 43 3
222 133 68 255 220 163 243 165 135 119 50 32 85 89 93
157 149 144 114 100 90 66 46 42 26 3 23 36 14 39
42 21 47 47 30 57 51 33 56 34 17 48 37 16 56
48 28 88 48 31 122 97 84 180 255 252 255 255 255 255
255 255 255 223 255 255 187 234 151 151 180 101 97 114 81
63 66 76 37 39 67 62 59 114 53 27 124 26 6 89
63 41 94 117 106 140 123 116 152 18 13 51 73 82 40
32 48 23 27 12 62 33 19 65 30 9 52 21 7 38
12 6 20 84 97 54 32 53 7 255 255 255 255 255 255
255 255 255 85 58 101 26 8 66 33 12 90 27 8 86
9 0 52 10 7 37 13 8 29 21 6 30 30 10 39
38 13 50 45 14 66 60 21 65 82 31 49 96 42 56
86 23 41 72 4 37 88 32 34 104 62 54 83 39 36
41 7 8 33 8 16 80 57 68 125 113 129 125 120 134
84 85 97 66 68 79 83 84 88 86 82 89 48 46 113
65 66 156 89 96 186 140 153 243 146 161 245 99 116 160
45 66 111 52 68 115 44 62 107 90 114 151 181 207 242
253 255 255 255 255 255 61 62 76 229 255 255 229 255 255
86 115 160 63 79 135 69 95 170 86 103 186 74 81 160
32 44 123 52 39 108 76 47 89 40 14 83 38 74 135
15 36 98 131 92 52 139 109 58 42 20 49 255 255 255
255 255 255 255 255 255 166 165 118 255 255 255 255 255 255
255 255 255 235 229 223 134 125 120 60 43 51 68 46 65
90 68 92 87 66 89 49 27 56 23 24 38 32 48 43
25 45 30 6 27 35 30 13 67 64 54 108 41 39 102
19 13 61 23 12 76 72 64 123 65 57 106 3 3 31
36 32 15 32 31 20 18 14 19 11 6 14 17 6 19
24 6 20 30 9 18 38 14 22 37 16 25 18 4 16
5 13 17 13 4 16 39 27 27 60 44 42 95 73 67
70 51 46 36 27 22 69 56 36 60 42 26 41 28 19
81 68 54 131 123 114 93 92 82 47 43 24 45 34 4
53 49 16 58 62 75 169 184 198 83 99 109 39 57 70
9 25 49 171 165 137 220 237 212 19 29 28 255 255 241
255 255 224 182 88 9 41 82 118 67 113 136 162 199 202
160 197 191 255 248 249 255 255 255 199 159 141 9 18 6
3 7 6 14 16 6 32 7 0 38 1 1 40 0 2
37 1 1 38 7 0 44 12 0 46 13 3 53 9 6
62 6 3 69 3 4 75 0 6 73 3 6 72 4 6
68 4 7 61 7 9 53 7 8 43 6 3 31 5 0
21 3 0 14 4 0 6 6 0 3 4 0 7 8 0
17 20 17 11 13 9 78 54 52 255 252 248 255 255 255
255 255 255 228 212 213 69 49 52 55 72 82 105 128 140
109 144 158 115 150 168 74 116 130 34 85 98 75 106 127
111 141 161 110 149 171 83 134 160 55 89 114 146 121 122
214 167 155 201 136 112 195 120 96 133 52 33 53 50 89
48 61 103 48 58 97 74 15 54 255 200 169 255 255 255
255 255 255 255 217 199 98 91 76 19 10 7 99 36 4
211 122 55 255 216 150 255 221 179 156 98 78 36 39 31
130 133 123 164 148 136 89 74 68 42 18 15 47 34 47
71 54 67 74 63 73 56 48 63 41 25 53 20 9 50
26 13 80 48 31 113 46 33 118 201 189 255 255 255 255
255 255 255 255 255 255 107 132 95 235 255 187 153 173 115
97 116 86 67 85 74 34 44 58 58 61 108 62 38 131
34 4 97 57 39 88 111 103 129 122 118 148 23 18 54
71 76 42 40 51 12 12 12 45 14 8 47 18 9 49
20 11 48 17 12 42 51 67 25 64 52 77 255 255 255
255 255 255 255 255 255 89 61 101 19 11 54 49 24 104
29 9 89 14 4 59 17 14 45 16 19 34 20 20 31
26 20 41 35 22 54 42 22 68 55 25 57 76 35 33
96 47 47 93 33 32 79 14 19 94 31 24 112 57 51
95 44 41 59 17 15 51 25 19 82 52 54 124 103 107
130 121 122 102 99 98 82 81 77 76 74 71 54 48 52
30 30 92 57 55 119 110 112 163 158 162 235 193 197 255
160 164 239 121 127 201 100 106 175 62 66 134 56 58 119
91 93 143 137 155 198 245 255 255 242 255 255 45 58 56
255 255 255 195 215 246 37 35 79 15 39 102 101 109 179
84 87 161 44 39 119 84 64 109 58 29 93 18 44 117
3 38 92 89 55 16 171 138 98 113 91 52 64 81 111
255 255 255 255 255 255 255 255 255 255 255 255 255 255 255
255 255 255 255 255 255 203 185 186 120 101 109 92 76 93
97 70 104 106 77 121 100 73 119 61 34 84 34 32 65
51 60 76 45 45 80 57 42 98 72 56 117 83 72 136
59 55 120 45 40 88 47 44 93 75 70 123 45 37 81
15 16 9 34 30 16 31 27 20 20 11 20 16 3 16
17 7 23 23 11 21 39 13 19 43 13 23 28 8 21
6 8 13 4 17 16 17 5 12 48 36 33 68 54 48
95 70 65 66 43 42 30 18 21 53 38 26 41 27 9
27 23 14 69 59 41 120 108 99 105 100 92 60 56 40
36 27 0 42 36 11 70 74 90 166 179 193 61 77 90
24 45 60 11 27 57 165 162 131 236 247 222 25 50 49
255 255 231 255 255 239 191 101 21 28 78 124 58 112 134
153 197 203 182 230 227 186 144 152 255 255 255 236 198 175
6 12 1 8 9 2 17 12 0 34 5 3 38 3 6
38 3 6 39 9 7 41 17 11 43 22 15 44 22 18
59 25 25 83 29 35 95 30 41 98 32 41 100 34 41
105 34 43 107 36 45 103 41 47 93 36 42 77 25 26
59 15 10 48 13 6 38 8 3 25 3 0 17 6 0
15 4 0 19 23 18 5 12 10 9 20 16 104 82 80
242 226 224 255 255 255 255 255 255 255 255 255 183 166 157
45 17 25 52 67 84 110 118 136 80 93 105 40 51 75
122 140 160 130 170 190 114 170 190 113 183 202 135 202 224
166 216 231 106 151 158 54 39 47 81 45 45 82 116 137
20 96 128 146 73 44 255 188 163 255 255 255 255 255 255
255 255 255 180 142 127 49 40 32 28 12 7 82 20 0
165 82 23 255 188 125 255 244 205 232 162 141 88 58 44
76 95 81 161 156 143 142 127 117 55 32 28 49 30 30
75 65 73 75 62 72 64 54 63 52 48 53 28 24 47
6 17 54 47 37 112 47 39 129 63 43 139 255 255 255
255 255 255 255 255 255 134 147 162 157 182 109 249 255 202
160 177 130 107 123 93 82 97 82 48 56 62 57 61 98
68 49 133 41 15 106 50 36 85 106 101 124 120 116 145
26 20 59 67 72 44 36 43 17 8 6 43 9 3 42
12 9 44 16 10 46 16 9 45 42 52 25 130 114 147
255 255 255 255 255 255 255 255 255 82 54 94 11 13 46
65 35 120 35 14 97 21 13 65 24 20 48 23 21 35
27 20 37 30 20 47 32 21 56 35 13 64 43 8 47
66 22 17 92 42 37 97 37 28 86 21 16 99 30 22
118 51 46 104 44 44 86 41 39 85 51 47 96 58 61
123 91 93 130 109 110 110 94 97 91 76 78 70 55 62
41 28 49 36 30 78 68 68 101 95 96 123 80 78 152
106 106 187 71 73 157 77 80 166 111 115 200 125 130 208
123 127 194 110 110 160 76 92 140 167 188 230 255 255 255
148 152 168 236 246 250 255 255 255 101 134 182 25 54 114
80 90 157 94 122 203 118 147 237 131 158 245 143 175 255
134 157 242 97 85 152 113 73 80 142 108 99 89 65 62
87 97 120 211 218 255 255 255 255 255 255 255 255 255 255
255 255 255 241 231 224 154 141 144 109 89 106 81 54 80
97 70 99 111 81 122 97 66 117 65 37 88 31 26 47
16 37 23 23 37 52 52 33 96 90 70 138 98 84 149
93 81 144 64 58 118 49 41 87 40 35 82 56 49 100
12 7 45 34 29 11 34 26 13 32 22 17 21 6 19
16 2 15 16 10 22 26 15 22 40 13 17 38 8 18
18 3 13 4 11 11 6 16 16 22 6 13 55 45 40
73 57 55 87 61 58 59 37 31 29 18 12 44 29 14
30 18 4 15 13 7 63 55 43 109 99 89 112 102 96
71 63 53 27 19 13 25 19 15 86 89 109 161 173 187
32 47 60 13 33 49 19 35 69 167 161 126 251 255 233
51 74 72 255 255 220 255 255 255 212 121 44 25 68 123
70 131 155 137 180 191 114 162 162 255 229 235 255 255 255
200 168 142 4 9 0 13 7 3 28 3 7 40 6 8
38 4 10 44 9 11 52 18 16 54 24 27 53 27 32
58 25 35 74 29 41 88 36 47 95 39 48 98 38 48
99 39 49 102 42 52 107 47 55 109 49 57 112 47 59
106 40 50 89 26 30 82 28 29 73 20 22 58 10 9
42 7 1 33 1 0 24 11 8 21 14 12 42 4 4
59 11 9 41 28 30 114 107 105 233 214 203 255 255 255
255 255 255 255 255 255 255 255 255 255 255 247 205 166 148
167 120 118 181 172 184 127 172 194 110 182 209 122 198 226
154 233 255 86 171 195 86 66 90 134 47 31 124 115 126
107 141 169 157 77 46 255 255 255 255 255 255 255 255 255
255 255 255 206 168 151 43 31 25 24 3 1 66 4 0
136 49 6 221 128 59 255 229 181 255 230 197 145 72 50
76 95 88 123 132 125 171 159 150 101 88 73 51 35 34
88 71 74 87 68 81 55 36 57 38 16 32 36 29 32
34 38 56 39 28 87 61 39 137 62 49 149 146 123 233
255 255 255 255 255 255 222 234 255 13 46 17 126 153 85
240 255 189 238 247 204 193 206 171 127 142 121 61 72 65
63 68 91 72 62 126 43 30 105 51 40 100 106 99 140
122 115 153 38 34 82 66 74 62 38 45 48 19 17 58
14 8 50 12 6 41 10 7 37 4 8 30 74 81 72
121 106 148 255 255 255 255 255 255 255 251 255 71 43 83
12 12 45 76 45 134 46 25 111 28 22 64 29 23 48
26 21 41 24 16 41 25 13 45 27 16 50 26 8 53
30 6 40 52 10 8 84 35 29 99 38 31 93 25 26
106 33 30 127 52 48 118 53 56 105 58 59 102 56 55
109 55 64 125 76 85 126 92 96 108 83 85 92 70 72
85 66 71 79 63 80 86 76 100 100 93 114 77 71 105
49 42 117 82 82 131 20 23 80 17 8 91 47 41 125
97 92 166 137 134 195 133 130 187 105 113 173 137 150 200
255 255 255 255 255 255 54 58 70 255 255 255 255 255 255
255 255 255 255 255 255 255 255 255 255 255 255 255 255 255
184 216 255 130 123 177 163 128 147 133 94 101 130 97 100
86 60 65 69 72 85 119 110 162 186 171 213 255 255 255
190 170 181 182 170 173 169 157 163 113 90 111 111 83 115
98 70 108 87 56 104 81 46 102 60 27 84 18 11 50
18 37 26 23 37 34 24 9 62 66 42 109 76 62 128
66 56 119 55 45 105 27 18 75 25 19 46 4 9 44
37 35 67 28 23 29 43 35 18 33 23 13 28 14 16
16 1 14 13 3 14 18 15 24 32 19 30 35 9 18
29 2 20 18 2 26 8 9 31 13 16 32 29 13 29
60 47 49 75 57 60 73 50 42 53 34 21 37 26 14
42 29 17 30 19 18 31 27 25 78 69 65 109 101 98
110 100 95 69 58 49 20 12 17 10 9 27 110 110 134
159 168 184 24 20 27 3 17 33 22 42 75 172 157 120
255 255 242 68 94 90 255 245 211 255 255 255 235 146 71
37 56 116 67 138 166 96 147 161 153 151 158 255 255 255
255 255 255 117 92 73 15 6 0 18 6 4 28 1 7
39 3 6 41 3 10 52 14 12 62 23 23 62 25 30
58 28 29 64 25 33 72 23 34 61 16 27 55 12 18
63 13 19 65 13 22 67 16 24 73 20 24 78 19 24
95 30 41 110 40 56 110 39 54 107 39 54 99 33 49
85 22 31 70 11 13 62 1 3 55 0 0 46 4 0
47 8 6 34 2 6 10 8 6 4 4 4 40 37 34
118 106 94 228 213 187 255 255 255 255 255 255 255 255 219
242 198 161 255 252 232 255 255 255 226 161 150 162 90 61
155 81 52 159 83 45 255 214 207 255 255 255 255 255 229
255 255 255 255 255 232 255 255 255 255 255 255 255 255 226
184 132 110 106 72 55 52 38 28 7 3 3 32 3 3
101 16 1 198 89 22 255 185 114 255 253 216 255 182 153
76 38 42 123 146 144 148 148 144 146 126 114 66 41 14
86 78 87 93 77 89 70 44 57 41 13 24 28 10 19
17 13 34 22 32 72 43 27 116 65 34 150 98 76 191
255 249 255 255 255 255 255 255 255 110 143 123 54 109 17
27 48 18 133 148 104 229 232 191 255 255 238 188 200 176
88 95 78 80 81 90 82 75 117 51 43 98 58 49 106
108 99 152 129 117 166 55 48 105 73 80 89 49 54 80
38 36 84 31 26 71 26 20 55 21 20 48 13 20 44
96 108 95 34 10 59 255 255 255 255 255 255 255 255 255
70 41 84 16 9 51 81 49 141 61 35 127 31 22 63
31 22 50 25 19 43 19 12 37 15 9 39 17 14 46
20 15 46 24 3 36 41 7 16 74 31 26 95 38 35
100 34 39 113 44 48 136 62 62 135 63 65 114 51 56
98 40 45 102 41 54 117 61 74 117 72 83 106 68 71
100 61 66 104 72 80 113 87 100 120 96 112 117 95 114
82 59 107 93 82 141 87 81 124 38 19 75 42 21 76
22 8 59 65 48 66 82 63 97 89 76 138 121 121 188
147 149 207 234 245 255 255 255 255 220 226 253 90 86 59
88 96 141 178 195 247 242 255 255 181 197 255 76 86 152
108 103 158 229 204 222 255 253 245 233 195 180 170 133 124
150 116 123 84 53 59 59 52 61 69 49 100 85 61 120
192 178 220 194 176 212 156 132 166 177 162 186 112 83 128
97 62 116 77 41 99 59 25 85 52 15 80 40 18 70
39 30 69 43 26 80 66 37 105 85 60 127 79 63 125
51 41 100 30 21 78 17 9 62 28 24 31 38 34 8
22 25 25 35 36 46 38 32 34 40 30 26 30 17 22
21 7 19 10 4 14 14 3 17 23 20 29 35 21 34
32 3 20 30 1 27 31 14 41 28 22 49 35 31 55
44 30 56 64 48 62 73 55 61 58 39 34 48 32 24
48 39 30 42 33 30 35 24 28 51 43 37 89 83 79
108 102 98 94 86 79 52 41 29 16 7 20 25 19 40
137 131 157 163 166 183 51 31 17 24 4 17 24 49 79
173 152 113 255 255 248 86 113 106 255 231 200 255 255 255
251 165 92 51 48 109 27 104 136 60 108 120 122 101 100
233 190 179 195 145 131 77 42 33 38 21 9 19 10 0
27 3 9 43 2 10 47 7 10 60 17 13 66 23 26
63 25 27 57 26 25 60 22 27 56 19 22 37 16 16
29 11 11 36 12 13 42 11 15 46 10 15 51 12 10
56 8 11 73 14 22 98 31 46 112 39 54 115 41 54
114 44 58 107 33 47 95 16 27 88 3 12 77 0 6
47 3 3 42 9 7 32 4 5 25 8 7 27 6 4
31 6 3 26 2 3 18 21 10 53 49 30 77 62 40
84 60 32 109 80 44 238 201 167 255 255 255 255 255 255
255 255 255 255 255 255 255 255 255 255 255 255 255 255 255
255 246 202 255 255 255 255 255 255 255 255 255 255 227 190
103 60 40 33 18 21 16 4 9 13 17 20 26 1 3
75 14 9 154 45 10 255 138 52 255 248 182 255 247 220
188 95 71 73 100 109 160 168 165 142 127 116 102 72 49
75 50 52 94 83 101 66 47 66 58 34 26 54 28 13
33 7 32 16 5 59 17 25 97 40 8 134 89 55 183
202 178 255 255 255 255 255 255 255 229 241 255 106 146 65
149 187 92 149 183 100 75 93 51 101 99 84 255 255 240
232 238 222 121 125 108 96 97 92 90 85 104 58 50 91
63 56 104 108 100 151 131 118 172 68 51 112 81 79 93
58 54 89 54 43 102 49 40 95 48 37 84 49 34 74
45 29 66 126 137 119 112 136 76 255 255 255 255 255 255
255 255 255 85 55 103 22 7 59 81 48 137 78 51 144
26 15 60 23 14 43 18 10 33 15 3 28 13 12 33
9 15 42 9 14 42 19 8 39 33 14 25 61 25 26
78 36 33 87 35 40 102 42 49 122 53 55 128 56 55
105 32 32 84 14 23 89 32 42 103 47 60 102 46 63
95 44 45 98 44 44 105 54 65 110 65 75 106 65 76
91 54 68 78 44 98 119 106 150 84 75 105 39 13 40
57 33 63 77 49 84 91 60 80 112 89 86 100 70 106
129 114 175 147 135 194 172 172 232 255 255 255 255 255 255
255 255 255 255 255 255 242 239 203 46 31 23 255 255 255
255 255 228 255 255 227 255 255 255 255 253 255 174 134 140
141 100 110 117 77 103 60 27 40 57 39 53 57 38 89
58 29 98 134 112 176 206 184 240 161 132 196 166 146 193
77 44 112 34 16 69 14 31 46 10 33 42 22 27 52
17 15 57 39 16 80 74 46 110 96 70 132 93 73 131
58 45 99 25 17 69 20 15 57 10 9 36 42 35 27
40 33 13 13 8 19 16 17 28 20 10 18 27 13 21
21 7 25 14 1 22 9 7 17 14 3 17 25 23 30
35 23 36 33 3 30 36 9 40 40 27 50 37 27 55
43 33 62 45 35 61 59 45 59 65 51 55 48 32 37
47 32 34 57 48 39 44 34 33 36 26 30 60 48 40
91 90 81 103 96 89 73 60 54 32 23 7 18 12 25
38 30 52 152 145 170 160 163 180 71 50 33 43 18 11
32 57 87 172 149 109 255 255 254 108 133 124 255 214 186
255 255 255 255 177 106 60 44 104 43 79 114 78 108 119
214 212 217 255 255 255 255 255 255 202 164 151 49 27 25
13 6 9 38 17 18 41 11 11 52 6 13 65 17 15
66 24 26 62 27 25 57 25 21 55 18 20 42 15 20
32 21 23 30 24 22 33 26 23 40 25 22 46 23 20
55 21 20 64 19 22 71 20 24 80 23 31 91 23 34
101 33 38 107 49 55 103 42 53 91 19 33 83 3 17
94 10 18 100 29 30 100 43 40 86 38 34 75 30 28
66 28 28 61 32 32 62 26 25 42 9 11 27 6 4
28 4 3 17 5 4 2 17 15 46 33 23 144 119 99
238 203 186 255 231 215 255 247 220 255 255 234 255 220 201
160 114 96 134 88 48 192 144 108 205 156 121 135 90 70
64 31 17 23 18 21 22 2 13 29 13 9 21 10 17
75 20 20 135 51 32 206 87 37 255 180 91 255 255 227
255 197 177 85 27 35 114 145 152 159 152 146 116 81 61
89 53 39 76 58 68 65 57 85 38 17 32 65 47 14
55 28 25 37 3 51 24 8 73 17 27 115 53 4 160
172 143 255 255 255 255 255 255 255 255 255 255 88 89 133
90 112 60 149 167 125 177 192 142 173 182 135 26 33 14
203 201 192 254 255 247 152 154 146 103 106 95 85 87 80
50 46 64 54 47 82 102 96 134 124 116 161 60 47 98
71 73 75 49 47 75 51 38 97 47 36 96 47 33 93
49 31 85 46 28 71 154 166 146 215 247 149 252 225 255
255 255 255 255 255 255 95 61 113 30 4 66 85 51 139
85 57 148 30 16 65 38 23 53 40 22 44 37 18 35
31 19 35 19 17 38 21 9 46 29 14 45 24 13 25
40 11 11 55 20 15 58 18 18 67 18 20 86 20 24
112 43 43 109 37 36 97 20 27 104 38 42 112 41 55
111 36 56 102 35 42 98 36 38 92 32 45 80 25 34
68 18 24 49 9 36 71 53 97 121 102 140 92 68 96
55 16 29 61 38 33 87 47 63 121 79 95 135 103 100
99 65 76 95 64 119 125 101 157 135 125 193 226 239 255
190 203 255 172 167 143 200 195 176 255 255 255 159 162 139
255 255 255 255 255 255 162 140 135 191 160 184 203 180 215
114 88 130 62 34 78 48 30 61 20 15 23 42 16 39
58 42 85 59 28 98 81 50 133 165 134 210 169 132 217
136 101 179 61 22 108 37 18 77 29 14 65 32 7 67
38 6 76 46 16 83 58 30 93 70 41 102 72 44 99
56 34 83 30 17 49 16 7 39 21 20 44 18 18 24
50 41 31 39 28 14 11 4 12 10 7 20 20 14 24
25 14 28 14 4 21 2 12 9 6 14 1 10 12 9
30 30 36 42 30 48 30 4 38 44 19 54 68 57 80
72 57 92 63 51 88 50 42 72 54 40 60 44 29 39
33 21 13 49 35 19 60 52 29 38 29 16 29 22 12
62 50 34 93 91 77 91 84 70 59 45 31 38 30 13
24 16 23 43 36 58 163 157 183 156 159 180 84 65 46
56 25 4 31 56 95 164 139 98 255 255 255 135 153 140
248 193 168 255 255 255 255 185 113 78 55 107 79 109 147
140 189 208 255 255 255 255 255 255 255 255 255 255 255 255
101 75 67 29 17 22 31 12 13 23 17 6 53 6 14
64 19 15 68 25 24 67 31 29 61 28 24 51 20 21
38 18 24 34 24 24 33 25 21 33 24 20 37 23 19
42 20 18 46 16 20 51 14 18 56 10 17 59 9 18
65 11 19 81 28 29 102 52 54 119 65 74 123 57 72
99 32 47 83 20 16 95 37 30 87 23 22 61 15 18
47 14 9 45 14 20 60 23 34 90 42 51 90 42 53
65 17 28 50 7 10 23 8 4 6 14 16 14 4 7
10 4 13 26 16 14 47 28 36 48 25 15 40 17 30
30 6 36 36 5 13 44 13 0 52 18 0 35 17 15
16 10 6 22 8 10 8 9 15 6 15 14 47 3 7
63 6 2 109 38 26 153 63 23 255 122 50 255 250 173
255 255 227 169 85 68 35 90 104 104 115 112 156 123 112
117 71 62 101 78 80 89 71 81 38 19 45 39 47 13
59 53 8 47 30 33 19 14 66 27 10 92 14 39 124
103 57 221 255 255 255 255 255 255 255 255 255 96 82 149
23 45 31 97 109 71 95 106 86 81 103 61 177 192 147
129 138 91 99 91 98 255 255 242 245 245 238 187 189 182
146 149 137 137 135 134 131 123 135 140 132 156 146 137 172
85 74 110 91 92 97 91 85 112 98 83 135 83 67 124
57 41 103 36 24 80 13 9 52 166 178 156 249 255 158
189 162 213 255 255 255 255 255 255 87 49 99 37 6 70
94 60 149 78 47 140 43 22 83 44 21 62 41 19 40
39 21 32 37 25 35 26 22 37 28 10 50 26 17 43
19 3 13 25 7 3 38 7 4 41 3 7 47 3 10
58 4 5 89 25 30 107 34 40 106 27 34 113 41 44
116 43 55 115 37 55 109 33 47 99 32 38 85 20 26
66 3 12 57 10 13 53 10 50 76 45 89 108 74 109
110 71 88 96 50 56 74 35 34 79 46 45 101 64 64
101 67 59 63 32 41 49 9 70 83 54 111 110 88 163
214 212 255 165 169 255 103 99 65 103 105 93 255 255 255
255 255 255 175 168 178 255 255 255 179 149 183 122 94 123
152 124 163 108 78 128 60 48 84 52 49 71 39 40 58
27 21 36 29 17 41 49 14 83 59 20 107 93 54 147
120 80 170 98 58 143 77 44 117 79 47 112 79 40 112
81 40 111 83 45 108 80 46 105 71 40 96 59 30 82
45 23 64 25 14 47 31 18 24 18 4 24 13 19 32
30 22 21 51 44 39 32 25 18 13 4 11 20 10 27
22 9 34 23 6 32 15 12 31 16 17 31 17 3 27
22 6 35 52 42 65 57 37 69 27 13 43 64 42 75
109 94 115 80 68 97 62 60 88 34 29 63 36 18 50
19 4 37 21 13 20 55 44 18 62 56 27 38 29 6
33 28 3 68 61 37 93 89 73 78 73 53 58 48 27
52 40 19 41 28 24 59 49 67 178 167 195 152 151 174
100 80 64 70 41 17 31 55 100 148 122 79 255 255 244
166 176 157 208 165 139 255 255 255 255 191 119 70 51 102
51 112 159 101 185 212 235 255 255 188 207 211 255 255 255
255 255 255 162 134 122 18 18 18 20 20 17 26 16 13
55 6 16 67 19 18 73 27 26 76 34 36 68 31 30
52 22 27 36 16 23 30 16 15 28 14 11 28 10 9
29 8 8 33 9 9 37 9 11 39 5 11 40 2 9
41 4 9 46 6 8 59 16 17 82 36 34 106 57 61
120 68 80 112 56 79 59 8 15 38 34 26 39 22 17
45 24 22 47 8 1 47 19 28 56 23 33 82 29 40
113 51 64 114 51 64 96 25 42 67 3 20 26 17 11
16 19 16 10 6 3 3 4 15 10 6 26 22 12 17
19 3 11 15 15 34 19 21 33 18 31 25 34 45 32
23 33 20 19 7 3 19 14 16 8 10 9 8 15 24
63 3 12 95 18 14 117 48 30 163 76 24 255 207 120
255 255 246 255 198 155 72 65 64 42 82 82 61 49 32
149 114 99 101 58 57 83 70 90 101 79 81 91 83 51
56 59 4 46 36 32 46 27 43 5 30 85 10 11 102
16 46 125 217 173 255 255 255 255 255 255 255 128 118 172
53 58 31 67 78 34 96 100 70 59 66 53 45 70 29
145 169 118 193 211 144 59 74 29 154 144 148 255 255 252
255 255 255 255 255 255 255 255 255 255 255 255 255 255 255
255 255 255 255 255 255 229 219 245 168 156 194 122 107 158
85 71 121 69 57 106 54 45 91 15 13 51 161 173 146
241 255 145 188 166 212 255 255 255 255 255 255 80 41 85
42 18 69 106 72 162 82 51 143 45 27 89 34 18 59
13 3 21 26 16 11 30 25 30 22 20 36 23 7 45
21 11 37 23 9 10 27 8 9 34 5 9 40 4 6
47 2 6 49 3 8 67 16 17 84 24 29 89 22 30
102 34 40 108 37 49 105 34 48 101 26 41 95 27 36
94 31 27 83 17 12 73 13 15 77 13 49 92 37 76
103 53 84 101 57 68 103 56 58 103 47 55 96 46 52
100 70 66 81 51 33 64 24 45 57 13 62 64 31 88
78 56 134 200 189 255 179 164 255 120 110 103 139 132 135
187 191 197 255 255 255 86 93 88 255 255 255 255 255 255
150 124 155 120 98 132 81 46 101 40 10 60 48 24 67
54 36 72 35 26 52 35 7 54 48 7 76 56 21 91
60 23 98 65 17 102 74 25 106 86 38 110 94 51 112
90 55 109 82 50 104 73 45 97 66 38 88 55 27 73
42 17 60 27 12 48 13 7 35 27 13 24 24 6 23
4 14 17 27 16 15 46 42 39 41 38 33 24 16 28
27 10 38 9 11 36 8 14 28 9 16 28 6 15 42
31 14 58 36 18 64 52 39 69 39 21 51 19 7 37
89 71 103 122 106 126 46 36 61 53 57 74 20 29 47
23 13 18 14 6 29 15 3 37 46 35 15 58 54 27
37 29 6 33 23 8 67 61 35 89 87 69 69 66 48
47 41 25 53 42 29 63 47 48 89 74 92 185 168 194
138 134 153 120 99 79 84 57 28 37 58 107 133 102 58
255 255 237 196 198 177 158 127 99 255 255 255 255 210 144
68 21 82 17 106 163 85 176 209 226 255 255 227 255 255
255 255 255 255 255 255 200 171 159 20 16 15 27 15 14
31 6 10 55 6 17 73 17 21 77 29 30 85 36 45
78 36 37 58 28 28 30 11 10 21 7 6 19 0 3
26 1 2 33 4 4 40 9 9 46 13 14 49 14 17
48 14 15 45 10 13 45 14 17 48 11 15 51 15 16
55 23 23 75 56 58 109 71 92 69 14 40 35 22 11
43 8 1 64 14 23 86 34 46 93 41 54 83 34 44
75 23 33 99 28 38 140 66 79 153 72 89 136 45 68
91 13 24 45 6 11 25 13 13 16 4 6 4 13 18
4 4 13 18 12 8 31 16 13 63 48 32 135 124 107
159 148 128 120 112 97 55 47 30 27 20 13 20 17 13
26 11 19 90 12 4 115 26 8 137 61 33 237 141 79
255 255 235 255 255 247 161 83 64 98 126 117 68 68 58
51 36 23 137 101 79 68 20 22 49 65 97 93 64 64
137 133 89 65 63 33 43 28 58 46 27 64 11 21 93
17 31 99 38 7 163 255 255 255 255 255 255 250 243 255
45 51 43 91 101 58 94 101 62 77 84 61 40 53 38
38 59 31 102 126 81 194 215 155 145 169 105 95 109 76
62 66 56 58 53 66 130 122 136 189 175 193 255 250 255
255 255 255 255 255 255 255 255 255 255 255 255 184 162 208
127 120 154 68 66 89 56 45 79 66 58 95 38 24 71
156 166 139 218 238 139 226 201 247 255 255 255 255 255 255
77 36 82 37 10 67 114 75 171 99 67 158 45 24 86
35 16 58 15 3 26 27 15 17 31 24 37 29 18 42
30 13 42 27 14 32 27 14 13 34 14 15 39 11 15
42 7 11 48 4 7 51 3 4 62 13 10 73 18 18
77 19 21 90 27 34 99 31 44 98 36 48 96 32 45
93 28 41 98 37 39 95 34 33 81 24 27 78 20 47
87 33 63 96 42 69 101 49 61 104 53 57 108 51 60
103 48 59 103 67 71 85 53 46 72 31 54 69 20 69
74 30 90 85 48 128 179 155 255 204 178 255 162 146 172
98 88 106 85 84 103 255 255 255 255 255 255 255 255 255
255 255 255 203 173 209 74 39 86 51 13 70 39 24 59
58 29 78 70 43 85 54 28 73 51 14 76 46 7 69
38 16 53 42 18 52 42 3 53 45 3 58 48 9 65
54 17 67 61 24 67 63 29 70 59 27 68 49 22 59
36 18 47 27 13 44 18 5 39 11 3 29 19 2 24
25 7 21 16 7 9 15 6 10 35 29 29 54 47 54
48 37 54 34 14 46 20 22 48 11 17 44 4 22 34
19 15 43 41 24 68 24 6 61 27 23 46 35 26 44
46 25 65 105 85 117 101 91 104 16 9 30 56 64 69
31 42 54 18 11 18 21 17 13 16 10 27 38 27 11
49 48 22 37 32 4 35 26 9 62 52 25 85 83 61
73 72 54 47 43 30 51 46 41 68 60 69 107 93 111
178 160 180 120 109 126 139 119 95 99 70 39 46 70 119
118 82 35 255 255 236 228 223 201 101 74 50 255 255 255
255 245 185 109 45 44 20 104 165 87 176 214 189 235 255
189 222 222 255 255 255 255 255 255 194 156 146 15 4 0
25 3 3 30 6 3 55 9 13 77 18 23 82 31 35
95 42 52 90 42 44 61 33 29 18 9 8 17 15 20
19 4 15 27 4 10 35 8 9 44 11 14 48 13 21
52 19 23 60 28 28 69 40 39 71 46 46 70 42 45
66 41 44 65 45 42 81 68 65 112 88 98 88 46 68
43 6 13 45 22 21 70 36 44 94 49 60 105 48 61
100 35 47 94 25 34 112 39 52 152 64 77 188 94 106
195 95 116 156 47 72 81 3 7 40 11 16 31 9 17
16 9 24 8 2 16 11 3 16 36 20 28 161 133 102
255 252 234 242 218 213 224 207 197 81 64 50 31 8 10
35 28 21 57 9 7 118 25 1 119 23 3 178 90 47
255 246 173 255 255 255 255 227 169 72 87 99 74 100 87
73 71 64 96 85 78 144 107 91 75 49 72 58 77 115
111 76 56 160 151 99 57 50 32 42 30 67 44 33 78
24 9 94 13 11 107 136 106 254 255 255 255 255 255 255
125 120 146 54 65 39 103 118 75 136 141 103 70 76 53
28 41 20 26 40 19 68 87 47 173 192 146 101 127 69
172 188 163 244 255 227 255 255 255 255 255 255 255 255 244
192 209 179 114 131 106 32 11 35 195 176 199 255 255 255
255 252 255 174 168 195 61 60 79 33 18 46 60 49 77
44 31 64 153 160 140 198 215 143 250 218 255 255 255 255
255 255 255 77 34 83 44 12 73 118 79 176 109 73 166
45 18 82 32 12 56 15 1 29 21 13 22 28 21 41
32 18 44 33 18 37 30 18 25 30 18 13 34 19 11
37 19 13 41 14 8 47 8 6 49 7 6 57 14 12
61 17 16 59 10 8 73 17 18 81 24 28 80 27 37
76 28 34 71 23 29 80 29 33 89 34 40 82 24 42
75 17 53 74 22 54 75 23 47 79 29 44 80 33 46
83 39 55 94 50 72 100 58 79 88 51 64 75 33 66
67 19 78 71 26 93 77 33 119 132 93 209 184 155 252
143 124 177 76 58 101 81 67 105 255 255 255 255 255 255
235 220 226 255 255 255 220 190 230 83 59 99 81 70 105
85 73 113 101 76 126 105 79 125 70 45 101 43 6 80
36 3 62 33 16 34 35 19 20 26 3 10 17 0 11
12 3 17 10 10 16 15 12 14 19 9 20 20 5 19
18 3 20 16 3 24 13 3 26 11 6 19 12 3 16
17 6 16 27 2 13 22 1 16 6 3 7 23 14 24
63 49 69 73 56 77 45 24 54 35 31 63 42 41 76
42 33 79 49 27 82 55 34 86 47 26 89 65 45 107
90 70 127 92 72 122 81 63 93 60 58 59 33 45 16
52 67 58 28 40 43 11 12 24 22 22 23 30 25 13
42 32 10 40 39 11 34 32 2 32 27 9 52 41 14
80 73 47 76 78 56 39 41 25 40 32 34 67 56 72
112 95 113 157 138 159 92 77 98 147 133 108 111 81 48
53 78 125 102 61 23 255 255 226 255 254 229 34 25 21
255 255 232 255 255 218 159 94 30 9 88 156 80 167 210
127 175 199 194 206 208 255 255 255 255 255 255 132 95 91
30 11 0 14 2 1 30 1 2 51 4 6 76 19 19
89 33 41 104 46 55 99 47 52 67 34 35 8 7 19
13 21 26 25 3 15 30 9 17 36 14 16 42 18 20
46 24 28 52 31 32 68 49 46 89 71 66 98 75 71
98 70 69 94 67 69 88 65 67 97 80 81 119 101 106
109 81 96 64 30 44 61 34 40 80 58 62 95 55 65
97 46 57 100 40 49 104 32 42 118 50 64 139 60 69
180 79 90 230 124 143 226 104 133 143 32 52 65 4 3
43 5 13 35 1 27 34 9 23 32 9 23 64 26 10
255 255 234 255 255 255 255 224 221 255 255 255 117 96 83
34 15 13 46 18 13 100 22 1 138 34 0 132 26 0
245 149 83 255 255 255 255 255 255 180 72 29 60 119 125
37 44 30 83 81 83 130 128 116 156 134 125 105 95 120
66 58 99 155 123 82 168 150 91 45 31 50 40 34 71
37 32 84 25 13 112 56 45 150 255 240 255 255 255 255
255 255 255 37 42 47 41 57 26 120 140 91 166 172 134
69 74 44 29 37 15 28 39 24 65 80 44 164 183 140
61 87 44 191 192 200 187 201 183 198 222 190 226 248 221
255 255 255 255 255 255 255 255 255 255 255 255 154 178 140
165 154 186 255 255 255 255 243 255 72 59 91 33 9 45
49 34 60 43 27 50 151 159 144 190 209 156 242 207 255
255 255 255 255 255 255 75 29 80 57 15 81 120 81 180
100 66 161 41 13 77 28 8 54 12 0 28 14 8 23
18 14 42 23 17 44 29 18 36 31 15 24 28 14 16
29 16 13 33 19 14 37 20 12 40 15 11 42 10 11
54 21 23 51 24 22 43 4 7 58 6 5 70 19 16
72 25 27 67 26 30 60 25 28 65 26 31 77 31 41
79 28 54 72 24 62 67 17 50 62 10 33 63 15 33
66 23 42 77 38 64 94 52 87 90 47 83 79 44 67
66 27 61 55 15 77 58 23 87 58 17 103 64 24 140
89 52 168 90 61 133 99 70 120 129 106 141 255 255 255
255 255 255 114 104 102 255 255 255 253 226 255 111 93 134
93 83 119 91 78 120 119 90 147 140 109 161 107 78 139
64 27 113 41 3 79 33 15 34 33 20 20 27 4 10
18 0 10 14 5 13 11 13 10 9 9 9 5 15 18
6 18 21 8 17 25 4 15 25 0 13 17 2 10 16
7 6 19 20 9 12 29 3 11 22 1 19 2 4 11
18 10 27 67 50 78 89 68 97 60 38 77 42 33 74
54 48 85 61 51 93 50 35 84 47 25 75 85 64 116
129 110 166 127 110 166 71 61 108 16 4 39 43 47 21
62 71 45 54 64 50 25 32 26 13 16 25 17 22 37
38 28 4 51 40 10 30 30 6 32 31 3 24 24 9
34 28 4 67 58 32 79 75 55 33 42 20 26 16 27
65 53 78 108 91 115 129 112 139 61 51 74 143 136 110
110 84 48 54 80 127 93 45 25 255 253 208 255 255 255
49 75 83 255 238 195 255 255 246 205 141 68 34 55 128
57 134 184 130 145 156 255 255 255 255 255 255 255 244 234
74 40 33 29 8 0 3 3 0 25 1 0 42 1 0
68 15 9 92 32 37 107 48 54 103 54 58 80 40 44
25 10 19 15 16 20 38 16 21 42 23 27 49 30 30
57 38 37 59 45 46 65 47 47 85 65 64 99 79 78
103 76 77 105 77 77 104 80 80 104 83 83 116 98 99
136 117 122 134 112 126 100 74 87 83 55 62 93 72 74
97 62 74 90 42 54 94 44 57 109 46 61 123 58 74
126 64 74 144 62 68 217 121 130 255 161 179 227 101 123
124 23 35 60 2 1 46 6 24 46 7 27 66 17 14
165 103 80 255 255 255 255 255 255 239 215 214 255 255 255
165 142 115 58 24 5 82 15 1 133 43 2 144 42 1
178 73 18 255 244 151 255 255 255 255 239 197 42 53 78
40 87 83 57 42 58 59 62 74 112 107 89 133 113 101
94 80 102 90 58 61 195 164 117 149 127 66 38 18 67
45 39 67 24 23 95 70 75 178 164 158 255 255 255 255
255 255 255 219 214 239 29 23 26 17 30 24 130 152 98
180 191 141 83 96 52 44 52 29 30 37 29 58 67 39
159 174 137 121 137 121 199 199 212 142 145 141 60 79 54
58 78 55 103 119 106 137 154 144 168 184 173 247 255 241
255 255 255 97 110 85 255 255 255 255 255 255 187 170 204
67 47 77 44 35 50 20 19 25 147 155 141 197 216 168
211 176 245 255 255 255 255 255 255 69 21 73 68 17 92
122 82 186 86 55 150 40 10 76 27 4 56 10 0 30
11 5 24 13 7 43 17 11 47 22 13 31 26 8 16
27 10 9 29 13 13 30 14 17 31 16 17 32 16 12
35 12 10 56 30 33 52 27 26 35 6 6 44 11 9
54 16 16 63 25 26 63 32 32 54 33 34 48 30 31
52 30 39 67 35 61 66 31 63 58 15 44 55 16 33
60 29 44 67 38 60 81 54 87 86 55 92 69 41 71
58 38 55 46 22 55 45 18 79 47 25 83 34 3 80
42 4 115 65 26 136 103 60 127 134 99 148 108 83 123
255 255 255 255 255 255 88 93 107 255 255 255 255 255 255
223 200 237 140 112 161 81 46 106 98 55 120 130 96 147
112 80 140 84 41 130 57 21 97 34 21 47 31 25 33
27 9 25 17 1 19 10 5 15 17 13 9 16 10 4
8 9 10 4 13 16 2 15 26 0 15 31 3 13 20
5 12 19 10 13 19 29 15 8 28 12 6 15 7 18
7 3 23 24 13 38 65 48 84 95 73 110 82 59 102
69 54 95 83 75 106 66 62 92 37 38 69 54 37 85
140 126 164 116 106 148 57 49 96 39 48 69 39 47 48
46 48 38 51 54 47 40 42 34 27 28 13 16 16 19
3 8 39 44 31 19 56 44 24 24 24 19 32 32 8
21 21 12 20 16 11 54 46 23 77 73 57 35 48 28
13 8 24 70 60 90 109 95 125 112 97 126 46 38 62
134 128 100 99 77 44 45 78 124 86 40 27 255 231 186
255 255 255 117 138 146 230 192 152 255 255 255 235 177 100
72 18 91 39 80 132 130 110 101 226 200 192 207 153 148
147 94 92 73 44 45 16 1 2 10 6 2 13 7 1
34 2 0 58 7 3 88 24 26 106 48 50 102 59 61
85 44 46 53 13 15 39 15 16 50 33 37 52 39 44
62 48 52 72 55 61 75 58 66 79 57 61 92 68 74
90 69 77 80 53 66 86 61 70 97 71 77 109 79 82
129 98 100 152 123 126 155 129 139 131 106 116 98 74 82
95 75 81 93 65 78 83 41 49 93 46 52 116 65 73
125 72 84 113 62 72 111 61 62 167 87 93 255 170 181
255 178 196 201 91 99 92 16 16 47 6 18 46 11 27
102 52 37 255 198 171 255 255 255 255 239 219 242 237 243
255 255 255 191 166 133 92 52 25 103 35 2 131 45 0
144 47 6 255 158 88 255 255 255 255 255 255 189 93 67
25 93 99 21 21 13 48 44 65 31 24 17 103 89 51
89 64 16 73 46 10 137 107 56 202 172 118 117 94 30
39 16 63 49 42 61 28 29 136 198 203 255 255 255 255
255 255 255 255 255 255 89 78 100 55 49 57 49 49 54
127 152 96 181 196 135 96 110 64 27 34 20 12 17 14
34 41 49 116 128 100 134 143 126 153 150 158 114 113 107
44 56 34 46 58 46 54 61 64 64 71 79 79 87 99
138 145 151 255 255 255 255 255 255 34 41 41 255 255 255
255 255 255 183 171 191 82 67 88 18 12 29 141 149 138
215 234 193 173 142 200 255 255 255 255 255 255 66 17 70
80 28 105 129 89 192 79 44 141 40 6 79 24 1 57
9 0 29 8 3 27 12 3 48 20 4 46 25 3 20
25 2 4 23 4 1 24 10 4 24 12 9 25 9 13
23 9 10 25 8 5 52 36 35 50 29 27 27 14 11
36 17 14 44 18 16 52 22 21 55 26 23 50 29 27
43 27 34 44 32 46 62 42 61 60 32 56 47 6 34
49 25 30 60 38 52 67 43 62 77 53 81 67 43 65
50 31 44 42 23 34 32 10 45 48 27 87 49 33 88
24 12 70 45 9 99 80 39 130 97 69 130 94 68 126
99 67 134 244 223 255 255 255 255 255 255 255 198 185 185
255 255 255 255 255 255 251 214 255 138 92 164 108 67 129
111 80 127 98 59 128 96 44 143 76 38 122 51 33 82
48 36 71 43 20 59 31 6 44 14 3 33 6 10 25
4 16 20 6 15 18 5 16 18 2 13 25 6 8 32
13 3 30 17 1 32 23 4 36 37 6 34 28 11 25
13 12 17 19 2 36 38 15 61 60 41 93 94 73 122
107 80 135 136 104 171 131 113 172 120 119 153 56 45 98
116 93 151 174 156 199 62 44 98 80 89 101 72 84 95
44 54 60 30 35 31 20 24 20 19 18 6 24 23 4
23 18 10 17 13 24 51 43 31 48 37 28 18 17 27
32 32 12 20 20 14 11 8 22 46 38 16 75 74 60
46 62 43 3 23 25 80 69 103 118 104 139 107 93 123
40 38 61 123 114 87 88 61 29 31 66 112 81 42 17
248 213 160 255 255 255 169 182 188 188 155 116 255 255 255
254 199 121 111 28 54 49 51 104 76 20 32 251 211 209
255 255 255 255 255 255 255 255 255 112 78 75 13 4 6
3 9 2 25 3 0 50 1 0 80 12 13 103 41 41
105 57 61 90 40 42 85 34 34 66 38 40 50 41 40
57 49 50 68 55 58 74 57 64 73 57 62 75 52 55
79 54 62 66 47 57 55 28 38 65 37 40 80 48 50
95 55 58 117 75 78 143 106 108 150 116 124 137 103 114
102 66 78 88 57 67 83 54 64 69 33 38 79 38 42
109 67 74 109 65 72 94 47 50 86 55 51 114 54 59
216 119 137 255 196 222 255 153 166 140 47 45 64 1 10
61 21 31 131 88 79 255 250 225 255 255 255 186 138 127
255 255 255 255 255 255 169 149 129 115 73 46 95 25 1
118 46 2 165 75 24 255 252 183 255 255 255 255 230 189
50 46 56 18 70 66 43 30 44 15 12 15 130 123 87
164 149 114 134 117 96 131 112 75 176 153 92 180 158 89
89 70 8 41 24 71 40 31 80 77 83 195 255 255 255
255 255 255 255 255 255 153 168 170 26 16 38 18 13 30
18 27 31 86 114 54 172 191 132 109 124 84 46 46 43
34 31 33 66 62 92 65 65 87 99 103 109 86 80 105
90 87 93 38 41 52 29 30 57 33 31 69 65 61 98
82 82 116 80 83 111 171 173 185 255 255 255 255 255 255
41 37 44 255 255 255 255 255 255 175 166 184 73 59 86
125 132 125 240 255 223 119 96 119 255 255 255 255 255 255
105 53 114 93 38 120 140 95 201 79 35 143 43 1 92
27 0 66 12 3 37 7 7 37 12 9 47 21 11 34
25 9 9 29 4 0 31 0 0 31 6 0 24 12 2
20 11 6 17 13 9 18 13 8 44 31 30 41 33 23
30 30 17 32 24 13 38 20 9 45 15 12 47 16 18
36 27 33 31 50 58 51 73 82 63 76 82 51 56 58
11 33 17 28 36 26 45 29 40 48 16 30 48 24 42
32 13 27 31 11 11 39 14 6 37 7 31 58 29 76
75 34 96 80 30 109 90 50 134 90 57 159 64 32 143
41 15 106 79 35 136 236 212 255 255 255 255 255 255 255
255 255 255 109 101 92 225 207 238 255 255 255 255 255 255
199 147 234 156 100 187 129 65 166 109 29 162 109 43 168
82 45 136 59 35 101 54 26 86 55 7 85 67 15 86
57 6 67 55 13 62 72 12 80 89 18 97 90 19 103
74 9 94 63 10 84 66 10 91 74 6 105 69 10 102
52 15 85 55 6 87 75 17 111 85 26 132 81 28 136
110 75 166 178 133 234 192 142 251 87 57 151 126 129 166
129 82 187 227 188 255 174 138 216 83 74 120 101 108 130
53 38 104 59 42 106 53 45 91 42 38 72 39 36 59
35 37 49 43 44 45 58 58 55 62 62 61 35 37 46
8 14 43 27 22 21 31 27 13 21 17 20 45 41 38
66 70 69 50 67 54 17 24 22 81 65 102 112 99 139
108 95 134 49 52 76 106 89 67 106 78 44 8 37 87
65 30 55 220 191 127 255 255 255 213 218 214 127 105 75
255 255 255 255 246 169 161 86 29 61 40 115 120 111 140
255 241 235 255 255 255 255 255 255 255 255 255 255 255 255
91 66 70 11 7 1 12 3 0 36 0 0 72 6 4
102 34 27 116 55 61 107 43 53 112 52 54 89 47 50
48 27 30 55 42 47 75 50 63 84 51 65 75 39 50
65 24 37 60 24 39 49 25 33 44 21 23 53 25 24
70 31 36 82 36 38 101 51 55 136 88 89 163 111 120
170 117 127 136 83 93 85 38 45 69 42 44 60 28 30
69 41 41 86 58 62 59 28 30 48 17 10 52 42 40
66 50 38 145 50 68 255 173 200 255 216 237 229 106 111
111 7 8 96 46 53 136 96 93 255 255 241 255 255 255
139 94 95 255 255 255 255 255 255 145 135 132 104 69 59
121 38 0 150 65 4 254 163 82 255 255 255 255 255 255
135 75 33 48 105 108 20 22 1 24 21 48 111 103 63
197 181 132 150 127 81 107 90 74 110 92 42 150 133 48
143 128 38 66 60 64 23 32 120 27 6 125 170 185 255
255 255 255 255 255 255 190 239 190 99 138 73 59 89 55
53 76 66 41 67 63 68 101 58 142 166 121 119 132 112
105 119 98 91 101 91 107 107 135 66 60 117 53 47 104
60 51 118 72 68 113 34 32 88 11 4 81 31 26 89
48 42 91 43 27 84 48 35 83 70 59 95 203 197 213
255 255 255 255 255 255 92 93 99 255 255 255 255 255 255
101 98 114 113 114 120 255 255 255 75 75 62 255 255 255
255 255 255 157 109 169 102 48 131 152 101 207 84 30 150
51 0 110 38 1 86 21 9 52 10 14 39 11 16 37
20 17 26 22 16 13 24 11 8 22 3 4 22 3 3
20 10 6 11 11 2 10 16 6 30 23 19 34 23 16
22 27 18 23 30 18 18 22 10 27 18 7 42 16 15
54 33 31 49 38 39 62 63 72 71 77 89 57 63 67
31 43 36 15 45 20 36 52 37 31 35 31 22 14 10
20 18 25 23 19 29 31 13 7 41 25 5 41 23 23
54 30 51 73 35 77 87 41 106 87 58 124 75 49 138
70 31 153 46 8 126 62 37 131 255 255 255 255 255 255
92 72 88 255 255 255 255 255 255 198 202 189 188 173 200
255 255 255 255 255 255 255 255 255 247 184 255 126 39 169
101 22 146 88 51 134 75 39 121 73 37 108 52 8 85
57 0 83 73 11 89 95 23 106 105 34 116 112 42 126
116 40 138 117 42 145 118 44 154 120 48 163 119 45 165
116 47 169 112 48 163 110 40 159 111 43 169 113 48 179
107 44 176 141 93 209 246 203 255 171 122 231 120 94 169
183 143 237 255 255 255 255 255 255 215 185 255 184 168 215
157 134 193 189 170 223 183 168 217 151 145 181 129 126 153
117 116 130 106 111 113 97 105 99 99 105 97 67 76 80
27 38 55 3 13 41 13 6 34 25 20 23 37 37 32
56 57 54 50 60 59 37 54 40 33 18 24 73 55 89
89 76 120 110 97 142 71 78 100 74 53 33 142 111 89
46 8 48 35 12 77 181 155 85 255 255 242 255 255 238
31 21 12 255 255 245 255 255 238 200 141 40 92 44 122
108 136 170 186 246 253 255 255 255 255 252 254 255 255 255
255 255 255 241 202 201 25 3 4 12 2 0 13 4 0
47 3 0 84 22 10 107 48 48 112 48 61 117 55 61
109 58 64 80 44 49 71 42 50 89 48 65 80 40 55
56 13 27 53 8 24 52 17 27 44 15 18 40 23 22
50 34 33 66 40 47 73 37 37 85 38 41 114 66 64
144 93 95 169 119 126 159 113 122 101 58 65 54 30 30
47 31 31 55 33 34 57 33 36 28 7 9 27 11 8
51 40 43 53 46 37 84 23 21 200 103 126 255 239 255
255 192 207 185 53 69 115 69 71 168 133 131 255 255 255
255 255 255 70 24 36 255 255 255 255 255 255 146 154 155
62 41 57 120 56 0 180 106 27 255 255 178 255 255 255
255 227 180 11 55 83 45 88 80 46 18 45 40 35 7
180 166 117 189 169 120 91 71 33 55 44 59 64 52 33
111 101 36 109 94 78 51 23 145 39 34 175 51 48 163
255 255 255 255 255 255 255 255 255 68 127 59 78 118 44
34 77 31 6 48 40 38 73 10 103 133 60 130 148 104
74 72 64 46 38 58 86 76 126 119 109 169 79 76 136
19 8 79 36 24 92 49 44 99 32 29 86 25 12 88
42 28 94 41 39 75 19 10 54 35 20 61 35 25 55
115 112 128 216 210 229 255 255 255 213 210 218 205 206 203
255 255 255 226 226 236 131 131 131 255 255 255 96 107 119
255 255 255 255 255 255 182 142 194 105 61 135 161 110 210
94 41 159 53 6 119 45 4 104 30 12 69 21 13 49
19 10 40 21 7 30 17 12 22 25 14 20 27 11 14
22 6 4 25 6 4 10 2 5 8 3 3 34 20 22
29 17 14 13 9 6 17 11 11 13 16 20 21 20 22
36 23 28 58 44 45 68 57 57 93 85 92 93 84 92
68 59 60 60 46 51 58 51 51 55 56 54 42 38 40
33 16 22 35 25 28 50 41 41 51 41 35 46 35 35
43 34 38 42 35 41 36 28 39 32 24 42 34 46 50
31 16 68 45 18 99 35 16 110 118 91 191 255 255 255
255 255 255 190 207 145 207 211 191 255 255 255 255 255 255
255 255 255 9 21 4 255 246 255 255 255 255 255 255 255
223 160 245 117 48 139 85 52 112 67 41 106 88 52 125
95 58 130 85 44 124 85 35 122 90 43 121 84 47 112
63 25 91 48 13 84 53 15 91 55 18 98 69 32 113
69 27 116 79 32 132 106 56 168 104 55 171 87 43 158
96 55 169 101 66 169 126 98 185 206 188 245 132 111 159
182 161 204 255 255 255 255 255 255 139 133 142 123 125 141
158 161 165 179 185 180 143 142 163 105 87 142 48 40 76
30 26 57 29 20 54 38 30 64 49 43 68 72 63 73
60 53 70 42 40 64 13 6 26 16 23 20 40 49 33
54 59 42 50 58 41 30 42 30 23 36 22 35 12 32
67 48 83 78 66 107 104 95 136 80 86 107 44 19 9
152 118 107 80 35 3 18 27 81 135 111 44 255 255 216
255 255 255 68 75 68 236 231 202 255 255 255 214 176 81
55 28 102 66 114 155 151 220 233 255 255 255 255 255 255
255 255 255 255 255 255 255 255 255 37 13 12 22 11 0
22 11 0 36 8 0 66 15 0 87 36 31 100 41 51
106 51 57 106 60 67 95 57 62 90 56 67 109 65 81
91 50 62 48 11 24 55 23 34 56 29 37 46 18 26
41 19 24 52 40 42 68 56 59 65 50 51 69 41 46
82 51 55 98 63 66 131 96 102 162 125 138 138 102 115
67 32 44 40 34 34 51 31 38 43 13 23 36 7 17
56 30 40 67 44 53 49 29 30 43 32 22 91 27 43
244 178 197 255 253 255 254 147 163 131 92 89 232 217 215
255 255 255 255 252 243 135 171 186 255 255 255 201 227 253
140 159 161 41 25 47 118 81 7 214 164 95 255 255 255
255 255 255 112 68 45 75 115 126 31 48 34 58 34 66
83 75 28 197 186 132 156 144 91 51 39 38 25 25 66
35 25 55 83 76 48 81 72 111 97 85 181 85 70 155
90 103 168 255 255 255 255 255 255 195 243 218 30 70 48
71 97 48 72 95 43 83 92 83 106 122 89 156 183 123
175 190 161 168 168 166 170 168 172 144 137 167 125 115 171
71 61 117 28 22 61 34 29 57 50 46 71 46 43 70
51 42 74 59 50 77 44 39 55 26 21 31 21 21 20
15 14 22 75 75 86 126 125 139 239 235 248 255 255 255
71 71 80 245 245 241 255 255 255 139 140 140 255 255 255
117 128 146 255 255 255 255 255 255 209 174 223 96 60 128
164 118 209 118 70 178 55 19 124 49 14 114 35 16 80
28 13 64 30 6 55 27 6 43 18 6 27 27 17 25
36 24 28 27 16 11 20 8 3 6 6 6 8 3 3
28 12 14 30 17 20 15 8 11 11 9 16 15 15 23
19 17 21 25 16 24 44 32 38 57 49 51 91 85 93
108 103 111 102 101 101 98 98 98 93 92 94 86 85 89
76 68 75 73 55 64 70 52 58 64 50 54 54 38 44
46 32 42 39 30 41 34 33 39 27 30 29 19 27 24
9 30 16 41 16 68 35 18 77 24 14 91 152 125 229
255 255 255 255 255 255 236 252 191 255 255 255 97 89 115
248 243 255 255 255 255 255 255 255 255 255 255 72 62 71
255 255 255 255 255 255 255 255 255 255 255 255 204 181 234
150 125 183 145 114 176 135 98 167 126 90 162 99 70 134
70 43 100 54 25 87 50 22 88 54 28 93 57 26 88
66 36 91 50 22 86 57 23 93 71 34 128 79 56 157
122 96 199 182 157 251 206 191 255 199 189 244 173 161 200
128 114 135 108 98 102 116 110 114 181 177 208 255 255 255
220 208 255 130 115 165 130 114 172 219 197 255 219 197 255
159 147 200 143 131 180 130 117 165 121 112 155 118 113 147
123 118 143 104 98 120 57 51 72 30 28 35 35 39 14
48 52 16 47 50 21 31 39 16 16 24 9 20 22 19
44 18 37 70 52 86 77 67 107 91 82 121 75 77 99
34 8 4 144 106 95 101 52 24 19 31 82 88 67 31
255 250 193 255 255 255 154 161 149 177 174 155 255 255 255
255 235 143 70 35 59 75 129 172 125 193 210 221 255 255
255 255 255 255 211 200 255 255 255 255 255 255 34 22 17
40 28 15 33 20 4 30 12 0 49 9 0 74 29 22
89 32 37 93 42 48 99 57 64 99 61 66 101 64 77
125 80 96 112 66 81 69 32 44 69 41 50 61 42 49
57 37 45 50 30 38 55 43 47 72 64 67 65 59 61
55 34 41 59 40 47 72 48 55 105 74 82 155 117 130
171 135 148 109 74 85 49 26 30 65 42 49 44 9 22
44 8 22 69 43 51 56 30 37 39 10 18 27 26 17
40 36 30 133 82 99 255 223 242 255 201 219 164 110 109
243 235 231 255 255 255 137 174 181 255 255 255 223 255 255
112 145 182 97 112 129 76 48 36 170 133 50 255 255 214
255 255 255 255 232 206 49 78 105 82 117 123 35 11 31
37 24 65 103 95 46 204 194 140 149 139 84 41 31 48
17 27 82 16 6 77 70 64 61 35 28 124 51 48 158
83 54 93 134 160 207 255 255 255 255 255 255 110 158 126
11 28 26 79 104 73 111 148 75 78 115 48 88 112 76
123 156 92 143 169 130 91 101 89 69 66 75 88 86 108
84 80 121 46 44 80 32 31 55 55 51 68 65 64 74
51 48 60 56 48 63 54 50 56 40 40 35 35 35 28
41 43 36 44 45 44 74 74 82 113 113 125 170 167 178
255 255 255 255 255 255 123 123 135 16 16 6 139 140 144
255 255 255 149 163 165 255 255 255 255 255 255 255 253 255
100 67 130 154 109 195 139 91 192 59 22 124 55 18 118
38 13 87 30 11 69 33 5 59 31 7 50 19 9 27
25 15 22 35 22 33 31 21 24 19 13 13 11 8 8
14 3 3 19 4 3 28 15 15 16 10 13 6 10 17
7 12 8 5 6 1 10 3 3 24 8 13 30 18 25
55 49 59 83 79 85 93 91 91 97 94 94 96 90 91
91 80 82 82 65 72 79 56 72 69 43 59 46 27 35
34 19 24 27 11 16 28 13 24 26 20 30 19 12 18
10 3 13 19 11 22 50 31 68 22 17 66 36 24 99
124 94 200 255 255 255 255 255 255 154 169 115 255 255 255
44 44 37 95 87 113 155 146 170 253 242 255 255 255 255
255 255 255 37 55 40 255 255 255 255 255 255 255 255 255
255 255 255 255 255 255 255 255 255 201 179 222 147 122 168
127 104 155 92 66 122 93 63 121 99 72 130 105 79 137
110 80 138 99 71 123 152 122 180 253 219 255 255 243 255
255 237 255 255 255 255 255 255 255 244 230 255 171 162 188
64 59 70 76 73 85 227 221 252 255 255 255 255 255 255
255 255 255 236 221 255 244 228 255 255 255 255 246 226 255
142 125 205 71 60 124 47 37 97 28 19 71 11 6 53
8 3 39 30 26 34 46 36 44 51 37 53 52 46 55
57 56 47 55 52 28 38 33 19 20 18 22 24 16 29
36 20 32 51 23 38 72 54 86 79 66 104 74 64 99
64 67 89 21 11 18 130 93 78 121 73 41 27 31 80
50 29 66 226 210 150 255 255 255 244 247 234 93 90 76
255 255 255 255 255 207 149 115 74 88 135 170 93 155 172
164 227 252 255 255 255 193 156 153 255 255 255 255 255 255
83 72 66 61 49 48 38 34 24 8 22 4 37 6 0
71 25 17 87 30 30 78 22 30 86 39 47 97 54 61
104 64 78 142 94 109 133 86 102 87 49 63 81 47 58
65 48 54 67 56 60 69 57 61 62 51 55 64 58 60
52 51 51 24 16 17 23 13 14 35 13 21 57 27 38
107 72 83 170 139 149 140 111 120 63 22 36 68 46 51
44 8 21 52 19 29 77 49 56 46 22 26 48 11 21
51 21 25 39 36 27 53 20 24 191 121 145 255 199 229
169 79 102 206 200 192 187 180 176 138 191 206 204 246 255
94 132 164 44 70 115 54 46 81 111 72 21 253 208 148
255 255 255 255 255 255 114 67 49 107 146 168 45 78 83
35 11 47 31 35 41 138 130 77 217 208 151 150 141 81
59 56 65 50 56 103 27 36 95 62 61 60 7 14 127
13 34 154 63 34 88 215 244 255 255 255 255 255 255 255
61 118 56 37 62 27 46 62 46 138 189 113 133 182 88
81 119 47 77 113 55 113 142 94 100 119 97 46 53 70
36 35 74 36 33 80 26 23 64 38 34 67 67 62 87
64 62 80 40 34 51 43 34 47 37 31 34 26 26 25
41 41 37 65 66 65 68 66 71 78 77 87 99 99 111
101 100 114 200 196 215 255 255 255 255 255 255 255 255 255
128 127 133 255 255 255 201 215 186 230 218 176 255 255 255
255 255 255 168 140 191 150 111 187 139 96 188 60 23 120
59 20 115 45 11 92 34 11 74 33 9 60 34 11 54
21 11 33 25 15 19 30 10 25 30 25 24 22 21 22
15 5 10 19 4 2 12 4 3 23 12 7 16 9 5
2 11 9 4 7 1 13 9 4 24 19 11 27 22 14
20 19 11 12 6 17 27 19 34 37 34 38 42 39 39
42 38 38 37 32 32 33 21 25 33 17 27 36 17 31
25 3 14 20 14 13 13 6 0 25 16 19 25 25 26
22 18 16 17 14 9 32 20 32 33 10 51 16 20 60
55 35 121 94 63 166 202 172 255 255 255 255 76 61 129
255 255 255 176 177 152 42 29 63 48 37 66 55 41 75
168 158 187 255 255 255 255 255 255 161 178 178 74 66 57
102 80 112 255 255 255 255 255 255 255 255 255 255 255 255
255 255 255 255 255 255 254 229 255 149 122 169 133 103 151
174 144 193 211 184 236 255 245 255 255 255 255 255 255 255
255 255 255 255 255 255 255 233 255 118 103 143 42 45 46
133 137 140 178 175 199 199 194 238 170 163 224 140 126 200
124 106 189 109 91 176 126 104 190 147 121 211 131 110 200
77 56 149 41 26 102 27 16 81 21 20 61 24 20 48
4 6 46 6 3 46 27 24 48 38 27 53 44 30 55
59 52 63 73 67 70 72 60 60 62 45 55 49 37 54
45 36 55 49 35 53 54 28 44 75 57 85 79 66 100
58 46 77 52 56 78 18 28 34 114 75 58 135 88 54
41 23 69 27 25 93 180 160 100 255 255 255 255 255 255
7 7 17 255 248 207 255 255 208 197 161 90 50 78 112
77 133 152 108 172 198 204 255 255 32 24 47 255 255 255
255 255 255 241 207 209 88 67 72 66 59 53 30 35 16
27 2 0 73 24 16 89 38 32 66 10 18 72 17 27
90 45 52 102 60 75 149 100 115 148 100 115 107 64 79
93 55 67 80 60 67 78 64 67 92 76 80 82 64 69
58 37 44 33 27 27 15 26 20 12 14 6 27 3 16
32 10 21 62 30 40 145 115 124 154 129 136 87 56 64
57 32 37 42 14 20 66 34 42 82 50 60 58 24 35
66 28 41 75 32 44 61 14 27 47 42 36 101 38 58
255 190 221 204 112 146 255 242 229 255 208 198 255 236 249
192 179 202 81 56 79 76 53 82 74 33 40 160 123 76
255 255 249 255 255 255 255 210 185 61 100 117 108 149 160
9 42 31 14 27 34 75 75 23 160 150 91 216 208 147
136 128 65 58 57 74 60 61 116 44 49 112 51 49 75
11 13 131 37 57 173 73 81 168 255 255 255 255 255 255
151 201 163 64 97 34 79 124 59 22 36 14 108 155 84
192 247 149 125 173 81 53 92 34 81 110 63 105 128 105
61 75 82 30 28 65 31 18 75 31 21 71 47 41 81
67 61 96 53 49 72 27 20 36 27 22 30 25 22 16
9 9 6 47 47 47 71 71 77 58 56 72 77 72 92
90 89 104 58 55 72 45 42 63 102 99 120 195 191 211
253 249 255 105 105 109 255 255 255 253 255 223 51 41 32
255 255 255 255 255 255 255 255 255 187 153 217 129 90 175
59 20 111 57 20 109 48 11 91 37 10 77 33 9 64
35 13 56 21 9 36 23 18 16 20 4 22 27 29 29
23 24 26 16 3 10 23 9 15 19 10 13 21 10 4
20 8 3 12 10 8 19 9 4 31 27 17 43 41 28
47 45 33 43 45 35 34 39 28 24 26 17 15 14 11
4 7 6 1 6 6 3 11 1 4 15 5 3 15 9
16 17 20 17 5 13 18 15 17 16 1 11 31 16 24
31 26 30 28 17 21 20 12 11 25 13 23 16 12 34
17 14 57 68 52 131 80 57 152 110 78 180 255 255 255
230 214 255 170 182 136 255 255 255 122 130 97 66 48 89
90 76 114 73 60 96 180 171 198 255 255 255 255 255 255
255 255 255 255 255 255 255 255 255 178 195 181 127 116 130
255 255 255 255 255 255 255 255 255 255 255 255 255 255 255
255 255 255 255 255 255 255 255 255 255 255 255 255 255 255
184 151 199 102 117 82 131 149 133 128 142 138 158 166 178
185 190 214 171 172 212 132 128 188 90 85 160 72 55 143
81 54 151 82 54 156 67 40 141 68 37 141 71 41 145
46 19 119 19 6 83 22 6 74 21 6 63 29 27 55
26 21 52 16 4 58 26 12 65 37 24 69 46 33 68
40 28 56 48 43 58 71 67 73 81 71 78 82 65 74
71 57 66 56 46 57 48 40 50 49 26 36 74 56 80
76 61 97 42 28 55 42 45 63 21 43 50 96 55 40
137 91 61 58 17 47 14 23 95 136 115 55 255 255 255
255 255 255 96 93 95 175 167 133 255 255 187 237 199 115
21 30 77 91 144 169 66 129 156 142 206 234 158 210 229
255 255 244 255 255 255 255 255 255 91 74 72 90 81 72
61 55 34 26 14 3 68 24 16 86 41 33 62 7 15
66 8 18 83 34 42 96 50 67 145 97 113 153 105 121
125 75 91 105 66 78 110 88 95 89 72 78 89 71 78
88 67 75 66 41 50 32 4 13 20 21 14 34 21 22
39 11 27 27 3 17 35 9 17 103 70 81 154 124 135
122 97 105 40 16 23 35 27 27 73 49 57 71 39 51
50 22 34 55 31 40 60 25 36 70 25 40 53 34 35
61 50 47 231 154 184 248 161 196 255 255 255 255 255 255
255 255 255 255 255 255 120 84 108 90 63 90 99 61 20
233 202 157 255 255 255 255 255 255 79 32 16 143 186 193
68 109 109 7 29 2 36 50 16 90 86 17 162 146 89
198 189 135 107 96 42 34 31 81 48 45 122 39 33 122
31 20 100 11 21 142 85 103 217 164 185 255 255 255 255
255 255 255 57 99 75 31 64 7 79 124 48 88 124 68
28 55 8 195 248 147 185 234 143 77 123 45 83 116 63
109 139 111 56 73 72 27 27 57 46 31 82 44 31 81
48 39 86 61 50 93 46 37 66 25 14 25 22 16 21
11 13 6 13 13 8 62 62 70 70 70 81 30 29 48
72 70 88 85 84 100 61 57 82 35 31 66 27 23 59
44 40 75 82 78 110 75 80 79 208 207 225 255 255 254
124 134 108 224 210 168 255 255 255 255 255 255 255 229 255
130 96 168 58 18 101 56 18 105 45 6 90 36 4 77
30 9 66 31 14 58 17 6 40 18 18 12 15 4 16
29 29 37 22 24 29 14 7 10 24 10 20 20 13 24
17 4 10 21 8 3 11 5 8 24 16 13 40 37 30
45 44 35 45 42 35 44 45 36 42 45 34 31 33 22
18 15 8 10 10 3 3 8 4 2 9 4 2 10 6
1 9 6 8 9 9 10 4 11 13 15 19 17 2 14
38 18 32 37 26 37 29 17 21 18 4 8 14 1 8
9 20 16 42 30 79 83 70 133 49 32 115 81 55 151
197 181 255 233 221 255 68 49 104 183 189 158 229 232 208
114 112 103 9 9 33 12 8 30 54 55 72 200 197 226
190 190 226 159 156 174 240 245 255 255 255 255 255 255 255
255 255 255 255 255 255 241 252 245 105 119 112 180 165 174
255 255 255 255 255 255 251 232 249 110 92 111 33 33 26
164 182 163 255 255 255 255 255 255 255 255 255 241 247 255
181 184 224 137 137 190 90 86 155 60 53 132 52 39 123
45 25 121 43 19 122 45 20 123 49 22 121 39 8 109
26 11 94 36 8 97 52 25 105 40 18 86 26 10 62
37 30 56 25 23 48 7 7 44 16 12 46 13 8 41
35 25 47 32 21 47 32 23 50 53 47 62 68 62 70
73 62 69 68 52 60 53 39 49 39 36 45 40 17 25
71 52 76 71 58 91 27 15 35 30 37 52 27 55 63
78 41 27 131 86 59 72 20 25 24 10 75 106 84 30
255 255 205 255 255 255 157 154 145 95 91 62 255 255 188
255 252 177 59 17 31 95 141 173 67 127 156 84 151 178
217 255 255 141 151 155 255 255 255 255 255 255 77 62 61
86 81 78 70 68 51 35 31 12 52 21 15 71 35 29
66 12 21 72 16 24 76 28 35 90 39 57 142 89 108
154 104 121 131 80 96 111 72 83 141 117 125 110 92 99
63 53 57 69 59 63 67 63 64 41 34 36 21 13 14
56 44 46 50 25 37 36 23 21 25 8 13 57 34 42
123 100 110 154 136 143 74 63 66 44 37 38 84 65 71
47 30 35 25 14 16 21 16 15 18 11 5 40 13 19
48 17 25 43 52 42 136 70 97 242 169 192 255 255 255
248 198 180 255 255 255 255 255 255 111 92 147 61 44 94
124 100 53 255 255 224 255 255 255 240 201 186 69 108 115
146 185 180 22 55 44 6 18 16 64 64 6 103 92 23
166 149 91 189 177 128 97 80 32 39 37 87 51 47 123
51 41 124 35 18 115 33 38 158 138 153 255 237 253 255
255 255 255 179 208 217 18 50 35 11 40 26 45 77 43
113 151 86 59 57 65 142 198 94 207 255 159 154 199 123
132 171 110 112 150 112 54 74 66 43 42 66 57 43 86
42 33 76 39 26 74 54 39 84 46 36 74 26 10 36
25 12 18 14 5 19 14 14 17 72 71 81 75 74 85
9 6 25 67 66 74 77 76 88 50 47 73 43 36 77
48 40 85 44 36 82 37 29 76 50 60 58 144 146 162
228 231 244 194 206 170 63 53 42 255 255 255 255 255 255
255 255 255 169 145 196 76 44 113 56 22 105 46 13 93
43 8 83 30 12 66 27 6 52 33 11 45 25 15 24
21 9 18 37 29 41 37 32 44 27 9 22 30 16 21
36 22 32 42 31 42 24 15 21 7 3 9 15 14 9
40 37 30 50 46 42 50 37 45 48 46 46 50 56 44
44 48 37 36 32 30 27 24 22 15 13 10 6 6 6
4 4 6 5 5 5 3 3 5 7 8 13 4 10 9
20 11 14 42 27 37 48 34 42 37 30 26 26 24 15
23 25 15 30 35 24 66 54 100 66 53 118 24 20 82
78 57 140 141 126 200 181 171 233 228 218 255 206 192 239
209 199 223 117 108 117 31 20 44 34 12 57 50 42 75
110 101 134 141 135 178 105 99 119 102 103 110 108 109 125
234 235 250 255 255 255 255 255 255 255 255 255 255 255 255
255 255 255 159 161 167 119 136 132 255 255 255 255 255 255
255 255 255 255 255 255 255 255 255 216 224 246 137 137 182
124 119 172 120 113 173 94 88 160 63 55 138 57 43 135
65 43 139 43 19 114 19 14 88 24 21 86 22 3 86
24 14 80 13 4 60 23 21 59 17 3 54 15 12 43
14 11 36 35 26 44 34 24 52 27 11 49 22 8 44
15 5 33 34 18 42 40 24 51 33 23 47 31 25 38
34 30 34 44 39 45 54 44 54 56 45 56 51 51 64
38 30 39 60 43 69 63 57 82 16 13 28 21 31 44
26 53 64 57 24 16 127 85 61 80 35 15 31 10 67
89 60 3 234 210 156 255 255 255 225 218 200 24 25 11
248 235 170 255 255 211 146 108 61 39 82 119 93 152 185
74 141 169 122 180 208 255 255 255 255 255 255 255 255 255
46 34 33 76 62 63 88 81 72 47 52 35 27 6 9
69 32 24 76 24 31 81 24 33 67 20 26 79 25 43
137 77 98 165 110 129 148 97 113 118 76 89 162 135 144
132 111 119 37 21 27 45 42 42 82 83 83 68 65 66
30 16 19 58 48 51 27 15 27 29 23 17 25 18 18
16 17 17 58 49 54 153 142 147 128 121 123 58 41 48
77 60 65 37 29 30 24 20 21 17 10 11 12 8 6
14 22 17 29 7 9 44 41 30 71 33 34 165 125 121
255 255 255 54 98 112 255 255 255 245 242 255 111 113 178
34 11 47 223 205 154 255 255 255 255 255 255 75 43 36
139 168 163 89 121 102 13 26 9 29 37 1 88 86 21
118 104 31 166 150 93 188 171 129 84 66 16 31 39 97
33 37 114 39 37 126 36 20 128 76 80 199 240 252 255
255 255 255 232 250 255 79 107 111 30 52 20 24 47 32
23 40 52 95 144 64 104 124 92 50 88 18 164 238 103
206 255 161 197 241 171 150 192 139 85 110 89 45 54 65
35 34 67 37 33 68 52 43 81 78 70 103 103 101 121
121 126 129 118 125 120 90 94 83 69 72 56 96 98 90
115 119 105 105 113 84 92 99 67 60 65 46 28 31 37
3 8 37 10 6 46 13 6 55 9 4 52 58 65 61
149 155 157 230 237 242 182 196 176 36 19 16 255 249 224
255 255 255 255 255 255 205 180 226 103 73 133 72 42 113
64 32 111 64 30 106 33 11 68 27 8 43 33 4 39
22 8 23 20 10 12 31 17 27 39 31 41 32 18 32
40 30 38 60 51 56 60 51 69 41 40 53 13 7 16
1 5 4 40 35 30 70 64 60 51 49 45 14 10 16
28 40 31 32 45 33 36 35 33 37 33 32 29 27 23
20 19 18 15 15 13 15 15 9 13 13 8 13 13 14
12 4 8 34 20 29 56 36 44 59 44 48 47 42 35
39 39 29 44 45 35 54 56 52 47 44 76 38 28 91
34 11 89 58 33 111 97 78 146 155 143 196 191 178 232
174 157 212 168 150 194 112 93 135 61 38 91 30 12 66
36 34 69 67 61 97 91 80 131 107 102 132 74 72 92
37 34 57 63 62 82 112 110 127 139 135 154 145 141 161
221 213 228 255 255 255 255 255 255 255 255 255 255 255 255
226 236 240 176 187 191 132 139 148 113 118 137 94 95 135
79 72 131 69 58 125 59 49 124 46 42 116 40 35 111
44 28 113 52 29 115 38 17 98 31 17 88 24 8 75
13 21 47 8 18 28 4 8 31 15 21 29 23 30 8
23 27 8 10 16 18 15 14 22 26 14 38 30 15 46
23 8 37 19 6 28 27 13 32 34 20 34 33 32 39
36 40 32 31 39 13 18 29 3 15 16 13 29 23 29
40 48 62 27 40 48 45 30 54 59 55 73 21 25 35
17 25 35 16 38 48 36 9 14 125 87 65 88 47 16
27 21 75 74 37 24 182 155 99 255 255 255 255 255 255
56 53 64 187 182 129 255 255 202 197 168 121 42 1 43
71 128 167 106 168 203 133 158 175 255 255 255 255 255 255
143 142 144 25 50 53 27 9 11 82 72 66 96 87 70
12 17 14 64 32 19 89 40 42 92 32 40 67 13 24
68 13 31 119 54 75 174 109 130 174 119 137 129 83 99
178 142 154 152 127 136 54 34 42 37 27 29 74 80 79
88 91 90 43 29 34 40 30 34 21 22 28 8 6 11
23 17 17 8 3 3 20 13 17 102 95 98 130 133 132
61 60 60 50 40 41 42 35 35 33 27 30 27 21 24
26 16 20 18 13 13 26 19 19 52 41 34 60 47 35
120 123 99 126 161 120 194 209 242 255 255 255 212 202 255
87 80 148 120 118 57 255 255 250 255 255 255 207 186 174
84 105 93 138 160 139 22 46 18 16 36 26 68 72 26
108 104 35 121 109 36 160 144 93 179 157 123 49 25 25
27 48 111 3 24 98 30 47 143 65 78 182 184 194 255
255 255 255 255 255 255 113 129 159 16 38 44 39 53 35
27 54 25 20 50 38 67 116 40 128 153 104 42 40 39
85 141 34 178 237 123 187 234 164 205 250 190 197 228 188
120 142 125 88 100 104 83 90 105 81 83 102 95 94 111
121 120 132 144 141 150 151 150 153 142 147 139 126 131 116
133 138 122 155 160 139 166 169 145 146 151 122 108 115 79
65 73 31 32 39 17 22 29 27 17 25 29 10 18 34
165 172 159 252 255 248 246 255 236 158 177 135 99 91 66
255 255 250 255 255 255 255 255 255 193 168 214 87 62 113
90 68 126 88 59 145 82 51 134 35 13 75 20 4 49
24 17 39 6 22 17 8 24 1 9 19 11 19 18 22
20 9 19 50 44 50 71 67 68 55 51 71 62 65 80
16 14 27 18 9 21 25 16 13 58 54 51 71 72 66
51 51 43 21 23 15 13 25 12 12 13 12 23 20 21
27 25 23 28 24 20 24 20 16 16 12 8 17 15 13
17 17 15 21 9 16 41 24 34 58 39 44 53 43 44
39 34 29 27 25 17 31 27 25 31 29 38 18 27 40
9 7 58 39 26 89 68 58 111 85 76 121 86 74 120
84 76 123 45 37 87 99 84 110 69 53 93 30 16 70
16 27 53 25 31 57 41 30 79 58 42 93 82 68 105
83 65 107 75 53 97 59 41 84 48 35 74 50 38 74
58 48 81 82 73 98 209 196 213 255 255 255 160 145 164
179 182 180 182 186 179 25 32 25 40 35 53 56 54 85
37 27 85 40 23 89 30 16 81 16 9 75 21 14 73
31 18 80 31 16 82 37 17 85 27 8 69 4 9 46
7 8 35 9 6 25 7 6 17 8 6 13 8 4 14
8 3 13 8 8 13 5 8 12 3 10 13 3 10 16
4 10 15 4 6 15 1 1 16 18 11 18 41 38 39
57 64 58 60 68 54 47 58 40 37 48 41 24 33 30
17 18 14 13 42 44 20 44 48 41 25 45 60 55 71
30 33 42 16 22 26 14 29 34 26 8 20 114 78 59
96 58 25 35 13 62 56 22 41 124 98 42 255 255 221
255 255 255 149 138 136 115 119 80 255 255 203 230 208 164
97 59 27 33 70 109 125 168 199 203 215 227 255 255 255
216 171 154 165 142 142 203 180 181 129 108 112 80 74 66
88 82 61 43 35 27 30 17 7 87 47 36 106 52 48
81 24 37 67 6 27 95 25 49 157 86 109 180 120 140
140 91 108 189 147 160 173 140 151 76 52 61 49 31 36
34 47 44 81 89 86 72 72 72 56 49 53 36 32 37
14 16 20 17 15 15 23 23 23 30 30 30 69 62 66
107 113 110 60 68 64 30 28 27 50 43 43 42 34 38
34 29 31 29 23 26 29 19 23 36 25 29 44 35 32
51 48 37 97 102 76 30 74 45 204 193 241 255 236 255
170 154 233 60 35 72 215 221 157 255 255 255 255 255 255
35 25 32 139 158 139 99 118 83 9 19 37 44 60 46
121 121 78 133 125 60 120 108 50 155 133 93 154 125 102
15 17 58 32 60 115 23 13 73 64 78 176 185 187 255
255 255 255 255 255 255 201 206 255 29 33 49 27 8 11
24 33 32 44 62 46 70 74 76 89 111 79 157 169 136
111 110 81 56 89 26 157 202 105 100 140 81 114 161 97
211 249 202 172 202 175 94 112 107 57 67 85 23 21 60
5 16 43 4 18 31 18 26 33 24 34 46 25 35 46
35 32 46 34 31 46 27 27 31 27 29 24 30 33 25
32 35 28 38 43 43 31 37 36 19 26 25 19 25 27
14 22 27 255 255 255 255 255 255 188 214 160 98 136 66
138 149 87 255 255 255 255 255 255 255 255 255 162 141 180
35 17 62 69 43 108 106 79 172 90 65 154 31 11 81
30 13 65 37 17 48 7 16 17 9 16 12 6 14 16
12 13 20 18 14 17 51 51 50 68 67 62 49 44 61
83 82 98 23 27 42 9 11 24 9 9 12 24 28 15
52 57 45 61 64 55 34 32 27 15 18 13 5 1 3
8 9 9 17 16 15 21 17 14 21 14 13 16 10 10
16 11 7 27 11 13 33 13 19 40 24 28 54 39 42
46 42 42 34 24 27 15 4 11 16 11 21 31 25 40
35 30 49 36 36 57 46 48 71 60 59 88 63 56 97
51 38 89 84 80 113 27 25 61 108 95 113 55 43 86
34 36 80 30 38 72 31 10 66 68 43 99 101 77 129
102 78 132 93 70 127 87 65 118 73 50 105 58 36 92
53 37 88 58 45 90 66 52 94 116 96 136 247 228 255
255 251 255 37 19 55 189 200 178 164 170 150 63 66 69
50 47 92 36 28 94 23 10 68 21 10 68 25 17 71
24 17 63 18 9 64 26 15 74 34 20 75 20 9 54
3 8 36 3 7 27 8 8 24 9 7 21 6 8 15
4 8 13 5 6 9 9 11 2 4 6 7 3 8 13
3 10 10 3 8 7 5 5 6 4 4 5 34 32 38
61 64 66 66 74 66 61 69 61 38 49 41 29 40 40
27 37 35 26 28 28 7 37 24 11 36 37 44 27 43
62 57 70 29 34 40 13 24 21 16 31 33 23 7 16
92 58 43 99 61 33 60 26 25 49 17 45 86 55 4
246 216 165 255 255 255 248 231 219 22 38 19 245 253 206
255 255 217 151 119 81 81 59 71 100 106 128 106 108 121
133 68 49 250 226 222 255 255 255 255 255 255 255 255 255
255 255 255 103 92 74 37 24 16 6 4 6 54 24 12
97 50 37 88 35 44 74 15 34 87 16 39 137 62 87
172 108 130 153 98 117 189 144 158 193 154 167 119 84 97
75 48 57 23 17 17 65 75 72 96 103 100 88 95 91
66 72 68 37 35 32 9 15 15 25 27 27 34 35 34
67 61 64 110 113 111 81 86 84 24 29 27 55 46 48
51 41 45 41 36 38 33 31 32 34 26 30 32 20 26
36 25 28 58 53 47 74 74 54 37 45 69 208 180 248
231 198 255 111 80 165 113 127 73 255 255 254 255 255 255
175 176 157 98 105 96 126 140 116 61 72 25 17 13 42
64 70 36 175 173 130 145 136 72 114 93 51 145 117 89
109 83 63 25 47 87 35 56 113 55 42 44 114 121 216
255 255 255 255 255 255 250 248 255 130 131 187 47 35 9
47 29 28 33 15 44 49 48 59 61 58 65 47 72 43
139 152 130 162 157 132 16 29 15 162 197 115 95 129 80
43 61 51 117 145 111 124 154 126 77 96 91 71 79 92
46 40 68 47 47 59 62 66 68 76 80 86 87 91 97
97 98 102 99 98 103 91 90 99 82 81 93 78 74 94
77 73 102 78 73 109 70 64 102 49 43 82 37 30 71
38 30 73 36 29 72 220 247 205 116 131 114 18 35 17
55 61 29 99 113 49 255 255 233 255 255 255 255 255 255
165 147 179 1 20 29 35 13 77 109 83 176 94 69 162
30 6 87 38 20 80 49 24 62 20 10 27 18 7 23
15 6 24 14 10 24 16 22 13 46 56 44 64 68 58
17 16 24 82 74 91 48 49 62 10 19 24 8 7 3
4 6 6 21 24 13 49 50 43 38 31 30 19 18 20
13 13 18 6 8 15 4 6 8 9 15 9 13 18 15
17 17 16 14 6 3 29 6 13 28 10 13 30 15 19
43 34 35 36 39 37 30 31 30 30 32 31 42 44 42
55 55 57 57 56 64 48 52 60 44 49 56 39 36 56
32 18 58 27 24 59 85 87 103 25 17 54 112 104 120
41 30 65 35 47 71 27 38 66 43 28 65 83 71 103
96 75 125 83 56 128 75 48 122 74 52 115 66 47 105
49 23 85 34 17 74 32 25 74 28 8 70 34 6 70
116 93 144 252 235 255 238 218 255 64 51 99 148 158 128
165 176 150 116 128 131 57 65 97 21 29 41 23 29 43
17 18 46 16 6 54 28 22 68 21 14 64 19 1 53
15 3 44 12 10 35 13 12 30 15 14 30 12 13 23
9 13 16 10 14 18 12 17 13 12 15 8 3 3 10
4 8 13 4 8 11 3 3 6 6 4 1 5 7 4
52 54 61 77 81 86 57 62 60 46 50 48 16 22 15
18 17 27 22 25 27 23 27 27 14 28 9 4 19 17
39 30 41 59 59 65 26 35 36 10 23 17 20 29 31
22 6 10 69 34 24 96 57 35 85 54 13 45 17 43
52 19 44 181 148 95 255 255 255 255 255 255 108 81 101
183 202 164 255 255 252 206 180 138 118 78 33 89 37 17
55 37 68 137 142 152 255 255 255 255 255 255 255 255 255
255 255 255 255 255 255 255 255 255 81 64 67 21 24 22
12 11 16 82 43 22 92 43 47 83 27 44 82 14 33
116 37 64 156 89 112 156 97 118 170 123 138 190 152 164
156 118 131 104 71 82 71 53 58 50 52 50 62 77 72
72 81 77 82 82 76 70 63 56 13 16 16 25 25 25
25 25 25 55 47 51 105 100 102 102 99 101 30 32 31
55 47 50 58 45 49 46 37 40 31 30 30 33 29 30
28 15 18 27 15 17 64 49 51 66 62 47 58 28 82
199 156 241 231 186 255 100 66 137 216 244 170 255 255 255
255 255 255 28 36 33 180 180 168 99 105 71 49 49 27
46 37 39 78 72 20 186 185 139 152 147 97 102 79 40
114 92 73 57 38 21 60 76 114 31 48 100 80 69 17
154 154 250 255 255 255 255 255 255 187 180 246 111 109 145
95 86 54 99 92 62 81 77 57 49 32 47 22 33 27
24 37 25 88 102 82 194 196 169 81 68 76 138 169 103
158 199 131 88 128 73 123 144 121 99 119 99 72 92 81
75 93 92 55 57 80 29 25 69 30 34 66 34 42 67
37 48 62 47 54 57 52 51 58 44 43 58 37 36 52
35 33 53 39 35 65 44 39 70 51 46 75 60 56 85
66 62 90 68 64 92 68 64 92 85 82 65 173 175 146
224 230 194 236 255 202 195 214 166 94 93 53 255 255 255
255 255 255 255 249 255 33 20 68 16 15 65 91 67 159
99 70 166 34 9 94 37 18 85 53 27 74 32 16 39
29 15 35 28 16 39 27 15 38 8 11 16 35 51 31
60 70 52 25 36 16 51 45 61 75 69 83 29 30 40
12 11 7 16 16 18 21 28 29 28 36 31 29 15 12
16 8 9 13 11 15 11 12 20 5 13 18 3 19 11
11 18 15 18 16 14 26 5 11 29 11 15 19 4 4
17 7 11 29 26 26 28 35 33 29 37 34 39 42 41
40 43 39 29 30 32 26 23 44 19 23 43 15 21 34
8 8 35 20 17 46 30 27 53 71 72 85 46 37 72
98 90 110 28 14 43 35 51 66 17 27 51 56 44 57
81 72 80 55 40 72 43 20 90 52 22 101 65 38 106
64 47 103 44 24 84 19 9 64 13 25 58 18 15 55
20 26 48 27 6 63 135 110 167 245 222 255 228 204 255
101 80 137 59 73 50 159 175 161 151 163 167 65 72 78
26 28 48 28 32 44 40 37 66 24 17 66 10 16 36
14 6 40 26 10 50 8 7 29 8 5 25 7 4 23
4 5 14 4 7 13 4 8 16 16 24 15 16 22 15
4 4 11 4 6 12 3 6 14 4 4 11 4 4 5
3 5 3 67 68 75 83 84 91 35 37 35 29 28 28
16 9 10 27 9 26 18 10 17 8 10 16 17 12 19
14 4 22 34 32 38 57 59 58 30 35 30 15 20 14
22 29 27 16 7 6 50 19 9 89 49 34 101 73 34
49 23 35 28 7 60 111 75 28 255 255 202 255 255 255
224 194 202 89 111 84 255 255 250 250 231 187 147 110 63
96 42 17 51 64 96 128 173 198 148 192 207 199 238 255
219 245 255 166 146 142 255 255 255 255 255 255 255 232 229
31 19 14 19 19 28 61 35 11 92 44 44 95 35 54
85 13 37 100 21 47 140 66 91 153 91 113 153 107 123
178 141 153 174 138 150 121 92 102 93 72 80 67 48 53
8 18 13 17 31 26 82 77 68 84 76 68 16 16 16
25 25 25 16 16 16 34 29 31 86 78 82 111 105 108
38 44 41 50 43 46 63 48 52 52 36 40 30 25 26
32 31 30 22 13 14 16 6 5 63 43 51 70 64 55
38 19 52 176 130 212 250 203 255 144 135 165 255 255 250
255 255 255 121 141 99 155 147 160 174 173 154 74 79 41
58 57 41 66 55 48 78 66 23 166 162 114 164 161 123
100 88 61 76 61 50 23 4 13 81 91 127 24 36 88
84 80 6 164 158 255 255 255 255 255 255 255 109 123 201
76 91 146 55 56 43 113 112 83 137 132 113 113 98 102
34 22 28 26 13 18 26 42 17 165 173 147 166 164 144
12 26 7 156 198 122 220 255 193 173 215 157 70 102 59
45 70 48 59 84 77 63 74 91 47 49 88 31 29 73
21 16 59 28 27 57 31 31 53 20 14 38 13 9 37
6 2 32 9 2 36 20 15 49 25 21 49 37 33 59
43 42 63 45 44 58 47 44 58 48 44 59 255 255 255
255 255 255 255 255 255 255 255 255 255 255 254 179 182 193
173 170 152 255 255 255 255 255 255 138 120 169 30 19 79
70 50 141 113 87 183 48 26 114 28 12 80 45 23 74
32 20 43 34 24 36 37 27 42 41 33 48 24 16 33
17 24 14 40 47 33 45 51 31 15 12 27 77 73 84
50 45 61 15 14 21 32 32 30 35 42 42 36 42 44
29 27 31 16 15 19 9 6 7 5 1 1 6 7 9
6 13 9 11 12 6 24 12 12 33 10 17 21 7 10
13 9 4 9 6 8 17 17 19 17 19 20 18 15 16
24 18 20 14 9 14 15 7 28 13 8 37 7 10 38
10 17 37 19 21 37 16 15 33 16 12 34 51 53 64
51 44 65 61 52 70 8 16 17 27 47 53 17 7 41
68 56 66 72 66 69 36 28 48 17 0 60 32 9 81
57 35 98 72 52 106 57 37 89 21 17 62 6 33 50
18 19 52 26 18 59 16 28 60 34 7 78 116 94 142
154 134 190 189 172 232 163 150 199 14 25 29 156 168 168
134 140 148 50 57 73 13 27 29 40 44 68 53 56 88
13 24 42 12 2 40 22 11 47 19 9 27 18 9 21
19 10 13 19 9 10 18 9 9 18 11 5 18 26 20
17 25 18 3 3 11 3 3 9 4 7 11 4 6 14
3 3 10 4 4 11 63 65 73 78 79 85 42 37 32
35 30 27 21 11 13 23 10 24 15 10 14 13 10 17
19 6 33 18 10 28 34 29 33 57 58 53 33 33 29
18 18 18 22 29 26 11 9 8 36 13 8 79 44 29
103 77 38 63 36 19 36 15 51 58 24 30 189 165 110
255 255 255 255 255 255 45 20 38 249 255 219 255 255 241
185 157 106 90 43 22 37 60 94 105 163 194 100 153 173
104 133 148 255 255 255 255 255 255 237 221 205 255 255 255
255 255 255 48 22 28 15 6 17 26 13 3 84 41 31
108 47 60 97 27 51 90 18 42 123 46 71 144 77 100
149 103 119 181 142 156 192 157 168 139 110 120 89 65 74
77 56 64 45 28 33 13 13 12 76 79 68 76 72 63
16 11 11 20 21 21 8 8 8 11 11 11 60 54 57
111 103 107 51 54 52 41 34 37 68 52 56 55 34 40
21 16 16 24 33 30 19 26 22 6 16 4 56 40 52
73 70 61 27 56 14 113 71 150 220 173 255 167 173 177
255 255 255 255 255 221 56 37 77 205 200 207 120 123 97
76 84 41 72 71 52 63 49 58 75 63 23 161 151 103
163 155 128 91 82 65 51 48 35 3 15 19 88 91 126
26 25 86 69 72 14 141 133 235 255 255 255 255 255 255
254 255 255 243 255 255 152 176 197 43 64 74 91 74 67
146 135 131 106 113 99 96 100 101 89 87 99 54 65 47
140 146 126 141 136 123 14 27 16 215 255 173 255 255 245
119 165 107 34 65 34 54 79 68 59 81 93 50 60 94
36 34 76 20 17 55 27 22 54 31 24 58 20 14 41
17 13 40 13 9 41 14 7 44 25 21 53 30 26 56
41 37 63 34 33 47 18 14 25 21 17 25 17 14 21
255 255 255 223 223 221 174 176 169 145 149 141 152 161 157
230 233 248 57 72 69 255 255 255 255 255 255 239 218 255
62 41 106 65 44 128 130 108 204 73 53 147 22 7 85
31 9 77 18 11 56 27 22 48 32 20 52 45 35 61
38 31 53 15 12 28 21 25 14 43 52 29 10 17 1
54 54 61 59 56 67 22 18 30 38 38 34 43 54 47
41 43 46 42 37 49 30 30 41 18 14 25 11 7 16
9 8 4 12 7 4 16 9 8 26 17 19 22 17 18
8 8 8 8 10 10 4 6 8 13 16 19 12 15 16
7 9 7 9 13 11 27 14 25 26 17 43 12 14 29
10 13 34 18 21 43 22 28 36 16 26 16 11 16 16
26 22 39 22 13 34 20 17 25 21 43 18 15 35 29
43 23 44 78 66 83 66 55 80 36 17 64 22 3 59
23 1 66 44 29 86 73 57 106 71 51 98 32 22 66
3 26 53 10 22 56 29 4 75 34 25 84 22 19 61
67 59 81 46 18 91 79 58 133 172 160 210 160 141 183
31 39 52 149 157 154 136 146 151 50 52 72 34 21 52
19 13 57 31 34 71 25 27 63 23 16 50 28 14 47
27 14 41 26 14 28 27 15 24 28 17 22 27 19 17
18 21 19 11 17 12 2 1 11 4 3 5 4 8 4
3 6 9 4 4 9 4 4 11 41 46 53 68 70 73
57 52 45 43 39 35 17 12 6 14 7 20 16 11 15
22 15 24 23 19 33 18 9 22 38 29 30 59 58 53
36 34 29 20 20 18 22 29 26 13 6 16 32 13 17
71 41 28 96 67 36 76 51 7 62 32 35 26 18 61
108 79 23 255 255 211 255 255 255 185 153 157 161 174 136
255 255 255 238 221 170 125 98 77 90 80 95 63 117 143
77 130 151 12 49 71 71 96 115 255 255 255 255 255 254
255 255 255 255 255 255 54 29 35 10 13 6 22 17 9
68 35 13 112 52 51 110 42 62 90 23 42 106 32 51
129 59 79 148 98 116 185 147 159 210 174 186 160 127 139
75 54 61 70 54 60 68 52 58 9 1 10 70 79 71
64 70 62 12 4 6 8 15 14 10 10 7 4 4 2
36 34 37 104 101 102 65 66 65 32 27 29 70 56 59
54 35 41 7 13 7 20 36 32 22 37 31 8 19 7
51 35 55 70 69 61 48 78 11 46 9 94 137 95 194
147 168 141 255 255 221 106 137 71 167 149 184 166 163 160
75 79 40 102 108 46 70 67 37 45 26 81 80 68 7
182 165 123 149 130 115 60 47 39 38 46 36 0 18 23
85 79 115 32 22 82 41 53 31 106 93 191 243 244 255
180 198 255 191 219 255 246 255 255 222 255 255 142 190 199
18 50 31 126 123 96 166 176 136 179 187 145 174 176 142
128 127 117 9 16 8 138 139 126 144 127 122 84 115 56
255 255 242 222 255 193 95 127 91 87 114 94 71 99 102
61 79 103 58 65 99 51 49 88 49 37 81 43 30 75
34 22 60 31 20 57 27 18 62 27 19 64 34 28 65
35 31 66 45 38 69 37 29 47 20 11 20 24 19 22
19 13 13 141 149 177 113 122 141 87 98 104 91 100 111
115 127 136 200 206 222 164 176 186 173 165 157 255 255 255
255 255 255 119 88 166 62 28 123 136 109 209 102 79 189
49 25 150 54 31 149 47 33 127 26 22 91 11 6 70
28 17 70 32 23 68 23 18 55 13 17 34 25 33 8
32 35 20 17 17 25 47 46 53 44 41 50 18 25 26
47 55 42 40 42 28 22 3 27 40 30 54 52 38 57
51 35 54 48 34 48 41 32 38 33 32 34 23 30 30
12 25 23 16 24 24 14 18 22 18 22 27 21 26 30
20 24 23 19 17 14 25 19 17 24 12 21 21 11 40
26 26 39 55 60 55 58 72 57 33 61 24 29 43 18
45 34 46 50 2 59 56 19 65 40 17 46 30 33 37
22 12 36 61 43 67 78 69 91 64 42 88 40 7 80
28 1 64 14 9 47 31 25 54 59 46 86 74 55 107
60 39 95 24 11 68 6 29 52 17 35 70 15 9 73
43 36 83 41 25 93 39 23 101 38 15 100 98 83 158
190 174 244 164 149 203 8 14 28 151 158 150 191 194 202
87 86 113 9 12 44 23 20 78 42 40 112 28 27 104
28 28 102 37 38 105 32 35 87 16 19 56 4 8 33
12 6 18 7 6 4 9 17 14 4 13 11 6 10 6
3 10 1 6 8 6 7 6 9 6 6 7 22 31 36
38 49 49 48 49 45 51 54 50 25 34 21 20 31 29
25 33 34 17 17 29 13 9 25 20 3 22 44 32 36
57 54 52 31 31 25 9 21 9 13 31 18 14 24 4
20 13 11 57 31 30 93 61 45 93 64 33 80 48 16
31 13 59 62 34 34 221 188 132 255 255 255 255 255 247
19 38 10 255 255 235 255 255 215 119 103 51 76 63 63
57 63 83 42 95 127 41 90 123 33 63 88 86 115 139
255 255 255 255 255 255 255 255 255 41 28 24 28 22 8
30 19 6 52 23 4 101 44 39 116 52 63 96 34 42
98 34 39 122 54 65 148 92 108 167 126 136 202 166 181
192 162 178 103 84 93 72 52 63 80 61 77 30 22 40
67 73 80 76 82 88 52 44 57 32 21 36 9 6 13
10 14 12 20 17 26 90 86 90 86 82 86 26 14 23
74 66 65 51 44 45 12 25 18 23 45 38 29 54 46
19 42 23 51 21 46 79 66 67 58 76 20 24 30 63
54 53 115 196 222 180 192 219 161 57 31 103 190 176 208
116 111 102 92 94 44 126 126 43 58 44 50 46 24 100
103 84 24 201 182 150 124 106 98 49 27 15 34 31 22
13 11 39 74 55 97 47 24 80 59 33 80 115 72 155
148 141 231 103 125 206 77 111 183 142 178 234 175 228 255
167 235 247 71 137 143 41 54 33 77 75 40 90 92 55
99 92 61 129 121 111 97 86 94 65 62 60 177 165 147
61 46 46 209 255 158 255 255 221 210 247 191 174 214 166
124 169 139 112 150 145 95 122 148 62 77 127 54 51 115
55 40 106 44 24 83 30 13 64 17 4 67 24 10 78
42 32 88 46 39 88 51 38 81 39 26 60 19 15 33
21 18 23 10 13 13 63 67 105 63 68 103 60 67 92
80 87 113 109 116 144 168 173 199 205 209 232 17 13 40
255 255 255 255 255 255 255 245 255 92 63 146 105 74 164
116 87 187 72 42 166 68 43 169 59 34 150 27 16 101
19 14 79 20 10 75 27 19 72 26 18 58 14 4 39
19 18 24 32 34 23 21 21 13 17 17 22 46 38 42
24 12 15 47 44 35 69 66 49 63 51 23 31 14 14
25 12 29 30 17 31 31 24 35 28 26 30 21 24 24
11 20 18 10 24 19 14 31 28 19 32 35 22 29 35
21 25 25 20 23 17 23 22 15 35 31 23 42 39 34
47 45 50 61 63 67 51 63 53 24 42 11 54 39 44
86 49 80 92 49 90 83 35 85 80 39 82 69 42 72
56 36 60 39 12 54 55 39 71 74 68 82 62 48 71
23 11 56 21 7 55 24 17 40 29 24 34 32 22 53
54 37 79 71 51 89 61 46 75 5 21 39 27 48 44
21 28 35 29 21 60 25 15 79 28 21 82 40 24 93
61 47 118 112 99 169 188 176 235 190 181 211 67 67 66
195 200 196 251 255 255 142 142 180 46 41 98 24 29 77
4 9 76 13 18 82 20 25 88 34 31 100 34 34 85
14 19 56 20 16 41 14 14 17 13 20 17 12 20 16
9 19 11 6 16 8 11 11 11 13 13 15 14 19 17
23 36 33 20 34 29 31 35 31 64 69 62 48 57 47
9 23 17 34 40 42 25 28 36 14 21 30 24 14 33
46 36 46 47 45 48 22 25 28 3 19 13 7 26 13
11 25 12 4 17 8 33 12 21 82 54 49 101 70 56
80 51 22 45 18 34 50 22 43 133 105 53 255 255 210
255 255 255 143 117 123 178 196 146 255 255 255 156 151 97
28 20 54 33 23 66 15 44 87 39 97 133 58 108 140
127 139 154 255 255 255 255 255 255 156 145 131 86 73 73
146 123 121 122 104 103 7 28 37 92 33 33 127 51 61
94 29 37 84 22 24 120 53 61 167 104 118 156 106 115
156 113 131 189 154 176 145 123 138 99 79 96 79 59 83
46 38 55 42 48 60 82 86 100 83 77 92 71 61 75
44 33 48 36 25 40 36 25 44 75 69 81 104 99 107
31 23 34 80 79 75 51 52 48 22 27 26 29 47 39
44 64 57 48 69 52 30 11 16 88 68 73 69 78 39
16 32 44 78 106 56 189 225 144 41 69 72 161 142 217
150 133 161 114 102 84 143 140 71 123 113 36 65 46 76
67 46 76 123 100 38 193 178 152 104 95 93 36 24 12
17 17 8 36 15 50 61 30 72 78 43 96 122 79 140
141 102 149 111 74 125 96 78 146 114 116 171 133 151 194
128 181 217 148 231 255 166 255 255 114 222 221 35 116 111
6 25 24 64 44 40 144 128 124 124 115 110 40 37 39
157 144 137 116 117 81 61 92 42 155 197 125 236 255 204
255 255 252 255 255 255 245 255 255 238 255 255 235 249 255
222 221 255 187 176 242 142 122 184 89 64 124 32 11 78
22 15 64 42 27 79 52 40 95 52 35 89 39 26 69
20 19 45 15 17 30 5 16 18 45 30 56 43 29 59
39 35 64 50 44 90 84 76 130 143 139 184 205 201 236
141 144 161 114 102 112 255 255 255 255 255 255 244 227 255
110 84 149 98 79 131 44 16 91 31 9 95 51 16 114
38 16 84 38 25 79 36 22 79 31 19 75 32 21 69
35 29 61 12 20 32 27 32 9 23 25 15 10 10 12
49 41 43 42 37 34 14 23 23 51 45 45 77 56 44
58 44 32 36 37 34 32 30 31 28 22 28 23 15 21
17 9 15 12 4 10 4 9 7 18 29 25 22 35 30
14 26 22 13 23 17 23 32 25 34 46 35 50 58 51
69 70 69 74 73 69 38 44 40 31 11 33 96 64 82
124 93 108 114 87 107 89 66 89 62 38 66 57 37 57
58 43 58 53 40 53 40 20 47 51 30 55 66 53 63
54 49 52 19 23 16 18 9 34 32 20 38 28 17 28
17 10 25 29 20 37 61 51 61 76 58 71 18 1 30
20 33 15 18 26 4 9 15 21 6 6 34 9 9 37
5 8 34 1 13 27 18 10 57 77 69 120 177 172 206
215 211 236 68 66 82 120 122 110 188 189 191 171 167 188
124 121 149 99 96 124 55 48 90 11 17 45 13 5 60
31 24 71 21 16 56 28 25 52 19 24 32 6 6 6
12 14 11 15 18 10 11 22 18 14 20 18 19 24 17
18 28 20 11 24 20 10 13 13 24 31 25 66 73 63
61 70 65 23 18 19 30 26 31 23 14 25 15 7 19
31 20 33 49 39 51 42 41 47 17 21 29 7 9 16
11 12 10 15 13 11 8 13 12 23 9 6 60 39 35
89 64 58 72 48 35 34 17 7 40 24 16 71 53 12
238 204 116 255 255 255 255 255 246 29 51 33 255 255 255
255 255 225 87 76 34 16 18 60 19 27 69 4 51 84
63 99 119 195 193 188 255 255 255 237 211 180 164 162 153
255 255 255 255 255 255 255 255 255 237 236 221 35 33 26
132 54 65 97 32 45 73 8 16 99 35 47 180 115 128
186 128 141 144 99 117 162 127 147 146 118 139 126 104 124
98 78 105 60 49 68 23 17 31 45 50 59 59 59 66
62 62 67 41 41 48 42 42 48 38 38 46 59 59 67
100 100 106 37 37 43 78 79 75 52 54 49 26 24 32
28 30 39 49 51 57 71 77 71 24 43 25 66 52 57
80 87 59 25 41 17 95 117 31 162 197 86 102 109 128
165 145 217 115 88 121 143 121 102 170 157 84 105 94 44
76 71 94 88 78 72 127 113 79 167 156 137 85 86 88
25 11 10 23 10 28 32 12 41 58 20 56 110 73 118
148 110 165 116 86 137 105 95 110 106 93 113 82 85 127
91 118 159 109 154 184 142 197 218 193 255 255 206 255 255
114 235 225 14 86 77 65 51 46 156 141 134 119 103 92
43 36 55 113 101 103 89 94 69 120 138 106 89 87 87
16 37 7 154 173 134 232 251 203 227 252 211 214 235 220
246 255 255 255 255 255 255 255 255 255 255 255 220 209 250
148 135 180 93 81 130 71 60 113 68 62 110 71 63 110
53 47 86 25 30 52 15 25 37 6 20 21 63 48 79
58 43 77 50 46 75 56 46 101 83 68 134 127 118 174
181 172 221 199 196 224 124 131 135 134 119 130 255 255 255
255 255 255 229 209 255 115 100 139 67 42 98 44 18 94
54 31 103 60 39 94 45 25 77 30 13 71 29 18 76
39 28 79 41 29 77 16 11 47 32 34 32 16 21 23
13 8 24 45 40 46 38 34 37 10 7 6 35 32 32
61 39 32 44 22 13 21 13 23 21 16 20 24 17 21
28 20 19 32 24 23 35 27 29 35 27 34 22 16 23
7 10 7 8 7 6 11 11 3 24 27 21 31 36 25
34 31 30 24 17 26 15 9 14 59 37 46 97 69 80
118 87 98 108 81 89 72 54 63 39 20 35 21 11 30
40 28 42 50 35 53 52 40 53 50 33 47 54 36 47
55 43 52 43 41 43 17 22 11 17 9 26 34 19 35
28 16 26 14 9 12 24 18 24 53 46 52 70 53 63
42 22 41 7 13 7 13 24 13 3 21 13 7 15 14
9 10 20 10 7 18 8 5 12 7 4 33 32 26 63
87 83 113 163 156 195 200 195 227 171 169 188 59 56 71
135 138 127 255 255 255 250 253 255 161 157 178 56 51 87
14 7 57 26 18 66 23 16 65 25 21 52 16 24 30
6 8 9 12 12 6 20 20 13 16 27 23 14 25 22
16 23 13 8 23 10 10 2 2 16 15 15 27 36 27
60 68 56 59 70 66 27 34 31 16 16 19 18 10 18
15 7 19 32 20 32 52 40 52 42 42 50 15 23 31
4 11 19 6 13 9 6 14 10 15 1 1 26 7 13
41 20 17 75 52 44 78 57 48 49 35 21 39 24 9
53 34 19 153 129 67 255 255 231 255 255 255 164 144 168
179 192 167 255 255 255 220 217 180 67 47 8 41 50 80
92 108 129 160 173 183 205 203 200 167 134 113 221 196 189
255 255 255 255 255 255 255 255 255 255 255 255 255 255 255
202 218 194 77 19 20 107 50 64 77 14 33 70 18 30
159 93 104 218 157 170 182 131 155 148 107 130 128 93 114
145 121 142 139 120 145 83 68 88 38 30 41 24 34 42
58 60 64 54 54 55 18 18 22 20 20 23 23 23 27
58 58 62 86 86 91 37 37 46 67 67 67 53 54 53
35 34 42 36 32 48 57 54 66 79 79 84 58 67 64
39 30 33 74 81 59 44 57 13 68 87 16 95 126 30
101 99 124 121 104 155 110 84 105 170 144 127 174 161 90
87 81 33 49 52 79 76 68 52 118 109 84 135 128 115
62 66 70 42 23 21 34 16 38 20 6 26 59 24 59
123 82 127 153 109 163 134 90 152 83 64 111 54 53 79
17 19 51 49 61 98 91 115 139 95 129 147 123 171 188
213 255 255 203 255 255 83 199 180 40 43 23 147 120 118
142 107 105 100 83 96 75 67 68 51 60 58 137 138 133
202 193 194 235 224 226 178 163 171 56 65 55 132 160 106
106 133 115 120 122 133 103 107 121 69 75 93 96 97 127
191 191 224 255 255 255 255 255 255 255 255 255 194 195 232
144 141 185 93 88 127 43 44 66 27 33 47 10 22 20
79 64 112 74 56 108 67 51 102 69 46 122 87 64 144
110 97 162 148 137 198 180 172 219 228 226 248 216 222 227
153 144 160 255 253 255 255 255 255 172 159 187 104 85 130
74 54 116 64 49 110 66 47 111 58 39 95 47 23 87
39 20 90 42 24 91 44 28 92 34 22 73 27 25 51
14 17 39 16 4 42 40 32 57 41 34 55 34 30 41
47 40 46 58 42 43 40 26 28 14 15 31 7 4 22
16 12 16 32 27 18 47 39 29 55 47 41 71 60 60
86 71 75 83 70 73 71 61 63 66 55 57 71 61 63
83 72 73 97 82 88 106 86 100 116 91 105 123 94 107
120 91 103 102 70 85 67 38 52 26 6 20 3 25 11
4 28 15 17 18 17 35 18 34 43 29 44 54 36 50
60 43 56 57 44 59 46 35 44 24 14 22 25 9 31
37 20 40 27 17 26 13 6 10 22 12 20 48 38 46
61 50 59 61 45 62 30 12 30 5 22 18 9 23 21
13 22 20 11 11 22 15 6 23 17 3 21 16 6 31
31 23 56 45 41 72 71 64 106 99 91 135 129 124 155
160 155 184 190 188 203 56 53 39 167 171 190 171 166 198
78 71 115 27 22 66 34 27 71 31 24 72 24 20 51
7 13 21 25 23 24 31 31 30 29 29 25 17 26 23
9 20 16 11 19 8 9 21 9 24 16 18 20 17 17
24 34 24 51 58 47 56 66 63 38 47 44 16 16 16
17 10 17 18 11 22 33 22 33 51 40 51 41 41 49
15 23 31 3 11 19 4 12 8 2 14 10 22 6 10
25 9 15 25 4 5 58 35 23 78 56 43 66 50 31
44 30 11 44 22 31 92 67 55 239 213 146 255 255 255
255 255 255 56 34 55 246 255 234 255 255 255 185 178 140
97 88 73 127 136 138 157 165 168 107 109 116 74 84 111
242 251 255 253 255 255 116 151 157 44 64 58 189 163 178
255 255 255 255 255 255 65 106 88 94 42 50 89 28 40
60 9 13 119 53 67 207 148 163 220 161 189 160 106 136
126 85 109 163 132 159 183 160 186 116 102 120 46 38 47
20 33 43 65 70 75 49 50 53 10 18 25 11 18 27
27 29 36 56 57 64 64 67 73 39 47 53 41 46 51
47 49 47 40 43 47 23 32 40 47 54 60 71 78 81
71 81 83 56 58 62 57 63 52 51 61 31 51 67 20
33 64 31 58 52 104 83 64 119 114 88 104 173 150 137
152 140 88 55 43 44 20 10 61 74 54 9 108 94 71
105 97 88 38 39 45 46 30 27 38 21 41 32 16 33
59 32 63 98 59 104 146 100 150 191 147 200 169 131 187
85 54 107 5 14 33 16 16 35 36 56 77 84 111 127
138 180 200 231 255 255 255 255 255 211 255 255 57 154 130
77 29 35 141 95 102 127 108 113 85 77 72 116 121 116
123 135 122 108 111 99 186 177 182 255 254 255 169 150 161
136 164 123 177 209 184 182 182 193 214 202 211 210 193 188
166 147 129 87 73 43 14 17 45 72 70 119 130 121 179
137 126 188 149 138 201 114 99 152 46 36 72 47 37 63
48 30 41 70 54 114 67 46 112 59 36 102 67 36 127
87 58 150 93 71 149 113 99 168 120 111 171 145 138 183
168 164 195 168 165 188 156 151 175 196 183 210 180 168 187
105 91 127 41 14 80 36 13 75 54 35 98 65 44 107
73 42 116 72 42 124 68 41 121 57 33 113 40 20 93
26 17 66 21 15 54 21 6 54 34 21 61 39 26 63
42 32 62 52 41 65 54 41 56 37 24 45 20 20 49
20 17 45 27 17 36 33 23 27 32 25 20 35 27 17
48 39 29 68 57 51 74 60 58 69 55 57 72 58 61
81 68 70 96 83 85 115 97 102 122 100 107 112 89 95
103 79 87 91 62 73 65 34 49 34 8 27 16 13 23
17 15 21 19 6 19 19 3 19 30 8 27 43 23 39
54 35 53 57 42 59 54 35 54 44 21 39 30 7 28
38 14 42 40 22 41 26 16 23 11 2 10 18 4 16
41 26 38 54 42 53 70 57 72 46 30 49 20 21 32
18 24 28 16 23 25 11 12 20 13 6 22 18 5 27
29 17 42 48 36 71 47 42 76 33 27 68 37 30 77
40 34 72 93 87 123 235 231 255 227 222 242 154 155 180
168 163 196 74 67 110 20 13 64 27 19 66 28 20 63
30 27 54 28 27 32 43 39 39 37 37 37 29 29 28
16 19 17 6 9 6 8 13 8 20 22 18 27 20 22
13 11 11 18 29 18 37 44 33 48 58 54 48 57 54
30 30 27 20 16 20 26 20 29 37 27 37 51 39 51
40 40 48 13 20 28 1 7 15 4 11 7 6 14 11
21 11 13 24 11 16 15 7 6 38 18 6 72 48 35
76 55 37 46 37 19 36 19 38 59 31 58 149 121 60
255 255 252 255 255 255 255 255 255 37 57 41 255 255 255
255 255 255 194 180 139 140 117 76 125 82 50 61 24 58
136 174 208 165 214 238 58 110 131 84 87 85 132 142 141
136 128 147 241 252 251 255 255 255 158 196 171 47 9 7
114 55 50 77 13 24 80 16 33 166 107 126 226 164 193
181 123 155 136 92 121 173 137 168 221 188 217 163 148 166
56 51 47 30 37 45 67 68 72 42 41 42 3 6 14
8 2 8 33 31 30 42 42 49 37 42 54 43 50 60
19 27 35 38 39 35 55 54 55 26 29 37 33 39 49
57 66 71 64 76 81 74 81 84 55 58 66 38 44 40
38 54 27 13 37 48 34 8 99 90 62 135 133 109 124
153 134 124 120 106 81 38 18 60 30 7 48 92 70 38
110 94 83 93 84 82 27 27 33 40 31 27 37 26 40
43 21 48 61 40 63 56 21 61 94 59 99 173 132 180
211 173 227 145 110 166 41 26 72 10 17 35 31 17 16
65 54 48 72 94 107 135 188 215 255 255 255 255 255 255
198 255 255 71 156 136 43 27 25 73 58 49 75 57 46
136 132 120 163 171 161 171 188 171 92 104 89 181 158 187
229 199 238 24 59 23 237 255 235 137 165 135 84 86 80
120 105 98 169 147 133 235 211 191 255 255 235 255 255 243
241 217 219 177 149 176 147 122 177 118 97 155 63 51 95
70 58 87 62 43 53 26 31 60 29 34 70 12 27 60
48 38 100 76 61 134 62 43 119 61 39 120 53 35 113
35 23 92 24 23 68 16 8 45 49 43 59 115 103 109
199 184 192 201 181 203 99 69 120 33 0 62 35 20 75
48 25 92 63 32 107 75 42 125 80 48 130 74 43 128
58 29 118 35 15 87 23 12 68 22 6 66 28 13 66
25 10 60 23 15 52 30 26 48 29 21 41 15 8 35
11 15 44 21 18 54 30 21 59 32 22 57 26 20 52
23 20 47 26 22 48 28 24 46 19 20 36 2 11 18
13 1 8 27 15 20 38 26 32 46 32 37 50 34 41
47 30 33 56 31 33 53 19 26 38 9 19 32 12 22
35 16 30 41 22 41 41 25 45 33 17 39 34 21 39
45 27 45 49 28 48 44 24 42 35 14 29 22 6 16
22 3 27 43 17 48 42 26 38 25 18 22 7 7 9
13 6 13 32 16 28 47 33 44 70 55 67 55 38 56
33 25 41 23 20 30 13 18 22 8 11 16 8 8 18
12 6 27 10 14 35 27 16 50 51 45 82 54 48 90
65 58 104 71 65 107 78 71 112 135 129 163 168 158 184
78 74 108 131 126 160 61 55 97 34 27 76 36 31 67
8 10 31 26 24 41 44 40 49 41 35 40 25 24 29
19 19 22 17 12 13 15 4 7 9 4 13 17 12 14
16 9 10 3 6 6 11 23 11 20 26 17 37 46 43
50 60 57 38 38 35 23 20 23 33 27 36 39 30 39
48 38 48 36 36 44 12 14 19 9 1 9 6 11 18
11 20 24 15 14 21 21 7 13 12 6 7 20 4 7
55 32 20 77 53 36 54 43 24 28 15 33 39 19 55
86 60 22 190 159 131 255 255 255 255 255 255 223 193 197
107 140 122 255 255 255 255 255 249 216 197 147 151 109 65
94 65 73 95 143 180 111 178 212 56 110 138 69 47 53
61 46 58 93 87 102 169 177 179 229 255 249 195 219 187
17 55 36 119 62 46 87 35 34 51 10 10 118 57 78
193 126 160 190 126 164 149 96 135 167 124 162 231 194 225
217 198 219 81 80 74 55 58 64 64 64 64 32 32 29
12 12 6 27 27 21 40 40 34 23 23 21 19 19 32
41 41 56 41 41 48 22 23 20 66 66 64 43 43 45
18 17 32 43 45 57 51 58 69 65 73 76 62 70 73
28 33 46 17 34 25 20 44 38 16 11 86 130 103 169
164 137 155 123 106 97 90 75 67 39 23 44 56 44 9
104 89 59 106 88 89 86 75 82 26 24 34 34 27 27
33 18 37 52 34 63 56 38 58 31 4 37 39 19 46
92 51 98 188 148 198 166 127 178 49 31 81 31 20 72
71 53 60 136 119 90 173 151 121 80 57 61 115 169 218
187 255 255 250 255 255 209 255 255 92 173 162 9 67 51
50 17 13 102 89 71 155 160 139 237 251 228 181 198 183
87 69 89 255 235 255 153 120 152 201 226 202 250 255 239
108 119 85 92 76 60 91 67 55 105 80 70 118 97 86
124 105 94 119 95 99 104 73 100 86 57 116 78 66 129
71 66 118 74 70 104 38 31 43 64 90 41 69 90 63
64 84 47 73 82 83 87 87 120 59 63 90 28 37 68
25 22 74 34 28 71 41 44 58 58 61 28 122 122 88
233 231 204 255 255 255 255 255 255 255 255 255 129 100 147
31 18 61 25 14 61 27 6 66 39 7 87 57 27 110
73 42 127 79 46 139 52 21 110 25 6 78 21 6 74
25 15 73 16 13 62 6 17 46 16 27 35 23 28 27
28 33 27 27 29 36 22 21 50 17 14 64 23 14 74
35 24 85 44 35 89 55 47 91 62 55 91 53 48 78
33 30 58 17 17 38 13 11 21 10 4 14 5 0 9
9 9 21 11 4 13 40 17 21 38 5 10 32 4 6
32 10 12 35 11 18 39 16 24 41 22 29 38 22 31
35 26 33 38 17 30 37 9 23 31 4 13 22 1 8
13 6 4 23 9 30 39 18 43 42 30 36 27 20 22
6 10 12 11 13 16 27 9 23 40 25 37 58 45 54
52 35 49 34 21 38 22 9 28 11 9 17 3 14 14
6 14 16 9 11 21 9 9 25 16 2 28 27 18 54
36 29 71 40 34 79 37 31 77 41 35 78 81 78 108
133 123 152 63 53 93 79 75 103 57 54 76 55 52 78
31 29 53 33 35 31 36 36 44 31 28 43 18 15 24
11 9 21 10 10 17 18 7 10 18 7 11 13 6 16
17 4 13 10 3 3 8 11 11 6 18 6 6 10 7
23 32 29 47 58 54 40 40 36 22 18 22 32 25 35
34 24 34 44 33 44 29 29 37 8 7 8 12 9 10
14 10 17 11 15 20 4 17 18 16 3 9 19 6 12
10 7 16 34 15 2 67 45 29 59 46 22 29 14 23
30 12 54 54 33 29 101 70 43 224 191 175 255 255 255
255 255 255 110 70 82 170 197 176 255 255 255 255 255 255
205 177 129 93 58 36 17 75 122 74 141 180 67 126 161
78 80 99 129 117 135 146 147 159 163 170 174 201 222 218
157 175 153 45 61 33 123 105 82 59 54 46 34 27 13
83 21 42 145 72 108 186 115 158 161 95 142 146 89 137
215 169 207 254 226 254 102 99 101 49 49 58 38 38 39
15 15 20 14 14 20 30 30 31 24 24 24 12 12 19
44 44 50 39 39 50 69 69 72 10 10 3 72 72 70
59 59 58 12 12 21 25 25 36 37 34 48 44 40 53
53 56 66 45 44 58 13 6 25 34 56 24 14 31 56
167 143 199 193 166 188 95 77 75 74 57 52 60 44 25
87 75 42 107 91 78 88 69 79 73 65 80 35 27 39
26 26 25 43 29 49 58 41 68 46 29 49 58 40 63
101 83 98 96 85 87 144 100 143 170 129 173 55 23 70
49 28 70 85 71 103 36 32 8 141 134 109 70 55 10
36 61 125 61 123 175 173 253 255 246 255 255 183 255 255
53 134 112 25 25 12 56 48 20 123 130 87 255 255 254
245 255 243 36 64 37 187 154 190 255 228 255 106 130 107
255 255 255 165 169 129 78 66 38 53 25 21 47 19 38
44 18 38 50 25 46 59 31 65 59 31 78 45 20 82
49 37 104 80 71 129 83 77 116 39 35 50 37 59 31
46 56 63 47 62 53 69 75 80 74 70 104 42 40 74
19 32 51 20 16 68 31 14 77 43 35 82 75 72 84
180 171 156 255 255 255 255 255 255 255 255 255 255 255 255
255 255 255 111 95 132 42 30 67 24 27 47 28 43 46
11 35 47 31 8 84 78 44 138 91 57 154 57 25 116
33 36 78 26 41 61 10 27 57 3 22 54 17 36 37
27 45 31 18 30 47 14 12 68 29 7 85 44 23 103
51 36 114 49 37 113 41 29 98 35 30 84 31 28 79
43 34 75 30 21 58 30 23 61 50 44 78 49 45 74
28 25 49 1 7 32 14 3 29 38 17 39 36 13 32
30 3 17 33 6 3 32 6 3 20 1 3 19 9 6
24 8 7 24 14 11 23 4 6 15 0 3 8 1 0
10 6 0 18 11 8 28 15 30 37 24 37 40 32 35
27 21 20 1 16 6 4 20 12 18 5 11 34 17 28
47 34 46 57 42 56 54 40 55 44 29 46 30 14 33
18 9 24 17 15 24 17 16 26 22 13 31 26 10 31
17 6 30 3 3 28 9 8 39 14 8 56 36 35 71
50 47 90 110 99 141 91 80 125 41 34 77 24 23 44
57 55 65 58 59 61 50 52 49 35 36 40 23 24 44
15 17 30 16 15 23 20 20 24 27 20 22 26 17 20
18 11 22 24 6 20 14 10 10 13 17 17 6 18 6
4 4 8 10 22 18 39 51 47 33 33 29 30 25 30
44 39 47 40 34 40 35 25 32 15 15 22 11 11 17
10 10 10 13 6 6 16 7 8 16 17 11 20 6 1
30 9 9 17 3 13 23 8 10 51 32 19 54 41 20
45 28 26 37 22 45 41 27 29 61 36 6 116 82 69
255 229 214 255 255 255 255 255 255 92 54 69 212 241 211
255 255 255 255 255 247 196 166 114 63 22 46 36 96 141
45 108 147 89 95 112 157 141 158 146 142 156 154 159 163
161 173 167 54 67 55 102 108 98 94 101 96 19 62 59
19 38 32 60 17 25 107 30 65 173 99 139 175 105 152
147 83 131 200 142 188 255 219 252 150 140 148 25 20 24
27 30 30 23 27 27 26 30 30 43 45 45 39 43 43
30 34 40 30 31 36 26 26 31 78 79 81 18 18 23
74 74 73 75 75 76 21 23 32 13 17 27 31 30 35
21 26 35 40 42 44 56 50 55 26 17 35 42 56 41
22 43 42 184 161 206 205 183 208 92 71 83 87 72 55
83 70 40 91 74 65 93 70 79 70 53 68 56 50 65
37 20 34 12 24 18 59 48 63 62 46 70 24 10 28
71 47 74 132 94 132 98 53 91 104 70 95 131 86 129
96 64 108 33 13 58 68 56 104 105 99 143 127 124 151
67 64 97 34 46 123 16 57 126 72 140 163 194 255 255
227 255 255 106 209 191 1 68 43 17 19 6 53 38 23
239 248 208 255 255 255 196 213 193 129 113 127 253 220 252
40 63 37 255 255 255 226 224 185 100 88 54 83 62 57
102 80 83 120 97 94 140 115 118 148 123 130 128 108 112
114 91 110 127 97 137 135 99 151 120 84 128 86 47 71
29 18 56 50 33 84 50 25 86 45 23 85 42 18 89
26 5 75 11 18 59 14 7 67 21 4 68 54 42 80
145 133 153 223 219 221 188 189 191 48 37 36 155 150 139
255 255 255 255 255 255 255 255 255 132 113 149 72 48 91
49 29 74 19 23 48 41 41 69 59 32 108 95 63 153
103 75 157 72 53 118 26 29 72 6 32 53 13 31 52
23 37 47 25 42 40 39 44 56 24 29 72 38 25 95
49 28 112 51 29 117 45 28 113 38 25 104 31 24 88
27 16 81 54 45 92 23 14 68 46 41 79 58 52 95
57 51 95 47 39 72 18 4 35 14 9 37 31 11 45
40 19 50 40 11 38 34 1 17 25 2 3 20 9 11
9 9 8 8 9 9 10 5 2 10 1 0 3 0 0
3 3 0 7 8 0 16 11 6 35 16 29 40 24 38
35 26 35 24 17 20 3 13 7 6 21 16 9 9 10
24 6 21 30 17 32 42 30 46 50 34 53 48 33 48
37 23 39 23 11 29 18 17 27 14 17 27 7 6 18
17 4 12 17 8 25 19 16 35 10 6 33 16 14 46
28 27 62 27 22 65 67 56 92 77 65 103 52 44 86
33 26 64 16 11 38 18 19 22 15 16 9 13 13 12
13 17 42 13 16 36 9 9 16 12 12 17 24 14 17
27 16 20 24 16 27 30 11 26 10 6 5 17 20 20
11 22 11 9 11 10 11 21 17 31 43 39 21 21 17
37 34 39 45 43 50 34 31 34 19 16 15 1 1 7
9 9 16 6 6 11 5 4 4 17 12 12 17 14 8
16 3 6 24 6 6 23 3 8 24 11 10 36 19 5
42 27 13 48 34 26 46 29 25 43 30 20 47 24 13
64 31 9 140 106 86 255 255 243 255 255 255 255 255 255
43 8 29 230 251 217 255 255 255 255 255 238 177 143 98
57 51 76 3 50 97 104 93 110 159 126 144 145 123 137
147 145 147 99 105 101 46 45 49 93 91 95 26 54 47
35 66 58 27 30 22 53 17 17 85 10 37 147 64 103
176 100 141 170 103 147 200 136 186 220 173 214 184 165 183
92 85 89 20 16 16 3 7 7 16 18 18 29 31 31
23 26 23 5 9 16 13 10 7 17 15 14 63 64 66
42 43 47 69 69 70 88 88 89 15 15 17 9 7 8
31 25 18 9 14 22 44 44 38 45 44 45 32 29 46
40 52 52 16 35 36 165 144 184 222 202 228 144 122 131
121 108 90 97 87 62 78 63 60 86 62 78 72 56 69
38 33 41 25 6 23 8 19 10 63 57 69 64 49 70
17 25 20 69 74 77 164 134 167 222 178 218 91 45 93
80 38 85 139 105 146 44 22 64 10 10 41 54 52 76
109 99 127 76 63 109 61 55 133 54 72 146 75 128 167
154 230 246 253 255 255 218 255 255 95 184 164 32 84 53
35 66 33 124 120 98 197 205 178 180 194 176 136 136 137
205 175 206 85 78 90 255 255 255 255 255 255 162 149 115
90 74 66 114 94 105 145 123 129 169 142 156 175 148 158
172 151 148 175 147 163 182 147 180 166 128 163 144 102 138
119 77 97 39 30 35 55 42 72 70 48 95 69 44 100
58 34 96 38 15 81 20 7 62 28 17 64 59 50 80
117 102 117 164 150 170 150 148 168 169 174 188 222 232 239
200 208 214 182 180 167 255 255 255 255 255 255 140 130 143
81 60 85 81 58 92 47 26 65 31 37 44 12 30 38
40 19 83 103 81 151 110 85 167 82 57 144 56 34 119
53 25 115 70 37 130 73 42 134 60 34 121 51 37 113
45 35 109 24 18 96 18 10 87 23 17 87 23 6 91
16 7 82 27 22 80 46 34 95 30 14 85 25 23 67
20 27 45 62 62 64 59 49 55 19 11 42 5 17 53
27 4 48 42 19 52 46 14 53 32 0 35 4 0 15
23 15 16 13 6 9 10 12 14 9 7 4 7 4 1
4 0 0 6 4 0 6 9 0 14 11 3 39 18 27
41 21 40 30 17 33 24 13 27 18 11 25 15 18 25
11 8 18 19 3 17 16 4 17 19 3 20 33 19 33
39 24 35 33 17 31 16 3 24 9 12 22 7 15 20
14 3 15 17 4 15 6 6 14 4 6 17 9 11 20
16 19 31 19 22 40 17 19 44 37 27 65 54 42 85
54 47 83 47 42 69 36 33 54 28 27 40 21 21 26
19 19 18 13 17 37 11 14 37 7 8 15 8 8 13
18 6 10 23 13 16 29 26 31 47 42 46 48 47 47
37 38 38 24 29 24 17 18 18 10 17 14 19 31 27
14 14 13 35 34 39 35 28 39 11 6 10 4 12 8
5 8 7 3 3 6 7 4 13 9 9 6 8 9 8
10 8 14 16 11 20 12 10 16 17 6 13 22 8 11
29 14 10 35 20 19 41 24 25 55 37 15 53 39 5
39 23 13 46 20 13 69 35 7 158 122 97 255 255 254
255 255 255 255 255 255 29 7 20 232 246 205 255 255 255
255 255 219 153 120 68 81 63 72 147 139 162 181 161 187
174 158 164 143 144 124 59 79 59 104 116 111 84 85 89
29 44 37 67 83 74 42 25 15 64 4 14 72 14 13
126 38 70 170 82 118 189 114 152 216 145 192 202 146 191
174 142 178 147 130 149 87 82 87 31 31 31 24 24 24
39 39 39 28 28 24 11 11 18 4 4 7 12 12 10
48 48 48 57 57 57 56 56 56 73 73 73 28 28 28
28 28 25 38 35 24 26 24 18 19 22 25 41 45 49
44 44 54 20 36 37 13 26 20 106 89 126 255 245 255
233 214 231 116 96 98 71 59 51 52 42 44 75 50 72
62 44 61 19 10 25 13 8 15 6 19 8 50 46 57
62 50 64 33 37 38 23 48 24 96 67 83 198 151 186
137 102 140 136 104 142 179 141 183 102 76 115 42 27 54
69 84 42 127 128 107 31 30 56 71 62 131 94 94 162
118 143 198 149 198 234 233 255 255 255 255 255 214 255 255
60 126 125 40 53 46 116 118 95 140 156 121 66 89 58
15 45 17 138 108 140 101 82 110 236 243 218 255 255 255
247 229 205 109 97 90 109 98 111 106 82 108 98 72 101
88 63 90 104 83 96 127 94 126 118 80 129 103 65 113
97 62 102 84 55 70 23 10 17 41 25 48 58 33 72
62 34 88 60 31 92 45 19 86 35 14 71 68 47 88
117 98 129 134 118 135 77 66 87 88 90 116 187 192 208
207 211 224 179 183 195 137 144 147 218 213 200 249 245 242
158 150 146 138 120 126 133 111 129 96 73 102 52 29 70
30 27 56 40 24 78 89 67 133 119 95 172 128 101 187
120 94 183 111 88 175 110 85 174 113 86 177 105 82 172
78 59 146 38 21 106 10 16 78 23 37 70 21 40 66
10 36 60 23 40 65 40 51 70 21 33 62 1 18 65
18 30 55 62 58 60 66 55 59 24 18 54 14 18 80
17 19 74 30 8 59 42 21 61 46 12 62 29 0 53
6 1 36 15 15 23 8 5 16 8 8 17 8 6 7
5 7 3 3 0 0 7 4 0 3 11 0 13 12 0
40 17 24 37 18 33 27 13 24 26 15 28 24 15 26
19 13 21 15 6 15 18 4 18 19 8 24 23 7 24
33 21 33 37 22 35 36 17 33 23 9 26 13 7 22
11 13 20 17 6 16 19 4 16 10 3 14 7 10 14
11 16 13 17 19 20 16 18 28 14 15 33 17 9 44
38 31 66 51 46 77 47 43 70 39 35 57 34 31 49
33 31 44 33 32 39 25 22 38 10 9 27 7 10 9
22 22 21 39 40 39 56 56 56 69 69 69 77 76 76
72 69 70 46 45 45 26 27 26 22 20 23 15 14 13
4 16 12 12 12 13 29 29 32 21 13 25 17 17 15
24 22 22 21 20 20 15 17 18 13 15 18 10 16 11
9 14 14 11 13 21 19 15 23 9 11 15 11 6 15
15 4 19 25 12 20 31 19 24 36 25 30 61 43 21
67 48 15 44 31 10 44 24 11 51 23 22 106 75 46
225 190 168 255 255 255 255 255 255 255 255 255 40 24 28
207 224 179 255 255 255 255 255 214 205 183 141 175 149 146
168 130 129 142 113 85 88 77 43 12 41 27 107 129 115
77 94 97 59 52 41 82 84 72 34 25 13 64 15 13
69 34 18 109 32 47 159 68 95 191 110 145 227 155 193
219 157 198 160 115 156 159 129 157 156 144 155 89 89 89
49 49 49 75 75 75 40 40 37 8 8 13 11 11 18
6 6 12 27 27 27 51 51 51 37 37 37 39 39 39
23 23 23 31 31 31 27 25 23 14 11 6 17 20 27
33 39 37 44 47 47 23 25 26 7 19 13 40 38 53
255 247 255 255 255 255 141 117 138 33 6 24 26 15 26
71 44 71 50 31 50 27 21 33 22 8 27 11 22 11
37 33 45 32 20 30 26 16 20 44 33 45 104 92 98
109 81 94 40 10 31 85 43 85 164 124 167 156 130 169
148 127 165 69 56 94 110 110 102 87 94 58 33 41 73
37 26 109 44 69 123 43 88 126 92 154 191 212 255 255
247 255 255 118 192 201 21 44 48 138 120 97 144 150 118
71 90 63 68 85 55 133 117 132 174 158 163 122 127 100
255 255 255 255 255 255 131 120 112 140 134 136 116 99 121
77 59 96 54 33 90 49 9 92 54 19 94 60 28 95
62 24 90 57 19 70 44 10 31 14 27 24 24 22 35
41 18 51 54 28 77 63 34 91 60 30 90 48 26 78
87 55 107 94 67 123 65 51 110 91 89 122 106 109 124
79 82 102 55 56 85 55 59 81 19 12 29 146 136 108
255 255 233 255 255 255 255 255 255 255 255 255 245 233 244
180 167 191 107 91 128 69 59 99 72 54 108 89 68 128
95 73 142 86 61 140 61 40 116 28 15 86 15 4 70
18 1 68 17 17 62 17 29 55 15 29 58 23 12 79
32 7 99 34 14 103 47 20 116 68 40 137 56 31 121
24 8 94 33 29 87 50 35 96 34 10 106 54 30 129
53 38 125 45 18 89 34 16 65 43 23 64 46 8 62
24 0 55 4 3 42 6 11 29 6 6 24 2 7 20
4 6 13 0 7 6 0 0 0 8 4 0 3 11 0
13 12 3 35 16 23 29 14 23 24 12 15 27 17 26
25 16 28 22 11 23 19 6 18 17 7 17 16 11 18
20 10 18 29 21 27 35 22 33 36 18 31 28 14 26
19 4 23 14 10 17 21 9 13 23 6 12 13 6 10
12 13 12 14 16 6 16 17 9 15 16 16 9 9 19
7 13 20 13 12 29 32 30 47 29 26 45 23 19 40
26 22 43 29 25 47 33 30 47 31 23 37 23 16 9
34 37 26 61 61 57 80 83 82 92 93 93 89 89 89
80 78 79 75 69 71 53 50 50 20 17 20 17 13 20
17 10 12 10 3 3 8 8 12 14 14 18 20 22 22
39 42 44 40 41 46 36 36 38 33 32 35 31 28 37
25 25 28 19 19 18 12 12 16 13 8 15 9 9 12
14 9 20 17 9 25 19 8 25 21 12 22 21 15 23
49 35 11 68 46 19 57 35 16 51 31 8 34 6 22
45 19 25 117 88 63 197 162 149 255 255 255 255 255 255
255 255 255 91 69 99 175 192 147 255 255 255 255 255 255
255 255 214 237 161 95 160 82 22 90 27 0 32 36 25
66 105 90 81 108 110 101 97 89 85 76 64 58 44 32
75 43 33 80 38 29 96 24 30 130 42 59 174 83 112
229 148 180 236 166 203 144 85 123 152 107 142 226 205 223
146 146 146 31 43 31 95 100 95 66 71 65 5 17 11
12 5 12 19 10 21 4 8 4 29 37 31 15 27 23
12 12 10 18 6 10 34 30 31 25 20 22 24 22 25
29 29 33 23 23 22 28 27 27 26 23 24 11 13 10
38 57 42 169 154 174 255 255 255 255 255 255 86 68 81
27 20 27 81 54 81 48 28 48 13 6 15 35 20 40
7 17 8 36 34 45 22 17 17 51 35 42 98 75 91
117 95 107 77 60 64 62 80 61 90 106 83 85 80 69
80 56 71 83 56 88 112 97 126 101 96 120 80 82 78
37 53 23 58 66 103 67 85 100 43 56 73 48 87 122
138 205 240 220 255 255 183 255 255 45 99 112 149 112 92
193 183 154 75 86 50 34 58 18 99 89 111 196 186 176
32 35 25 255 255 255 255 255 255 201 193 183 176 169 166
135 121 134 101 79 113 83 53 112 67 32 114 55 17 111
50 13 97 47 12 79 41 3 58 33 4 23 19 26 22
20 21 25 33 17 42 48 25 66 62 33 84 66 29 91
54 24 83 80 49 111 96 76 132 130 125 163 132 133 169
81 83 119 18 19 56 40 37 56 55 55 74 30 26 63
17 15 37 86 78 43 175 169 138 238 236 208 255 255 255
255 255 255 250 238 243 167 150 169 90 76 103 68 52 92
72 53 106 75 58 112 76 60 119 75 56 115 63 47 104
49 30 90 46 20 81 57 31 91 76 49 117 95 73 142
111 90 158 119 93 168 113 87 168 103 81 164 97 73 165
87 58 149 57 31 117 61 39 124 97 68 164 119 81 190
110 82 183 82 56 142 80 34 109 40 23 69 45 24 64
44 5 61 23 0 54 7 4 43 2 6 34 3 5 31
3 5 24 4 4 19 0 5 13 0 0 3 8 4 0
6 9 0 13 12 6 27 16 21 18 9 13 18 12 17
25 16 25 27 17 30 25 13 26 21 9 20 17 10 17
17 8 15 23 7 15 26 16 21 31 21 28 33 20 32
28 16 27 23 9 22 18 4 13 22 10 9 28 6 13
17 8 14 15 16 15 16 18 8 14 18 7 12 14 12
6 8 16 9 17 16 6 12 7 28 26 34 20 20 26
3 3 13 6 6 20 9 6 27 13 12 25 36 28 21
53 46 39 62 64 55 82 82 77 78 83 81 71 72 72
58 56 59 47 35 44 68 56 60 57 53 53 15 4 15
10 5 14 17 9 11 20 10 13 9 9 12 15 15 15
42 47 45 53 56 59 49 48 54 42 40 43 35 33 36
33 28 36 26 26 28 18 18 17 3 5 4 10 3 12
12 8 13 13 9 21 12 11 23 7 7 25 4 10 20
6 12 22 23 20 11 45 31 13 59 38 23 64 45 19
45 19 8 22 2 35 47 23 6 95 66 46 157 133 117
255 255 255 255 255 255 255 255 255 133 116 149 148 161 117
255 255 255 255 255 255 255 255 255 255 227 131 171 105 39
76 13 1 25 69 47 80 101 81 98 98 89 94 83 80
92 75 68 96 63 58 97 41 46 102 25 35 108 26 36
140 56 74 213 132 155 246 170 205 157 86 123 159 101 138
255 233 253 195 191 195 48 41 48 72 75 72 76 81 71
27 36 27 10 14 9 14 10 14 21 23 27 14 25 17
17 27 24 10 16 13 10 3 3 33 29 30 34 23 29
36 27 32 24 24 23 24 24 23 15 6 12 18 12 15
17 13 13 40 60 43 37 38 31 255 255 255 255 255 255
227 209 220 72 44 73 76 53 78 48 28 46 6 15 3
22 18 28 35 32 42 20 18 14 93 85 86 92 74 85
140 120 130 152 132 145 74 50 63 78 55 60 91 89 79
108 124 104 138 145 128 107 123 96 62 79 50 18 29 30
29 30 31 34 38 49 77 88 118 41 52 65 13 14 59
47 84 130 102 164 205 183 255 255 248 255 255 131 193 212
96 51 40 211 193 166 184 181 156 77 85 61 63 55 76
200 195 177 129 128 95 200 191 178 255 255 255 255 255 255
255 255 252 180 166 173 123 101 131 109 75 130 86 53 127
70 34 131 49 7 108 28 14 69 24 9 50 23 11 20
9 3 11 14 1 23 27 5 44 43 17 63 60 28 80
68 38 98 71 49 103 84 61 117 67 50 99 33 40 65
23 18 66 43 35 84 50 45 86 43 43 72 34 37 70
51 55 94 59 62 104 63 67 102 41 45 78 25 22 20
103 99 68 183 174 157 255 250 246 255 255 255 255 255 255
255 255 255 255 251 255 199 184 222 130 118 160 85 70 114
62 47 87 52 38 80 49 32 80 61 45 94 73 57 107
63 47 100 42 27 80 34 18 73 45 26 88 46 25 96
47 29 101 77 58 133 152 134 201 211 192 255 215 200 255
174 159 230 108 88 165 97 52 139 101 50 128 46 28 72
48 25 62 41 4 58 21 1 47 10 3 42 6 3 39
1 4 34 5 3 27 4 1 20 0 4 16 1 0 6
9 3 0 8 8 0 11 13 8 24 17 18 9 2 9
11 15 21 16 16 14 22 18 13 24 16 17 23 8 15
16 10 13 15 6 14 24 7 16 26 11 21 26 20 26
28 23 27 24 19 23 24 13 20 22 3 16 21 11 11
29 6 15 22 11 21 16 18 21 17 20 9 11 14 7
7 8 6 2 3 7 6 13 7 9 7 11 27 25 32
21 21 24 12 16 3 16 20 2 20 22 11 23 23 13
60 53 46 81 74 73 71 71 65 71 71 64 35 45 42
15 6 8 42 34 46 62 47 59 74 64 67 54 51 51
17 9 17 3 8 6 12 5 6 23 13 16 12 12 13
33 33 30 55 61 58 48 52 50 42 39 42 37 32 37
31 26 28 32 25 28 30 29 27 28 26 22 21 19 11
19 16 17 16 11 12 9 7 12 6 6 19 11 14 28
17 22 27 20 29 30 8 23 34 17 2 26 48 27 17
72 52 27 69 44 17 39 16 21 35 11 17 54 31 16
41 29 12 102 90 79 245 230 233 255 255 255 255 255 255
203 184 219 80 93 69 255 255 255 255 255 255 255 255 255
255 255 197 224 164 100 116 54 26 53 19 16 51 45 33
66 51 40 69 54 40 77 46 38 97 45 48 114 42 51
108 29 40 114 37 53 172 102 117 223 152 179 190 115 149
180 114 148 240 215 234 228 225 232 135 132 141 46 46 47
53 53 46 45 45 37 31 31 26 18 18 17 31 31 36
17 17 13 26 26 21 24 24 22 8 8 8 23 23 23
40 32 37 52 42 47 46 39 35 37 29 28 22 18 16
11 8 9 13 6 15 21 40 23 40 56 43 92 71 90
255 255 255 255 255 255 227 206 223 81 62 73 47 34 41
32 24 32 19 32 25 20 13 32 84 75 76 89 76 75
70 57 62 169 153 159 184 153 170 99 59 80 83 47 59
108 59 80 103 65 77 101 78 79 71 83 58 111 123 99
127 127 104 106 95 75 58 53 60 40 52 98 27 34 47
65 68 74 73 89 134 105 153 191 165 234 255 255 255 255
230 255 255 35 84 99 126 113 77 229 232 174 185 188 149
65 75 37 186 185 171 255 255 227 132 137 89 165 156 152
255 255 255 255 255 255 255 255 255 193 174 196 140 107 155
116 77 152 80 42 139 40 22 102 29 38 72 26 37 58
19 39 38 20 20 32 23 20 35 30 21 49 41 27 65
58 37 80 71 47 95 81 57 106 91 62 120 76 48 112
42 13 76 18 8 56 25 6 63 62 48 98 74 68 112
41 37 74 17 10 28 19 19 28 28 33 56 57 56 88
34 35 72 18 18 33 54 53 38 187 185 174 255 255 255
255 255 255 255 255 255 255 255 255 255 255 255 199 186 204
105 92 118 53 38 61 49 36 53 49 30 50 58 42 64
51 35 59 40 26 50 20 5 40 39 39 51 97 95 111
159 152 178 243 238 255 255 255 255 255 255 255 255 255 255
255 255 255 244 232 255 128 107 148 109 67 131 91 41 122
54 31 79 52 26 64 39 3 57 17 3 42 11 1 38
12 3 42 2 3 32 7 3 24 3 2 22 4 3 18
4 0 9 10 2 1 6 8 0 10 14 8 24 19 14
5 2 9 12 22 16 10 14 4 17 13 3 24 17 10
21 6 11 13 9 9 10 4 8 19 6 10 24 4 15
25 12 20 27 22 21 28 23 21 27 15 20 26 8 17
22 9 11 26 8 13 25 15 20 20 21 25 16 19 16
10 10 10 5 4 4 2 2 2 6 13 6 11 4 16
29 28 34 25 25 26 18 22 9 23 27 11 29 33 20
37 36 27 78 69 64 87 81 77 54 54 45 38 42 34
22 23 22 56 46 52 82 74 86 92 79 89 74 66 68
44 37 38 20 12 18 13 17 9 6 8 4 19 11 13
10 17 12 43 47 42 52 60 56 26 35 31 24 22 27
30 23 32 34 27 30 40 32 36 45 41 35 41 38 29
27 24 18 22 17 18 19 9 15 14 3 4 14 7 9
18 14 20 18 21 25 16 27 29 17 28 46 24 25 51
27 12 21 64 42 20 78 56 27 60 35 8 48 21 9
48 27 18 26 9 24 26 9 19 78 61 47 193 172 166
255 255 255 255 255 255 255 255 255 27 25 36 255 245 200
255 255 255 255 255 255 255 255 254 255 205 140 156 92 44
74 13 1 51 9 0 28 16 0 31 8 6 74 25 27
114 41 51 123 38 54 110 31 49 132 61 77 177 100 129
223 126 171 210 123 163 194 158 179 227 215 230 190 180 197
94 87 101 10 9 16 40 42 33 38 38 30 26 26 26
30 30 30 13 16 10 28 30 21 32 35 27 18 18 18
20 19 19 42 35 38 61 47 56 56 43 46 34 18 25
26 16 19 22 17 18 7 6 13 3 16 11 23 42 26
19 30 22 122 100 119 255 255 255 255 255 255 255 238 255
86 65 79 44 27 42 45 42 46 44 32 54 114 97 104
87 70 66 48 42 34 154 144 141 218 188 199 185 142 163
116 71 91 113 64 86 157 107 130 130 86 107 28 24 1
30 63 53 24 46 34 59 63 39 49 25 13 45 43 87
71 75 92 67 78 77 48 55 106 84 114 159 146 204 242
255 255 255 255 255 255 209 255 255 32 61 78 159 165 90
250 251 184 167 172 134 129 135 102 243 249 225 255 255 255
195 210 168 103 86 76 255 255 255 255 255 255 255 236 255
171 134 187 150 106 184 85 50 139 34 31 86 36 36 78
35 31 65 32 28 49 33 46 55 37 42 53 44 41 56
54 44 64 66 48 73 77 54 84 87 61 97 104 67 122
105 65 130 81 35 107 51 10 81 25 16 56 38 6 67
69 51 98 78 60 100 36 23 55 13 3 23 17 21 38
54 54 74 32 36 58 13 17 27 53 52 77 143 147 150
157 160 142 141 132 88 187 173 141 244 230 211 255 255 250
255 255 240 255 255 242 255 255 255 255 255 255 255 255 255
255 255 255 255 255 255 255 246 236 255 255 255 255 255 255
255 255 255 255 255 255 255 255 255 255 255 255 255 255 255
255 255 255 255 255 255 255 255 255 178 171 174 78 25 110
89 53 142 110 81 152 84 57 110 59 32 79 37 14 58
22 3 52 16 3 50 4 0 32 9 1 15 13 2 18
13 1 19 13 0 16 14 6 11 11 14 8 13 16 7
22 15 8 6 3 7 11 21 10 16 14 2 21 14 3
25 14 6 13 4 5 8 6 1 13 4 3 14 9 0
16 9 7 23 8 12 25 17 15 30 22 17 30 17 17
34 16 14 37 7 12 33 6 14 37 11 24 43 26 37
37 24 37 28 8 25 23 8 21 19 7 19 12 11 16
18 11 19 42 42 45 41 41 35 34 30 20 28 20 10
18 9 7 17 7 24 55 49 58 69 69 82 95 86 103
123 112 125 130 119 131 114 100 117 90 72 94 67 48 64
16 1 11 26 40 27 37 50 40 18 35 26 6 23 15
14 26 17 28 47 35 52 65 57 35 47 39 5 13 4
20 9 20 31 22 32 41 31 36 48 37 41 46 40 34
29 32 22 12 25 13 23 39 22 22 38 20 20 32 15
15 24 12 16 13 12 16 6 13 17 7 10 17 13 35
30 31 56 8 21 35 37 22 7 74 58 26 86 64 27
81 53 15 71 46 13 52 23 16 43 13 27 39 11 29
57 29 5 153 116 93 255 255 247 255 255 255 255 255 255
199 164 193 110 92 38 255 255 220 255 255 255 255 255 255
255 251 180 175 109 52 92 37 6 67 34 0 38 33 0
17 14 7 85 19 33 133 46 61 133 46 72 126 43 77
140 44 87 235 114 170 241 132 184 163 106 134 179 153 170
190 166 186 170 153 170 94 84 102 8 7 15 31 34 20
23 30 21 23 30 23 9 19 12 25 32 21 33 44 33
32 34 34 26 22 22 30 11 20 46 27 43 54 34 50
42 16 35 28 8 22 21 13 16 14 12 16 4 7 16
15 27 14 12 26 11 21 25 24 110 75 104 255 255 255
255 255 255 255 247 255 126 88 132 58 26 66 83 55 88
131 108 118 72 59 57 10 16 26 54 55 44 166 151 146
201 173 180 144 102 110 97 54 64 150 105 121 187 148 166
92 77 95 73 91 97 79 81 96 102 99 114 121 106 121
93 97 127 58 70 111 17 34 67 22 19 62 25 21 91
69 109 170 174 234 255 255 255 255 255 255 255 190 241 255
133 154 96 255 255 184 199 200 148 112 116 76 85 89 50
240 250 187 255 255 255 246 255 231 102 88 84 255 255 255
255 255 255 219 178 224 202 156 225 127 86 168 44 15 89
30 16 74 32 10 70 27 8 60 51 55 69 51 52 65
55 47 61 58 42 64 62 40 65 66 40 66 69 37 72
91 50 100 99 67 116 76 44 93 55 33 79 21 28 45
14 29 35 44 32 65 81 57 102 69 45 92 40 29 53
35 35 52 64 66 80 36 40 54 21 27 18 64 64 78
139 142 161 105 108 140 63 67 116 120 118 145 157 149 153
184 168 151 225 211 179 255 255 245 255 255 255 255 255 255
255 255 255 255 255 255 255 255 255 255 255 255 255 255 255
255 255 255 255 255 255 255 255 255 255 255 255 255 255 255
228 236 192 255 255 255 255 255 255 255 255 255 139 129 127
73 70 104 96 91 138 132 101 176 92 63 129 57 27 91
43 17 84 37 7 68 17 0 41 8 2 17 5 1 7
6 0 12 6 0 17 10 1 19 12 11 16 13 18 10
18 13 5 18 6 2 10 4 4 10 10 6 20 13 2
22 15 4 18 9 6 8 6 6 6 6 4 15 5 6
13 6 1 10 7 8 18 7 10 24 13 13 25 15 16
23 12 14 25 13 7 37 12 9 34 13 14 40 22 25
50 34 39 47 39 44 30 16 28 25 11 24 23 9 22
17 10 11 46 44 39 70 69 68 66 64 55 50 47 35
36 33 24 18 15 15 6 15 29 39 39 54 67 59 73
88 75 87 91 80 92 83 73 87 63 51 66 35 18 35
22 16 15 24 45 33 37 58 44 43 55 45 37 50 43
32 46 39 38 56 45 51 70 60 51 67 59 13 31 22
17 12 21 17 10 19 29 18 26 43 31 37 48 36 39
36 32 29 24 39 27 34 53 35 36 55 34 28 46 28
17 39 18 6 27 14 9 13 7 13 2 10 18 7 14
12 8 29 17 22 48 17 29 47 4 16 31 42 32 4
77 56 24 88 61 27 85 58 19 67 37 6 56 25 11
51 20 19 33 12 33 41 4 24 123 79 60 248 197 182
255 255 255 255 255 255 255 255 255 115 112 137 160 121 84
255 255 219 255 255 234 255 199 129 155 105 49 107 72 27
77 54 11 25 34 0 34 12 10 97 28 34 129 50 65
122 46 78 112 20 64 204 84 137 254 137 193 198 125 163
160 120 144 150 108 133 187 156 176 173 153 175 71 57 77
13 14 8 3 12 9 14 18 19 13 15 9 22 27 17
19 37 24 32 42 40 49 47 47 30 20 22 19 32 13
40 23 33 50 18 43 44 14 40 36 13 32 29 13 25
17 15 17 23 28 23 13 19 9 17 20 15 27 55 32
87 54 81 255 255 255 255 255 255 255 255 255 169 120 172
133 88 132 138 114 132 48 37 54 86 84 94 64 59 72
101 85 84 190 164 170 151 109 115 85 47 51 102 78 84
196 165 177 178 159 173 97 94 108 68 72 83 75 71 80
85 77 81 50 54 81 48 49 101 24 17 81 22 22 58
42 33 47 17 23 81 30 80 137 163 224 255 255 255 255
248 255 255 103 91 45 255 252 160 175 172 104 121 115 80
66 62 51 89 95 54 197 212 161 255 255 255 170 190 171
238 210 241 255 255 255 255 255 255 248 203 255 168 127 196
86 48 122 48 13 84 40 4 76 26 16 56 81 61 77
83 62 82 83 61 85 80 59 88 76 54 89 72 45 85
72 37 82 98 59 106 118 82 131 103 62 119 89 46 109
63 19 77 54 20 61 68 27 73 94 59 100 102 79 117
83 73 102 77 75 94 92 95 110 63 67 84 24 25 46
56 55 76 115 115 137 74 75 102 107 108 133 114 120 137
95 95 100 74 60 54 91 76 56 119 103 88 115 99 85
79 67 48 53 51 30 60 56 32 119 111 89 188 183 168
206 211 188 152 163 128 71 81 40 73 97 43 139 161 116
125 137 85 92 92 90 255 255 255 255 255 255 255 255 236
89 75 75 66 77 73 63 16 94 133 102 178 93 73 142
50 29 100 35 11 83 39 11 67 31 8 39 19 7 16
20 9 16 21 8 19 15 4 19 12 4 17 13 14 14
15 15 9 20 7 5 14 1 4 12 4 0 12 5 3
8 4 3 8 3 4 8 1 3 4 4 4 3 1 0
13 4 6 16 5 2 11 11 6 16 12 10 25 11 16
24 12 16 18 9 13 16 6 1 22 6 3 18 18 19
24 23 24 37 26 29 46 42 42 22 17 18 9 4 5
13 6 9 44 32 36 69 58 62 70 64 68 58 52 52
38 40 35 41 48 44 37 41 35 26 29 20 22 30 24
31 39 36 52 57 55 68 75 71 64 75 67 44 54 45
25 31 26 19 21 19 13 29 25 25 33 30 8 6 4
28 34 31 55 62 59 62 73 67 51 63 58 31 40 35
27 34 38 29 34 39 16 14 15 25 10 18 36 26 31
41 32 33 33 25 26 24 30 27 27 34 27 18 25 17
9 17 13 8 17 13 4 20 14 6 13 5 4 7 8
10 11 19 12 15 33 15 23 44 21 34 46 19 30 42
8 6 24 39 25 16 61 47 22 75 55 24 70 52 20
61 39 10 54 29 4 41 19 13 39 19 21 53 25 9
87 59 41 120 91 77 193 161 161 255 255 255 255 255 255
225 217 221 206 171 161 240 187 158 215 161 121 154 102 70
127 81 51 96 60 30 34 30 0 15 30 0 47 18 0
87 33 23 101 47 55 99 30 55 149 52 92 226 126 169
251 177 212 207 148 180 161 103 136 178 134 158 208 180 201
139 118 137 50 41 49 33 33 35 33 34 40 9 6 8
27 20 14 17 23 15 20 27 23 45 40 39 44 22 34
13 20 13 11 6 6 30 22 24 42 36 37 47 40 39
44 32 29 32 22 18 33 28 23 32 35 24 23 23 10
26 34 13 34 51 31 54 30 54 239 213 236 255 255 255
255 255 255 255 230 255 152 130 150 74 69 77 94 83 91
110 98 109 54 36 41 161 134 139 159 124 127 87 62 63
66 65 63 115 84 88 140 110 117 103 83 94 42 39 48
27 38 22 81 88 64 58 61 33 25 24 55 39 34 80
10 14 76 30 26 51 43 30 47 35 32 66 85 131 171
255 255 255 255 255 255 91 62 38 255 252 149 173 167 92
123 109 73 84 80 76 40 40 69 86 88 89 238 252 225
255 255 255 73 81 72 241 220 244 255 255 255 255 255 255
186 153 207 112 85 142 67 47 92 51 30 73 27 12 40
90 54 68 94 59 78 98 65 88 102 70 98 103 71 107
101 69 113 103 67 118 124 83 139 145 102 157 138 95 152
133 88 148 108 67 118 88 58 92 93 61 91 115 80 110
131 97 135 119 102 133 106 104 125 119 122 140 99 100 119
60 63 79 66 67 86 103 104 123 67 69 86 115 114 126
97 100 111 63 68 77 11 18 32 29 23 19 28 23 25
20 20 37 44 43 64 54 49 72 47 37 67 37 46 69
48 67 58 30 54 23 24 46 23 44 57 20 123 146 92
164 182 133 90 100 55 166 163 153 255 255 255 255 255 255
188 196 152 66 59 58 67 38 76 110 53 144 118 87 164
83 63 134 51 26 96 41 23 79 38 21 69 33 11 49
18 8 15 27 17 20 31 21 25 25 17 24 18 12 23
13 16 17 17 12 13 18 4 9 12 1 5 13 4 0
10 6 1 8 3 4 8 4 3 8 3 1 4 4 4
0 0 0 8 8 6 13 7 2 11 11 3 14 14 8
24 13 16 24 13 16 19 11 15 19 7 3 13 6 9
13 25 29 15 21 24 37 26 30 48 44 44 25 21 21
10 7 8 16 9 12 54 42 46 71 59 63 57 49 53
42 35 39 9 9 9 20 28 28 27 30 28 35 40 38
44 52 54 54 60 62 61 68 65 61 71 67 50 56 55
34 34 37 17 16 16 11 11 10 7 12 8 9 23 18
29 38 34 48 57 54 55 66 61 49 59 54 28 33 31
14 12 13 49 56 60 41 45 49 22 21 21 20 11 14
25 17 21 30 22 22 25 16 18 27 25 25 27 25 25
18 18 22 16 19 19 14 20 19 4 22 15 6 12 6
9 3 4 10 6 2 12 6 17 13 18 35 28 35 46
27 36 45 9 15 27 25 11 4 47 37 13 63 51 28
73 62 37 75 61 34 67 46 21 45 26 3 20 4 20
12 8 26 28 13 20 52 29 23 74 43 34 121 89 90
175 150 156 191 173 170 179 154 138 171 126 103 155 107 78
120 62 42 130 75 49 98 58 38 38 27 0 28 34 0
28 17 0 57 14 10 86 43 35 96 40 50 103 32 57
160 74 110 232 163 191 241 179 207 220 158 188 223 166 192
243 203 223 199 168 188 123 105 118 84 76 88 72 69 80
19 32 31 27 30 27 26 33 33 17 25 24 26 20 15
38 10 28 26 2 20 10 11 9 6 19 4 18 24 12
28 30 21 38 33 27 39 32 27 38 32 27 47 41 36
46 46 38 24 26 16 24 30 27 35 51 43 34 15 24
176 148 168 255 255 255 255 255 255 245 216 234 78 77 78
80 73 70 113 97 108 85 73 81 82 57 60 153 121 123
102 75 77 43 25 24 71 29 34 83 48 50 72 42 47
56 34 41 36 27 37 51 59 42 89 95 72 41 50 30
27 27 57 35 39 85 25 31 61 40 33 40 31 18 56
65 111 160 255 255 255 255 255 255 118 131 170 186 176 72
181 166 108 183 164 138 145 135 131 94 89 126 62 48 96
125 127 123 255 255 255 255 255 255 98 117 91 255 255 255
255 255 255 242 214 255 111 91 137 88 72 108 78 68 94
52 46 59 29 6 13 33 9 19 40 15 33 51 20 48
63 25 62 67 27 70 66 24 73 89 48 102 121 75 134
128 85 145 135 90 155 124 77 136 100 63 109 86 53 87
81 49 79 94 41 99 92 50 101 71 66 88 96 102 116
94 91 108 64 61 79 66 63 85 84 83 103 31 32 49
67 66 64 18 20 22 11 12 17 38 41 37 48 47 40
32 28 14 24 22 29 9 9 35 9 15 23 6 23 27
54 69 82 57 66 72 11 32 29 38 59 25 113 126 86
172 197 139 135 162 95 41 57 16 204 210 178 255 255 255
255 255 255 170 178 138 64 50 47 106 55 117 134 79 165
73 40 117 72 53 120 62 39 107 45 20 89 34 15 66
31 16 49 33 26 34 38 29 39 38 27 38 29 25 37
22 18 35 19 11 28 18 8 21 12 3 17 11 2 11
13 4 3 6 5 0 8 0 4 8 4 1 8 4 3
4 4 4 0 0 1 5 11 7 9 8 4 11 11 5
16 16 12 25 13 17 25 14 17 22 15 18 22 11 9
6 13 16 13 29 33 8 14 19 35 24 28 51 43 45
28 20 22 14 7 9 20 10 14 53 40 45 68 54 59
61 47 53 62 49 55 57 49 52 52 46 47 34 26 26
16 16 16 27 39 44 40 56 55 34 51 44 18 31 26
31 24 34 36 26 38 23 11 16 7 6 6 6 10 7
17 32 26 51 60 55 53 62 60 26 43 34 18 11 17
42 39 41 61 61 61 65 68 72 34 30 37 16 16 16
10 7 7 17 9 13 22 15 15 13 8 9 18 17 17
16 9 14 14 11 20 16 21 20 15 25 22 11 21 17
4 11 8 13 3 6 16 7 6 20 11 4 4 7 23
30 31 44 28 38 51 15 25 41 11 8 23 34 16 9
51 30 13 65 45 23 74 58 31 77 55 25 66 45 19
44 23 3 29 13 13 29 11 15 40 16 14 39 3 18
30 10 29 43 17 38 64 38 52 67 35 33 93 49 27
127 85 60 128 77 58 117 65 51 71 31 23 39 25 9
34 34 8 17 31 3 30 10 3 69 25 17 90 35 37
85 9 36 100 15 49 152 79 105 204 133 157 228 152 182
251 176 207 255 212 239 255 201 226 192 153 172 145 118 139
122 109 130 64 66 77 44 49 51 40 44 43 25 29 28
13 11 18 27 8 20 27 7 19 17 6 15 21 12 22
21 8 22 14 3 13 12 18 6 27 32 20 28 32 20
20 24 12 24 32 19 30 45 31 36 45 34 46 56 44
48 66 50 11 43 19 167 114 160 255 255 255 255 255 255
59 41 46 98 102 91 89 74 82 127 119 125 54 61 62
107 90 88 147 119 122 98 55 63 100 67 70 67 52 51
24 9 5 63 38 47 93 73 83 63 44 62 42 42 28
51 57 30 16 7 44 47 43 94 11 16 73 31 15 48
32 6 58 37 77 135 184 228 255 255 255 255 168 201 255
39 18 86 153 137 93 193 175 141 178 164 166 121 106 152
60 46 93 14 6 29 96 102 102 255 255 255 255 255 255
54 37 68 255 255 255 255 255 255 123 107 142 100 85 119
102 95 121 93 93 103 23 6 13 26 9 16 26 7 20
26 3 24 26 9 28 24 18 31 20 26 24 37 31 44
60 32 69 74 34 88 89 48 112 97 54 118 90 48 107
63 22 74 38 17 52 84 45 82 97 57 87 75 72 77
82 94 93 74 75 81 57 52 69 66 62 81 76 73 92
21 15 41 44 44 37 18 19 5 26 30 25 57 58 58
67 68 55 74 74 48 94 93 72 79 82 61 42 49 32
13 15 16 46 55 76 65 72 85 47 65 54 110 125 92
169 180 142 143 162 111 57 78 34 11 25 0 178 188 154
255 255 255 255 255 255 210 222 183 100 91 81 133 86 143
112 53 136 54 24 89 69 46 119 72 46 126 53 31 104
18 6 51 37 30 40 53 46 54 43 34 46 42 27 40
37 25 40 23 19 38 18 8 31 13 4 24 6 1 19
12 4 15 11 3 6 4 4 0 8 0 4 8 4 3
8 4 4 4 4 3 0 0 3 5 11 7 9 8 4
13 13 12 20 20 20 29 18 20 30 20 20 27 21 24
26 18 16 14 23 26 21 35 39 7 14 20 26 24 24
49 39 42 27 16 19 11 4 6 19 11 13 44 32 37
62 48 54 68 52 58 66 54 59 63 53 57 59 47 50
50 40 42 41 41 40 43 53 57 27 43 44 13 5 4
33 23 25 47 39 48 40 30 42 18 9 11 7 12 11
12 28 22 25 46 38 43 53 50 38 44 44 20 27 20
47 39 47 71 71 71 75 75 75 39 38 43 14 15 6
21 26 23 17 22 19 21 20 20 25 20 20 20 15 15
18 17 17 14 7 18 20 16 27 11 19 16 17 24 21
21 22 22 13 16 14 3 10 4 9 3 3 23 15 5
18 6 9 27 26 33 23 33 46 18 26 45 10 21 37
11 8 27 25 6 20 41 21 9 55 41 16 68 52 22
75 57 28 65 43 10 50 27 6 39 17 19 36 11 27
41 13 33 33 6 28 25 8 23 21 18 42 19 19 36
68 42 27 128 92 71 141 96 78 93 44 33 44 11 11
38 21 21 34 32 18 23 35 9 13 25 0 46 14 9
69 24 27 80 21 40 76 13 29 79 7 30 118 45 69
169 87 121 224 140 173 255 195 227 255 210 237 222 168 188
188 144 165 171 144 167 110 102 116 60 60 66 33 35 35
10 17 17 13 16 14 29 15 13 39 18 27 35 20 35
38 28 41 39 30 42 33 23 35 20 15 23 9 16 10
17 20 15 9 9 14 12 7 14 9 24 13 20 35 24
13 20 16 17 25 22 31 55 30 27 31 38 255 255 255
255 255 255 139 108 118 116 126 113 73 61 60 122 111 116
170 179 180 25 47 47 171 143 145 173 131 138 126 92 94
40 42 38 26 48 49 42 36 36 90 68 77 120 102 111
95 75 91 84 72 79 62 44 75 82 66 116 66 64 117
37 38 89 27 18 76 11 43 107 81 124 199 195 235 255
228 255 255 64 88 191 165 148 78 255 253 232 221 204 217
109 89 135 43 23 76 15 15 30 31 39 19 76 97 77
255 255 255 201 224 198 255 255 255 255 255 255 111 92 127
75 52 88 74 60 87 64 61 73 80 59 75 76 54 70
64 42 58 47 27 39 35 24 24 34 40 42 40 54 48
44 60 57 41 53 57 33 32 48 45 4 62 70 31 83
86 48 107 80 53 103 81 56 95 113 76 107 107 80 100
77 79 80 53 68 61 39 34 47 72 60 82 105 93 116
118 107 131 95 81 109 90 79 103 83 68 95 83 72 96
94 86 110 82 77 99 38 27 48 11 27 9 55 53 59
52 44 55 13 30 16 65 81 69 98 116 105 119 133 117
129 141 112 99 114 78 65 80 52 93 114 81 83 110 66
94 103 78 255 255 255 255 255 255 255 255 247 155 148 140
126 80 133 78 27 96 57 30 86 84 57 134 99 73 154
52 29 106 21 29 31 46 49 37 43 37 45 36 28 40
34 25 35 38 25 39 27 20 38 16 11 31 11 4 25
8 1 18 12 4 17 8 2 9 4 4 0 8 0 4
8 4 4 8 4 4 4 4 1 0 0 4 9 8 7
16 9 10 17 17 17 23 23 23 34 23 23 34 24 27
29 23 28 26 18 18 17 25 29 27 39 43 19 25 28
26 25 26 44 36 39 21 14 16 9 3 1 17 9 10
29 22 24 54 44 48 67 53 59 51 36 41 30 17 22
24 8 14 38 30 33 41 44 42 43 54 57 43 44 48
52 46 47 51 44 46 38 27 37 16 10 20 14 19 18
16 24 22 22 41 34 22 42 36 20 27 26 35 31 31
45 38 41 56 48 55 60 58 58 49 48 48 21 25 20
58 64 56 49 57 53 44 49 46 41 42 41 38 35 35
34 27 27 30 23 23 29 20 29 30 22 33 22 16 17
29 30 29 38 38 38 36 36 36 22 27 25 9 17 13
11 6 6 19 9 5 18 19 19 16 24 36 18 23 44
11 24 44 8 21 43 0 16 41 20 9 33 31 16 20
47 31 6 66 52 24 73 56 24 66 46 17 49 32 27
37 18 35 37 13 31 42 7 15 53 18 4 66 33 33
81 50 48 102 70 62 134 97 83 132 95 80 64 24 12
34 22 28 36 23 19 29 30 23 19 30 13 16 27 10
30 26 13 43 17 17 67 23 37 70 15 33 57 7 15
69 8 24 99 28 58 137 57 89 206 119 154 255 178 214
228 158 190 206 143 173 204 157 184 147 120 142 71 62 78
29 28 40 40 40 36 48 46 43 54 44 47 63 46 50
58 41 47 48 34 39 36 30 32 29 31 30 31 31 31
27 27 27 21 21 21 20 20 20 22 22 22 41 39 40
55 51 52 46 37 39 23 10 15 9 13 15 11 52 8
161 111 159 255 255 255 255 234 241 59 71 58 74 87 74
57 46 49 217 227 228 132 144 149 131 108 108 209 173 178
158 121 125 54 28 33 38 49 53 37 53 47 33 29 29
72 51 60 103 83 99 85 69 90 62 51 79 85 68 115
101 86 144 67 67 129 21 32 98 23 30 95 39 70 148
176 214 255 255 255 255 73 101 202 255 242 175 255 255 255
175 160 174 69 62 94 30 28 62 17 27 21 11 29 4
20 4 31 188 215 185 255 255 255 202 170 214 255 255 255
111 97 132 64 40 76 49 33 58 15 12 21 79 65 77
66 55 65 52 42 48 47 41 47 59 57 66 70 78 91
77 88 103 68 80 93 45 57 63 16 32 34 21 31 16
58 41 53 88 55 106 120 95 141 129 97 143 113 54 113
87 32 80 56 34 53 42 21 39 88 66 82 131 110 125
162 141 159 177 157 177 157 134 159 135 111 136 129 107 131
141 121 146 165 145 170 176 159 181 160 137 158 123 100 121
58 34 62 57 78 48 159 182 154 179 200 177 136 153 137
84 89 82 51 58 54 108 111 112 172 176 168 174 180 168
148 157 140 41 51 41 255 255 228 255 255 255 255 255 255
185 176 170 108 68 113 51 13 69 50 19 83 96 72 148
112 80 166 56 21 102 37 45 37 33 45 25 14 13 15
27 13 25 33 20 34 34 25 44 28 22 42 17 12 35
11 4 27 7 3 18 7 4 19 5 3 11 4 4 0
8 0 4 8 4 4 8 4 4 4 4 3 0 0 3
15 3 6 21 9 11 17 17 17 23 23 23 34 23 26
34 23 28 27 20 23 22 14 16 13 21 27 25 36 44
20 26 30 24 21 23 34 32 33 10 10 9 9 9 6
16 4 7 13 10 10 21 13 16 54 47 50 46 42 43
24 34 31 18 27 23 28 21 22 42 34 36 51 48 54
60 54 57 64 53 56 45 34 38 13 14 6 23 31 26
31 42 38 24 34 30 14 35 27 14 28 25 14 12 12
31 25 28 41 33 39 34 30 35 28 25 25 34 34 34
59 65 58 75 82 73 52 58 55 49 51 50 49 49 49
41 41 41 32 29 29 28 22 22 34 27 35 34 26 35
30 20 24 35 32 33 42 42 42 45 45 45 38 41 40
26 31 29 8 10 6 13 8 9 12 9 10 9 14 24
15 21 35 13 23 43 12 21 43 4 20 39 12 17 35
11 15 32 29 7 21 57 34 12 83 63 37 100 79 51
102 80 54 94 72 43 83 56 28 63 32 13 57 28 10
64 37 22 78 54 41 96 72 57 106 76 62 89 60 49
36 15 13 33 21 25 46 28 17 33 28 22 11 19 9
14 20 20 18 24 20 22 19 10 50 13 24 58 14 30
58 15 28 71 15 33 78 34 52 62 27 32 109 26 56
202 115 149 209 128 166 199 122 157 210 146 177 170 125 150
105 80 100 72 66 77 71 70 68 65 64 60 62 57 52
63 55 49 56 43 44 41 29 33 27 23 24 22 23 22
24 24 24 30 30 30 28 28 28 28 28 28 36 36 36
51 51 51 48 47 47 41 32 35 40 28 32 35 18 34
11 30 20 66 16 64 255 255 255 255 255 255 83 62 77
120 139 124 100 99 94 163 177 177 235 253 255 30 11 10
202 172 175 198 163 169 138 115 119 72 52 59 30 32 29
41 51 46 47 35 44 55 29 43 43 20 39 23 27 32
45 37 62 80 62 116 86 77 140 35 41 109 27 19 85
36 35 114 178 215 255 255 255 255 76 115 217 255 255 199
255 255 251 133 111 113 34 40 45 31 54 31 22 39 8
9 16 25 29 4 41 144 168 142 255 255 255 112 89 120
255 255 255 177 168 199 85 68 93 62 48 66 19 15 24
15 20 9 28 31 36 60 61 77 77 75 99 92 91 115
106 105 133 80 79 119 41 42 82 22 41 49 35 51 17
50 62 19 39 49 24 61 42 73 132 112 148 169 139 183
141 79 146 93 24 91 46 22 42 51 25 33 119 99 100
154 125 134 171 138 153 169 140 155 136 103 122 121 88 103
114 83 100 109 78 104 121 94 122 138 117 142 140 120 140
104 96 104 98 115 88 138 160 135 126 149 137 60 77 67
46 42 33 124 117 123 193 186 191 205 203 205 166 172 167
135 145 129 154 161 149 126 132 128 157 162 130 255 255 255
255 255 255 232 220 215 99 64 102 30 13 53 52 32 97
90 74 144 91 61 144 54 21 94 42 39 51 23 25 26
4 16 8 18 24 18 27 32 29 21 28 36 20 22 41
16 16 38 8 11 30 8 6 14 13 5 18 7 9 17
2 6 7 7 4 2 10 7 7 10 7 7 6 6 6
4 4 4 19 5 8 23 6 11 15 15 16 22 22 21
34 23 27 35 24 27 28 21 21 23 17 21 16 20 29
24 33 45 26 27 37 20 18 27 25 25 29 9 8 15
9 14 20 9 14 19 5 16 20 33 33 39 65 66 70
59 57 64 36 38 46 21 29 35 3 11 15 31 16 13
46 35 36 52 36 40 58 39 46 55 41 46 50 49 41
28 42 30 11 28 21 21 20 17 31 13 17 56 49 49
58 54 55 39 36 37 13 14 11 16 21 19 42 45 45
61 62 62 76 79 72 67 69 61 35 35 35 31 31 31
34 34 34 28 28 28 12 12 12 5 5 5 21 21 28
25 25 32 24 24 24 24 24 24 26 26 26 35 35 35
40 40 40 37 37 37 23 24 17 9 15 23 6 16 23
7 20 28 11 26 31 14 27 34 18 22 31 14 16 22
18 7 12 10 9 21 18 25 35 27 19 27 43 19 7
71 48 26 99 74 54 117 88 68 123 91 68 103 69 47
77 44 29 60 34 19 54 28 13 56 32 20 57 37 32
54 45 36 36 33 27 33 10 5 42 25 15 35 27 17
24 24 20 19 22 22 10 17 17 4 18 17 32 6 10
41 7 15 24 9 6 44 33 32 69 38 51 63 4 31
84 4 38 157 64 98 190 101 138 192 107 145 215 138 173
215 151 181 178 134 155 138 113 134 95 88 98 57 57 57
45 46 39 53 52 42 59 57 47 60 59 51 43 45 41
22 23 23 10 13 6 22 26 14 29 33 21 34 37 27
37 40 31 33 36 27 27 31 21 28 32 20 32 36 26
39 26 43 42 11 55 18 31 21 176 140 163 255 255 255
213 193 207 116 128 117 184 184 180 22 20 23 245 255 255
111 131 132 117 89 92 190 157 163 188 159 164 135 108 112
74 43 53 46 37 37 56 55 63 27 6 20 58 33 41
39 27 31 14 31 9 46 37 71 70 61 113 40 33 103
26 21 95 33 11 91 130 162 255 255 255 255 168 205 255
241 202 138 255 246 215 147 121 123 77 85 84 60 79 60
42 50 40 28 30 24 24 33 10 92 116 97 253 255 255
76 96 77 255 255 255 255 255 255 191 180 198 90 79 93
29 29 33 63 55 77 107 101 130 142 135 174 111 102 149
82 75 124 98 91 134 38 28 85 26 44 63 49 71 59
65 84 48 49 65 14 35 49 12 51 54 37 120 112 119
195 177 201 222 178 227 162 105 164 63 51 70 44 71 60
145 152 139 149 136 132 148 117 130 181 157 168 127 99 114
92 60 73 70 37 52 64 29 50 79 54 75 112 113 120
175 188 179 171 188 177 88 103 85 71 68 59 85 77 85
92 86 84 150 149 136 172 166 163 170 164 162 146 144 135
110 113 97 101 106 92 122 127 120 140 145 141 72 81 45
255 255 255 255 255 255 255 255 255 107 74 113 26 15 50
78 61 125 84 70 139 57 32 110 35 13 72 34 27 48
30 14 41 25 6 33 31 27 28 30 35 31 16 25 26
12 14 31 20 17 42 9 10 35 15 16 6 13 7 11
13 13 18 3 9 14 1 7 9 9 6 6 12 9 9
10 10 10 9 9 9 18 4 7 20 1 9 15 18 13
20 23 17 33 21 25 34 22 26 26 18 20 18 10 7
7 9 18 10 23 32 20 20 30 13 14 23 22 21 25
17 16 22 13 16 23 7 16 20 10 12 17 42 35 42
57 58 60 51 47 52 21 20 25 12 18 22 17 22 24
9 9 13 14 12 10 30 9 14 36 20 26 53 47 48
76 74 66 39 46 34 23 5 10 37 25 27 46 34 36
39 34 35 34 35 35 27 33 30 34 40 33 42 48 44
47 51 51 52 53 53 54 56 50 33 35 27 18 18 18
40 40 40 53 53 53 44 44 44 24 24 24 17 17 17
9 9 15 23 23 28 23 23 23 14 14 14 15 15 15
26 26 26 35 35 35 33 33 33 23 21 13 18 26 25
16 27 24 14 22 29 13 24 31 18 29 35 27 29 37
18 24 25 16 7 3 16 9 8 20 22 27 19 24 32
17 15 25 23 6 10 44 25 10 64 41 26 91 65 48
109 76 58 106 70 53 96 63 48 84 50 42 70 37 34
56 28 30 44 19 21 46 25 24 46 23 27 26 12 17
18 15 2 14 13 10 6 12 8 3 10 4 4 13 8
18 9 10 33 9 8 32 27 27 35 37 35 38 21 23
48 3 22 66 6 32 113 28 64 177 84 118 201 110 147
217 135 173 248 170 205 240 178 202 219 174 197 183 150 173
117 98 117 29 25 41 31 40 29 49 55 43 74 74 67
73 75 70 32 33 30 4 8 4 4 8 6 9 11 8
17 19 15 16 16 19 22 20 27 21 19 27 20 16 28
42 41 49 65 52 69 71 44 77 51 61 46 131 93 115
255 255 255 255 255 255 91 82 81 199 195 193 154 136 139
133 152 155 190 213 213 38 66 61 75 38 46 148 114 119
150 120 123 118 82 94 77 45 56 55 47 57 42 35 48
63 44 49 58 31 41 37 14 30 51 46 67 36 32 74
36 17 79 50 38 111 46 35 113 85 105 230 255 255 255
246 255 255 185 163 155 221 179 153 108 67 80 48 45 64
38 42 66 40 38 55 34 30 40 4 18 21 44 55 60
180 195 191 252 255 255 10 30 8 255 255 255 255 255 255
145 135 146 42 42 41 73 64 98 157 151 195 147 136 194
71 57 109 32 49 23 115 127 94 96 111 60 59 82 24
50 69 58 53 71 76 28 44 59 19 40 27 34 50 6
65 66 44 138 127 129 239 208 240 255 226 255 181 155 176
18 40 37 204 212 202 228 227 217 120 93 95 193 176 181
128 110 118 56 34 44 53 29 35 53 29 31 84 84 92
227 235 240 202 216 214 41 19 22 210 186 192 233 214 213
169 159 157 112 108 98 144 145 127 135 137 122 77 83 68
69 78 58 100 108 90 106 111 99 91 96 93 111 114 120
23 24 47 222 223 208 255 255 255 255 255 255 142 112 150
45 15 67 94 73 137 84 63 138 47 15 100 25 21 63
24 26 41 28 19 40 42 21 48 46 32 48 28 21 33
7 1 16 6 2 25 20 15 46 13 10 38 16 19 10
4 8 10 13 12 16 4 11 13 4 11 16 6 3 9
11 7 6 12 12 12 12 12 12 16 4 4 17 3 5
15 18 12 20 23 16 30 22 21 34 26 26 31 26 28
31 27 26 27 24 24 14 17 17 6 6 12 11 11 11
23 21 21 17 17 17 4 7 7 17 16 16 17 6 9
47 36 39 50 49 49 48 42 44 30 17 21 25 9 14
17 18 15 8 14 10 7 16 8 24 13 15 16 12 13
44 46 46 74 79 68 36 45 34 28 17 18 34 27 28
23 20 20 31 39 35 51 59 55 54 59 57 44 53 45
30 36 30 18 22 21 6 14 11 17 22 11 14 6 10
51 49 49 69 69 69 65 65 65 37 37 37 17 17 17
28 25 26 19 13 13 25 18 25 21 15 18 11 8 10
18 18 18 27 27 27 34 31 32 28 26 26 12 16 12
15 18 22 17 17 9 17 17 13 16 21 25 21 29 35
30 34 43 26 34 41 7 21 27 6 10 15 21 18 22
25 20 26 23 18 21 23 13 16 21 4 9 23 9 8
42 28 9 75 56 34 93 70 44 98 69 49 98 69 53
97 71 54 95 72 52 90 68 48 75 55 40 46 29 26
25 16 24 20 16 23 17 12 21 15 11 13 11 10 8
8 8 6 16 7 6 29 11 7 34 25 27 37 27 30
28 15 16 19 21 11 31 23 6 66 18 32 136 51 87
181 87 122 200 115 148 243 161 198 252 180 209 247 187 214
254 205 231 226 190 216 130 103 134 42 30 50 3 21 7
57 60 57 79 85 81 46 50 45 12 12 6 3 3 10
12 12 19 21 21 28 29 29 37 42 42 50 58 56 64
79 70 81 101 89 101 114 95 113 129 99 127 123 111 111
160 126 143 255 255 255 255 255 255 83 67 72 152 151 146
200 187 187 61 41 51 132 156 156 105 137 133 40 76 68
63 47 41 103 78 79 119 85 97 118 81 94 93 68 79
65 54 64 45 30 33 46 33 37 63 35 51 57 26 61
39 15 56 42 29 59 58 43 95 82 68 132 99 101 211
204 223 255 245 255 255 177 173 216 132 94 87 73 32 43
38 33 66 35 34 78 51 41 68 56 46 65 43 25 58
60 47 75 101 106 118 248 255 255 255 255 255 89 79 109
255 255 255 252 242 243 142 134 128 77 86 94 153 156 190
41 34 88 127 135 89 138 155 83 158 174 113 162 176 117
111 122 49 42 57 25 27 40 80 47 48 99 40 49 87
28 39 68 9 16 43 37 38 22 141 122 142 255 226 255
255 254 255 125 103 102 216 216 208 255 255 255 63 43 36
175 168 173 137 127 131 52 27 34 48 24 25 84 90 95
243 253 255 228 238 241 80 63 63 255 255 255 255 255 251
240 226 216 191 176 172 141 134 120 167 170 148 144 150 127
84 91 67 64 70 50 106 109 102 123 123 125 81 79 94
94 93 108 82 82 96 150 143 136 255 255 255 255 255 255
184 160 196 70 35 96 96 73 139 88 65 137 53 17 102
32 28 68 30 31 45 32 23 40 51 29 53 54 39 55
34 24 38 13 3 17 7 6 22 19 13 48 17 14 37
16 16 16 8 9 17 13 10 20 6 12 11 4 11 13
4 3 11 9 5 3 12 12 12 12 12 12 16 4 4
16 4 4 12 13 11 17 19 15 26 21 16 31 26 23
30 26 28 30 28 28 33 25 26 27 13 14 9 6 1
18 18 18 24 24 24 13 15 15 12 13 13 21 21 21
17 11 12 44 38 39 42 40 40 42 37 38 33 23 26
25 13 17 14 6 6 3 14 8 8 21 16 25 25 25
20 22 22 42 48 47 65 73 61 25 34 23 22 13 14
27 20 24 9 17 13 41 47 44 48 54 51 42 50 46
25 34 27 16 18 13 9 16 13 11 12 10 18 14 7
26 19 27 60 63 63 61 65 65 37 37 37 9 9 9
34 28 31 34 26 30 20 15 12 16 8 14 19 10 14
19 11 15 22 19 20 27 25 26 32 28 29 28 34 32
26 36 31 27 33 24 25 29 13 25 27 14 24 29 22
25 33 28 30 35 38 31 38 44 27 35 43 21 30 32
23 31 31 24 31 34 16 28 30 15 21 24 5 14 18
4 10 18 26 11 20 40 25 9 52 32 13 56 32 17
60 33 19 62 35 18 56 32 13 50 27 6 40 24 1
28 21 3 22 17 9 18 12 14 14 8 19 8 7 14
2 3 11 2 6 10 19 6 8 25 11 10 21 22 18
26 22 21 37 19 24 51 25 33 54 30 37 47 23 29
82 22 49 102 20 56 134 52 82 216 133 167 243 169 199
225 161 189 239 182 208 255 215 242 238 199 229 154 129 153
90 72 91 68 57 71 62 67 70 39 47 47 16 16 21
6 5 16 12 10 23 29 27 40 40 38 52 47 43 57
61 51 66 82 69 85 104 91 106 119 96 116 130 90 120
113 95 98 170 131 150 255 255 255 255 234 253 54 26 39
108 98 96 192 175 177 153 122 129 74 63 70 71 92 92
35 65 62 22 41 31 34 29 18 54 24 33 98 63 74
109 80 89 78 54 59 55 38 38 55 43 45 59 38 50
45 19 47 35 14 36 46 33 44 64 50 64 79 62 107
87 80 190 137 151 255 163 185 255 101 125 208 47 39 75
48 7 26 29 15 75 24 24 78 61 46 81 86 77 92
62 40 76 66 48 87 84 75 106 163 166 182 255 255 255
209 213 215 117 113 117 255 255 255 187 180 171 85 88 106
140 150 163 83 103 50 168 186 118 108 125 61 50 68 61
81 95 85 83 96 60 72 78 58 34 19 78 61 52 120
69 77 121 39 54 81 22 36 43 17 32 28 57 49 71
176 161 186 255 248 255 209 191 190 197 191 183 232 233 223
44 55 54 138 134 138 132 122 122 77 55 56 63 53 65
210 212 217 212 218 220 73 57 51 255 255 255 255 255 253
137 123 112 189 177 172 169 153 149 171 166 143 195 202 172
151 157 128 96 95 80 88 81 82 149 146 150 159 154 163
86 76 99 70 67 87 97 101 102 69 65 60 255 255 255
255 255 255 226 209 241 94 66 123 98 77 143 87 67 139
56 25 103 36 31 69 33 30 49 31 20 38 53 31 56
64 46 62 39 30 43 14 6 20 13 13 17 22 12 47
23 14 41 17 11 15 10 8 17 14 10 20 9 14 11
8 13 10 5 6 11 8 2 9 11 12 11 11 12 9
16 4 4 16 4 4 9 9 9 13 13 13 22 16 13
26 22 16 24 23 19 23 22 20 30 23 20 35 20 17
23 19 12 22 27 25 18 21 20 6 9 8 17 17 17
20 20 20 18 15 15 38 35 35 30 29 29 31 29 29
28 25 25 23 19 19 17 11 13 15 21 20 18 27 25
31 34 34 30 37 35 40 55 50 55 69 56 19 28 18
20 17 17 23 19 21 27 33 30 46 50 48 23 31 27
14 23 18 4 7 1 21 13 15 30 24 25 26 27 26
23 23 19 27 22 31 52 59 58 39 50 49 30 32 32
48 45 47 51 40 46 31 20 26 14 9 7 5 3 6
13 8 11 21 12 16 24 18 21 31 29 29 40 42 41
49 52 51 49 52 49 38 43 32 31 35 18 29 32 18
29 32 20 32 36 20 36 39 29 41 45 34 42 44 40
33 34 37 28 31 31 31 33 33 23 29 27 17 21 23
8 13 18 6 8 16 26 21 26 26 23 34 1 17 33
5 11 26 14 9 17 13 13 7 8 16 1 12 20 0
7 18 0 5 7 0 8 0 2 4 3 10 0 3 13
4 4 14 5 7 24 3 9 14 16 10 11 23 14 12
19 22 14 12 12 10 17 5 9 26 17 20 30 12 15
36 9 15 67 31 46 53 14 21 63 18 29 148 67 100
207 126 159 205 133 163 208 143 171 239 178 208 255 238 255
255 241 255 222 204 224 169 158 173 112 105 118 74 66 79
52 41 57 36 29 44 29 25 38 37 34 46 51 45 58
77 65 80 96 84 99 102 95 108 100 90 104 95 71 88
79 34 64 65 34 43 192 147 170 255 255 255 209 172 193
35 9 13 51 34 31 127 103 106 176 147 150 143 108 119
109 87 98 54 27 39 36 34 23 34 58 47 25 54 45
45 50 48 68 42 47 82 45 48 61 46 46 64 53 55
56 40 52 35 12 36 32 19 23 37 30 29 49 43 34
59 46 61 40 34 154 109 129 255 148 180 255 78 114 199
33 13 59 60 32 52 55 43 100 49 44 98 64 40 97
111 98 121 91 69 103 69 51 89 62 49 82 73 69 92
181 190 197 255 255 255 142 142 147 173 172 181 141 140 150
63 62 92 85 89 102 86 103 27 126 144 73 62 80 28
30 45 60 61 71 82 71 68 86 106 91 129 125 111 159
117 108 168 136 142 183 93 106 139 29 40 63 29 23 63
34 33 70 89 86 93 196 184 188 181 173 170 64 63 49
137 144 148 202 212 218 204 213 220 144 152 163 117 123 137
149 151 162 155 149 156 186 174 162 255 255 255 255 255 250
122 114 108 89 76 74 146 135 135 135 131 116 195 195 166
197 199 169 136 137 114 110 107 101 132 123 129 207 199 205
165 155 165 37 28 48 34 44 44 85 98 86 63 69 40
255 255 255 255 255 255 255 255 255 120 98 147 103 84 144
94 72 145 59 27 108 33 26 71 27 25 51 27 13 38
51 28 52 70 48 65 47 35 51 13 4 21 13 16 8
17 8 37 23 14 45 13 7 20 9 9 17 14 9 18
9 14 11 9 15 11 5 9 10 6 2 9 8 11 6
9 13 3 16 6 6 16 7 6 9 9 9 11 11 11
18 10 10 19 11 9 15 13 7 11 9 6 28 24 16
40 34 25 27 28 20 22 26 24 14 9 9 3 10 7
15 15 15 16 16 16 17 17 17 28 27 27 21 20 20
24 21 21 25 22 22 27 24 24 30 29 29 33 35 35
25 31 29 30 34 32 26 37 33 37 54 47 48 59 47
14 20 13 21 21 21 18 17 18 28 35 31 41 47 44
13 14 13 8 7 7 23 16 20 36 25 30 38 30 33
35 34 34 27 30 23 17 9 20 34 44 40 38 50 48
54 57 58 61 55 58 47 36 41 26 19 22 13 5 13
7 3 8 11 3 7 20 15 17 30 29 29 43 42 42
51 51 51 53 56 56 51 54 53 42 44 43 30 32 21
29 31 20 29 31 20 30 33 15 34 38 20 39 43 29
45 46 41 40 39 39 25 27 27 31 32 32 27 28 23
20 20 17 13 12 14 11 6 8 15 8 18 21 24 37
21 31 47 16 27 44 16 23 37 13 25 26 16 30 13
22 33 6 25 33 3 20 28 0 17 23 7 18 20 18
17 17 20 15 15 24 11 14 32 8 13 18 16 13 15
18 14 7 18 15 8 13 13 13 27 27 27 55 54 54
63 62 62 44 44 43 35 6 12 55 26 37 56 14 31
94 30 55 155 81 111 194 119 151 203 136 168 209 149 178
255 201 229 255 241 255 255 230 247 206 188 204 139 125 139
93 80 94 72 61 74 59 52 64 40 38 48 51 50 57
90 81 91 134 121 134 158 149 162 156 147 160 127 110 126
88 63 83 54 34 43 94 28 67 255 221 243 255 255 255
160 118 140 54 38 36 34 13 13 50 28 32 105 83 85
122 95 103 120 95 104 101 71 79 97 70 72 56 42 37
31 55 45 76 98 91 7 32 23 78 39 45 70 55 55
68 60 62 51 38 49 36 15 28 36 25 19 37 27 22
31 31 23 54 52 31 6 15 135 164 182 255 204 233 255
82 99 179 100 59 6 83 47 70 73 58 117 75 72 120
74 58 106 119 103 128 105 86 114 57 44 78 41 31 63
37 24 56 65 68 83 245 251 250 255 253 255 235 231 245
202 198 209 51 55 55 53 53 72 42 53 38 70 72 76
54 58 96 53 54 116 105 103 162 208 203 252 255 255 255
255 255 255 214 208 251 231 232 255 214 221 255 151 157 198
111 114 156 101 106 143 129 136 161 192 193 213 208 209 229
199 208 223 255 255 255 255 255 255 255 255 255 255 255 255
255 255 255 177 180 190 43 49 41 179 178 165 165 163 153
73 72 64 13 17 9 65 56 63 88 77 82 119 124 100
169 175 150 123 124 106 91 80 83 111 103 112 160 152 158
239 228 239 128 117 125 78 82 57 112 116 98 133 142 130
120 126 117 139 136 124 255 255 255 255 255 255 142 123 172
103 85 145 102 78 152 63 33 116 30 17 74 21 18 54
22 5 42 46 24 46 69 48 65 54 39 61 14 4 22
14 19 6 10 9 27 20 17 46 10 9 27 7 10 17
13 8 17 9 15 11 9 16 12 4 11 8 3 5 1
5 8 1 8 12 4 15 7 3 14 8 3 7 7 7
9 9 9 19 7 11 19 7 11 13 9 7 12 9 9
36 32 26 45 41 29 25 25 19 16 16 16 9 3 3
12 11 10 13 8 8 3 13 9 13 22 19 15 19 17
16 8 10 19 15 16 21 21 21 30 30 30 45 45 45
47 47 47 20 28 25 25 22 21 16 21 18 31 39 35
37 40 31 3 3 6 25 23 24 19 15 17 28 33 31
39 44 42 14 15 15 15 5 8 33 20 27 33 25 30
23 23 23 32 32 32 25 33 22 3 11 1 25 28 26
43 46 45 46 46 47 35 31 33 20 21 20 15 20 17
13 13 18 15 13 15 23 21 22 33 34 33 42 43 42
46 47 46 44 43 43 35 37 34 36 40 39 38 43 42
34 29 20 35 29 20 33 27 19 27 25 11 26 26 12
31 31 21 50 47 41 56 54 48 41 44 35 44 45 41
40 40 34 34 34 29 25 26 26 17 20 19 13 22 33
22 28 39 25 30 40 23 29 36 17 28 36 11 29 36
13 32 27 16 34 22 23 36 20 27 40 19 26 40 25
22 35 33 21 31 29 21 25 30 21 17 33 19 13 20
23 17 20 23 25 18 21 22 14 37 35 36 68 64 65
95 83 87 99 91 94 78 82 81 42 65 57 13 34 22
52 9 23 72 20 37 109 48 68 150 93 111 181 127 151
192 136 163 205 149 179 214 170 196 206 178 195 188 167 183
134 117 132 87 78 93 82 78 90 86 84 94 77 82 89
92 96 103 147 139 149 179 168 182 187 176 191 185 169 186
164 150 165 131 120 133 119 108 115 196 139 169 255 255 255
255 245 255 116 69 89 71 54 51 53 32 31 24 9 9
35 20 18 45 30 37 59 44 51 86 62 66 129 105 106
115 93 94 37 20 26 66 87 78 19 64 47 57 16 29
75 61 59 71 65 63 54 41 44 44 27 28 43 29 25
40 23 25 28 18 31 46 48 28 7 9 127 179 195 255
215 236 255 35 59 168 123 85 33 106 57 75 70 23 120
42 43 108 44 30 71 97 83 101 91 77 95 29 13 35
15 13 26 31 17 37 28 22 34 139 144 142 200 200 202
177 180 186 106 110 116 40 41 52 49 45 71 35 25 77
153 145 189 255 255 255 255 255 255 255 255 255 255 255 255
255 251 255 120 115 140 82 79 107 171 170 199 255 255 255
255 255 255 255 255 255 255 255 255 255 255 255 255 255 255
247 251 255 78 86 102 52 44 30 110 103 87 100 102 81
94 95 80 110 108 96 135 136 120 154 160 141 118 120 111
57 57 54 40 39 25 40 35 34 57 53 66 32 26 17
113 122 94 104 109 86 71 54 66 119 97 123 120 111 124
164 158 164 229 217 230 76 69 69 144 144 137 146 147 137
147 152 141 141 152 149 14 21 25 255 255 255 255 255 255
159 143 192 99 82 145 103 81 156 67 38 124 31 12 86
21 12 66 22 4 52 40 19 46 64 47 64 58 41 68
15 4 25 15 21 7 9 13 22 19 16 44 13 10 32
6 8 18 9 3 13 8 15 11 8 16 12 4 13 8
1 8 3 5 4 3 8 9 8 11 6 7 13 6 8
11 8 9 13 11 12 20 10 13 21 11 14 19 14 14
16 13 13 39 35 25 45 41 29 18 18 17 8 8 11
9 8 5 17 11 8 13 1 3 11 16 16 10 19 19
3 10 10 12 3 0 15 10 7 17 17 14 34 34 33
56 56 54 55 59 57 12 25 21 26 13 18 7 4 5
28 30 30 29 30 21 9 9 13 32 26 30 23 14 19
33 33 33 40 42 41 10 18 15 13 1 4 31 26 31
24 20 25 14 14 14 32 32 32 29 35 24 21 24 15
26 18 22 30 25 26 22 24 22 7 20 15 5 15 10
6 12 9 14 14 17 22 22 21 30 33 31 37 40 38
40 39 39 36 33 34 33 24 27 21 14 23 24 26 41
28 32 40 29 23 21 31 24 23 31 20 23 26 15 18
20 17 17 22 22 18 43 39 34 61 56 54 63 62 60
65 66 63 61 61 57 56 56 53 51 51 51 44 48 45
40 42 51 36 36 45 34 33 43 33 31 40 26 30 34
18 29 36 20 30 35 24 33 40 27 37 43 28 37 45
24 34 43 20 32 36 16 30 25 12 26 24 13 18 26
14 13 10 24 24 11 36 36 24 44 43 38 61 58 61
80 68 73 76 55 64 64 53 58 85 85 86 112 123 119
88 108 99 5 34 24 52 18 27 81 27 45 88 36 53
120 70 89 158 100 126 180 113 148 183 121 154 184 143 163
195 162 178 154 119 136 118 86 105 128 103 119 142 117 134
141 120 136 142 121 137 177 153 167 180 156 170 157 129 145
151 117 136 163 130 148 173 137 154 205 152 169 255 212 240
255 255 255 194 142 159 73 14 27 59 35 28 81 48 43
47 26 26 27 13 6 10 21 22 10 25 27 34 9 14
99 75 75 133 105 106 85 58 66 51 51 48 30 71 49
43 9 16 75 57 63 70 59 59 54 38 42 48 27 31
45 23 25 37 14 24 34 14 32 44 39 33 31 5 110
146 152 255 232 237 255 146 146 250 75 40 61 112 66 75
84 25 130 29 34 103 29 20 51 79 69 77 84 80 83
50 47 31 28 24 18 40 25 54 15 7 43 58 60 74
81 77 100 50 46 80 16 17 33 31 32 37 67 62 84
129 122 159 216 210 243 209 201 228 157 143 158 111 92 114
51 60 62 183 195 189 255 255 255 245 250 238 159 161 148
66 61 56 143 145 150 221 228 229 213 220 224 131 135 147
15 13 10 153 150 129 245 244 225 255 255 251 255 255 255
255 255 255 255 255 255 255 255 255 243 253 224 164 171 139
122 128 103 118 128 103 103 114 83 114 116 95 107 108 98
56 59 27 79 92 79 40 53 62 110 92 118 145 126 145
136 126 132 163 157 163 162 150 160 88 91 93 162 164 163
114 118 115 97 104 99 142 154 153 116 130 125 231 226 226
255 255 255 231 216 255 163 146 206 114 92 167 68 37 137
48 22 133 37 8 109 31 18 73 35 18 59 58 45 69
55 38 70 13 4 27 13 19 4 0 12 19 15 14 38
11 7 32 14 4 27 25 13 21 26 14 16 15 11 9
3 11 6 8 16 11 14 18 16 16 17 17 11 15 17
6 18 16 9 21 14 15 19 14 21 17 14 24 17 13
22 14 12 13 7 4 36 29 22 41 37 27 22 25 10
22 25 7 16 20 4 9 13 9 8 10 16 16 18 16
12 11 14 6 6 13 4 16 12 10 13 1 19 19 21
42 42 46 58 58 55 46 55 52 31 25 18 56 50 45
49 52 39 59 63 48 70 73 56 66 63 52 49 42 39
23 20 14 40 41 41 46 49 51 13 24 24 16 11 16
34 33 36 21 20 24 17 19 18 41 42 40 41 41 37
35 29 32 31 17 29 22 8 18 18 21 24 17 25 23
6 20 11 13 20 8 26 34 22 36 44 36 30 37 34
20 24 22 14 13 16 19 4 15 31 14 23 34 16 33
34 26 50 27 24 44 25 14 35 35 26 45 46 32 55
51 33 56 43 28 47 28 19 32 30 23 34 51 42 60
73 63 82 82 79 89 78 80 82 72 80 77 76 82 80
76 78 75 61 62 61 51 51 44 53 49 46 55 44 51
53 37 51 45 31 51 40 25 52 36 25 56 32 24 58
28 23 55 24 19 48 22 22 37 16 25 28 12 30 25
8 30 20 9 25 9 25 30 9 44 36 25 48 38 45
50 44 52 52 35 42 60 40 48 49 43 45 76 69 69
126 127 128 178 184 186 141 153 156 36 58 57 52 10 19
67 25 30 82 35 41 113 48 60 161 73 102 200 106 141
225 150 176 253 190 211 242 173 196 204 134 157 175 102 126
165 82 111 168 81 112 173 91 120 191 129 148 173 119 136
123 60 76 83 13 27 99 26 36 167 67 90 255 148 180
255 206 242 255 160 182 124 41 55 49 21 10 32 19 9
74 40 29 65 49 45 35 37 28 1 39 33 13 43 44
20 24 25 60 35 34 116 80 84 109 70 82 74 34 52
52 61 53 56 27 35 89 51 76 91 58 73 73 41 53
49 17 29 39 3 18 40 3 25 44 11 33 49 28 39
42 13 89 90 70 187 191 180 255 198 194 255 46 60 134
101 84 58 98 78 127 75 87 106 79 81 72 100 102 72
115 126 84 101 111 60 73 72 66 62 51 91 3 22 73
30 39 76 27 27 75 43 31 82 30 9 75 33 34 38
86 86 97 145 138 166 131 125 160 150 148 173 255 255 255
255 255 255 255 255 255 255 255 255 207 210 223 206 206 213
247 242 240 251 249 248 218 210 217 203 194 206 220 214 220
255 255 255 255 255 255 255 255 255 209 209 196 138 142 124
128 133 111 152 155 134 150 155 134 122 130 106 93 102 75
96 102 76 121 129 107 112 123 100 72 82 55 97 102 85
124 126 120 77 79 71 31 27 55 144 138 164 210 207 226
219 217 225 210 208 209 183 182 182 68 63 60 105 114 112
109 115 111 49 51 56 56 60 69 96 101 111 102 110 112
97 89 90 247 231 250 255 255 255 255 255 255 154 137 196
71 58 139 78 54 160 76 42 151 36 17 93 26 16 73
54 36 82 48 30 71 11 8 32 13 14 13 6 4 23
12 16 34 9 8 27 32 7 41 39 16 37 22 10 12
17 3 4 15 6 6 13 13 12 17 17 17 16 16 16
11 15 18 6 18 17 6 19 15 9 15 11 22 13 9
25 10 9 22 4 12 19 3 15 34 23 28 35 29 26
27 23 12 27 23 13 20 16 6 11 7 7 11 9 11
16 14 4 22 18 14 7 12 6 22 25 20 18 13 2
35 33 34 51 52 55 48 50 45 28 34 26 50 41 34
63 60 47 53 54 38 59 61 47 69 72 55 66 66 50
45 44 29 24 25 14 48 53 52 51 56 56 16 18 7
18 13 20 39 35 36 22 18 18 22 25 19 47 46 42
40 31 33 25 16 16 17 19 13 4 13 6 12 11 20
17 20 23 17 24 16 26 31 21 41 48 39 45 52 46
36 42 39 18 19 18 4 3 11 6 6 12 16 14 14
21 21 20 27 23 40 30 16 43 38 22 51 46 35 59
52 44 64 54 42 63 51 34 56 40 24 44 28 17 35
31 25 40 43 36 48 60 54 64 61 57 62 48 52 52
49 57 54 55 58 51 46 47 34 35 35 24 38 35 30
44 34 37 43 25 39 36 19 40 29 13 39 24 10 38
23 8 38 18 15 36 13 8 33 14 12 31 11 16 25
11 19 18 9 26 9 8 27 7 28 23 11 51 32 35
43 35 39 21 19 23 28 8 16 63 43 51 80 73 73
76 67 67 94 84 92 159 160 163 226 233 238 170 185 187
69 93 93 13 31 26 48 21 22 70 17 27 104 26 48
143 51 82 184 103 130 230 162 186 255 187 211 239 166 190
192 116 141 157 77 103 148 62 89 157 80 104 172 112 130
151 94 111 101 24 46 73 31 29 102 9 31 183 73 102
255 136 171 255 127 153 150 53 64 83 14 10 48 25 17
25 20 16 56 30 21 86 71 62 54 46 41 8 34 33
29 49 55 33 37 40 40 14 13 79 55 50 89 56 61
68 28 39 41 44 38 45 41 31 77 32 64 93 51 80
86 47 74 61 30 50 42 6 27 42 10 25 45 10 35
44 19 40 45 13 68 66 24 115 138 126 237 240 241 255
133 136 217 54 39 39 71 64 96 63 75 100 67 65 83
77 76 63 95 100 78 111 114 99 106 102 103 74 74 74
33 52 43 28 51 53 16 39 49 23 34 57 11 19 60
16 34 23 62 57 67 136 119 144 191 176 207 232 217 243
223 214 240 187 175 219 166 151 204 130 115 164 93 81 123
95 82 112 151 135 148 161 151 164 184 168 187 245 232 248
255 255 255 228 215 229 149 137 146 92 81 88 78 74 82
89 85 89 87 82 84 81 70 74 90 76 86 96 83 94
85 78 84 82 80 80 86 88 86 70 69 67 43 37 36
54 51 54 92 90 110 103 100 122 119 113 127 190 185 197
237 236 249 252 251 255 226 225 232 170 172 177 122 131 132
163 177 170 148 162 149 154 160 152 155 160 155 123 126 118
84 89 81 71 79 59 162 165 147 255 255 255 255 255 255
222 206 227 72 63 94 98 76 145 110 75 169 41 13 107
24 7 92 51 29 100 48 28 84 19 8 51 13 13 32
13 10 34 14 16 39 10 7 26 45 7 47 46 13 46
7 7 15 11 5 14 20 6 14 17 4 13 11 3 9
8 0 3 6 1 9 3 4 10 4 3 7 6 4 3
20 5 5 24 6 6 18 4 4 16 4 6 29 19 31
25 20 25 13 4 4 16 9 9 17 9 9 17 9 9
16 8 6 16 6 2 24 14 14 19 7 6 31 24 24
20 6 6 45 40 40 59 55 55 47 43 35 28 20 11
44 36 30 40 34 29 15 8 6 13 6 6 13 15 4
19 25 13 25 30 18 24 24 14 51 54 50 57 60 57
50 51 50 54 53 56 48 46 46 24 23 23 28 31 25
45 47 40 51 44 42 52 52 50 49 51 51 39 40 37
22 22 23 8 8 13 13 10 7 26 26 25 40 43 41
30 31 30 30 30 30 25 25 25 15 15 17 9 9 16
11 15 13 18 22 20 7 7 18 32 32 39 43 43 51
39 39 47 34 35 42 32 33 39 34 32 39 35 29 38
27 18 26 13 13 17 10 6 7 38 30 34 47 35 39
25 14 18 14 14 14 28 30 26 30 27 14 17 13 4
15 15 15 22 20 20 20 15 18 14 8 13 11 4 11
10 3 11 21 8 11 19 10 12 9 3 13 13 4 15
13 7 14 11 9 11 9 13 7 6 14 6 32 13 16
55 32 39 37 34 34 6 6 6 19 3 8 65 45 53
96 88 88 79 71 71 80 65 81 36 27 34 137 144 141
221 229 226 231 243 239 177 191 186 104 113 108 24 44 36
41 4 16 66 12 30 80 29 46 128 86 101 176 139 152
204 168 180 204 168 180 188 152 163 168 131 141 154 125 127
144 120 120 115 87 88 85 45 50 92 56 63 135 67 89
192 110 137 202 109 134 124 54 63 28 6 0 57 29 21
44 23 16 25 10 11 48 21 18 97 77 65 71 48 42
9 24 25 42 57 62 35 44 49 25 9 9 51 44 28
63 53 45 56 35 34 24 32 27 23 44 30 40 16 31
61 32 62 74 43 82 68 41 75 51 27 56 44 27 47
40 23 52 42 26 51 53 31 64 64 35 85 96 95 183
242 245 255 186 189 255 38 42 82 29 21 67 28 23 102
37 10 91 32 10 70 44 32 84 94 77 110 105 94 98
79 82 46 67 77 27 57 73 29 55 66 17 58 66 20
57 64 14 74 47 69 75 50 74 95 65 97 121 92 130
118 96 132 81 65 105 50 27 83 77 43 115 135 102 173
151 120 188 152 129 183 172 151 190 158 139 175 149 127 164
163 146 172 145 123 148 117 95 127 95 77 108 94 79 105
115 105 125 108 96 114 76 61 85 58 40 63 71 52 74
80 61 83 75 63 81 75 70 81 67 66 69 44 40 41
24 16 20 38 31 44 87 89 115 126 125 143 147 137 137
186 171 163 185 170 158 169 157 139 154 143 124 137 129 111
73 68 56 62 72 79 160 172 174 216 231 222 228 243 225
188 199 175 117 130 101 94 112 78 159 178 120 255 255 246
255 255 255 255 255 255 63 43 61 94 71 118 119 84 163
56 31 109 53 30 117 59 38 120 48 29 94 23 4 66
8 12 46 10 6 40 11 18 43 3 6 28 42 2 40
44 10 41 9 8 23 14 6 22 22 6 18 17 4 14
9 3 11 7 1 8 5 3 7 4 4 8 1 1 9
4 4 3 17 4 3 23 3 4 20 3 4 18 2 4
30 20 29 31 19 27 25 5 10 25 8 11 25 8 11
26 10 13 25 7 10 24 4 7 29 12 11 29 4 14
34 20 23 25 6 10 47 40 41 59 53 54 46 35 35
30 15 14 43 35 33 39 30 31 18 12 15 16 10 13
16 14 9 19 20 13 18 26 20 22 23 14 45 44 35
51 50 45 57 57 59 59 59 60 45 45 45 25 27 27
27 29 26 33 36 30 48 46 41 64 56 56 64 60 61
53 55 50 41 43 39 30 30 28 28 26 21 29 25 27
35 27 31 26 22 24 27 27 27 18 18 18 3 3 13
14 14 20 25 28 27 34 40 37 35 43 38 40 47 41
32 38 35 28 30 29 28 26 27 26 25 26 25 27 26
24 24 24 24 19 19 11 9 9 10 7 8 37 29 33
46 34 38 25 16 19 17 17 17 29 30 29 34 30 24
23 19 15 17 17 17 22 22 22 19 18 18 14 11 11
12 8 8 9 8 8 22 11 9 22 11 9 10 8 9
13 7 10 16 8 12 16 11 13 14 14 14 14 16 15
38 17 24 58 35 43 33 29 29 8 8 8 15 5 3
66 46 54 99 91 91 80 72 72 61 46 61 65 54 65
29 17 21 95 99 97 177 184 182 226 233 231 236 236 236
188 191 190 98 108 103 47 49 46 15 28 18 26 9 9
61 39 47 98 82 89 129 117 121 149 138 142 152 138 142
135 121 118 112 95 92 79 53 54 57 32 30 72 37 40
126 67 86 173 103 125 148 76 91 75 27 28 8 6 0
52 29 20 40 20 13 17 13 14 44 20 21 96 75 66
80 57 50 6 18 22 51 64 67 43 50 52 22 16 12
49 41 20 64 59 45 57 43 37 27 23 23 23 37 29
33 4 16 53 23 45 70 40 72 71 44 79 59 34 69
50 34 64 47 37 72 46 35 73 34 16 70 13 21 74
76 91 158 195 201 255 168 175 238 57 74 91 18 35 47
41 12 107 40 10 91 31 4 71 36 21 80 76 56 92
83 70 74 70 70 48 72 74 43 62 66 33 57 61 27
57 62 26 53 61 19 58 34 67 54 33 65 52 23 70
72 47 94 75 46 107 67 34 107 70 36 109 81 51 117
82 53 122 92 57 132 128 95 162 164 136 188 168 140 190
160 132 176 157 133 166 131 107 139 119 99 135 108 94 133
89 78 113 56 48 72 12 29 9 55 71 43 49 67 40
37 43 36 32 23 35 28 16 28 44 32 40 39 33 34
22 18 18 24 16 20 34 24 40 71 70 90 135 138 135
189 191 166 237 235 198 255 255 227 255 255 248 255 255 255
255 255 255 255 255 244 208 203 182 117 112 96 94 89 82
60 54 55 34 43 35 48 53 39 85 102 73 163 182 105
183 181 158 255 255 255 255 255 255 100 82 86 80 57 90
111 84 147 44 22 98 58 31 127 78 59 145 46 31 106
22 8 80 11 14 60 16 16 57 15 21 57 8 12 32
31 9 28 35 3 31 16 4 22 21 5 21 20 4 17
11 3 11 8 4 8 5 7 11 4 6 11 4 3 4
0 0 8 4 4 4 11 4 2 19 2 1 20 5 4
20 6 6 30 21 27 34 21 26 33 8 7 33 9 8
32 8 8 32 8 9 32 7 7 32 6 9 34 11 10
35 4 11 33 17 16 25 7 7 45 40 39 55 51 50
41 26 30 33 9 17 43 30 33 34 23 26 18 9 11
17 12 13 16 13 5 19 17 9 14 19 16 11 15 13
29 29 23 34 29 29 44 37 41 42 37 33 34 33 27
30 32 29 22 22 22 18 18 18 35 34 37 51 41 44
64 51 55 60 52 49 57 50 47 56 48 46 57 49 48
55 51 52 54 50 52 57 51 54 54 46 50 39 31 35
24 18 34 16 15 31 25 25 25 40 40 40 38 38 40
25 25 29 13 13 20 16 15 19 24 18 22 26 21 24
24 21 22 16 12 16 19 14 18 9 6 14 9 8 15
36 28 35 43 34 40 27 14 25 24 14 25 31 28 31
37 32 30 29 21 21 21 17 19 24 21 22 19 19 19
13 13 13 11 9 9 9 8 8 21 11 9 23 10 9
16 6 9 13 9 11 13 9 11 17 9 13 19 13 16
20 19 19 40 20 27 58 35 43 31 27 27 17 17 17
14 16 11 63 43 51 98 90 90 79 71 71 35 19 35
50 35 50 70 59 63 35 33 33 24 39 35 68 74 72
177 177 177 243 247 245 215 230 223 148 171 162 122 149 140
120 146 137 107 127 120 80 94 88 46 51 51 20 18 23
28 24 27 24 13 17 21 10 10 14 21 16 27 20 13
76 14 33 140 75 95 167 91 108 112 43 51 44 9 7
11 5 0 48 27 16 41 18 10 18 15 14 42 19 19
95 71 67 86 67 61 11 9 18 57 69 71 51 58 52
20 17 14 43 35 11 66 54 39 61 48 39 40 21 21
34 27 24 37 8 6 48 15 24 63 31 52 67 38 63
60 32 58 53 34 56 57 39 61 52 35 76 27 40 106
94 110 154 188 196 236 217 222 255 154 162 200 71 87 85
27 37 47 53 13 113 43 15 90 30 3 68 30 13 79
60 37 81 57 44 53 38 44 16 45 47 11 36 38 3
30 34 14 31 37 14 29 36 14 37 21 48 48 24 59
70 43 89 103 74 124 113 75 142 117 79 152 118 84 156
105 73 144 78 44 116 66 28 103 86 50 121 109 76 136
111 76 133 103 68 114 97 72 101 73 44 83 74 44 85
58 38 74 38 43 45 115 124 99 206 216 187 239 254 224
234 254 223 180 201 170 83 104 75 30 46 20 26 30 17
24 17 20 19 9 18 21 13 19 32 27 34 45 41 66
60 58 89 86 81 94 101 97 87 107 98 74 107 100 67
111 110 70 119 119 81 163 159 125 206 201 171 198 196 170
207 204 188 230 221 220 201 188 201 115 106 122 124 130 119
160 175 95 83 85 82 255 255 255 255 255 255 231 218 212
137 116 140 131 109 157 35 6 89 47 25 110 88 67 151
53 32 119 25 6 96 17 7 81 23 13 80 22 15 74
9 9 43 19 10 24 26 4 27 18 7 26 20 6 23
13 6 22 9 4 18 6 4 14 3 4 12 4 5 16
4 3 11 0 0 9 3 3 6 8 4 0 13 4 2
16 6 3 16 7 5 24 23 27 29 26 30 29 9 7
30 8 8 27 7 9 26 6 8 26 8 3 27 8 7
28 10 11 22 3 4 19 15 13 20 9 10 44 42 38
49 49 45 30 20 21 27 6 9 36 27 28 23 18 18
17 12 12 17 17 16 16 19 10 14 17 8 11 14 12
6 9 7 14 18 9 13 7 10 18 14 17 9 6 3
27 28 23 35 36 30 15 15 15 9 9 9 25 28 32
21 20 22 42 34 37 44 35 33 46 38 36 51 44 42
60 51 49 63 56 58 56 53 54 48 41 44 43 35 39
40 33 37 43 34 51 38 31 49 16 16 16 3 3 3
3 3 6 7 7 6 21 18 15 28 24 20 30 27 23
27 27 23 25 18 17 17 7 9 12 9 13 4 6 14
9 9 16 34 27 34 37 33 38 25 16 25 26 14 25
33 26 30 37 35 32 31 27 25 22 14 18 24 18 21
19 19 19 13 13 13 11 9 9 11 9 9 20 14 11
21 13 10 17 6 9 16 10 11 15 12 13 18 12 15
19 13 16 18 16 17 34 15 21 53 30 37 31 27 27
17 17 17 19 23 19 58 39 46 90 82 82 74 66 66
41 25 41 64 49 64 64 54 58 18 29 25 35 43 40
62 49 52 29 29 29 110 113 112 146 157 151 150 166 159
150 173 164 137 163 154 125 144 138 109 123 118 92 102 99
77 80 84 58 60 65 36 44 43 27 39 36 23 38 35
52 27 28 113 47 69 154 89 110 142 68 80 70 16 21
24 1 0 14 1 0 46 25 12 41 17 7 20 19 12
43 18 15 94 69 63 88 71 67 21 11 15 60 67 71
53 60 51 17 17 14 30 27 4 55 43 28 60 44 37
52 32 26 45 23 16 41 16 6 43 9 9 52 19 36
55 25 46 47 18 35 47 22 35 53 33 40 50 30 75
90 100 162 178 189 254 252 255 255 234 238 255 162 166 175
90 95 81 61 46 74 67 31 121 51 31 91 38 25 70
34 23 79 57 34 81 48 30 53 11 14 21 25 14 27
22 15 36 12 13 41 14 19 44 7 13 44 74 47 86
85 56 97 100 72 115 104 78 118 82 55 103 70 40 94
55 26 80 40 13 65 39 4 65 38 16 66 52 37 81
64 46 91 54 34 81 40 11 59 34 26 41 23 7 34
52 24 58 67 47 76 92 82 100 124 119 124 118 119 121
78 82 81 81 93 79 129 147 124 118 138 115 53 68 40
35 45 24 9 13 13 33 26 36 30 31 33 23 32 32
38 36 95 75 71 138 75 67 112 72 62 82 71 59 56
71 58 40 66 56 34 51 47 28 79 78 65 121 120 102
87 90 60 91 85 78 157 147 153 162 154 160 145 145 141
179 189 160 152 166 89 29 34 29 255 255 255 255 255 255
255 255 255 255 255 255 203 182 217 76 49 118 50 28 103
82 54 140 63 34 129 36 14 106 28 13 98 34 17 103
33 16 93 21 11 62 20 14 39 23 10 37 15 6 35
10 2 30 6 1 25 6 3 20 3 2 15 1 4 10
3 0 12 4 4 13 1 1 10 1 1 7 6 3 6
10 3 4 15 4 4 14 2 4 18 25 27 23 28 31
24 7 4 25 8 8 24 9 13 25 7 11 25 7 6
22 7 3 23 13 11 13 4 3 12 16 13 16 16 12
47 44 41 45 48 42 20 18 17 16 11 8 23 29 26
7 14 11 17 15 15 19 20 19 19 20 16 13 14 15
8 11 13 3 9 4 11 18 6 7 14 9 16 22 20
17 28 24 29 35 27 30 33 24 12 12 10 8 8 6
23 29 32 9 14 17 26 23 24 21 18 13 16 16 13
21 23 19 35 30 27 46 33 37 45 36 39 36 32 34
32 32 32 36 36 36 48 42 59 50 43 59 37 34 34
29 25 25 26 22 22 23 19 19 27 23 23 30 27 27
30 26 27 25 17 20 19 7 11 9 4 4 8 9 9
5 11 8 6 11 8 32 27 29 30 30 30 14 14 14
21 17 17 34 26 26 42 38 34 35 32 28 21 15 18
23 15 19 21 17 19 17 12 14 12 8 9 11 8 8
19 14 9 17 16 10 12 8 8 17 6 9 17 8 11
14 11 12 13 11 12 16 9 12 26 6 11 46 25 32
37 33 33 15 15 15 22 25 22 51 33 40 77 69 69
63 55 55 56 40 56 94 78 94 77 68 71 69 79 75
55 71 67 78 65 68 74 74 74 56 56 56 46 52 49
45 52 48 61 77 70 51 78 68 40 67 58 32 54 50
30 44 39 29 33 30 25 23 24 23 9 13 27 5 3
47 3 12 93 28 47 144 78 97 150 89 107 104 44 52
40 2 6 16 1 0 14 3 0 45 23 8 37 14 6
22 19 9 45 15 14 95 68 57 87 68 65 30 11 14
55 59 65 46 53 48 13 20 16 20 16 1 40 27 14
46 33 18 50 35 17 46 25 7 40 13 5 40 5 20
45 19 39 44 16 43 30 4 24 32 17 14 34 25 21
40 24 77 125 129 188 250 252 255 255 255 255 171 172 215
126 127 128 101 99 83 96 76 109 86 59 132 66 52 101
57 47 84 51 43 85 68 46 89 56 35 66 14 6 34
32 14 45 27 14 51 17 13 49 18 18 52 17 13 55
78 54 94 79 55 93 73 51 87 59 44 75 34 23 56
33 9 48 29 6 44 20 6 31 17 19 26 18 21 36
43 24 61 61 40 83 64 46 88 57 38 79 45 28 62
39 20 50 50 27 58 71 56 84 112 96 120 149 126 154
182 167 194 215 204 224 203 194 209 141 141 133 107 119 99
56 74 46 32 43 25 41 32 47 77 67 82 82 83 91
90 97 101 119 120 170 146 145 195 108 110 125 59 57 66
38 24 22 57 45 32 75 59 47 66 56 40 95 97 77
133 138 108 73 82 50 42 44 66 12 11 38 142 147 120
245 255 229 211 227 176 106 116 58 6 9 4 143 143 108
255 255 255 255 255 255 255 255 255 255 255 255 134 113 164
75 49 119 73 42 128 67 37 133 45 18 113 36 18 103
41 23 113 41 21 106 28 14 74 24 11 47 20 2 35
10 3 30 6 1 31 4 1 29 3 3 23 0 1 16
0 3 13 1 3 11 4 2 16 4 3 16 1 1 10
1 0 9 3 0 8 8 4 7 12 0 5 13 25 26
13 27 29 14 8 0 20 6 4 21 9 11 19 10 11
20 9 8 15 4 3 22 18 15 17 12 9 10 16 15
15 17 15 47 44 44 41 43 41 12 13 14 11 15 13
17 29 25 9 12 8 20 18 16 21 23 20 21 24 22
12 17 19 4 13 14 2 9 9 15 20 14 14 24 19
15 26 25 23 34 30 24 34 27 18 24 16 8 11 9
1 11 7 21 31 34 11 22 23 24 20 22 19 14 9
6 6 4 5 9 3 16 17 6 23 19 20 24 11 16
32 28 29 36 36 36 39 39 39 49 44 61 47 41 59
31 29 29 16 13 13 13 9 9 13 9 9 22 19 19
25 24 24 25 15 18 17 6 9 5 8 6 8 11 10
13 11 12 4 9 6 2 8 5 29 27 28 29 29 29
10 10 10 13 10 10 29 24 24 48 41 37 39 33 29
18 16 17 20 16 18 18 16 16 16 9 12 12 4 8
9 6 7 18 15 7 18 14 7 8 3 4 11 3 5
14 6 7 12 8 8 9 7 8 13 6 8 17 8 5
38 23 28 46 42 42 16 16 16 19 20 17 42 24 31
64 56 56 51 43 43 58 43 58 118 102 118 81 70 74
76 88 84 91 107 103 61 46 49 76 76 76 46 46 46
34 35 34 28 20 24 23 45 35 30 56 48 32 56 42
23 51 34 24 42 31 26 28 24 34 24 24 40 18 20
45 15 18 69 22 34 114 53 67 158 95 108 147 79 93
88 26 31 34 3 1 14 2 0 11 4 0 44 20 5
32 13 3 15 16 6 43 13 15 94 67 54 81 63 60
25 9 9 41 50 55 36 44 46 16 19 21 12 8 3
27 11 6 35 17 10 45 26 16 45 22 15 37 12 15
39 16 34 44 26 47 39 17 44 18 15 28 17 23 21
10 14 40 33 23 82 116 113 168 255 255 255 255 255 255
128 128 189 61 65 64 80 75 58 106 79 121 95 67 139
69 56 106 62 52 94 61 53 98 82 60 105 71 49 83
27 18 41 35 15 49 25 11 51 16 12 46 16 16 45
10 9 44 30 9 38 20 9 25 12 19 21 27 35 38
21 32 35 20 12 19 32 15 27 41 19 42 31 12 30
29 9 30 49 26 53 64 41 70 62 43 72 48 26 61
37 14 53 34 9 42 37 8 38 49 37 59 80 70 89
113 93 115 137 121 139 149 141 155 153 149 165 127 127 131
96 98 89 49 59 37 8 25 6 60 46 68 122 109 132
145 145 161 158 158 164 135 130 164 134 124 160 109 106 83
88 91 66 36 44 27 35 26 21 82 67 58 121 113 87
172 180 137 158 167 117 72 80 34 69 72 63 128 137 102
249 255 218 255 255 255 154 172 114 13 3 22 87 90 72
86 93 67 88 97 36 255 255 222 255 255 255 255 255 255
237 213 255 134 103 164 81 48 124 82 51 140 75 47 132
75 53 138 65 48 140 50 34 117 36 17 82 33 8 57
26 4 40 15 1 34 11 3 32 4 4 30 2 2 25
3 3 21 1 4 20 1 6 17 4 8 19 8 11 22
8 11 20 5 9 18 3 7 15 2 7 13 7 7 12
8 22 22 13 22 22 17 10 9 20 10 6 17 9 9
17 9 11 17 11 11 13 4 3 23 18 15 20 14 6
13 9 13 20 10 11 44 38 36 54 45 42 45 33 29
32 20 23 15 19 15 10 14 10 24 26 23 19 25 23
17 18 17 18 9 9 19 7 8 14 4 4 20 23 20
22 28 23 12 16 18 19 18 19 17 17 16 10 10 14
3 3 7 4 4 3 20 27 31 9 17 21 24 18 21
20 16 10 6 12 8 4 12 9 12 16 6 18 17 17
14 9 8 20 16 16 23 12 15 33 24 27 52 41 59
64 52 70 60 50 54 39 35 36 26 23 24 37 27 30
40 30 33 34 24 27 27 14 18 18 11 13 14 12 13
19 13 16 16 9 12 2 6 3 2 2 2 25 25 25
26 26 26 9 9 9 8 8 8 26 26 26 55 50 45
42 41 35 16 25 21 16 23 20 15 16 15 11 7 8
6 4 3 4 6 3 15 16 6 15 13 4 6 4 3
5 4 4 7 6 4 12 3 4 12 0 4 12 3 4
9 10 4 33 21 25 55 51 51 34 34 34 41 38 38
46 37 39 45 37 37 37 30 30 56 40 56 118 102 118
83 72 75 77 88 84 71 87 83 72 59 62 47 47 47
59 59 59 34 37 35 36 42 39 66 78 69 55 69 57
38 60 44 28 51 35 28 49 39 31 37 32 40 27 22
40 15 12 47 4 13 89 27 43 139 77 85 160 95 107
125 52 66 61 9 11 31 4 0 18 3 0 10 2 0
37 15 3 35 13 2 13 9 3 35 11 15 80 52 44
88 66 62 56 39 35 41 38 42 29 31 35 13 20 27
0 16 20 10 10 11 13 5 5 23 9 11 37 16 18
41 15 25 47 20 33 54 28 29 55 24 35 33 8 27
3 30 32 6 14 48 22 13 67 90 82 130 255 255 255
255 255 255 164 165 217 4 8 42 46 31 34 94 50 122
80 34 133 44 17 94 45 23 88 55 41 104 85 60 116
80 57 93 40 31 51 31 12 40 19 15 30 12 18 23
8 10 34 11 7 39 15 26 13 27 36 22 28 38 22
41 47 47 40 50 52 20 32 30 0 11 22 32 22 37
22 8 22 17 16 3 19 7 24 36 25 45 37 37 50
18 21 25 15 7 24 35 17 45 50 27 52 59 46 60
81 73 85 97 86 96 90 77 87 79 65 83 74 65 89
50 47 58 37 42 39 19 12 28 37 27 44 62 48 75
142 126 155 150 147 166 149 146 156 148 148 142 140 132 140
136 135 95 164 170 123 145 155 111 137 141 90 174 169 124
245 241 197 255 255 233 229 240 182 178 187 143 188 196 149
253 255 212 255 255 254 226 246 177 23 32 6 143 156 131
195 212 166 214 229 166 229 244 156 255 255 167 246 244 196
232 216 225 255 255 255 191 160 211 81 50 112 71 46 116
79 62 117 85 54 143 84 54 159 49 30 118 35 16 88
40 13 72 31 9 54 19 4 41 13 7 35 9 4 33
4 4 27 4 5 21 4 7 22 4 10 20 4 11 17
5 10 17 7 11 16 6 9 16 5 8 15 7 9 15
9 11 15 9 17 14 15 14 10 16 6 6 19 10 9
13 11 11 14 10 11 16 11 11 12 6 1 22 15 11
17 13 9 9 10 7 17 11 4 35 28 23 50 43 37
51 44 35 38 27 26 24 6 12 21 13 15 22 20 20
12 14 14 13 4 2 24 11 15 27 15 16 24 13 8
28 25 20 28 27 22 14 19 6 15 18 9 10 10 8
1 1 5 6 6 9 12 12 14 19 25 29 4 11 15
23 21 22 19 17 10 7 6 3 9 2 10 17 13 12
25 22 22 23 17 18 16 8 10 15 4 7 25 13 17
47 34 47 72 59 72 83 71 75 72 64 67 55 46 49
56 42 47 46 34 38 35 23 27 25 15 18 15 11 13
12 9 10 15 8 11 13 10 11 10 11 11 4 4 4
22 22 22 21 21 21 8 8 8 13 13 13 36 36 36
62 63 56 42 47 39 13 24 20 12 20 17 14 12 11
11 6 7 7 7 7 7 10 8 12 13 5 9 9 1
7 5 4 6 4 3 4 3 1 7 3 1 11 1 3
10 1 4 9 9 6 33 21 25 61 57 57 45 45 45
33 22 25 24 20 19 20 12 12 26 18 18 66 50 66
109 93 109 59 48 51 61 72 68 27 43 39 55 39 43
46 46 46 72 72 72 29 31 30 56 67 61 63 80 67
56 61 50 41 54 42 29 43 33 25 47 34 33 39 33
41 21 17 40 18 14 56 11 14 123 51 72 160 94 104
138 70 83 87 20 32 38 0 0 18 2 0 23 0 0
15 1 0 24 10 1 31 9 2 23 2 0 27 9 11
47 24 23 76 52 51 63 40 37 33 23 24 17 13 15
6 13 19 3 15 22 4 14 22 3 13 20 13 8 13
22 8 16 40 17 30 41 15 22 50 27 27 61 36 47
48 16 52 10 25 39 2 23 41 9 3 51 60 51 100
244 240 255 255 255 255 213 215 255 34 27 73 56 38 72
108 64 144 77 34 128 36 11 88 42 14 92 52 36 108
79 52 116 78 55 94 50 42 63 27 14 34 17 22 18
16 19 18 6 9 26 5 2 34 20 20 20 41 37 39
36 34 41 56 54 66 69 69 85 48 54 64 18 20 39
18 10 28 23 21 20 6 11 23 19 14 40 34 27 43
31 25 37 28 31 24 31 37 25 38 42 38 53 49 52
58 56 49 58 59 52 65 65 67 81 71 79 92 78 93
82 75 91 55 46 67 10 9 23 26 15 35 71 56 86
74 61 92 141 122 158 230 223 240 229 218 234 255 255 255
255 255 255 255 255 255 255 255 255 255 255 255 255 255 255
255 255 255 255 255 255 255 255 252 252 253 181 250 249 199
242 244 202 212 216 173 164 173 118 28 37 14 190 193 178
255 255 249 247 255 206 213 228 167 176 193 133 152 170 92
130 135 91 134 131 124 246 231 249 213 188 232 87 60 116
43 22 73 38 30 71 66 36 124 92 61 158 52 28 118
26 4 85 35 10 74 30 9 57 17 4 42 15 9 38
13 3 36 7 4 27 4 8 18 7 9 16 4 8 14
1 4 13 0 0 11 4 4 11 6 3 9 12 3 9
11 4 9 9 4 8 10 11 9 6 10 10 8 2 11
17 7 13 16 13 11 14 11 8 14 8 9 10 6 4
18 12 8 18 10 7 12 4 4 9 1 3 13 10 11
19 17 18 24 23 15 23 20 11 29 16 15 32 16 19
25 16 20 20 11 14 18 8 14 18 9 14 20 13 14
25 17 17 34 23 19 42 32 32 39 34 31 33 31 21
23 20 15 13 9 7 15 11 15 19 14 20 17 18 23
10 2 5 22 21 21 17 16 7 14 6 11 18 16 21
20 20 22 24 24 24 25 23 23 25 22 22 26 23 23
27 26 26 32 33 34 42 41 49 61 54 56 69 60 63
53 47 49 36 30 32 26 20 23 22 15 18 13 5 9
4 6 3 8 15 11 18 20 19 12 12 12 7 7 7
9 9 9 16 16 16 17 17 17 7 7 7 20 20 20
47 47 47 60 65 57 34 39 31 5 4 4 8 7 7
13 4 7 11 6 6 8 7 6 6 3 3 9 5 3
9 5 4 4 3 3 6 4 3 8 2 4 9 3 6
10 6 8 9 7 8 13 11 10 35 23 27 53 52 52
42 42 42 30 18 21 21 18 17 19 12 12 30 23 23
66 51 66 89 74 89 52 45 47 52 62 59 22 30 27
42 34 35 79 79 79 41 41 41 40 34 37 70 84 77
41 61 46 28 23 24 22 32 24 17 27 18 24 39 28
41 36 35 39 9 13 37 9 10 71 14 27 144 69 89
162 91 106 116 42 56 71 3 12 42 0 0 26 2 0
25 1 0 19 4 0 22 8 0 27 6 0 28 4 3
22 8 9 21 4 6 47 30 31 44 29 24 18 9 10
15 6 5 12 2 6 11 3 9 10 6 14 9 2 14
15 8 13 7 4 11 31 12 27 25 7 15 35 14 29
62 35 59 52 23 65 12 16 35 4 19 31 19 13 52
46 42 85 187 189 220 255 255 255 244 246 255 52 48 84
62 43 87 103 58 134 58 17 104 25 4 81 39 11 95
48 33 106 72 46 111 72 50 89 51 45 63 28 19 33
7 10 30 9 8 35 8 7 31 4 7 27 42 52 35
64 65 62 42 36 57 39 35 59 72 68 91 74 72 95
57 52 84 38 34 71 22 15 55 17 11 47 15 10 38
18 22 17 35 40 18 43 47 28 35 37 21 24 31 20
23 26 26 23 21 20 19 24 16 30 31 36 55 45 61
77 61 87 70 59 85 83 72 96 11 20 18 16 27 15
122 108 136 134 113 150 243 222 255 255 255 255 255 255 255
255 255 255 255 255 250 255 251 214 255 255 216 255 255 255
255 255 255 255 255 255 255 255 223 189 189 135 89 88 54
53 49 35 14 15 42 77 83 86 121 130 114 181 186 171
255 255 255 255 255 255 213 235 156 164 177 120 125 140 100
67 84 17 71 73 56 109 105 113 208 193 218 212 190 230
122 97 145 57 30 80 24 6 61 49 22 96 84 56 140
73 46 129 34 7 88 33 7 75 36 13 66 21 4 47
21 8 43 17 4 42 9 2 33 4 8 24 7 10 18
4 8 14 0 4 12 0 0 6 4 4 8 10 1 9
14 2 9 9 3 9 7 2 8 9 9 9 1 10 11
6 3 11 10 5 10 16 14 6 16 13 4 17 6 9
16 3 7 17 10 10 19 13 10 18 10 9 14 7 7
14 10 12 19 15 17 23 17 17 23 17 13 28 21 13
34 21 19 30 20 24 25 18 22 24 17 22 23 18 20
23 20 20 27 24 24 32 25 26 43 35 37 49 44 43
45 42 37 34 31 23 24 20 18 23 20 19 28 22 27
23 18 23 21 10 8 23 21 20 14 14 3 9 5 13
9 15 20 8 8 13 10 10 10 11 10 10 16 13 13
17 14 14 18 18 18 21 23 20 23 22 31 40 35 37
47 43 44 38 34 35 25 19 22 20 13 16 21 14 17
17 11 14 14 10 12 10 10 9 5 7 6 15 15 15
14 14 14 16 16 16 9 9 9 12 12 12 8 8 8
28 28 28 55 55 55 55 62 54 25 33 25 7 6 6
8 6 6 9 6 7 10 7 7 11 6 6 8 5 4
3 3 6 7 3 6 7 4 4 7 6 6 11 6 8
15 7 11 13 10 11 13 9 11 19 11 13 33 23 26
42 42 42 30 30 30 23 6 12 20 2 8 35 28 28
51 44 44 60 47 60 52 36 52 34 31 32 40 47 44
17 13 12 11 13 10 70 70 70 17 17 17 33 27 30
71 87 79 46 62 49 32 26 30 27 31 25 24 27 19
31 34 30 45 34 37 33 2 8 46 6 5 97 25 43
155 77 94 155 77 96 106 27 38 57 0 3 28 0 0
31 2 0 30 3 0 16 6 0 22 7 0 29 7 0
30 6 4 22 8 11 20 4 6 41 24 25 39 27 22
22 9 8 21 3 3 17 3 3 12 2 4 9 4 8
7 6 11 7 9 19 13 11 20 23 8 19 22 4 16
43 23 45 63 34 65 43 13 57 12 16 34 11 11 34
36 19 65 62 64 99 148 157 175 255 255 255 245 248 255
69 68 93 71 50 95 89 49 119 46 13 93 22 9 82
35 6 91 43 29 100 68 46 105 70 49 82 50 44 55
40 29 37 20 13 33 9 10 34 8 7 34 4 1 33
38 47 30 75 81 70 71 80 64 46 58 28 19 34 18
51 37 70 108 90 132 145 130 168 142 128 166 97 82 124
42 33 68 14 12 38 13 7 37 16 4 36 12 9 25
13 21 26 18 13 34 18 4 31 9 5 25 17 12 27
45 34 55 74 62 91 79 64 94 76 59 87 43 21 58
96 78 108 162 140 176 255 235 255 255 255 255 255 255 255
75 70 74 153 162 150 227 238 232 252 255 255 210 217 220
117 123 121 53 58 49 45 55 50 102 112 102 174 184 161
234 243 209 255 255 241 255 255 255 255 255 242 245 255 203
236 242 193 255 255 255 225 255 139 139 159 96 133 144 107
137 146 115 92 104 62 53 61 27 79 73 95 158 144 183
209 191 225 193 175 199 154 133 161 97 73 117 51 30 82
53 35 94 68 42 111 40 19 89 38 16 89 45 18 84
23 6 52 22 8 45 21 4 42 11 4 37 3 9 33
4 11 27 7 6 22 3 3 15 0 1 7 4 4 5
12 1 3 15 2 4 10 2 6 13 6 4 9 11 6
7 11 8 4 6 3 6 6 4 10 12 3 11 11 3
16 8 7 20 6 4 21 8 4 22 12 12 24 12 13
22 13 7 19 11 11 20 13 13 24 15 15 26 9 10
31 17 16 35 23 22 34 20 25 31 20 23 29 17 21
28 16 18 28 18 18 27 23 23 26 24 27 34 28 32
49 42 45 52 47 50 45 39 38 35 33 33 32 32 32
31 30 36 22 22 23 27 21 20 25 25 22 15 18 9
4 2 11 4 15 18 2 12 13 8 17 13 3 13 9
3 7 6 3 0 0 6 9 9 8 12 9 7 11 23
26 29 27 31 38 34 20 25 25 7 9 9 12 7 3
18 11 9 22 16 13 22 22 16 24 28 20 29 33 25
32 35 29 20 24 17 20 23 18 9 13 6 11 14 9
12 14 10 35 36 34 61 62 61 49 57 50 17 24 18
7 4 4 8 6 6 7 7 7 8 8 8 12 4 6
9 6 4 4 6 10 6 4 11 8 6 6 7 7 7
10 10 10 12 12 12 14 14 14 18 13 15 21 12 15
30 23 25 38 38 38 29 29 29 26 13 17 32 18 23
52 45 45 63 56 56 57 45 57 23 16 23 24 34 30
23 25 24 39 23 27 16 26 23 67 67 67 16 16 16
8 7 3 76 92 81 47 56 44 34 22 26 29 25 23
28 21 18 31 29 26 44 31 31 31 10 9 63 2 10
127 49 64 159 79 94 140 58 77 86 15 24 33 0 0
8 1 0 31 6 0 32 6 0 17 6 0 20 8 0
28 6 3 32 4 8 24 6 12 18 4 6 32 17 17
36 19 17 25 13 8 23 9 4 21 4 0 15 4 6
12 6 9 13 9 11 8 14 18 23 22 31 23 20 29
17 14 19 45 24 52 59 28 71 36 11 52 23 3 51
24 12 59 60 42 93 119 122 153 164 169 185 242 245 253
202 208 208 61 64 77 62 43 83 62 30 96 30 8 82
16 14 77 28 11 81 38 25 93 63 46 96 69 52 75
51 48 47 52 44 35 44 41 31 34 37 20 29 34 18
22 29 14 21 19 42 43 46 51 52 61 44 54 67 37
43 55 29 40 36 51 60 49 83 83 65 105 109 99 134
126 113 147 105 94 126 64 52 83 27 12 51 8 11 34
7 11 29 13 14 34 20 7 37 20 7 29 5 9 19
11 12 20 42 30 49 77 67 93 90 75 104 61 39 72
90 68 101 128 108 143 209 187 223 255 255 255 255 255 255
24 22 26 255 255 255 255 255 255 255 255 255 255 255 255
255 255 255 255 255 243 214 230 193 244 255 224 255 255 255
255 255 255 255 255 255 255 255 255 245 255 192 184 201 130
138 156 94 133 143 94 249 255 204 175 207 78 112 131 67
129 139 103 147 155 118 129 141 98 87 98 63 50 51 67
63 51 97 167 159 176 255 255 255 255 255 255 255 255 255
157 133 174 52 34 79 45 30 66 26 13 66 29 10 82
41 15 89 27 10 56 25 10 47 22 6 40 13 3 33
8 9 30 4 11 27 9 3 25 6 1 17 0 3 11
6 3 7 13 3 1 16 0 3 17 4 6 13 8 4
6 12 7 8 11 7 5 7 2 7 6 4 9 8 5
9 6 4 10 7 6 15 6 3 21 8 9 26 11 14
24 13 13 23 16 13 20 13 13 19 11 11 22 13 11
26 10 7 32 14 11 36 23 16 32 22 22 29 18 22
28 16 19 29 17 18 31 20 20 30 22 22 20 18 23
22 16 22 37 31 34 48 42 45 50 42 42 44 41 42
39 39 39 33 32 36 27 26 25 34 28 28 31 31 28
24 27 19 12 10 10 9 6 13 6 6 6 9 11 9
1 11 7 4 13 10 5 6 6 7 10 10 9 13 16
14 19 30 31 36 33 37 42 39 17 22 24 8 6 9
11 3 2 16 8 4 25 18 13 30 30 23 35 39 31
41 45 37 35 39 31 18 22 14 18 20 16 13 16 9
17 21 14 17 21 14 36 38 35 62 62 61 46 51 48
12 17 15 4 4 4 7 6 6 10 8 8 9 7 7
7 6 6 7 6 4 5 9 13 4 11 16 5 6 6
7 9 9 11 11 11 11 11 11 13 13 13 16 12 14
14 11 12 25 21 21 43 43 43 39 39 39 38 29 32
37 27 30 47 39 39 52 44 44 44 28 44 11 22 11
43 54 51 27 19 21 61 45 49 10 23 20 55 55 55
27 27 27 24 40 27 86 101 87 47 48 44 29 17 20
25 16 15 23 11 10 28 26 18 45 26 23 40 12 8
86 17 30 151 69 85 154 72 88 114 41 58 61 9 15
21 0 0 8 2 0 30 6 1 29 2 2 20 5 1
19 8 0 26 3 6 30 4 12 25 7 8 18 4 3
21 10 11 28 13 13 27 12 12 21 13 10 18 10 6
14 8 9 11 7 10 13 6 9 21 13 16 34 20 30
21 21 27 13 23 25 41 17 54 53 24 73 37 10 64
63 39 100 68 54 108 95 80 127 185 190 217 199 204 224
189 193 193 131 143 126 34 43 34 35 19 51 37 6 72
18 20 72 14 20 69 23 19 70 32 23 83 57 41 83
66 54 67 54 54 48 57 57 29 70 74 40 76 81 53
73 77 51 66 73 41 21 13 39 36 29 52 33 22 50
21 4 39 23 27 27 58 67 51 91 100 85 101 109 88
57 68 46 29 33 35 87 78 104 98 91 114 58 54 70
12 10 31 22 14 41 38 24 61 45 31 63 45 31 60
39 34 56 35 35 52 50 36 62 91 74 107 105 90 125
74 52 89 103 81 115 185 167 201 255 255 255 255 255 255
85 69 96 255 255 255 255 255 255 153 168 141 81 97 53
110 110 90 185 179 176 144 154 112 200 219 161 255 255 216
255 255 216 245 255 198 202 221 145 147 165 84 90 109 52
135 146 159 90 94 137 122 123 133 231 241 200 168 196 92
69 95 33 64 69 71 89 89 76 88 94 65 63 71 39
45 56 54 37 52 11 146 150 112 255 255 255 255 255 255
255 255 255 255 255 255 154 137 171 70 50 88 39 23 70
28 17 79 24 3 82 29 10 56 31 11 46 22 7 45
15 1 37 13 10 31 7 10 29 8 0 24 8 0 16
0 4 12 10 1 8 13 4 0 16 2 0 20 6 3
9 5 4 7 10 6 7 11 6 8 3 4 10 3 2
9 5 6 9 4 6 9 3 6 12 2 7 18 7 14
20 9 10 24 17 13 21 19 17 19 17 17 14 12 12
14 10 10 20 13 12 27 15 12 33 21 11 29 24 16
23 20 17 22 19 19 21 20 20 26 20 20 33 20 22
19 11 12 8 8 8 16 18 10 32 33 29 43 41 40
46 44 44 39 39 39 29 29 30 27 25 22 35 27 28
35 30 30 31 31 24 21 22 20 21 21 24 23 23 24
25 25 25 21 16 17 10 4 3 3 6 3 3 6 5
5 5 11 11 11 26 30 30 30 34 34 34 13 12 16
23 13 13 16 12 13 18 18 18 25 23 24 34 27 29
38 29 32 37 34 35 30 30 30 27 27 27 11 11 11
16 16 16 22 22 22 19 19 19 30 30 30 56 56 56
44 48 48 12 16 16 4 4 4 6 6 6 10 7 7
10 7 7 6 6 6 6 6 6 2 12 16 4 16 20
6 7 7 11 10 10 13 11 11 13 13 13 14 14 14
13 13 13 9 10 10 23 19 19 53 53 53 47 47 47
37 27 30 19 17 15 25 18 18 54 50 50 72 65 72
55 57 55 47 56 52 42 31 34 64 48 52 29 38 35
32 32 32 7 7 7 50 66 50 95 111 95 43 41 42
18 13 14 17 7 6 18 8 4 25 24 12 41 25 19
51 3 11 114 45 60 166 81 101 142 61 80 85 24 39
46 6 9 21 0 0 14 1 0 34 6 3 30 4 2
20 6 3 20 8 4 25 4 9 26 4 10 25 8 6
20 4 6 13 3 3 17 11 8 23 11 11 24 11 11
21 13 13 18 12 12 14 9 8 14 7 6 27 7 13
42 17 30 13 13 19 9 31 24 36 13 55 51 23 76
56 27 92 121 97 161 118 103 158 125 113 161 220 224 255
212 218 237 139 142 150 66 82 73 17 33 18 19 11 42
33 13 71 13 28 67 16 24 66 21 24 63 28 25 70
50 36 73 60 49 61 52 52 46 49 53 25 62 70 38
72 80 51 72 78 55 69 73 49 20 30 20 39 41 44
28 23 39 12 9 23 7 23 8 31 44 22 61 76 62
90 104 92 101 114 102 75 87 77 12 29 8 73 59 80
122 108 127 116 99 124 80 60 96 70 40 86 88 59 105
101 79 116 99 79 112 95 77 106 96 75 108 126 103 143
140 122 160 120 102 136 191 170 206 255 255 255 255 255 255
140 125 151 255 255 255 255 255 255 155 164 150 55 50 50
63 44 68 173 154 182 136 125 152 87 96 61 228 237 195
219 228 176 152 161 107 96 104 53 57 67 30 66 74 74
102 108 123 174 179 201 70 68 113 168 166 164 227 229 202
134 155 90 47 58 71 52 40 79 58 52 57 59 63 40
32 39 26 37 48 24 120 132 67 234 244 182 238 246 203
228 212 229 255 255 255 255 255 255 255 255 255 207 185 216
101 80 126 43 16 91 30 6 86 30 5 56 34 11 45
25 8 50 16 2 42 15 9 34 8 10 33 8 2 25
8 1 18 0 4 11 12 1 8 12 4 3 14 2 1
20 6 3 9 6 6 6 11 6 5 12 6 6 2 4
10 0 3 7 5 3 7 4 4 7 1 3 8 0 4
13 9 11 13 7 6 26 15 12 25 20 16 19 18 15
13 11 8 11 3 5 13 8 8 20 10 12 28 13 10
28 17 11 21 13 10 16 13 13 16 13 13 21 13 13
28 17 17 24 9 10 11 3 7 10 2 8 24 16 11
37 28 25 41 31 30 37 30 30 28 23 16 27 23 11
31 25 21 31 23 24 30 24 18 27 24 20 34 32 31
38 36 31 41 40 32 39 35 30 25 17 16 13 5 4
18 12 9 23 17 11 28 23 28 43 40 40 50 48 45
38 37 34 31 25 25 24 20 22 24 20 22 25 19 22
26 17 20 26 16 19 26 15 18 36 31 32 39 38 38
9 4 3 24 18 20 27 19 21 22 10 14 26 20 22
49 48 48 43 49 48 15 21 20 6 3 3 9 6 6
8 6 6 8 7 7 9 7 7 9 3 4 6 15 19
9 18 23 7 8 8 10 9 9 10 10 10 11 13 13
13 13 13 10 10 10 8 12 12 24 20 20 64 64 64
51 51 51 23 16 17 13 32 24 37 37 37 67 63 63
91 84 88 79 74 77 46 44 44 56 43 48 52 35 40
59 62 54 48 40 32 30 25 22 60 77 63 103 119 102
41 37 36 15 20 18 9 3 11 13 8 11 24 22 14
42 24 22 76 27 35 142 71 84 164 77 96 121 42 57
60 10 17 33 3 3 19 0 0 14 0 0 41 4 4
37 3 0 20 6 1 19 9 7 24 7 7 24 4 6
24 8 10 19 5 6 7 7 9 10 7 10 16 11 13
20 12 14 18 15 15 15 15 15 12 12 9 14 5 7
22 14 9 44 28 36 22 23 30 10 36 35 33 15 64
54 27 86 84 57 125 170 147 214 139 124 186 110 107 159
203 211 234 206 218 215 78 89 90 37 47 53 24 41 20
27 30 52 42 24 89 10 29 70 7 29 66 16 28 59
24 25 57 42 28 66 52 34 61 47 37 44 33 32 24
30 33 15 32 31 25 34 36 30 32 33 17 25 30 27
47 50 48 31 34 36 19 30 26 23 35 30 6 20 17
24 13 26 42 27 46 39 26 38 46 51 58 59 65 71
47 32 40 122 89 110 191 154 179 195 156 186 154 108 154
138 86 153 146 98 167 178 128 197 208 159 222 228 186 244
255 237 255 255 255 255 255 255 255 255 255 255 255 255 255
173 155 176 255 255 255 255 255 255 252 249 245 117 108 112
126 112 130 143 125 142 117 107 116 117 103 102 227 214 219
180 167 168 106 86 84 99 77 73 80 60 50 80 67 60
100 97 95 126 126 129 163 162 162 141 136 127 170 168 153
206 205 188 95 112 57 28 35 27 53 44 37 88 85 51
98 98 37 99 100 37 168 170 100 253 255 196 251 251 207
89 99 63 146 146 145 222 203 224 255 255 255 255 255 255
255 255 255 255 255 255 155 108 171 75 40 106 56 27 82
38 14 53 30 6 55 21 4 48 16 9 35 10 8 35
6 1 31 7 6 28 3 6 24 10 4 22 10 4 18
12 2 13 20 3 8 18 6 3 13 13 7 13 13 12
13 3 11 10 2 8 4 6 1 2 8 6 4 10 11
8 10 11 11 13 10 3 6 1 19 13 16 23 19 22
18 18 16 11 12 3 15 1 6 15 8 12 17 3 11
23 11 8 25 10 9 23 7 5 20 8 7 19 4 7
20 9 7 27 16 13 36 17 20 34 15 17 27 9 14
22 6 11 21 2 6 25 7 6 29 15 15 32 14 10
37 25 8 35 28 15 30 24 20 37 28 20 36 28 20
32 26 17 27 21 4 27 22 5 38 35 26 38 35 25
30 23 4 32 22 11 34 25 9 36 25 18 48 36 36
56 46 43 52 43 40 52 41 44 52 42 46 50 40 44
44 34 38 33 24 28 22 11 16 16 1 6 37 32 33
45 36 39 38 18 26 42 25 31 36 20 26 32 12 20
34 17 23 37 33 33 41 52 48 24 32 29 16 4 8
18 7 8 20 6 9 21 7 10 21 9 11 21 3 9
18 15 22 20 17 25 17 13 13 18 15 11 19 17 11
20 20 14 22 22 14 24 24 16 13 11 3 33 31 35
61 61 63 44 41 42 22 20 13 43 49 47 48 50 49
38 37 37 48 36 44 57 40 57 39 28 34 55 45 51
26 8 11 65 64 52 59 44 32 77 64 51 65 77 48
93 109 91 44 43 47 17 25 26 15 14 25 14 6 29
37 18 27 82 36 38 140 72 84 169 92 106 135 54 72
81 17 32 32 7 4 22 4 1 15 1 0 7 0 0
41 3 3 44 3 1 22 6 6 20 13 13 25 12 9
24 8 8 21 6 7 15 5 9 6 10 18 7 6 13
12 10 14 20 13 19 20 17 19 15 20 20 15 20 17
15 21 14 22 26 25 49 16 70 37 10 79 26 33 75
33 7 91 59 36 115 100 76 155 253 240 255 208 212 255
145 170 207 185 207 209 187 207 178 37 66 43 41 51 62
22 49 25 24 39 67 54 39 107 23 28 86 13 24 71
11 18 49 11 7 39 27 15 54 43 26 61 42 26 47
33 31 33 51 61 56 52 61 64 26 29 37 1 1 9
33 22 21 45 40 42 23 18 26 9 20 9 11 25 13
17 8 20 43 25 43 51 34 56 50 23 45 63 32 55
72 45 68 68 57 67 90 77 89 165 131 161 255 255 255
255 255 255 255 255 255 255 255 255 255 255 255 255 255 255
255 255 255 255 255 255 255 255 255 255 255 255 255 255 255
95 87 100 255 255 255 255 255 255 255 255 253 122 115 119
96 83 95 225 212 229 202 195 201 38 41 38 176 157 179
157 138 160 71 52 66 57 35 48 93 64 81 111 85 97
127 104 115 164 147 159 169 154 171 196 176 195 255 251 255
255 238 255 195 192 206 80 87 97 43 23 70 133 127 91
234 236 170 255 255 193 255 255 213 255 255 218 200 197 162
51 54 31 165 177 155 231 242 203 104 126 73 79 51 104
255 237 255 255 255 255 255 255 255 255 255 255 161 117 175
91 62 116 48 26 69 37 12 64 28 9 58 16 8 36
13 3 34 4 4 23 9 8 25 4 1 30 6 3 28
7 4 24 8 1 17 13 1 13 16 6 4 10 15 13
13 16 13 13 4 13 7 6 13 3 6 8 3 10 9
8 12 9 12 12 11 8 10 7 6 4 9 16 14 17
19 17 18 16 17 9 16 13 6 18 3 13 19 7 17
21 7 12 22 12 12 17 4 6 22 3 4 22 2 7
18 3 6 18 5 6 24 9 9 35 16 18 39 21 21
32 16 17 24 6 9 20 6 3 22 10 8 27 9 11
31 6 7 44 21 8 44 30 10 39 33 21 41 37 28
37 31 18 27 21 3 19 13 8 18 10 12 29 23 16
40 37 21 35 35 12 25 25 5 22 24 13 24 19 8
30 22 17 43 35 30 47 40 34 53 44 44 54 46 48
53 45 47 49 41 43 45 34 37 37 25 29 27 16 20
35 27 30 44 34 37 46 34 38 44 32 36 37 25 29
33 22 25 33 22 25 26 17 20 39 45 45 33 40 39
16 7 6 17 9 6 15 8 6 17 9 8 18 9 9
16 3 6 13 12 20 16 11 22 13 9 12 16 12 12
18 15 8 20 20 13 22 22 14 24 24 16 31 30 28
46 45 51 41 41 44 36 30 24 33 30 24 40 41 43
29 37 35 5 22 17 17 13 11 43 32 45 59 51 64
41 33 44 29 29 11 60 63 51 45 35 22 71 60 49
64 65 29 64 80 55 49 48 53 13 17 30 14 24 38
14 8 35 64 30 42 133 81 90 176 107 126 149 75 95
85 25 42 46 6 16 27 2 4 22 4 2 13 2 0
16 0 0 40 1 3 48 1 8 25 8 18 24 16 22
29 13 19 22 4 14 15 2 6 9 3 13 6 9 13
8 4 6 14 5 9 22 9 17 20 13 16 15 16 17
16 16 16 15 20 17 38 11 66 62 18 107 41 7 91
28 31 76 35 17 99 73 59 137 146 136 210 255 255 255
255 255 255 212 236 255 149 173 160 124 142 95 18 40 33
31 41 71 28 47 46 27 32 77 56 31 113 36 28 91
11 20 56 11 9 30 16 9 23 29 25 43 61 50 66
78 67 81 99 97 106 117 120 123 112 120 115 85 91 87
51 48 53 47 29 51 48 34 55 32 13 39 27 20 31
27 20 31 29 5 37 42 25 48 40 34 48 54 37 59
81 51 81 72 45 79 57 33 69 162 150 173 255 255 255
255 255 255 255 255 255 255 255 255 255 255 255 255 255 255
255 249 255 210 200 218 162 149 168 63 53 70 91 98 84
250 255 247 255 255 255 255 255 255 255 255 255 127 120 123
47 42 51 141 139 138 255 255 255 144 148 143 169 169 168
131 124 132 67 58 65 101 84 94 142 121 135 142 116 135
151 128 148 150 130 152 173 158 176 170 153 178 206 186 209
244 223 248 255 237 255 202 184 212 97 73 113 135 113 133
179 177 159 133 144 115 66 70 51 53 53 37 72 64 66
171 160 163 255 253 241 253 250 226 140 144 112 81 96 58
127 138 87 133 141 96 191 174 214 255 255 255 255 255 255
255 242 255 107 76 127 58 37 80 47 19 71 36 13 66
20 3 40 22 9 38 11 12 16 13 15 1 3 5 12
4 5 13 6 4 15 6 6 11 9 7 13 15 9 5
8 17 16 9 20 14 9 12 8 7 11 14 6 9 14
6 8 13 9 6 8 8 6 3 3 5 5 9 7 12
14 14 14 17 17 16 11 17 13 6 13 11 7 9 19
14 9 18 24 10 14 28 14 17 15 8 9 15 7 10
13 6 8 13 6 3 12 4 2 12 4 6 17 4 9
24 7 12 25 11 10 25 15 11 25 17 15 26 16 15
27 15 15 27 14 15 38 21 17 44 32 22 44 35 23
42 34 23 39 30 17 35 25 11 30 22 9 24 18 8
23 18 4 30 25 13 29 26 16 14 10 9 10 12 17
13 14 20 9 9 7 22 22 10 28 29 22 30 28 27
28 26 26 29 27 27 31 29 29 37 34 34 42 38 38
42 38 38 43 39 39 38 34 34 34 30 30 34 30 30
33 29 29 31 27 27 29 25 25 29 25 25 36 37 39
30 33 35 6 7 4 5 9 4 6 10 7 8 11 9
7 11 9 6 7 12 11 9 20 14 11 20 6 6 12
6 6 12 6 6 6 6 6 6 3 3 3 0 0 0
33 33 39 49 49 53 40 37 33 33 28 21 20 20 21
22 26 29 11 21 25 3 17 18 13 13 18 38 25 40
56 40 59 46 39 41 55 54 43 61 62 47 42 40 21
38 29 21 39 33 23 45 54 23 44 41 37 10 19 29
13 30 37 33 2 19 104 59 75 170 109 133 161 85 121
89 26 49 47 6 15 37 8 9 25 7 4 14 3 1
12 2 1 23 3 3 42 4 11 48 10 21 28 14 24
28 15 20 24 9 14 12 3 13 8 3 15 6 6 15
9 6 3 13 1 5 15 4 10 24 7 17 23 8 16
22 9 16 20 8 20 17 7 31 49 16 97 53 15 106
18 9 51 6 15 37 35 33 82 92 90 138 255 255 255
255 255 255 255 255 255 235 245 255 97 114 109 63 79 42
28 44 36 16 35 65 25 35 70 44 27 99 49 10 108
29 18 76 29 18 46 20 9 26 31 29 41 59 57 69
98 86 108 115 104 133 121 114 143 96 92 115 89 93 96
99 106 104 87 84 94 46 16 66 41 18 59 28 7 45
28 18 43 33 17 48 36 2 51 37 13 52 46 25 60
79 56 89 75 57 79 37 16 52 142 118 161 255 255 255
255 255 255 236 212 247 34 56 27 150 159 140 214 208 211
255 255 255 255 255 255 255 255 255 255 255 255 255 255 255
255 255 255 255 255 255 255 255 255 182 179 176 107 100 102
47 40 54 149 151 145 255 255 255 245 245 242 81 71 93
246 237 251 163 150 168 159 146 163 179 164 185 150 131 158
138 119 144 144 123 151 133 115 140 140 127 144 118 101 127
154 139 162 128 112 139 109 91 118 119 97 124 163 139 173
215 191 212 87 72 83 228 209 225 255 255 255 255 255 255
255 255 255 255 255 255 220 208 196 146 136 117 103 98 82
94 97 75 111 118 74 191 200 138 113 122 69 213 188 255
255 255 255 255 255 255 106 74 122 57 35 80 50 19 76
42 18 70 26 4 45 25 9 44 2 6 15 16 16 7
3 3 13 6 4 13 7 6 14 9 8 15 13 8 15
18 8 6 9 14 19 13 19 17 13 11 6 9 10 13
7 10 14 7 10 16 10 10 13 7 9 6 5 8 0
10 10 10 13 13 14 15 15 16 11 15 19 5 12 21
11 15 25 18 16 21 24 17 19 29 18 21 18 15 15
17 15 15 15 15 12 15 15 8 13 13 8 12 12 12
14 12 13 19 13 16 20 14 15 18 18 13 18 22 15
20 22 18 22 22 22 27 22 23 36 24 27 40 29 30
41 32 27 40 33 26 38 31 24 32 25 18 28 20 14
23 17 12 17 15 8 22 16 13 30 28 28 16 18 20
11 18 22 20 25 29 16 16 22 4 4 10 14 12 16
21 18 20 22 22 20 23 23 23 25 25 25 29 29 29
34 34 34 34 34 34 39 39 39 40 40 40 39 39 39
37 37 37 36 36 36 34 34 34 34 34 34 32 32 32
29 31 31 20 23 23 4 4 1 4 4 3 6 6 6
7 7 7 5 8 3 4 6 9 11 9 16 15 13 17
4 4 11 3 3 9 3 3 3 3 3 3 3 3 3
5 4 3 23 23 29 45 44 46 54 50 46 51 50 41
40 39 33 31 31 26 20 21 13 16 13 4 18 8 9
34 19 23 53 40 38 65 62 55 66 68 55 56 56 38
37 37 18 33 29 17 38 29 26 35 36 4 28 26 21
13 19 19 29 19 8 78 40 44 144 95 110 179 109 147
126 51 92 51 7 17 25 1 6 15 4 11 6 9 17
22 17 22 36 22 27 44 25 35 49 24 37 43 18 33
28 13 24 26 13 17 16 9 13 7 5 18 4 4 22
2 8 18 12 3 9 19 6 18 17 6 22 24 10 26
24 11 27 23 13 33 17 14 35 16 12 42 49 17 101
39 4 92 13 9 41 12 6 43 43 40 77 126 123 163
255 255 255 255 255 255 146 154 160 221 223 244 98 108 123
75 88 94 50 64 77 22 34 74 21 14 80 64 44 122
44 15 108 24 21 74 57 42 70 67 64 69 79 79 91
94 90 114 116 104 140 119 106 144 88 78 115 35 28 57
30 40 38 59 73 67 61 65 69 73 29 89 64 22 80
57 15 73 63 22 79 75 36 93 80 41 101 75 36 97
69 33 88 87 62 98 72 48 86 116 88 135 255 255 255
255 255 255 207 180 215 180 206 166 255 255 255 255 255 255
255 255 255 255 255 255 255 255 255 255 255 255 233 224 228
243 234 239 251 246 251 160 155 160 66 58 65 57 54 52
17 23 12 192 197 188 255 255 255 144 154 140 148 133 158
255 255 255 255 255 255 206 194 225 195 184 215 154 141 176
93 77 118 66 50 86 42 21 59 124 123 126 92 81 98
80 67 88 81 63 96 72 53 90 65 43 81 66 52 76
247 232 252 210 188 208 106 104 108 225 214 233 209 195 214
242 229 237 233 219 224 165 152 154 87 75 78 47 39 33
79 76 77 123 120 111 69 74 39 136 141 93 251 251 222
255 255 255 255 255 255 255 255 255 107 76 125 57 36 80
48 18 73 38 15 66 24 4 40 25 13 44 11 11 22
13 13 10 4 4 16 8 8 16 10 9 16 11 10 16
14 9 16 19 9 7 12 14 23 16 20 20 16 18 1
13 16 9 12 13 9 10 11 12 7 9 14 3 8 9
3 6 8 9 11 9 16 17 17 16 15 21 14 14 27
15 14 32 17 14 33 17 16 28 21 18 26 26 20 25
17 16 16 20 16 16 20 16 16 18 16 16 16 16 14
16 16 12 15 15 9 14 14 11 15 11 13 17 10 13
20 15 15 20 21 15 18 22 15 21 21 16 27 18 20
28 16 20 27 18 22 29 23 26 30 24 27 27 22 24
28 17 20 25 14 16 17 9 9 19 16 16 38 38 38
28 31 31 18 24 23 23 34 30 27 33 30 16 21 21
14 13 25 13 9 25 8 11 13 7 13 6 8 16 4
12 20 9 17 24 14 19 26 16 26 34 23 32 40 28
34 42 30 34 42 30 32 40 28 29 37 25 28 36 24
28 36 24 25 30 20 18 18 11 15 11 3 15 11 4
13 9 4 10 7 6 9 8 3 7 4 5 12 11 13
14 13 16 7 1 8 8 0 6 9 1 5 11 3 7
12 4 8 12 5 8 21 17 17 44 41 38 65 57 56
70 62 56 61 55 46 50 41 33 40 31 24 36 28 18
39 31 19 48 41 30 64 57 42 74 66 46 63 59 37
42 39 21 24 23 9 18 18 9 22 17 24 20 17 15
17 13 16 29 3 13 76 43 45 128 88 92 162 109 121
147 77 114 79 20 54 25 0 20 14 3 18 2 9 23
17 17 31 27 26 38 35 28 43 38 30 46 37 27 40
33 17 28 27 10 19 21 14 15 14 11 17 11 9 25
9 10 33 8 12 33 16 4 29 23 9 34 19 9 37
24 13 42 23 14 48 25 14 53 19 17 53 17 14 56
42 12 95 31 8 85 8 11 49 16 12 49 52 49 83
199 194 233 255 255 255 255 255 255 75 83 80 183 182 203
67 69 96 46 51 82 23 25 79 30 18 82 45 37 84
69 55 120 48 30 112 51 43 97 97 85 109 103 100 107
97 95 108 84 79 106 81 68 105 77 62 96 31 21 56
19 21 18 19 23 6 31 42 30 22 34 30 97 57 121
90 50 114 89 49 113 105 63 125 126 83 145 137 96 159
133 97 156 114 80 134 108 75 123 172 140 188 255 255 255
255 255 255 223 201 231 224 250 215 255 255 255 255 255 255
194 195 184 149 148 151 113 110 120 95 88 101 124 115 127
88 78 86 121 115 118 101 101 101 35 16 34 43 25 42
10 19 14 186 197 183 255 255 255 121 129 123 183 172 193
255 255 255 243 218 255 172 146 187 142 118 158 121 100 139
82 57 100 79 54 98 69 42 87 62 59 68 128 129 125
41 28 55 80 69 90 41 21 61 10 21 27 89 108 79
222 236 215 255 255 255 59 25 66 228 219 232 190 173 198
92 67 98 109 87 101 163 146 150 176 163 165 135 116 127
76 57 71 101 95 106 130 124 116 66 57 47 132 121 133
168 163 164 221 208 236 255 255 255 255 255 255 114 86 139
65 51 89 50 32 74 33 17 59 14 11 31 17 6 35
10 8 22 4 4 3 6 6 18 11 11 17 12 9 20
11 9 18 16 10 19 19 13 13 9 16 25 13 19 25
15 18 11 13 17 6 12 15 8 10 11 6 5 8 12
1 8 15 5 6 13 5 9 10 14 16 18 16 16 22
12 12 23 13 10 27 15 12 27 14 17 25 17 18 28
23 20 28 17 16 16 20 16 16 20 16 16 18 16 16
16 16 14 16 16 10 14 14 7 11 11 6 9 6 8
11 5 8 12 6 7 12 11 6 11 15 8 12 16 8
16 15 10 18 12 9 19 13 13 23 17 20 27 22 24
30 24 27 33 21 26 31 20 22 25 17 17 29 25 25
44 42 42 35 33 33 16 6 7 13 18 17 23 26 25
16 18 16 12 17 21 13 16 26 13 11 19 11 11 13
4 9 6 4 12 2 11 18 9 13 21 10 18 26 15
25 33 21 28 36 24 27 35 23 25 33 21 23 31 19
21 29 17 21 27 16 22 23 14 21 18 10 20 16 8
19 15 7 17 13 5 15 11 4 13 9 3 12 5 6
17 13 19 17 13 18 13 5 3 15 7 9 16 8 12
17 9 13 19 11 15 21 12 18 33 24 21 46 34 33
58 48 46 65 56 54 60 56 53 52 45 40 46 36 31
43 36 29 48 43 32 54 51 36 55 53 33 52 44 25
47 34 24 35 27 21 23 18 11 16 16 14 14 11 26
14 5 18 28 14 11 74 47 55 122 84 93 148 97 110
140 75 98 90 28 54 48 4 36 28 4 26 12 4 17
8 10 17 19 16 17 22 16 14 19 9 14 20 7 12
22 9 6 24 10 7 21 10 8 17 11 8 14 6 11
12 7 17 13 11 28 16 16 37 20 8 40 22 9 44
21 9 46 25 13 53 25 11 61 26 10 64 20 16 63
20 13 66 36 13 92 33 14 90 16 16 57 16 15 48
79 77 109 255 255 255 255 255 255 255 255 255 133 139 134
178 180 195 78 78 107 40 32 87 50 39 99 58 50 95
45 37 76 53 37 104 44 14 118 53 24 121 96 78 124
79 70 95 37 32 59 7 0 43 47 40 60 79 74 81
70 68 73 52 47 50 32 27 33 27 28 27 18 16 21
199 167 227 197 165 225 200 168 229 219 186 246 242 210 255
254 226 255 255 229 255 255 232 255 255 246 255 255 255 255
255 255 255 220 202 226 212 235 206 255 255 255 255 255 255
133 130 123 88 75 86 61 55 67 41 33 46 65 58 71
115 105 126 128 116 135 144 134 147 102 91 106 83 63 85
75 55 76 160 164 160 255 255 255 104 120 97 195 181 203
255 255 255 196 173 215 103 78 121 87 59 106 82 60 100
43 33 60 15 32 28 12 24 33 55 64 62 121 128 116
81 83 74 72 52 94 87 63 109 52 60 60 174 196 157
255 255 238 203 223 192 51 13 78 255 243 255 255 255 255
170 137 177 108 74 109 96 67 90 112 89 104 148 138 146
127 113 129 106 85 107 136 120 137 115 106 100 98 79 100
90 77 113 65 55 108 187 161 234 255 255 255 255 214 255
111 81 150 68 49 102 51 39 82 35 30 64 21 27 44
14 11 38 7 4 25 2 1 17 8 6 23 11 10 18
14 10 22 13 10 19 17 11 21 16 13 13 7 13 22
9 14 23 8 12 19 6 13 9 4 14 5 6 13 4
7 9 8 5 6 15 6 7 19 3 8 17 8 13 13
12 15 15 9 8 18 13 9 21 17 17 17 18 21 12
20 21 22 21 20 25 12 12 4 13 13 6 17 15 7
18 15 7 18 15 9 16 15 13 16 16 10 13 13 9
1 1 9 2 2 8 5 1 6 6 3 2 9 3 6
9 8 7 13 11 8 21 11 8 24 14 8 27 17 14
32 21 18 38 27 24 41 27 26 39 28 25 39 32 28
47 41 38 55 50 48 51 45 43 46 36 32 48 38 33
44 37 31 35 28 24 24 20 18 14 14 16 14 12 16
16 13 13 14 9 8 16 8 4 20 13 9 22 15 11
23 15 11 26 18 14 27 19 15 25 17 13 24 16 12
23 15 11 20 12 8 17 9 5 18 12 7 24 19 12
26 20 12 25 17 9 24 16 8 23 15 7 21 13 5
20 12 4 23 17 19 23 17 21 20 12 12 21 13 13
24 16 16 27 19 19 28 20 20 29 20 22 36 25 21
34 26 22 29 22 21 44 34 28 46 40 34 39 35 27
32 26 18 31 28 16 36 35 16 40 38 13 31 30 13
21 18 16 25 16 18 27 23 18 25 25 17 25 20 18
21 10 24 17 6 13 57 41 41 118 86 98 137 92 108
120 62 85 89 27 54 41 5 10 30 9 19 30 13 31
6 11 20 10 11 16 16 12 10 22 11 8 20 18 13
22 24 17 29 21 12 27 10 6 16 9 3 17 9 9
18 4 14 17 3 19 19 7 29 21 13 40 20 10 49
17 4 51 22 7 52 25 11 56 23 13 61 23 14 61
19 17 61 23 8 67 32 6 83 29 7 79 11 10 45
26 29 55 121 121 147 255 255 255 255 255 255 255 255 255
103 109 101 169 173 183 135 140 163 108 108 150 85 80 137
53 45 106 17 13 70 37 34 93 58 49 133 75 58 155
106 91 157 93 81 127 85 76 110 104 100 116 116 109 125
128 116 130 115 106 117 86 80 88 61 53 63 44 37 50
33 25 41 255 255 255 255 255 255 255 255 255 255 255 255
255 255 255 255 255 255 255 255 255 255 255 255 255 255 255
255 255 255 197 187 210 222 231 215 255 255 255 255 255 255
123 126 120 80 73 81 77 59 85 55 43 64 38 27 51
51 42 61 92 83 102 120 109 132 115 104 127 68 56 77
33 21 44 80 79 77 255 255 255 211 219 201 176 165 192
255 255 255 185 167 203 113 86 134 87 61 112 85 56 108
69 38 89 32 10 51 16 46 19 65 97 48 126 153 112
107 125 95 46 31 68 97 70 111 52 67 58 168 191 162
187 209 178 61 69 66 199 170 213 255 255 255 255 255 255
174 144 192 102 71 120 91 62 103 67 38 75 90 75 96
118 113 129 104 103 118 82 72 92 104 83 108 121 107 112
95 81 106 70 55 96 95 75 141 255 224 255 255 255 255
204 145 255 92 48 146 51 23 96 40 27 81 33 32 72
28 36 61 21 18 50 13 9 34 6 6 19 8 7 17
11 11 14 15 14 19 14 13 17 17 11 18 13 11 8
9 9 17 9 11 20 6 9 20 6 10 14 2 11 3
3 13 4 6 9 8 4 4 13 3 4 24 2 7 21
4 13 10 8 17 10 8 9 11 10 12 7 13 17 5
14 19 3 19 20 23 21 21 25 8 8 0 8 8 2
10 9 4 13 9 3 14 10 6 12 9 8 22 22 19
19 19 18 4 4 12 3 3 11 2 2 9 4 4 9
6 6 4 6 4 4 8 5 10 17 8 11 25 14 12
29 18 14 33 22 18 38 27 23 44 28 27 47 28 27
49 32 31 57 46 44 64 58 55 63 56 52 58 50 46
59 51 46 60 47 43 53 40 35 41 28 24 25 12 11
17 13 14 20 16 15 20 14 13 20 12 9 21 13 9
22 15 11 20 12 8 17 9 6 16 8 4 16 8 4
15 7 3 13 6 3 12 4 2 13 5 0 19 10 6
25 14 8 26 14 8 26 14 8 25 13 7 23 11 5
22 10 4 22 10 4 25 16 15 25 16 17 22 10 12
22 11 13 24 12 14 25 14 16 26 14 16 24 14 17
21 13 12 19 18 12 7 12 4 20 9 13 35 26 24
33 26 26 16 13 11 12 16 6 22 27 6 21 23 5
24 8 26 16 3 33 11 4 31 14 15 19 22 25 13
27 26 18 25 21 29 16 9 8 89 70 72 140 101 120
114 66 86 72 23 40 51 4 27 21 11 4 12 15 11
24 23 32 32 30 40 30 24 35 28 15 28 27 6 18
24 5 9 21 8 6 30 11 4 31 13 8 20 14 12
22 13 18 23 8 26 20 5 35 22 4 44 21 9 50
16 10 52 9 3 51 20 7 54 25 12 58 23 19 64
22 18 63 20 13 62 24 5 66 24 3 69 18 10 57
19 6 42 53 51 77 149 148 168 255 255 255 255 255 255
207 200 214 68 61 58 79 83 91 153 160 175 181 185 213
177 176 220 114 112 164 39 42 85 55 59 96 88 80 151
109 91 184 125 110 183 127 114 167 133 124 160 139 137 160
131 123 157 126 112 149 117 100 135 89 78 102 50 44 67
34 24 56 26 14 50 255 255 255 238 214 246 163 140 169
129 108 131 116 99 116 92 78 97 88 78 91 94 90 99
140 138 146 68 69 77 254 255 248 255 255 255 255 255 255
122 119 123 60 49 66 53 38 63 47 22 55 24 7 33
17 6 29 31 23 35 47 35 50 48 36 53 42 31 45
31 26 37 122 129 121 255 255 255 255 255 255 56 37 74
255 255 255 229 217 245 99 81 121 73 47 102 58 28 89
37 12 61 16 23 35 33 47 36 38 54 39 53 67 55
74 73 89 74 42 99 97 78 115 44 65 45 142 164 134
86 94 89 165 134 188 255 255 255 255 255 255 235 215 251
112 77 131 66 26 85 57 27 74 51 24 64 57 47 64
119 119 129 128 129 140 89 91 100 61 38 72 126 101 132
172 151 179 174 158 196 162 145 197 169 145 221 255 232 255
255 211 255 145 85 219 62 19 112 21 3 55 16 7 58
25 21 70 37 38 74 47 41 78 50 43 75 47 43 67
39 38 49 27 27 29 17 19 14 12 14 9 13 8 16
12 6 18 10 7 9 7 10 10 9 8 17 11 13 15
11 13 7 13 13 8 13 11 13 9 8 18 6 3 31
6 3 25 7 11 12 9 20 10 11 18 4 12 17 3
11 14 8 9 10 8 13 13 21 24 21 18 22 16 8
15 13 6 10 10 4 6 6 3 7 4 3 8 6 9
21 19 22 21 20 18 11 14 5 9 10 7 8 8 8
6 6 8 3 5 6 4 4 6 3 6 10 4 8 10
3 6 6 6 3 3 12 8 8 22 18 18 33 25 27
41 28 31 45 29 33 54 39 44 69 58 61 80 68 72
80 68 72 68 54 59 52 34 41 37 19 24 34 19 16
35 25 18 30 23 15 19 13 9 10 9 14 4 11 18
3 11 19 2 8 16 6 3 10 14 7 6 16 8 0
15 7 1 13 6 6 10 5 9 8 2 8 8 1 9
20 11 13 30 11 13 27 11 9 28 14 12 31 17 15
32 18 16 33 19 17 35 21 19 40 27 25 46 32 30
48 34 32 46 32 30 41 27 25 37 24 22 36 22 20
33 22 22 22 15 19 10 9 6 6 16 4 11 7 15
21 12 15 32 26 28 26 27 18 22 29 3 21 30 2
9 6 26 28 8 44 16 6 35 9 16 24 8 12 25
2 4 33 3 7 26 25 26 18 59 49 34 122 100 100
136 93 118 81 32 57 39 3 10 36 0 17 19 8 15
17 35 32 45 41 46 64 46 60 68 45 61 65 38 58
58 26 51 44 17 37 30 11 24 37 4 20 43 8 30
25 5 25 19 15 24 26 15 37 28 13 50 33 15 60
33 19 66 27 21 59 19 4 59 44 19 82 48 25 92
34 20 85 31 21 83 41 24 96 37 18 94 36 17 86
43 30 86 53 42 82 95 89 112 183 180 197 255 255 255
255 255 255 207 206 209 182 182 182 116 115 119 37 35 55
75 71 96 183 174 214 183 174 223 108 103 133 128 127 142
121 113 175 113 93 191 95 79 158 83 70 137 75 70 116
68 64 101 59 46 104 73 62 116 95 78 130 95 78 124
69 54 95 41 29 68 11 14 45 220 231 222 255 255 255
255 255 255 255 255 255 255 255 255 255 255 255 255 255 255
255 255 255 255 255 255 255 255 255 255 255 255 255 255 255
106 98 113 48 43 53 42 25 47 34 13 44 33 16 46
20 10 32 17 7 30 16 23 13 16 27 7 4 9 13
6 16 5 142 150 141 255 255 255 255 255 252 37 24 50
255 255 255 255 248 255 126 111 148 60 41 88 41 14 70
28 7 54 17 19 38 26 37 41 31 38 44 38 26 58
70 41 90 116 84 139 134 103 160 73 43 99 144 152 148
44 53 54 142 113 161 220 189 239 202 171 222 123 103 142
31 39 49 27 27 55 41 6 61 32 7 49 32 52 44
89 105 89 124 122 130 109 91 122 76 55 102 161 147 178
179 159 198 180 157 201 186 161 215 178 155 219 170 149 239
222 195 255 202 159 255 98 46 176 42 11 83 35 13 52
27 4 54 18 7 56 29 23 56 39 34 60 45 41 64
48 46 64 41 41 52 30 31 33 20 23 14 13 17 4
4 6 17 11 10 30 21 19 37 22 20 33 20 18 26
16 15 20 11 9 12 9 4 8 5 9 8 5 4 18
10 8 32 9 8 27 4 8 14 5 13 11 8 16 9
11 13 9 8 9 10 3 6 16 4 7 14 16 14 7
22 13 7 17 11 7 11 11 3 9 9 3 9 8 7
7 7 11 15 9 14 16 13 10 12 16 7 12 14 11
11 11 9 8 8 2 6 3 4 4 2 8 3 9 12
2 13 14 3 14 11 3 9 6 6 5 4 9 6 6
16 12 12 22 18 18 27 19 20 36 22 25 48 34 37
60 47 51 65 53 57 60 48 52 47 36 40 40 24 30
36 18 22 35 23 21 30 22 15 18 10 5 4 4 12
4 12 20 6 13 21 3 10 18 8 10 16 9 9 14
4 4 12 4 4 12 7 7 13 7 7 13 4 4 12
3 6 12 29 17 22 39 19 24 29 13 11 30 14 12
32 16 14 36 20 18 38 22 20 39 23 21 44 28 26
50 34 32 50 34 32 47 31 29 45 29 27 41 25 23
36 20 18 34 18 18 31 21 24 13 9 13 4 13 9
12 4 18 7 10 4 25 23 20 31 29 30 17 25 10
17 26 15 26 24 35 30 24 39 14 22 28 10 18 28
15 9 39 1 6 39 21 25 27 58 56 29 100 90 72
116 96 92 98 57 80 53 10 39 25 1 25 25 6 28
30 13 36 38 43 48 45 34 42 37 3 26 41 2 28
45 15 34 45 20 40 44 19 40 43 18 38 60 19 47
67 29 62 50 23 54 40 13 47 47 23 64 52 26 75
51 25 81 54 32 85 60 44 94 66 40 105 66 39 108
43 22 94 32 15 87 39 23 91 37 24 87 22 4 73
45 23 85 54 38 91 50 42 76 108 107 118 218 218 229
255 255 255 255 254 255 132 127 140 143 140 148 167 165 171
165 164 168 111 113 104 55 48 83 177 171 209 140 137 164
91 90 110 79 61 140 96 77 167 56 44 120 46 32 105
16 21 77 49 65 55 76 88 63 74 78 68 47 46 73
62 49 107 81 67 118 69 58 99 37 24 73 255 255 255
255 255 255 255 255 255 248 233 251 255 241 255 255 255 255
255 255 255 255 255 255 255 255 255 255 255 255 255 255 255
177 163 185 30 10 42 34 40 39 45 39 51 30 5 47
17 13 33 8 8 20 17 8 32 27 17 39 30 23 39
14 5 28 122 127 115 255 255 255 255 255 255 82 71 101
255 255 255 255 255 255 120 106 146 73 63 96 46 31 74
39 20 66 34 6 57 33 15 53 53 21 74 69 31 92
84 45 106 98 61 116 107 71 125 96 61 119 138 113 155
171 158 191 97 68 120 166 147 177 109 84 127 56 24 77
33 13 56 33 17 61 40 7 74 35 6 67 38 44 59
62 76 73 71 69 81 85 54 105 153 114 177 189 159 214
153 134 179 114 92 148 109 88 147 99 77 143 94 73 155
132 108 219 189 157 255 139 98 243 54 11 133 31 17 76
36 18 58 36 13 50 21 9 40 20 5 26 12 3 12
3 0 10 14 7 24 19 15 35 13 13 31 7 12 27
4 9 30 6 11 40 16 18 52 19 17 58 23 18 53
19 15 39 11 9 25 4 5 12 6 8 4 10 15 8
10 18 16 8 13 27 4 4 33 4 2 32 4 1 29
6 4 26 8 3 20 8 3 18 7 3 21 11 3 15
5 6 6 13 7 6 16 8 8 14 10 4 14 11 6
11 11 11 7 7 6 13 7 6 13 4 6 8 4 6
8 9 4 6 9 4 6 9 4 7 11 4 6 9 3
6 10 6 11 8 5 17 4 6 17 9 8 14 9 7
12 6 6 12 6 6 11 4 4 15 6 6 19 8 8
23 13 12 25 19 16 31 27 23 41 38 34 48 45 41
53 46 43 49 38 36 33 22 20 21 16 14 22 18 16
20 16 13 20 16 12 22 18 15 22 18 15 16 13 9
3 1 5 4 8 12 3 7 11 3 4 8 8 4 3
11 7 3 13 9 5 41 25 29 46 29 33 24 16 13
26 16 14 25 15 13 25 15 13 26 16 14 25 15 13
24 14 13 24 14 15 24 14 16 24 14 16 24 14 16
24 14 16 23 13 15 22 10 13 34 20 25 17 9 13
10 21 13 21 26 30 25 36 19 27 30 20 36 30 46
12 12 37 10 23 38 16 23 40 32 31 43 16 23 39
14 13 48 19 11 51 17 26 31 57 65 43 85 83 62
79 72 56 58 46 41 52 20 49 42 1 49 34 2 47
29 9 47 35 16 51 32 22 42 23 38 16 20 50 4
14 50 2 16 44 9 28 26 26 44 6 49 60 22 69
83 41 89 80 42 93 72 42 94 73 40 97 72 39 105
67 38 106 61 33 103 63 38 105 81 59 125 96 72 137
69 46 108 35 15 79 40 22 84 44 25 82 37 21 71
79 60 109 98 83 129 48 45 77 37 30 50 142 142 145
250 250 255 255 255 255 168 167 170 77 75 79 62 61 69
72 71 77 103 103 103 159 161 146 105 112 82 79 75 102
125 119 151 80 77 107 144 139 165 108 106 129 54 57 73
72 71 94 115 119 122 170 182 137 197 212 140 174 193 112
117 138 48 51 71 19 51 60 72 52 54 83 30 23 82
180 157 187 157 135 160 107 84 113 87 64 95 95 71 103
104 80 112 101 77 111 103 80 113 150 120 155 168 132 179
177 148 192 108 78 120 53 13 70 47 19 62 54 42 66
17 20 34 24 52 8 54 70 40 73 84 57 80 89 66
119 127 109 216 225 204 255 255 255 255 255 255 68 63 72
255 255 255 245 232 255 92 77 118 53 40 81 58 48 82
29 9 55 25 23 51 27 17 53 24 7 50 36 8 60
52 24 74 66 39 88 74 47 96 78 52 98 82 56 101
155 130 168 181 157 200 125 97 146 148 131 160 73 48 95
57 33 78 49 21 70 45 21 66 39 2 68 40 30 71
51 50 78 58 40 82 76 44 106 111 84 142 139 110 165
128 99 153 88 58 120 64 34 102 60 32 102 57 38 100
42 18 132 113 93 214 133 105 234 63 30 159 27 22 93
34 24 61 38 24 42 38 16 38 24 11 31 20 8 13
13 6 9 9 3 9 11 3 25 26 12 51 21 12 60
27 19 73 41 32 92 42 34 98 29 22 84 14 14 65
12 9 53 9 4 42 10 10 34 9 8 28 7 4 26
11 5 31 17 8 37 19 8 44 13 6 44 8 3 40
8 3 38 9 4 35 11 3 31 12 3 27 11 4 23
16 4 20 10 3 12 6 7 3 14 9 9 19 11 8
17 10 7 11 11 8 11 11 4 14 11 4 14 9 6
11 6 6 10 10 2 9 13 4 8 12 2 9 13 4
9 13 3 13 14 10 19 13 8 20 11 8 18 11 9
18 10 9 17 9 9 16 9 9 15 7 7 17 9 9
22 14 14 25 19 17 27 22 19 29 25 21 33 29 25
38 34 31 40 35 32 48 35 35 44 28 30 32 20 19
33 24 22 34 24 22 34 24 22 34 24 22 35 25 24
32 22 20 24 16 14 19 9 7 21 11 9 25 15 13
31 21 19 35 25 23 35 27 24 51 35 37 49 34 36
25 21 17 25 21 17 26 22 18 26 22 18 27 23 19
27 23 19 25 21 18 25 21 20 27 23 23 27 23 23
24 20 20 22 18 18 22 18 18 21 17 17 41 25 33
21 10 15 17 35 14 21 34 25 19 30 20 14 18 29
35 26 61 26 16 56 16 16 53 33 16 73 31 11 75
17 1 67 23 6 69 13 7 63 37 49 51 85 81 76
80 64 65 35 32 33 23 12 44 39 5 60 43 1 62
35 1 51 31 15 55 49 24 69 59 12 73 52 7 64
45 9 53 46 14 49 48 14 52 53 11 62 62 14 75
73 21 88 83 38 97 73 34 91 68 32 97 77 43 116
80 46 123 73 43 114 63 34 104 61 30 100 66 35 105
68 42 109 80 61 110 74 53 100 57 37 82 34 17 58
106 93 131 232 216 253 202 190 224 140 139 160 117 112 124
209 208 211 252 254 250 188 191 181 98 98 98 89 89 95
106 106 117 94 94 103 69 68 75 117 119 108 189 195 170
74 79 51 107 103 129 195 191 219 147 137 178 67 69 70
52 58 50 97 99 109 156 158 167 166 174 156 149 165 98
137 160 61 137 158 68 111 134 38 89 112 33 66 88 34
43 66 37 123 100 138 108 87 123 85 64 103 81 60 98
88 66 105 87 61 106 71 47 94 65 59 82 52 36 69
86 56 110 116 83 138 93 57 115 74 41 101 57 23 83
38 26 55 17 43 17 57 71 37 71 77 54 118 121 102
227 232 210 255 255 255 255 255 255 255 255 255 9 8 22
255 255 255 255 255 255 102 86 126 31 13 52 54 42 76
46 31 69 15 21 36 13 33 33 31 12 52 35 8 55
38 17 55 45 25 60 49 29 66 49 27 67 42 23 62
47 26 65 119 99 131 173 147 188 132 104 149 105 87 118
50 24 71 56 31 76 52 26 70 32 7 52 35 13 54
50 31 74 60 28 87 81 47 109 105 76 134 106 80 135
81 60 111 58 30 91 55 21 87 41 14 80 41 25 77
53 42 83 41 24 140 120 103 220 86 64 186 24 20 102
27 25 68 33 21 46 41 26 33 41 17 32 25 11 19
21 5 7 12 6 21 15 4 23 1 0 38 35 13 79
55 40 106 79 69 137 94 82 159 87 74 152 59 45 123
27 8 89 13 22 55 16 31 30 19 28 28 13 19 27
4 9 27 9 8 34 17 14 42 21 11 47 18 6 45
7 6 35 5 3 33 4 1 34 4 3 36 4 2 32
6 4 23 14 3 25 15 3 20 2 8 3 8 8 7
16 10 8 20 11 10 17 10 10 14 11 11 16 16 11
14 14 6 13 10 5 14 7 8 14 8 11 11 8 9
9 9 9 12 13 12 18 16 13 21 13 11 20 11 14
19 10 14 21 13 14 22 14 15 22 15 15 21 13 13
23 15 15 27 19 19 27 20 20 24 16 19 20 12 16
18 13 16 18 15 16 19 11 15 34 20 27 38 22 26
37 18 18 36 21 19 37 22 20 38 22 20 40 25 23
45 29 27 48 32 30 48 33 31 47 31 29 49 33 31
50 35 33 51 36 34 53 37 35 55 39 37 58 38 39
43 29 28 23 18 11 22 18 11 23 19 11 24 20 13
24 19 15 24 17 18 25 17 20 26 18 19 25 17 18
24 16 19 24 17 20 20 13 16 18 10 14 18 9 12
47 25 38 27 18 22 20 43 16 6 13 23 26 16 55
39 24 71 33 9 66 23 16 60 14 24 47 21 16 55
42 22 89 64 40 114 62 37 111 34 23 85 57 67 82
88 74 106 46 31 85 20 4 63 29 3 63 37 3 68
41 3 77 42 11 81 68 40 102 105 63 130 115 63 143
116 64 143 113 52 131 105 42 119 93 33 108 84 30 102
79 29 97 73 24 93 60 23 84 45 21 71 49 20 85
70 35 113 75 39 117 63 32 103 49 18 87 41 11 76
38 14 72 39 20 73 48 35 71 44 30 63 31 17 44
35 24 53 244 238 255 255 255 255 208 205 219 199 194 213
239 227 235 251 243 242 190 187 177 97 98 81 57 66 66
77 86 97 103 111 123 120 128 137 88 96 99 82 91 83
171 182 163 176 187 167 28 39 40 215 205 231 211 197 238
66 55 106 34 31 69 95 93 119 138 133 170 116 112 168
46 36 121 22 26 93 57 67 70 62 81 37 54 77 28
38 58 38 24 44 48 56 37 72 53 33 72 48 24 67
50 24 66 52 25 69 46 20 64 47 42 60 68 69 76
56 24 78 105 79 126 93 61 116 72 37 94 57 24 81
50 37 76 16 21 44 35 34 40 55 40 54 44 39 60
97 94 114 208 211 218 192 199 197 38 39 37 225 219 237
255 255 255 255 255 255 145 131 163 48 33 74 53 37 75
58 42 82 24 7 47 19 33 35 37 11 62 59 24 77
50 26 62 50 31 64 48 30 66 43 25 59 35 17 51
28 10 47 27 12 46 55 39 71 109 92 127 105 92 126
77 63 99 51 35 73 51 35 74 54 36 75 31 18 52
27 3 47 55 34 78 73 52 98 73 52 99 58 35 81
42 18 65 37 10 63 47 17 76 54 23 80 42 17 73
44 28 74 50 37 96 67 50 167 113 97 217 49 29 146
7 20 69 28 14 50 30 17 36 41 25 32 44 22 27
29 17 13 24 9 12 12 6 30 13 3 37 14 4 64
63 35 120 103 86 166 124 112 194 118 106 187 110 97 171
100 85 158 70 52 142 32 22 95 15 22 42 17 22 32
15 22 28 17 23 20 17 21 20 13 18 20 9 10 27
16 12 38 8 7 35 6 6 33 4 4 33 4 3 31
4 3 26 6 7 24 13 4 30 17 5 25 5 7 6
6 6 5 10 7 3 16 10 8 19 11 11 14 10 10
14 14 11 14 14 8 13 10 6 13 6 8 13 6 9
13 9 11 10 10 10 11 12 10 16 16 10 17 13 14
17 10 17 18 11 15 18 14 15 19 16 14 22 14 14
22 14 14 22 15 15 23 16 16 21 14 15 19 9 12
16 11 13 17 15 16 17 16 16 17 14 15 19 9 19
25 16 20 32 20 18 34 20 18 35 21 19 37 23 21
41 28 26 44 31 29 49 36 34 59 45 43 61 47 45
59 45 43 57 43 41 55 42 40 53 39 37 52 38 36
44 32 29 26 20 13 16 12 4 16 13 6 16 13 6
16 13 6 16 11 12 16 9 12 17 9 13 19 11 12
19 11 12 18 10 12 17 11 14 14 9 11 11 7 9
11 1 8 42 14 35 35 25 27 7 30 7 24 10 47
41 30 75 18 8 51 10 33 26 27 33 54 48 24 88
111 87 156 167 141 216 167 141 215 126 111 172 82 76 118
66 69 101 85 60 135 106 63 163 84 49 138 60 35 108
56 26 96 54 22 96 63 37 110 96 64 135 118 76 146
119 66 144 134 79 157 138 81 159 129 76 155 119 65 147
107 54 133 92 43 117 76 34 106 56 18 90 42 16 81
61 41 103 69 42 114 63 34 103 50 22 87 38 13 77
40 16 75 44 26 76 34 17 61 31 29 41 30 15 50
77 62 90 174 162 183 255 255 255 252 244 253 191 194 201
196 187 193 255 255 255 206 197 200 96 88 86 17 22 11
41 50 54 42 50 60 51 59 66 86 93 101 113 121 120
91 99 94 110 122 108 178 190 173 147 156 138 88 72 97
251 234 255 187 175 214 122 113 161 132 123 174 153 141 204
169 157 237 167 154 241 142 127 220 111 95 186 92 72 160
80 60 146 73 53 137 69 49 133 24 11 42 25 10 44
22 5 39 20 6 38 17 9 37 17 22 32 43 49 48
52 49 60 64 33 78 84 58 95 50 27 61 29 16 41
29 22 37 49 43 59 31 18 48 43 13 51 59 25 62
53 40 61 122 113 132 255 255 255 173 171 194 255 255 255
255 255 255 249 236 255 153 139 162 64 53 85 40 27 64
43 31 68 31 21 52 19 28 20 13 10 34 56 26 75
54 21 57 34 11 35 30 19 39 29 14 41 23 7 32
13 5 22 8 13 16 10 20 16 17 11 23 43 20 51
57 38 70 58 39 71 46 29 55 43 27 51 66 52 79
57 37 76 41 28 62 48 33 71 53 36 75 44 23 64
27 9 45 11 14 29 10 15 32 33 12 53 45 25 63
43 18 55 39 24 61 36 21 104 74 58 173 78 63 181
16 14 101 10 21 41 29 14 28 29 17 26 41 23 33
46 22 25 31 22 14 27 14 17 13 5 35 8 1 50
40 20 95 102 76 165 141 126 213 137 123 210 100 85 167
99 86 150 117 102 166 119 105 192 90 76 169 64 50 113
55 38 87 34 18 66 11 7 44 11 16 27 16 21 15
9 13 17 6 6 31 9 5 39 9 5 36 8 3 33
8 4 30 8 6 25 9 9 25 17 6 36 20 7 30
7 5 7 4 4 4 6 6 4 8 8 4 14 9 6
16 8 7 17 11 11 14 11 11 9 9 6 9 9 3
10 7 2 13 5 6 11 5 8 9 8 6 14 13 9
16 13 13 13 10 11 12 12 6 12 13 6 13 12 7
15 9 7 15 8 4 13 9 4 10 10 8 6 6 6
14 6 4 19 13 10 24 18 15 29 23 18 31 21 17
30 17 17 27 19 21 27 21 22 29 22 24 31 23 25
33 25 27 36 29 30 36 29 30 38 30 32 46 38 40
49 41 43 47 39 41 44 36 38 39 31 33 35 27 29
33 25 27 25 20 20 13 11 9 6 5 3 7 7 7
7 7 7 7 7 7 6 6 9 4 8 6 6 8 6
6 6 6 7 7 6 9 9 6 11 11 11 11 11 11
8 8 8 9 1 9 28 9 26 35 13 32 16 5 30
23 13 51 26 20 55 18 32 29 14 10 54 118 95 160
255 255 255 255 255 255 255 255 255 255 255 255 255 255 255
217 208 246 136 127 175 109 91 155 115 95 168 110 90 166
96 73 141 90 62 125 84 56 116 85 59 118 91 61 117
82 52 97 71 29 83 86 34 103 100 52 125 105 61 135
110 65 136 109 61 130 100 55 122 88 47 113 78 41 106
72 42 106 86 65 117 72 50 101 52 29 76 49 24 68
49 23 76 71 47 96 91 72 114 92 73 106 117 100 126
226 215 236 255 255 255 255 255 255 255 255 255 255 250 251
233 235 238 186 175 182 165 162 166 110 110 117 84 82 96
48 47 63 8 4 26 18 17 26 14 14 22 25 25 29
73 73 72 90 90 88 69 72 64 115 118 106 201 203 190
95 106 85 112 97 115 186 175 206 216 206 250 242 233 255
255 255 255 255 255 255 255 255 255 255 255 255 255 255 255
255 255 255 238 228 255 204 193 255 174 162 235 26 13 42
28 10 39 21 11 29 12 10 22 9 15 25 14 19 31
38 39 52 44 30 61 59 33 76 54 30 69 35 21 53
30 12 49 33 16 49 51 36 62 48 27 56 53 27 55
68 35 69 50 37 51 91 81 98 255 255 255 84 75 100
255 255 255 150 135 159 63 46 82 64 50 86 44 29 75
44 25 71 43 24 70 25 16 40 41 45 40 14 22 32
58 49 54 46 40 29 22 28 15 13 32 16 11 27 10
10 21 6 14 22 10 16 24 4 17 23 11 2 13 12
12 13 17 5 13 16 20 16 34 14 7 29 18 7 30
51 38 65 78 59 96 57 34 77 30 7 45 22 9 35
29 17 43 37 15 51 28 4 48 11 16 33 24 15 33
28 14 56 47 25 71 40 25 80 48 37 134 79 68 182
47 33 145 11 11 78 8 10 35 23 13 14 28 22 18
41 25 31 47 24 23 33 22 7 26 18 20 13 8 41
13 4 68 65 47 130 130 114 200 149 135 221 115 95 178
59 40 114 68 54 103 94 78 136 133 116 193 140 121 210
122 101 177 108 85 153 85 63 122 54 34 85 27 13 54
9 7 37 4 7 29 3 3 28 6 4 29 6 6 25
4 3 22 4 3 24 4 3 25 6 8 27 19 7 43
23 9 40 8 6 18 1 4 13 3 5 10 4 6 11
9 7 9 13 7 5 20 11 10 18 10 9 12 6 3
11 9 4 11 6 7 12 4 6 11 4 4 8 4 5
15 9 11 19 10 11 13 8 9 12 10 12 13 10 10
13 11 10 13 10 11 11 7 11 8 4 12 3 5 17
3 6 20 9 1 15 19 9 8 28 20 8 35 28 16
40 32 18 39 27 17 32 16 13 26 13 9 24 15 9
24 14 8 26 17 11 29 20 16 29 20 16 30 21 16
33 23 17 33 23 17 31 21 15 27 17 11 21 11 6
17 7 1 16 6 0 19 15 18 17 14 19 7 4 10
4 5 11 3 3 4 4 4 6 2 1 7 0 3 6
4 4 11 6 3 12 6 5 3 11 10 6 13 14 11
14 11 11 10 7 8 11 3 11 25 14 27 44 7 49
36 10 56 17 2 51 11 11 49 41 14 82 178 144 219
255 255 255 255 255 255 255 255 255 255 255 255 255 255 255
255 255 255 255 255 255 255 255 255 204 188 222 127 106 156
87 65 123 70 45 100 73 43 97 81 48 103 95 56 113
89 51 105 66 30 79 58 22 65 52 11 65 49 8 74
61 23 86 70 38 98 75 47 107 76 49 107 72 46 104
74 49 105 79 61 109 86 71 113 60 43 88 40 28 61
36 23 54 52 36 72 87 72 98 130 118 136 167 149 166
255 255 255 255 255 255 255 255 255 255 255 255 255 255 255
255 255 248 255 255 255 195 194 181 147 148 132 150 152 137
190 191 183 202 202 198 159 159 157 106 107 101 72 75 59
51 55 35 42 44 34 56 57 59 63 61 62 66 66 63
144 143 141 151 149 151 121 116 118 60 56 47 35 32 43
93 89 111 149 144 172 195 188 224 243 234 255 255 255 255
255 255 255 255 255 255 255 255 255 255 255 255 234 227 255
18 7 13 12 6 10 8 16 7 9 17 13 3 18 25
3 23 28 14 27 43 29 8 65 47 28 82 39 22 74
34 22 65 29 15 56 28 12 50 44 26 58 46 26 56
50 30 53 63 34 57 34 19 37 121 120 120 188 178 186
160 143 176 254 240 255 77 63 107 50 32 98 52 30 105
34 8 86 38 15 81 24 11 67 23 31 51 40 37 59
36 34 50 29 33 37 49 38 37 30 27 17 31 33 13
32 37 8 30 35 2 24 28 10 17 21 14 25 27 24
11 17 22 15 16 27 6 18 25 8 13 34 13 7 44
20 14 48 22 9 52 46 31 68 51 32 68 38 13 46
32 14 35 25 4 34 35 14 54 44 20 70 41 9 68
24 10 63 11 12 72 37 15 91 36 17 118 59 46 157
63 47 163 26 10 102 22 19 54 22 7 26 28 3 26
34 19 29 49 29 38 58 28 34 45 20 20 29 13 33
8 11 53 44 33 106 110 91 183 141 122 216 115 95 181
60 47 106 17 34 46 21 20 27 38 19 55 73 50 110
98 70 155 113 82 175 130 97 191 136 101 190 119 84 164
83 52 119 40 18 70 8 7 32 7 11 21 12 14 29
20 21 37 24 24 40 20 21 39 10 12 38 8 3 36
17 10 48 19 8 52 14 3 43 6 6 37 3 9 31
4 10 30 4 10 32 4 3 38 7 6 37 17 13 25
23 14 18 19 12 21 16 9 24 18 11 25 21 15 20
26 16 17 31 17 20 35 18 15 29 18 3 26 16 4
25 15 6 23 16 6 20 13 6 17 9 8 16 6 11
13 3 15 7 8 20 6 7 20 6 6 19 8 1 16
11 9 13 17 13 9 25 19 16 24 13 15 22 7 6
24 12 3 28 16 3 31 20 9 30 19 10 25 14 9
21 12 13 15 4 11 13 3 13 11 4 16 10 9 20
8 8 21 6 8 21 3 9 23 10 18 24 18 13 17
13 5 9 8 6 17 4 4 14 2 6 15 4 3 14
2 8 10 3 10 13 10 9 17 8 9 9 15 9 4
21 11 7 26 10 13 24 10 14 21 7 17 35 18 36
52 13 63 24 23 53 11 24 57 118 79 164 255 237 255
255 255 255 255 255 255 255 255 255 200 169 237 70 50 79
132 122 128 255 250 248 255 255 255 255 255 255 255 255 255
255 255 255 193 168 197 88 57 97 72 33 81 61 13 69
65 23 71 62 17 67 53 6 63 45 11 54 33 22 36
15 25 24 18 21 30 18 11 46 18 15 63 27 23 71
30 22 70 32 21 70 43 33 75 40 27 64 16 7 41
29 21 36 36 20 48 132 122 133 255 251 251 255 255 255
255 255 255 255 255 255 255 255 255 250 247 218 142 137 111
104 106 97 65 61 74 160 165 143 141 144 101 110 112 62
109 110 63 119 120 91 146 148 129 161 166 147 154 165 143
124 137 115 50 64 38 12 25 20 24 19 43 68 53 83
94 78 110 134 120 151 168 149 188 190 177 211 207 199 227
206 201 223 189 185 204 165 162 179 138 137 148 116 114 119
95 93 89 60 60 53 27 26 35 59 57 76 120 111 133
149 134 160 20 13 11 9 9 9 9 12 11 14 13 27
13 12 37 11 9 40 18 13 50 38 21 72 41 27 76
32 19 66 29 17 57 21 6 40 17 6 31 28 12 41
34 15 44 36 17 45 48 18 48 83 77 81 123 117 112
82 59 85 192 173 209 153 139 180 55 38 93 40 18 85
31 2 82 29 5 78 27 19 67 10 28 51 18 28 50
30 28 58 48 29 71 48 16 70 30 20 49 10 7 25
15 11 17 18 18 12 16 22 13 13 20 14 8 13 15
22 24 20 20 23 14 11 16 19 4 14 22 2 14 24
3 9 33 8 14 31 13 25 13 20 32 43 29 37 61
33 22 41 30 13 34 18 10 33 14 8 39 30 10 48
46 17 58 34 14 65 16 18 65 20 19 78 14 10 107
45 34 126 38 30 110 6 17 62 14 22 20 14 13 2
29 8 13 37 17 33 54 31 41 62 32 31 43 19 17
16 9 51 23 24 79 112 92 173 171 150 235 138 111 193
69 41 119 22 30 51 39 51 52 29 43 45 18 35 32
22 30 35 29 12 57 55 28 94 82 52 125 108 76 153
118 86 164 111 76 148 82 55 114 42 21 72 7 13 26
17 26 5 13 21 6 7 11 14 12 7 23 12 12 31
13 8 38 9 4 47 13 4 53 21 6 49 17 4 42
6 3 37 3 3 35 5 10 35 7 10 38 4 8 33
12 12 27 17 13 25 16 11 29 13 7 28 15 9 29
22 12 25 30 16 18 35 19 25 31 18 21 23 15 6
24 14 4 24 14 6 22 10 4 21 8 3 19 9 3
18 11 9 14 9 11 9 4 12 6 4 16 3 8 20
5 10 22 4 8 20 4 4 16 16 15 19 16 13 13
16 10 3 22 12 3 25 16 7 27 18 10 26 17 9
22 13 4 15 6 6 8 2 12 7 6 15 8 7 15
10 8 15 10 6 13 9 6 14 6 6 15 6 14 19
11 11 19 8 6 16 3 7 19 3 6 17 3 7 16
8 5 19 3 10 14 10 7 13 21 6 18 23 7 14
30 14 17 36 22 24 39 27 27 39 26 29 39 23 31
51 30 49 59 28 71 58 19 91 182 144 218 255 255 255
255 255 255 255 255 255 255 215 255 130 121 154 156 185 143
198 227 193 153 180 157 57 73 68 137 116 113 255 255 255
255 255 255 255 255 255 255 255 255 255 255 255 255 246 255
175 137 175 80 41 80 22 20 23 5 44 3 21 48 6
28 40 6 25 31 9 27 30 14 37 36 17 41 41 4
37 37 3 23 24 18 13 16 32 17 18 38 17 16 32
36 24 49 95 79 103 211 200 209 255 255 255 255 255 255
255 255 255 255 255 255 255 255 255 124 132 101 80 74 111
151 147 182 212 209 242 225 222 255 168 170 216 135 135 195
134 131 193 151 150 205 163 158 212 156 147 195 109 96 141
70 51 95 89 83 108 59 54 77 16 7 49 26 3 59
53 32 86 106 84 137 149 130 181 167 146 200 161 142 195
157 147 193 171 164 208 192 184 227 206 198 242 219 211 254
241 233 255 255 255 255 255 255 255 255 255 255 243 244 252
166 172 174 112 120 120 5 6 15 9 14 15 11 16 17
11 13 26 3 6 28 16 11 34 30 21 38 45 34 54
44 35 51 35 27 42 32 25 40 28 22 34 24 18 31
22 13 33 23 6 37 28 6 45 46 19 54 103 93 99
114 98 101 85 71 96 127 114 142 64 53 82 45 27 64
37 17 60 20 9 40 21 4 38 24 6 39 22 10 37
21 15 35 21 22 36 24 18 37 24 11 35 20 16 34
16 12 32 12 8 28 8 4 24 4 3 19 4 9 14
8 13 10 17 20 13 19 22 10 19 23 3 22 26 6
27 30 13 32 33 19 36 36 24 39 40 29 38 42 47
35 42 53 37 32 28 31 25 15 23 24 11 21 24 15
31 20 19 41 18 22 38 26 28 24 20 37 8 13 61
15 22 84 34 28 89 24 19 73 12 8 42 20 25 5
20 25 10 40 25 19 43 31 34 49 32 32 50 25 13
26 20 19 25 23 71 68 51 113 177 151 230 193 170 239
111 100 125 65 65 57 38 41 11 13 8 33 15 15 41
6 1 32 13 9 20 14 11 8 13 10 18 20 16 35
40 34 61 71 59 98 99 79 122 112 94 130 111 94 135
59 44 87 1 12 23 17 24 9 31 35 14 35 38 13
29 33 7 22 24 17 10 16 21 4 8 23 14 4 26
21 7 23 21 9 24 13 8 20 2 3 10 11 15 5
13 16 10 3 8 7 9 10 13 8 10 12 4 4 9
4 5 12 9 8 14 15 3 16 14 6 26 9 8 24
6 3 14 6 4 9 7 6 9 7 4 8 8 6 8
8 6 8 13 10 13 12 11 13 6 7 8 8 6 8
8 6 8 10 5 8 13 4 8 13 4 8 17 11 8
17 14 8 15 14 11 16 13 11 16 12 10 16 13 11
17 13 11 17 13 11 17 13 11 15 11 9 15 11 9
18 14 12 19 15 13 18 15 13 17 13 12 16 13 11
16 17 14 20 20 17 25 24 20 26 27 21 25 26 17
21 21 15 22 19 19 24 24 20 34 30 33 43 36 40
43 36 35 45 35 34 44 34 33 41 35 32 39 35 34
44 33 40 68 27 66 70 9 82 159 117 187 255 255 255
255 255 255 255 255 255 115 85 152 18 25 53 57 83 61
103 127 95 131 156 122 155 180 145 202 224 192 209 226 198
90 109 79 126 123 124 253 248 252 255 255 255 255 255 255
255 255 255 255 255 255 255 255 255 225 213 229 196 185 200
195 182 201 202 191 213 191 181 205 149 139 163 84 75 98
24 17 39 16 14 30 55 47 70 114 105 128 173 164 188
235 228 248 255 255 255 255 255 255 255 255 255 255 255 255
255 255 255 141 148 131 56 54 61 59 49 77 144 133 163
176 162 199 161 141 179 152 128 169 201 178 221 239 219 255
222 207 255 206 191 255 215 198 255 215 199 255 199 188 245
180 172 225 164 155 206 122 114 163 53 44 96 22 11 66
33 19 77 50 38 89 67 51 104 89 72 125 117 102 153
137 121 177 144 128 189 139 123 184 130 114 174 126 112 169
127 117 168 136 125 175 150 136 185 164 153 196 182 176 211
207 198 231 219 205 239 223 207 243 48 47 58 47 44 58
43 38 51 33 26 48 23 14 48 29 16 49 35 29 41
42 40 45 35 33 39 22 23 22 17 18 18 13 16 17
8 18 23 13 16 23 15 7 32 18 5 43 40 16 54
89 78 88 88 68 83 95 78 107 106 90 120 48 33 59
40 27 51 30 16 43 19 14 27 23 11 31 24 12 28
19 14 26 18 18 26 18 24 23 19 24 22 22 20 22
26 19 26 24 15 26 16 12 21 8 8 16 4 4 11
4 4 11 7 10 10 13 16 6 16 20 9 20 24 13
24 28 16 29 32 22 32 36 25 36 39 29 40 41 34
41 41 37 37 36 36 36 27 22 30 19 14 26 19 13
29 22 12 35 20 12 38 18 19 37 26 21 22 14 29
3 19 61 22 27 80 26 27 75 12 13 53 19 17 23
21 29 7 18 28 19 49 24 21 65 53 53 46 32 26
35 12 4 27 13 29 43 33 86 100 80 137 183 155 227
140 111 190 12 18 75 21 40 68 24 35 63 14 18 54
33 35 44 41 46 22 41 44 21 20 24 44 4 9 52
10 13 43 24 24 34 51 49 51 83 77 84 111 100 113
154 134 162 157 140 172 126 117 146 102 93 123 73 61 90
42 31 55 17 15 24 17 22 25 21 31 25 18 24 23
4 6 19 7 3 4 13 1 4 15 6 9 9 9 15
7 7 16 6 9 12 8 11 8 7 11 4 6 11 4
3 3 3 4 4 4 9 9 9 17 6 17 14 6 22
7 9 16 7 7 13 6 9 13 6 9 13 6 9 11
7 9 10 8 6 11 14 9 14 14 10 13 8 8 8
8 8 8 8 8 8 8 8 8 10 8 8 14 8 6
19 11 2 19 16 8 16 17 15 16 16 16 16 16 16
18 18 18 18 18 18 16 16 16 16 16 16 16 16 16
17 17 17 18 18 18 18 18 18 18 18 18 18 18 18
18 18 18 24 26 26 40 44 44 54 57 55 57 57 54
54 53 50 48 47 46 42 44 44 42 46 46 45 47 47
40 41 39 32 35 27 28 35 20 27 34 16 32 31 17
31 32 23 39 30 34 79 28 77 87 22 99 203 162 234
255 255 255 255 255 255 82 57 139 60 78 85 81 98 103
43 56 69 30 26 10 64 71 61 31 52 22 125 143 115
211 228 198 196 220 183 129 152 111 57 75 45 15 11 19
137 137 140 242 242 245 255 255 255 255 255 255 255 255 255
255 255 255 255 255 255 255 255 255 255 255 255 255 255 255
212 202 216 175 161 182 219 205 228 255 255 255 255 255 255
255 255 255 255 255 255 255 255 255 255 255 255 255 255 255
158 171 163 86 75 82 241 230 247 252 239 255 225 209 233
206 187 218 166 144 179 122 100 136 100 80 115 94 78 122
85 63 116 64 44 105 57 38 104 65 46 114 71 56 121
65 52 115 60 51 110 48 39 99 38 30 88 40 30 86
42 27 91 43 27 92 52 39 93 59 47 100 63 49 109
76 66 127 108 99 159 142 127 193 155 138 208 151 135 203
140 124 190 120 105 166 91 78 135 64 50 108 47 32 89
46 29 83 69 54 99 81 63 109 92 70 117 102 90 102
91 81 95 70 63 83 52 43 71 46 35 69 45 31 69
39 27 55 27 24 41 17 10 29 6 4 12 4 1 3
4 4 9 10 14 18 14 19 18 13 14 23 4 11 27
24 20 47 70 57 71 60 34 67 84 65 98 68 55 86
24 7 39 30 25 48 24 19 42 15 8 25 24 1 31
21 3 30 17 8 28 16 14 26 18 21 23 19 23 23
21 18 22 23 13 20 25 8 18 23 7 17 17 7 13
14 8 11 11 8 11 8 6 13 4 9 4 2 14 2
11 17 9 16 17 10 18 18 12 18 21 9 20 24 14
21 24 16 21 21 13 24 13 23 26 6 32 23 1 35
25 7 31 30 11 26 33 15 24 30 15 27 30 21 31
16 6 44 12 26 72 25 26 75 15 20 64 8 15 44
18 27 16 16 27 14 10 23 24 54 26 22 79 67 59
38 29 19 18 2 14 22 9 32 52 47 92 117 99 148
130 105 170 99 74 158 105 96 164 87 75 151 54 37 127
32 16 110 31 27 100 22 22 85 24 22 77 33 30 85
14 12 79 7 9 66 5 4 45 21 16 17 43 34 24
67 51 57 117 89 114 169 139 166 184 157 187 178 153 189
166 140 175 141 116 143 108 86 103 73 54 74 35 22 50
8 19 26 7 7 19 8 4 16 13 4 15 16 6 14
8 8 15 7 7 12 8 10 7 12 14 10 7 13 5
7 11 4 4 1 1 6 5 5 11 11 11 18 7 16
17 6 19 12 9 11 11 7 8 11 7 11 11 7 11
11 7 11 10 9 9 9 11 8 14 13 13 14 10 14
8 4 12 8 4 12 7 5 12 5 7 12 4 8 12
4 8 13 10 10 13 13 14 10 9 16 9 10 18 7
12 20 9 13 20 10 11 18 9 9 16 6 9 17 6
11 18 7 9 17 5 9 16 6 11 18 9 11 18 9
9 16 6 9 17 6 10 17 7 16 20 15 9 21 13
12 24 18 20 27 23 23 29 24 20 30 25 27 36 29
27 35 25 17 24 16 11 19 7 6 20 3 9 19 0
19 18 1 23 17 6 36 11 18 72 15 63 93 27 103
175 139 210 255 255 255 255 255 255 220 205 255 55 58 107
41 28 57 99 85 105 75 68 54 106 111 87 58 57 50
35 54 41 131 148 133 180 199 181 153 168 145 144 159 140
165 175 168 126 132 132 30 36 34 88 81 85 165 157 161
212 202 209 240 225 239 223 210 224 179 169 183 165 157 170
190 183 195 215 205 220 255 254 255 255 255 255 255 255 255
255 255 255 225 223 242 142 145 159 62 72 77 65 64 41
151 143 125 237 229 223 255 255 255 255 255 255 233 225 233
195 183 198 150 137 159 114 101 126 94 81 112 83 69 103
63 54 95 46 30 84 53 33 94 53 30 102 46 24 91
37 18 82 27 11 72 26 26 71 21 19 70 21 7 73
37 18 88 45 24 97 41 22 92 41 29 87 49 41 91
51 43 91 45 34 90 76 65 117 90 72 137 93 69 150
100 77 155 104 79 159 104 77 155 89 68 134 64 51 111
38 20 84 27 6 67 40 18 73 52 33 84 64 45 93
109 97 109 98 86 104 79 67 97 65 54 87 63 51 82
57 46 81 44 30 66 25 10 42 19 7 31 17 8 28
15 9 20 13 11 11 14 14 13 14 21 16 13 18 19
7 10 16 8 16 32 47 35 52 45 20 60 58 48 72
31 30 52 18 5 31 30 22 47 23 20 34 12 10 15
19 8 26 14 4 29 14 3 24 13 9 20 15 14 16
15 16 18 14 8 19 13 5 17 16 6 17 22 5 18
22 8 18 22 9 19 19 8 18 16 6 19 11 3 15
8 6 11 13 4 13 14 4 15 9 9 16 9 9 16
9 7 21 9 6 26 8 8 32 10 14 40 11 19 47
13 20 49 25 13 47 28 6 41 25 6 35 18 6 35
21 12 42 13 6 54 17 25 71 20 19 62 9 16 49
19 22 33 20 26 11 8 17 16 18 9 30 61 38 30
76 65 53 32 22 9 8 4 17 13 11 32 55 51 88
110 100 140 73 55 112 56 44 103 77 58 130 70 44 132
57 30 122 51 25 123 61 39 136 80 58 150 77 61 142
58 47 122 37 29 103 33 27 93 30 27 81 24 27 64
18 24 45 10 20 29 11 8 7 45 29 35 74 54 68
98 79 98 127 105 128 146 124 143 152 132 142 144 127 136
114 98 125 59 46 78 18 18 19 9 13 4 12 6 7
13 4 9 6 6 5 12 12 10 15 17 13 11 16 7
8 11 6 6 6 3 4 0 0 10 7 7 13 13 13
18 7 12 20 5 15 13 8 11 11 8 8 11 8 9
11 7 11 11 7 11 9 8 11 8 8 9 14 13 14
14 12 16 8 4 12 8 4 12 8 6 12 6 8 12
4 8 12 4 8 13 7 8 19 9 8 18 3 9 8
6 12 6 8 13 7 7 13 6 6 12 5 3 9 4
1 9 3 4 11 3 4 11 3 5 10 6 8 11 9
7 11 8 4 11 4 3 10 3 9 5 12 25 16 28
32 27 37 22 15 21 17 3 7 13 5 5 8 11 11
24 21 20 12 17 9 2 13 1 9 4 4 13 4 1
18 9 0 27 15 1 30 14 7 38 7 17 66 10 42
98 31 92 109 72 136 178 161 232 255 255 255 255 255 255
214 193 255 126 102 169 79 63 93 64 79 52 112 128 115
81 90 91 53 67 70 74 89 92 123 142 143 116 134 132
87 104 106 87 100 105 96 103 112 75 80 91 43 54 61
42 54 56 71 82 82 114 121 122 132 142 139 118 130 127
84 93 87 74 66 69 122 104 116 170 152 162 142 125 134
55 46 52 88 109 88 168 178 156 222 217 207 252 241 237
255 255 255 255 255 255 255 255 255 233 227 235 159 151 161
140 133 137 143 138 144 136 131 142 123 120 134 102 99 117
75 69 92 46 39 73 43 30 92 63 42 110 63 36 105
49 22 87 39 12 75 34 14 71 42 26 84 59 42 106
63 41 113 59 33 108 58 31 102 57 31 99 51 31 96
55 36 95 61 44 93 51 39 86 71 66 99 52 53 81
11 17 66 18 24 64 32 31 75 56 38 96 71 44 109
78 53 116 84 58 121 86 64 123 94 71 127 103 81 131
108 84 132 65 65 67 70 62 75 76 59 90 71 59 94
67 55 87 58 48 80 44 32 71 34 20 52 24 15 38
16 8 27 12 8 18 9 7 10 7 10 6 8 18 13
4 16 20 4 6 22 12 8 31 31 21 48 38 27 58
31 26 51 18 19 40 22 7 40 34 19 50 21 9 31
11 15 20 13 15 29 12 13 28 14 8 18 12 7 13
10 10 13 9 10 16 6 6 15 3 6 11 6 7 13
13 7 17 14 9 18 17 5 20 17 6 22 15 8 25
15 9 22 12 9 22 16 12 23 20 15 24 21 19 29
24 22 32 25 24 36 23 27 41 21 30 48 21 31 55
22 33 59 23 33 59 34 27 54 37 19 44 23 8 35
12 6 39 15 11 41 9 16 48 12 21 57 14 6 44
22 16 29 29 28 24 20 22 22 14 6 6 43 25 25
67 55 41 58 47 36 27 13 2 4 6 18 13 16 33
49 49 77 88 85 115 55 39 88 30 24 66 33 15 81
50 19 103 56 29 108 58 20 113 78 40 133 95 60 154
89 61 150 67 45 128 55 35 114 54 35 107 54 37 102
57 43 103 63 49 104 71 57 103 81 67 103 86 74 100
77 67 91 53 47 72 30 24 51 43 36 54 68 68 68
88 90 88 117 110 134 99 90 119 51 58 57 33 44 37
23 26 20 14 16 9 12 16 8 18 22 15 16 20 15
6 10 9 6 7 7 1 3 3 6 2 2 11 8 8
14 14 14 19 8 11 22 4 9 16 4 7 11 6 7
8 9 6 6 9 8 6 9 9 5 9 9 7 6 8
14 12 13 14 14 12 8 12 4 8 12 4 9 11 4
11 9 4 12 8 4 11 8 6 11 6 17 10 3 20
0 4 10 6 6 6 7 7 7 6 6 6 5 5 5
2 2 2 0 0 0 2 2 2 4 4 4 6 6 6
8 8 8 6 6 6 4 4 4 3 3 3 15 12 13
7 8 3 18 30 30 8 13 19 19 9 13 30 22 27
39 30 38 52 35 44 40 18 31 18 6 10 9 6 3
13 3 2 17 11 0 26 15 3 28 16 12 38 8 19
63 6 29 97 34 82 100 68 118 73 60 115 126 101 187
255 255 255 255 255 255 255 255 255 243 236 255 202 213 253
173 181 222 116 120 167 70 78 121 60 68 115 93 105 150
121 133 175 102 116 155 85 98 128 100 107 131 95 97 125
58 68 99 46 57 85 72 81 108 101 108 139 95 102 133
44 56 83 41 44 51 20 14 18 35 23 31 28 34 51
57 72 88 113 125 138 151 155 171 178 174 191 189 177 191
178 168 174 164 159 165 165 158 173 167 157 177 148 140 160
122 115 132 106 98 113 103 100 110 111 112 117 119 120 122
117 120 119 105 109 109 92 94 104 75 69 109 46 38 82
20 19 39 6 15 31 10 21 30 16 7 43 60 33 82
96 62 116 112 78 135 112 81 141 109 82 140 107 77 136
100 63 127 84 47 110 69 41 98 57 40 87 49 48 77
27 44 36 33 48 23 34 49 24 31 44 31 26 31 45
31 17 62 48 22 75 64 41 88 76 56 101 79 57 102
74 51 92 68 43 83 28 28 28 56 52 61 78 66 89
77 66 94 64 54 80 51 37 70 37 24 63 38 23 57
32 17 49 16 6 31 9 3 18 6 8 11 6 11 9
11 17 20 9 18 30 8 17 32 17 10 36 21 21 49
28 24 48 15 9 33 19 18 35 33 25 54 34 19 53
21 11 33 9 19 20 13 19 24 14 17 22 16 13 16
9 13 11 4 13 11 4 10 13 4 10 15 1 9 13
0 9 12 5 9 14 7 7 17 11 1 20 16 1 24
15 6 28 16 8 27 15 8 28 14 9 28 16 10 28
19 15 33 24 21 38 25 27 42 27 33 45 25 33 48
16 33 53 16 34 57 25 32 57 40 34 53 43 29 45
24 12 32 11 7 30 9 10 36 6 17 44 4 12 43
10 8 29 26 24 12 24 25 18 17 17 30 29 17 21
64 51 21 64 56 24 31 22 6 21 6 10 9 4 18
15 21 33 41 48 63 60 63 82 59 41 76 70 45 90
84 51 114 96 51 135 99 52 140 93 44 133 95 48 131
89 41 129 84 34 122 70 26 108 62 22 101 61 20 101
63 20 100 68 29 105 79 40 111 92 52 118 103 64 123
111 76 128 114 83 132 114 83 132 109 77 120 94 62 99
70 40 77 43 16 60 58 45 84 82 78 97 68 75 73
54 63 57 36 41 36 17 21 14 13 16 9 16 20 14
13 16 11 12 11 12 6 6 6 1 3 3 7 6 6
13 8 9 14 13 13 19 10 13 24 3 6 20 4 1
9 3 2 7 6 2 4 4 2 6 6 4 4 4 3
5 3 3 13 7 9 14 10 10 4 8 0 4 8 0
5 7 0 7 5 0 8 4 0 8 4 5 15 4 16
14 2 20 3 4 11 7 7 7 7 7 7 7 7 7
7 7 7 4 4 4 2 2 2 4 4 4 6 6 6
6 6 6 7 7 7 7 7 7 6 6 6 6 6 6
11 6 6 10 30 21 16 34 26 13 9 6 54 37 46
80 62 74 99 80 92 117 98 109 111 83 100 58 34 54
3 13 3 8 9 1 11 12 0 20 15 4 27 18 15
38 12 18 68 11 30 79 27 53 90 61 108 85 70 131
36 7 91 84 58 142 252 223 255 255 255 255 255 255 255
255 255 255 225 221 255 138 137 226 61 57 150 30 30 116
42 42 135 84 84 170 98 103 182 112 120 189 141 146 207
158 156 215 131 131 194 72 74 142 33 37 92 50 48 55
34 30 35 14 7 53 29 29 61 15 20 66 36 46 100
79 90 138 96 109 152 82 86 131 69 56 103 75 62 103
90 84 120 100 104 133 106 109 139 97 91 131 80 73 116
68 64 106 73 72 104 70 73 97 54 58 76 42 46 61
57 59 73 96 96 107 128 132 138 139 145 150 134 137 146
119 114 116 90 71 87 74 46 75 67 40 70 75 47 79
115 86 119 132 97 140 145 111 154 152 120 162 148 118 161
136 106 154 115 84 134 85 54 105 59 27 80 43 27 62
16 26 38 13 38 12 15 35 16 7 11 32 31 13 57
49 32 73 58 42 81 59 42 81 58 39 76 56 33 70
50 28 65 39 16 56 28 7 44 48 43 45 73 72 81
78 71 91 68 60 82 61 48 68 47 31 60 42 33 64
53 41 70 61 46 79 49 38 68 30 20 41 13 3 21
3 10 13 6 14 11 6 16 15 7 21 22 18 15 29
14 18 32 11 15 28 17 21 30 25 24 40 34 26 51
17 4 30 16 17 19 23 13 25 21 6 25 10 12 17
11 18 14 7 18 12 5 11 14 12 3 22 21 6 27
27 8 32 27 14 36 26 21 40 26 25 43 25 24 42
22 19 38 16 15 35 13 15 31 13 17 33 13 15 33
9 9 25 1 5 21 4 8 22 3 15 28 12 25 36
28 28 42 20 23 35 27 5 20 49 28 26 61 40 30
55 31 24 36 14 6 23 10 13 14 16 34 4 17 40
9 15 37 13 20 24 24 31 8 12 16 7 20 20 34
42 31 32 75 64 25 57 47 11 12 14 12 12 9 12
16 6 20 21 29 36 29 47 49 32 43 49 35 21 45
65 38 75 69 32 81 76 29 93 94 41 116 101 46 123
98 46 116 92 36 111 99 36 115 100 32 108 99 31 102
106 38 109 112 44 119 116 49 127 120 54 132 121 56 134
119 57 137 119 61 138 124 67 139 135 74 143 146 83 148
148 90 149 144 91 146 140 89 142 116 75 122 74 48 82
51 38 57 43 41 45 30 31 30 13 19 11 6 14 3
4 11 9 16 9 11 16 14 15 9 6 9 11 1 11
13 7 13 16 7 11 10 14 9 14 19 11 29 13 10
24 4 3 9 9 1 12 7 3 12 4 4 11 4 6
9 1 7 8 2 8 14 4 10 16 6 10 7 1 5
5 3 7 4 4 8 3 5 9 2 6 11 6 5 12
11 1 22 16 11 24 18 15 11 15 11 4 11 7 4
7 4 7 3 4 11 4 8 15 5 9 17 7 11 18
7 11 18 10 13 21 13 17 24 16 19 27 18 22 29
20 21 30 13 22 25 21 19 24 84 69 83 174 155 168
238 218 232 255 235 248 231 214 224 183 171 179 163 145 158
111 89 106 13 5 8 11 8 3 16 8 2 21 12 6
24 18 13 33 20 14 78 35 40 66 20 34 48 20 57
97 79 129 69 40 112 22 38 69 51 18 109 153 121 218
214 190 255 226 208 255 203 185 255 189 174 255 156 143 255
110 96 216 93 79 203 109 95 221 126 115 237 131 124 236
155 150 253 195 185 255 207 196 255 178 168 255 122 118 217
76 78 172 60 65 155 65 69 158 62 65 152 50 58 141
44 55 135 40 46 128 21 25 111 13 3 87 54 23 84
72 50 112 60 62 128 49 61 128 42 53 120 30 41 105
32 37 99 43 40 99 44 40 96 36 41 85 29 37 65
16 16 51 44 35 71 69 61 92 87 78 106 101 92 116
118 115 126 148 144 134 155 134 133 147 119 122 153 124 131
169 138 152 168 140 160 136 108 136 127 100 127 143 116 142
151 124 148 148 124 146 143 119 144 128 102 131 98 71 104
62 31 72 36 4 44 25 1 33 30 22 37 45 31 50
56 40 61 63 46 72 66 49 78 65 48 79 55 33 68
35 12 46 25 6 36 27 11 36 24 11 33 104 98 101
122 117 127 79 71 90 56 48 66 58 47 63 56 43 62
51 40 68 47 38 65 55 42 71 61 45 83 48 38 63
22 11 33 8 6 18 8 7 11 4 8 5 7 13 8
15 9 18 11 8 14 2 2 14 11 12 29 21 16 38
20 8 34 15 13 18 11 4 16 24 12 31 23 12 31
12 6 20 6 11 14 12 14 16 11 13 21 18 7 26
30 14 35 39 33 51 40 37 54 30 31 46 21 25 38
16 21 33 16 19 32 14 20 37 13 19 35 11 14 27
8 16 30 10 22 34 6 24 35 7 20 31 9 11 22
22 10 9 50 16 8 67 36 30 80 54 53 91 68 64
85 61 54 65 38 31 38 16 12 18 13 22 13 22 38
15 20 39 4 9 27 15 23 11 27 37 12 13 23 4
28 27 34 51 45 38 67 58 26 49 37 6 15 3 14
13 4 15 14 15 24 17 33 34 14 39 33 16 33 29
27 8 33 41 20 43 24 12 27 29 12 34 52 6 58
67 18 70 70 21 74 73 21 77 83 28 85 93 32 85
99 33 81 104 39 90 108 43 99 111 44 110 110 43 118
106 41 117 105 42 120 107 46 127 110 48 127 114 48 122
117 50 122 120 56 125 125 64 126 131 72 126 134 83 123
124 92 118 100 84 100 72 60 72 48 37 48 33 21 33
32 18 30 40 23 36 42 25 38 35 20 33 31 15 29
32 16 30 29 11 26 22 3 18 12 6 10 6 15 1
32 23 14 29 17 11 4 3 12 3 3 12 3 5 13
1 7 15 0 8 16 1 9 17 13 12 19 15 13 18
6 13 17 8 15 19 8 16 20 9 17 21 13 18 23
15 17 24 7 16 35 4 10 32 7 1 10 3 1 9
1 5 13 7 11 19 11 15 23 14 18 26 11 15 22
3 3 10 10 10 14 23 25 32 41 45 52 63 66 74
80 84 92 94 95 104 115 115 124 155 149 159 206 196 207
223 209 219 200 186 194 148 134 143 105 94 106 110 103 112
168 158 167 117 102 114 10 7 9 10 8 6 17 5 8
18 6 9 14 12 5 24 18 9 74 46 38 80 40 47
41 20 35 60 45 74 66 30 91 40 17 83 25 16 72
49 23 93 57 27 122 74 48 151 92 61 173 137 108 217
165 142 255 159 136 255 151 127 255 160 136 255 169 146 255
167 148 255 168 151 255 181 168 255 191 183 255 184 176 255
163 156 255 153 149 255 138 132 249 101 93 211 70 64 183
43 40 160 7 12 126 26 27 97 41 42 84 42 38 87
72 49 82 103 74 67 108 82 40 114 92 20 114 95 11
101 78 29 81 59 65 67 44 86 36 15 86 10 17 82
32 35 93 51 40 103 66 51 106 59 43 89 30 16 61
22 15 54 39 40 69 71 75 64 93 88 66 93 81 64
100 84 77 114 94 98 102 79 92 70 44 64 72 44 70
84 60 77 91 70 80 109 92 96 137 118 123 155 132 144
154 133 146 139 117 135 128 102 123 118 102 114 108 98 107
93 80 92 73 59 72 53 38 56 40 24 49 34 19 43
34 24 46 27 16 42 20 1 31 28 11 33 34 19 37
174 169 165 198 192 196 123 117 123 66 57 68 48 38 52
46 34 49 47 32 59 31 20 52 31 18 49 55 41 80
54 40 71 27 15 43 9 5 25 7 7 15 5 6 10
8 6 5 16 4 13 13 3 13 8 3 14 14 3 17
12 4 18 12 1 18 15 3 17 22 8 23 13 2 19
13 12 15 18 12 22 19 6 27 19 2 27 16 9 27
11 10 24 17 25 28 9 20 24 18 10 19 23 9 13
24 10 10 22 4 8 14 9 17 5 23 30 19 26 35
20 17 26 13 10 18 19 8 16 32 6 11 52 18 17
76 41 38 101 63 61 122 80 78 120 81 86 98 66 72
73 46 44 45 20 16 23 6 10 18 17 22 19 16 23
20 18 30 24 18 33 20 12 26 17 17 15 15 23 4
21 31 16 44 47 39 50 52 41 46 39 21 35 21 6
23 15 20 20 9 17 9 16 22 3 27 27 13 35 25
26 38 34 42 26 40 48 22 37 44 14 32 46 12 38
46 12 36 49 13 36 49 13 39 47 13 44 51 14 55
60 17 59 64 20 55 64 19 59 64 17 63 64 16 66
63 16 72 61 16 78 64 19 84 70 20 90 70 21 90
66 23 88 64 24 88 67 25 87 71 27 82 69 29 71
69 35 66 73 46 70 73 55 71 73 59 71 73 59 71
72 58 70 74 58 70 72 56 69 65 51 63 56 44 52
50 38 44 45 33 39 40 27 33 37 22 28 34 16 24
29 12 22 30 11 8 22 17 6 8 19 8 8 20 4
9 19 4 11 17 4 12 16 4 12 16 4 18 20 10
18 23 13 14 22 11 17 19 11 19 19 11 19 19 11
18 19 11 17 22 13 18 29 37 19 30 40 22 32 29
22 34 30 21 33 29 20 32 28 20 32 28 20 32 28
22 34 30 23 35 31 36 46 43 52 62 59 66 76 72
78 88 85 86 97 94 96 104 101 120 123 123 137 132 140
96 85 93 58 45 43 132 128 123 193 192 188 224 222 222
224 214 223 175 160 174 80 69 76 7 8 3 7 11 4
16 7 6 17 3 3 16 2 2 20 2 6 56 32 18
75 46 40 62 35 42 60 31 53 54 13 54 48 6 63
51 8 78 50 7 90 34 10 87 23 28 71 27 28 76
48 24 106 67 42 141 82 53 170 98 66 192 106 75 203
108 81 213 117 100 233 124 112 244 136 123 251 152 142 255
146 136 252 110 100 227 89 80 214 87 74 209 79 62 199
61 49 191 59 49 192 59 49 190 55 48 189 50 45 188
44 44 185 23 22 160 50 29 101 98 68 53 126 91 26
141 111 10 147 123 30 157 136 67 155 133 78 125 108 59
77 67 34 35 33 48 31 17 73 37 25 84 27 19 71
16 23 47 16 35 31 20 34 42 6 30 29 34 36 18
35 27 17 26 13 27 29 20 42 23 28 42 22 36 45
50 50 73 58 61 76 25 38 45 26 12 32 51 35 43
89 73 75 121 104 106 142 128 125 150 138 137 143 134 135
128 118 119 108 96 103 83 72 83 60 50 62 42 31 48
25 22 40 30 22 37 37 19 43 45 27 54 48 30 59
53 34 60 231 226 219 255 255 255 180 174 176 85 78 83
31 22 33 18 9 23 45 29 52 41 26 56 35 24 57
54 44 82 54 40 74 33 18 48 12 4 32 7 8 23
6 6 17 6 2 11 12 4 14 13 6 16 13 4 12
18 1 12 14 3 16 13 2 16 14 3 16 23 7 25
13 5 20 6 10 16 17 12 25 22 9 30 20 15 33
15 20 34 8 19 33 8 21 21 27 16 6 38 19 13
38 13 16 40 11 13 47 16 14 60 28 27 78 44 43
80 44 43 70 33 35 79 40 46 111 66 72 133 87 95
141 98 103 138 91 98 123 75 81 98 52 60 70 27 37
45 11 16 30 3 4 18 6 7 14 9 13 19 12 16
29 20 21 34 28 36 28 21 34 22 16 24 22 16 23
10 1 16 24 25 26 40 40 36 36 37 29 26 19 9
20 7 12 11 8 17 15 4 10 11 7 13 9 18 23
21 30 24 29 37 32 47 32 37 55 28 35 51 24 31
49 24 29 48 26 27 50 26 31 48 27 27 45 27 30
48 29 44 56 32 53 61 35 53 63 35 57 63 35 63
62 34 68 62 35 73 60 35 77 60 32 77 62 28 75
61 28 76 58 31 74 56 32 72 57 32 72 55 32 68
54 33 61 57 38 59 60 41 59 61 40 59 61 39 59
60 37 58 61 36 59 61 35 59 59 34 58 59 34 56
55 33 49 51 32 41 50 33 40 51 34 41 51 34 40
49 32 38 48 29 40 40 22 36 22 9 23 12 1 17
12 0 18 11 3 18 9 4 18 8 4 18 8 4 18
16 11 20 17 11 19 13 3 15 13 6 17 8 8 17
6 6 16 9 6 16 10 3 13 2 10 20 7 18 25
10 22 18 6 20 16 6 20 16 7 20 16 8 21 17
8 22 18 27 41 37 64 77 73 77 90 86 64 77 73
48 59 56 35 42 39 30 28 28 38 21 27 64 36 47
90 70 71 125 117 115 169 160 162 200 186 189 203 190 191
182 168 172 145 125 136 87 66 78 35 20 24 15 3 5
15 9 2 20 9 3 21 4 4 22 3 6 26 2 7
51 28 18 68 46 33 57 34 34 61 33 44 61 21 47
57 16 57 60 18 72 63 19 84 64 28 94 45 20 84
25 13 73 34 17 77 31 24 79 16 23 78 7 32 70
26 50 56 36 59 45 38 52 59 21 27 90 40 30 128
102 91 175 120 109 193 81 71 171 30 22 142 28 23 141
50 40 163 49 39 169 44 32 165 38 28 163 38 33 164
48 43 174 59 56 188 54 61 189 39 46 160 32 12 119
49 28 104 63 45 84 86 64 49 131 111 39 172 147 71
187 163 85 188 166 83 184 168 89 170 160 91 130 128 72
72 72 50 25 19 58 9 16 62 16 18 41 13 20 19
11 20 6 18 15 11 14 10 17 6 16 17 38 51 49
80 89 91 113 114 128 132 132 145 120 123 136 105 107 121
75 79 93 37 44 56 9 18 24 18 9 13 35 11 24
32 9 27 17 10 18 20 20 22 28 25 36 31 30 40
33 32 38 28 28 42 28 14 31 38 19 40 45 22 51
47 24 55 49 27 56 231 234 221 255 255 255 253 246 246
133 129 127 37 29 33 3 13 5 35 21 41 42 25 53
36 25 56 57 46 82 52 42 78 36 20 53 16 6 34
8 9 30 9 6 23 10 2 17 11 4 19 8 2 14
15 3 13 20 0 14 18 1 16 13 2 16 10 1 16
20 4 26 15 7 24 8 4 20 7 10 20 6 14 22
5 17 29 3 18 31 0 17 29 11 19 22 20 17 19
33 17 19 50 16 27 78 38 41 115 72 75 158 113 116
195 150 151 203 157 156 182 131 134 167 110 119 153 98 106
129 80 84 101 53 56 69 18 23 37 13 6 26 15 12
34 1 4 36 11 15 41 18 24 40 24 25 34 23 23
24 14 18 13 8 15 20 19 27 23 14 25 23 17 20
21 15 23 27 19 31 32 24 37 32 23 34 27 21 34
28 22 32 24 14 18 13 7 15 17 7 12 17 6 3
15 3 11 26 16 15 28 26 16 49 29 23 54 32 26
43 33 20 42 32 16 42 32 13 39 33 16 37 34 17
39 33 20 42 35 27 46 40 36 47 40 37 46 38 40
47 39 46 47 39 50 46 38 49 47 39 48 43 36 44
33 29 39 27 27 39 27 27 37 26 26 34 27 25 34
25 23 34 26 23 33 29 22 32 29 17 28 27 10 24
26 8 24 27 8 24 28 7 23 29 5 20 29 5 17
28 7 21 30 10 27 32 12 27 37 17 27 43 25 31
48 30 36 52 35 40 54 37 46 51 39 54 46 39 55
41 39 50 40 40 48 41 39 48 43 37 48 44 36 48
44 36 48 45 39 49 43 40 49 42 36 47 45 33 46
47 33 47 47 33 47 46 32 46 46 34 46 41 29 38
28 15 20 20 8 7 18 10 4 18 10 4 18 11 6
18 11 6 18 10 4 35 33 33 37 38 40 8 11 16
17 11 9 36 29 23 55 48 42 74 66 60 90 80 74
110 97 94 135 119 121 145 129 133 133 112 119 106 83 89
82 59 66 65 40 49 47 23 38 32 10 29 26 4 10
28 2 7 25 6 8 25 8 6 22 8 7 21 6 6
24 3 4 46 24 15 65 42 27 58 32 29 57 30 33
60 25 41 63 24 53 64 25 64 67 27 69 82 44 85
72 40 87 44 16 68 43 29 53 42 53 31 50 75 19
77 99 41 108 127 70 131 146 84 138 151 76 132 141 62
100 104 14 92 88 65 102 94 108 75 73 106 39 32 88
27 21 75 30 23 75 30 24 80 31 23 85 25 18 87
21 21 83 26 28 77 33 35 71 68 62 96 91 79 107
67 52 66 57 46 69 46 43 80 49 46 75 71 55 42
106 85 34 129 110 42 152 138 54 182 169 90 212 192 123
217 199 143 176 161 121 99 82 64 29 13 62 25 40 76
14 33 51 7 16 25 9 11 16 10 15 10 28 37 16
62 67 52 92 94 77 102 102 102 128 124 133 137 132 148
147 137 161 148 135 162 141 128 157 131 118 146 119 112 135
115 110 130 107 109 126 97 105 112 85 96 95 66 78 73
41 58 48 18 38 24 15 19 26 17 3 32 24 6 37
25 4 40 27 8 45 29 4 50 180 183 172 255 255 255
255 255 255 216 212 202 99 93 90 47 44 47 47 37 50
53 37 61 41 30 58 58 47 80 54 43 82 37 22 57
17 9 35 9 9 29 10 4 26 13 2 24 15 5 24
11 1 13 16 3 14 18 0 19 20 0 18 13 1 16
8 2 16 15 3 24 13 8 26 13 8 24 13 3 17
17 3 15 23 8 16 29 16 11 37 22 14 53 27 20
71 27 28 90 47 48 112 74 77 136 97 99 152 108 115
156 109 116 147 99 106 138 92 98 135 89 91 103 51 55
52 15 13 14 38 29 6 49 41 16 36 28 42 8 2
85 48 53 111 87 85 99 88 83 73 60 58 46 31 34
23 23 29 15 26 32 17 26 28 7 13 17 17 6 9
19 13 16 16 11 16 28 24 29 45 42 50 58 56 65
64 62 71 64 61 66 53 49 50 38 38 36 38 35 30
34 28 24 30 18 15 39 3 7 36 11 7 47 21 20
49 27 19 33 31 9 31 28 4 28 26 1 26 29 1
24 32 7 24 30 11 26 28 13 28 28 17 28 28 18
28 28 24 28 28 26 28 28 22 28 28 17 28 28 16
22 26 13 12 18 7 9 15 6 8 14 12 9 15 10
11 15 6 12 15 8 12 14 11 14 8 12 15 4 8
6 7 6 8 5 4 9 5 4 9 3 4 10 3 4
7 4 4 4 3 4 11 2 10 15 2 15 20 3 13
28 8 15 31 12 20 34 16 24 37 19 27 39 24 34
40 29 46 40 32 53 40 32 54 41 31 54 43 29 54
44 28 54 44 28 54 47 32 57 49 38 61 49 39 61
51 37 59 52 36 58 52 36 58 53 37 59 55 39 59
57 41 53 48 37 40 38 29 27 38 28 24 38 28 24
38 28 24 39 29 25 41 31 27 61 52 49 84 74 71
90 80 76 89 79 75 87 77 73 85 75 71 82 72 68
80 69 65 82 73 69 86 78 76 80 63 67 59 35 40
38 14 20 40 14 25 54 13 31 56 10 32 48 7 27
36 5 13 29 2 2 30 3 4 32 4 6 31 6 5
28 4 3 29 3 1 41 20 8 60 35 21 61 33 25
55 28 21 54 22 29 58 24 41 62 28 49 62 30 53
78 44 69 82 48 75 64 40 62 66 48 60 58 53 50
49 57 35 48 54 32 47 57 29 48 57 22 53 65 36
81 88 51 91 95 42 85 84 37 75 67 57 49 47 74
41 38 93 45 43 105 47 47 112 59 61 128 78 80 146
85 83 152 69 67 139 39 36 107 17 9 72 61 51 88
71 62 112 31 28 87 24 27 72 24 33 71 38 54 76
44 50 55 66 48 32 69 51 27 58 49 21 64 54 23
106 75 29 178 146 107 230 199 162 219 188 153 148 118 89
65 29 9 9 31 43 11 23 39 14 19 28 17 21 16
36 41 28 57 66 51 58 70 50 15 23 9 28 20 35
48 38 51 74 61 81 91 76 101 101 87 118 107 93 123
102 92 118 94 88 108 83 84 97 72 80 85 63 74 73
51 65 58 38 52 40 24 35 20 9 20 3 8 12 19
16 8 26 9 10 28 10 15 32 11 13 35 105 105 101
253 253 247 255 255 255 255 255 255 220 215 213 136 130 133
98 89 97 84 69 89 59 45 70 58 47 79 56 44 82
35 22 59 20 3 39 11 4 26 7 1 26 15 6 30
19 3 25 15 3 11 14 1 14 14 0 23 20 0 22
15 3 16 8 2 16 9 1 21 10 3 26 14 7 24
21 13 17 34 22 22 51 35 33 70 53 49 89 68 65
126 91 89 161 122 119 170 131 132 156 120 125 135 94 103
101 60 69 60 28 33 33 43 41 16 58 51 23 60 53
29 57 51 28 62 54 4 41 34 41 17 16 86 42 51
128 83 90 149 120 121 122 102 98 89 77 75 58 56 61
48 48 59 34 43 50 16 24 30 11 8 8 26 21 15
21 16 13 16 7 15 9 11 9 26 29 27 55 56 55
79 79 79 90 89 89 95 92 92 90 87 87 78 78 75
74 71 62 63 59 49 52 43 39 58 24 26 48 8 12
50 17 22 50 20 15 26 24 1 19 23 1 16 22 4
11 27 4 7 27 6 7 22 8 13 19 6 17 16 7
18 13 2 20 13 12 20 12 10 21 12 3 22 11 1
21 9 0 22 13 7 20 13 6 19 8 5 19 7 1
20 9 2 18 9 6 16 8 5 14 9 1 20 7 6
19 3 6 9 5 4 12 4 1 13 6 2 13 4 2
13 4 5 12 3 6 14 3 5 17 1 7 18 2 11
20 1 9 19 0 6 13 1 3 9 3 1 10 4 0
15 2 4 17 1 14 14 2 20 10 3 22 8 4 22
8 4 22 8 4 22 8 4 22 14 6 25 22 11 31
24 15 35 24 17 37 23 18 37 22 19 37 23 21 39
25 20 38 38 26 37 44 30 37 42 28 33 44 28 34
43 27 33 43 27 33 44 28 34 43 27 33 51 35 41
67 51 57 74 58 64 74 58 64 75 59 65 77 61 67
78 62 68 77 62 68 69 56 61 56 44 47 47 27 32
39 13 18 27 5 10 34 18 31 44 14 34 40 8 21
32 4 11 26 3 7 23 2 0 24 2 0 27 2 0
31 6 0 29 4 1 28 1 2 35 13 4 49 28 15
53 32 19 49 27 15 44 20 20 44 23 22 54 24 28
57 25 37 68 38 52 80 48 61 75 53 59 80 59 65
71 57 60 70 59 56 82 71 69 93 80 81 92 82 95
81 79 96 42 44 60 11 1 17 27 19 9 21 12 27
37 32 56 51 48 75 57 60 89 68 75 107 80 87 119
88 94 126 93 97 130 88 93 125 76 83 111 62 62 97
68 61 100 74 69 113 54 46 98 28 17 81 21 23 76
42 60 85 33 56 66 50 35 16 64 41 17 42 13 29
19 31 68 30 54 85 41 30 47 124 91 75 213 174 156
244 200 181 210 163 143 126 97 73 48 40 18 9 11 14
18 24 30 34 39 38 47 56 54 56 73 70 73 87 84
73 87 82 51 68 59 31 42 36 21 18 20 20 14 28
25 14 34 19 9 30 8 4 13 12 5 6 6 4 7
1 6 8 10 13 11 17 19 14 19 21 18 13 18 17
16 17 20 15 7 23 5 8 22 6 13 23 5 16 21
42 42 45 136 136 128 255 255 247 255 255 255 255 255 255
184 179 178 130 122 126 112 100 110 79 67 82 61 46 75
59 45 81 33 24 60 18 6 48 16 8 34 14 6 31
18 8 39 21 4 34 14 7 22 13 5 20 14 4 27
20 4 27 15 6 19 8 4 18 7 7 21 12 9 25
22 7 18 40 10 17 60 27 32 80 46 50 97 62 70
111 73 83 143 91 104 150 96 112 123 75 91 91 47 63
62 17 32 37 12 13 17 25 25 11 33 35 9 39 40
9 37 38 28 23 13 73 46 35 113 79 73 132 97 94
129 95 93 105 78 73 46 42 32 30 37 48 65 71 81
61 68 77 51 49 58 32 29 34 23 18 16 26 23 16
22 21 15 20 12 16 23 6 18 6 18 11 37 46 41
58 63 60 72 73 72 79 78 78 91 87 87 99 90 92
95 81 88 94 72 77 85 66 62 75 57 52 75 41 41
64 21 24 59 24 22 50 20 10 25 16 0 17 13 1
13 14 7 6 20 9 5 14 13 4 9 11 12 8 9
17 8 7 11 4 5 11 4 13 11 4 14 13 3 7
13 1 3 12 0 0 17 6 9 18 10 9 18 8 6
19 9 6 19 9 3 17 6 7 15 4 2 10 4 3
19 6 6 23 8 7 24 6 5 24 6 4 21 6 3
19 4 1 18 4 3 16 4 6 15 4 7 13 1 5
13 0 9 13 0 8 7 1 0 4 6 6 6 9 9
7 11 11 9 11 12 7 10 13 8 10 3 12 9 0
12 8 0 12 8 0 12 8 0 12 8 0 9 7 2
3 5 6 4 3 9 5 2 10 4 3 11 3 1 11
1 1 11 4 4 14 13 9 21 24 14 23 32 18 22
31 17 21 32 17 21 34 18 22 33 17 21 32 16 20
29 13 17 25 9 13 26 10 14 31 14 21 39 21 31
48 30 40 56 37 50 62 42 58 59 36 51 48 23 35
46 20 33 51 18 35 47 17 31 43 19 38 34 11 31
7 9 2 6 10 12 19 9 13 16 1 0 15 3 0
17 4 0 22 8 1 23 4 2 25 1 1 34 6 3
47 21 12 50 29 13 47 21 6 41 12 11 39 16 13
49 15 8 57 15 14 69 31 41 80 48 59 77 53 58
80 54 60 69 47 48 76 58 59 98 84 85 119 106 102
127 116 113 118 108 104 101 89 85 62 57 56 34 30 31
36 27 33 34 22 32 29 14 24 9 8 5 6 12 18
15 15 4 32 31 18 47 43 33 52 43 44 42 38 42
40 41 55 67 64 83 93 89 113 99 88 119 99 84 122
103 90 130 108 109 139 79 92 118 3 19 45 44 30 16
62 44 43 76 72 88 99 113 138 115 141 167 74 103 126
41 19 26 165 121 101 250 192 172 233 180 158 141 109 92
57 40 44 13 32 51 39 53 60 34 45 51 32 46 55
55 67 75 65 75 79 60 67 69 42 47 46 24 27 27
19 23 22 28 33 28 36 41 37 35 41 34 35 35 33
29 24 27 23 18 16 13 11 9 10 6 15 19 8 21
19 9 22 22 18 25 13 8 18 6 8 16 6 3 17
2 6 14 10 10 9 33 33 34 119 119 117 244 241 237
255 255 255 255 249 245 181 170 174 137 127 129 86 79 84
70 48 70 78 53 91 57 34 87 36 10 75 29 10 64
29 14 55 30 14 57 25 11 58 12 10 51 14 6 44
18 3 43 20 1 40 22 4 30 25 1 24 32 6 23
47 7 24 72 20 35 102 37 59 123 56 78 130 63 86
121 56 82 104 38 66 100 28 57 77 17 38 39 16 8
37 12 6 31 17 5 25 20 13 22 14 14 29 0 7
33 16 10 38 22 11 56 35 24 74 54 43 75 58 44
54 41 28 26 14 25 39 44 60 70 73 95 74 79 106
48 60 85 33 36 56 36 29 33 37 31 25 22 19 14
4 2 7 20 14 13 26 15 13 23 8 11 11 26 18
46 54 48 48 52 53 17 25 27 13 7 18 27 23 30
45 31 40 61 37 49 80 48 59 100 64 69 112 74 75
113 68 70 96 42 44 81 29 23 58 15 8 29 9 2
25 3 2 23 10 6 19 13 11 24 4 6 27 0 8
24 1 6 14 4 3 6 3 0 3 3 6 4 4 13
6 4 11 8 4 8 8 4 8 4 3 7 3 4 7
6 6 8 6 6 10 3 3 7 2 2 12 2 2 11
3 1 9 8 1 7 11 3 5 15 1 4 15 2 3
14 4 1 13 3 0 10 3 0 7 3 0 5 1 0
4 0 0 4 0 8 4 0 8 1 2 2 5 5 5
6 6 6 4 4 4 6 3 6 10 3 11 14 5 9
12 8 10 9 9 11 11 11 13 12 12 14 13 13 15
16 16 18 18 18 20 16 17 19 14 16 18 10 15 16
6 13 13 4 12 12 3 10 11 8 3 9 21 8 14
25 12 12 25 13 9 28 14 12 29 13 15 29 13 17
31 15 19 33 17 22 35 14 26 37 13 29 39 15 34
41 15 34 40 12 31 40 11 32 42 13 32 47 15 36
39 13 31 31 14 29 38 8 28 48 12 30 45 10 28
34 4 15 28 11 11 26 1 4 31 12 18 22 0 0
22 2 0 23 5 0 25 7 2 30 6 1 35 4 3
41 6 1 51 15 9 60 23 11 69 28 12 70 26 12
62 20 12 58 13 3 61 8 3 75 27 33 84 45 51
85 46 56 94 55 68 94 57 71 97 66 78 93 68 76
88 64 69 83 58 63 89 54 52 112 77 72 99 68 65
89 55 51 81 54 49 69 44 40 62 40 42 24 19 17
27 46 41 67 80 75 104 115 108 127 138 128 117 131 116
80 94 77 35 47 32 20 7 22 80 73 83 127 121 134
152 144 163 165 155 178 185 180 202 180 183 206 113 116 145
53 46 81 74 63 84 110 105 114 90 82 105 50 60 106
75 91 136 70 82 129 17 42 89 94 30 33 179 108 88
192 137 128 146 103 100 59 19 31 19 48 66 31 54 74
19 31 52 26 18 40 24 18 36 40 33 47 46 35 49
42 31 45 36 28 40 32 28 36 23 23 31 5 12 4
19 21 12 6 6 10 9 15 8 10 17 2 6 9 13
20 13 24 22 21 21 15 18 23 10 3 23 13 11 27
13 11 31 15 11 35 19 19 28 13 13 17 23 21 29
106 102 111 226 221 226 255 255 255 255 255 255 204 195 193
143 134 135 122 103 123 128 102 142 123 91 153 114 80 150
113 78 147 125 85 150 130 85 151 106 72 135 74 56 113
60 42 96 50 28 77 40 17 62 36 7 46 34 5 31
48 4 22 79 27 39 103 41 60 117 52 74 114 52 77
98 37 65 74 15 44 50 18 21 46 35 13 46 41 25
23 34 19 18 22 11 21 18 16 16 14 23 12 13 22
18 14 27 12 6 25 17 4 21 28 14 33 27 18 44
30 18 53 39 31 67 51 46 77 60 55 82 51 44 73
20 20 50 13 10 36 17 14 35 22 19 35 29 25 31
32 26 24 34 23 19 43 28 24 49 32 29 37 25 20
30 35 22 47 54 40 49 53 44 37 38 29 32 36 24
15 28 9 6 16 6 20 13 13 39 15 21 69 37 44
106 68 74 133 87 92 127 73 77 113 48 39 73 18 8
29 13 4 30 9 0 36 9 2 23 8 12 16 4 11
23 1 6 20 2 3 12 3 3 6 3 4 3 3 6
1 1 10 1 0 7 3 0 3 4 0 4 6 1 2
5 3 8 1 3 11 3 1 8 4 0 4 4 0 6
4 0 8 3 0 8 3 1 5 0 4 1 2 4 4
3 4 4 4 3 3 4 0 0 4 0 0 4 0 0
4 0 0 4 0 0 3 0 8 1 0 8 1 1 1
4 4 4 8 8 8 11 11 11 14 10 10 18 9 4
10 6 2 3 5 4 4 4 6 3 3 8 0 0 8
3 3 9 7 7 14 9 9 17 8 11 17 4 10 15
2 8 12 4 6 9 5 3 7 8 2 2 20 9 4
24 7 9 23 5 9 24 7 8 23 8 11 24 7 13
26 6 14 25 5 15 28 8 21 35 10 30 37 9 35
34 8 33 31 3 25 27 3 20 24 6 15 21 6 9
28 4 17 28 1 19 12 6 9 11 4 4 18 4 7
20 4 6 16 4 6 22 5 6 30 8 10 27 9 15
19 0 0 20 1 1 22 4 3 24 8 4 25 8 6
28 6 6 36 11 4 41 12 4 47 7 4 61 20 10
67 23 10 62 19 3 56 14 6 57 8 10 74 26 27
83 34 30 85 37 40 96 51 63 101 62 77 100 65 78
92 57 68 84 49 58 72 35 44 74 33 30 96 61 59
90 55 55 87 49 49 80 49 47 85 57 51 91 65 61
63 41 41 45 32 29 54 50 42 66 62 57 61 68 59
59 74 62 68 87 75 75 89 80 74 82 74 44 46 42
21 13 25 58 51 61 88 84 93 155 155 164 226 228 237
231 236 250 179 182 201 128 127 151 102 98 118 66 59 74
19 14 25 39 43 57 59 61 85 40 54 89 21 25 64
100 56 42 164 125 123 151 115 121 84 48 56 24 17 31
9 39 55 18 33 53 25 18 39 17 6 24 18 16 25
35 23 35 41 27 38 31 21 33 13 10 18 8 13 8
20 20 18 17 16 17 6 3 14 6 4 13 4 12 11
9 10 13 20 20 25 20 23 24 9 8 25 9 10 31
9 4 34 4 6 34 3 6 31 42 46 31 9 13 8
9 5 22 25 24 31 105 101 113 225 222 235 255 255 255
255 255 255 255 255 255 226 220 224 196 189 202 181 172 196
171 159 190 156 143 176 151 137 166 158 129 161 146 108 145
106 76 117 87 55 104 67 35 85 47 20 70 37 13 56
37 13 41 63 28 33 84 45 48 77 40 44 69 35 38
50 25 26 27 20 4 11 27 12 4 32 19 24 28 14
36 24 24 28 30 38 25 37 48 17 28 45 8 13 32
6 9 21 11 10 25 12 7 27 10 4 20 16 11 25
20 13 34 23 13 39 26 18 43 25 20 40 20 14 34
10 9 24 12 13 22 27 19 30 39 27 38 49 34 41
56 37 37 56 31 31 50 23 25 57 34 36 63 43 45
57 46 46 52 46 44 51 51 43 47 47 39 33 33 27
15 19 14 18 7 15 12 4 5 6 17 18 1 9 9
20 7 7 61 44 44 114 89 89 135 100 99 145 88 73
99 44 28 36 6 3 35 13 4 30 6 8 27 12 21
27 20 22 17 14 14 3 3 10 6 3 9 4 4 10
4 4 13 4 4 12 4 3 8 4 1 7 4 0 8
4 1 7 4 3 4 4 4 0 4 4 0 4 4 0
4 4 0 4 4 0 4 4 0 2 4 4 1 4 4
1 1 0 3 3 3 4 4 4 1 1 1 0 0 0
0 0 0 0 0 0 0 0 0 0 0 6 0 0 8
0 0 8 0 0 8 0 0 8 0 0 8 10 3 8
20 6 8 16 7 8 16 8 8 16 9 9 16 9 9
16 8 8 17 9 9 20 13 13 19 11 11 17 9 9
17 9 9 18 11 11 18 11 11 19 11 11 19 11 11
21 10 6 16 4 9 7 0 3 8 0 11 8 3 11
9 4 10 9 3 11 8 2 13 5 5 13 1 6 9
4 6 6 4 9 3 4 8 1 4 6 2 3 7 1
2 9 0 14 2 4 22 2 11 15 6 13 12 4 12
12 4 12 12 4 12 12 4 12 12 4 12 13 4 11
10 3 8 4 0 0 6 0 2 9 0 2 11 2 2
11 3 3 11 4 4 23 16 1 26 14 2 18 3 4
24 3 2 34 4 0 42 9 5 48 14 4 48 9 4
59 20 18 72 25 20 73 30 24 75 34 34 74 39 43
76 44 47 86 49 50 98 56 58 102 55 56 95 48 47
92 55 57 78 44 50 64 29 36 60 25 32 78 49 48
90 65 58 80 55 57 74 45 52 93 65 75 123 97 106
121 104 108 78 64 70 17 7 10 40 51 40 82 88 80
102 107 100 101 103 101 94 94 94 72 66 61 74 69 68
164 166 168 238 245 246 237 247 246 175 188 186 132 140 141
104 113 118 84 98 103 80 96 100 85 92 95 76 78 85
80 78 90 116 93 74 177 153 144 163 133 138 97 64 69
38 15 10 10 20 18 23 17 27 20 18 29 9 16 16
17 10 6 11 5 13 18 8 16 16 9 14 17 13 14
20 23 20 32 36 37 46 47 54 58 59 71 61 64 76
46 47 62 27 21 43 21 18 27 14 11 24 3 7 25
2 10 20 9 7 15 10 11 12 11 15 9 176 180 160
121 123 113 37 37 34 21 21 30 55 52 66 119 115 133
210 208 216 255 255 255 255 255 255 255 255 255 197 195 197
150 147 161 121 119 139 75 71 100 21 10 45 61 42 59
77 54 72 48 36 62 52 41 77 42 30 74 31 11 60
38 10 50 60 29 54 79 45 57 71 42 50 50 23 34
46 17 23 33 13 14 17 9 9 15 8 14 15 8 19
15 3 12 23 14 29 32 29 51 41 36 60 36 34 54
24 23 35 12 13 20 6 4 22 16 6 23 16 5 20
8 5 22 16 9 27 21 15 29 21 17 30 22 16 27
20 10 24 18 8 21 23 15 21 43 29 31 61 39 40
76 46 44 80 46 45 75 38 45 65 30 41 74 47 53
70 42 48 69 52 52 64 54 51 55 47 45 48 44 40
41 38 31 27 23 19 26 19 23 6 5 4 9 23 22
13 14 3 26 33 21 41 45 33 91 81 75 132 111 103
175 132 115 150 102 75 82 43 19 53 14 4 18 12 12
13 18 23 30 16 15 30 22 6 6 9 18 5 1 16
0 2 11 0 2 8 0 3 6 0 4 4 0 4 4
0 4 4 2 5 3 6 7 1 8 8 0 8 8 0
8 8 0 8 8 0 8 8 0 8 8 0 8 7 5
6 5 6 3 3 3 3 3 3 4 4 4 4 4 4
1 1 1 0 0 0 0 0 0 0 0 0 0 0 3
0 0 6 0 0 8 0 0 8 0 0 8 0 0 8
6 1 8 13 3 8 15 4 8 16 4 8 16 6 9
16 8 9 16 8 8 16 8 8 18 10 10 18 10 10
18 10 10 19 11 11 19 11 11 18 9 11 19 8 11
19 7 11 15 4 13 7 1 13 0 0 9 1 0 11
4 1 11 3 4 12 4 4 13 3 3 13 6 9 10
10 10 6 11 8 3 10 8 2 9 8 1 8 5 3
8 6 3 6 9 1 8 5 0 13 6 3 11 6 6
8 4 8 8 4 8 8 4 8 8 4 8 8 4 8
7 3 6 4 1 3 0 0 0 1 0 1 3 0 3
6 1 5 8 3 7 8 4 6 19 16 4 22 17 5
15 7 6 22 6 3 31 6 1 37 9 5 44 13 4
47 8 6 50 16 14 60 21 20 68 27 22 70 32 25
71 33 25 71 30 23 74 32 23 84 37 27 100 47 34
110 57 47 107 58 65 99 52 68 86 42 54 82 39 49
96 57 61 105 69 67 97 58 68 105 71 86 123 95 107
140 111 122 149 126 134 122 107 112 68 52 64 22 8 27
12 19 12 44 53 47 76 83 80 106 110 108 134 135 128
123 123 115 84 76 76 138 139 139 184 186 186 174 183 177
157 168 160 151 161 153 155 161 153 165 171 162 185 190 180
170 177 172 103 126 133 31 2 12 154 143 136 199 187 184
169 149 146 89 64 64 36 4 12 14 25 19 9 33 27
9 20 17 21 3 5 12 2 11 17 7 18 27 16 23
24 22 27 22 24 26 43 42 49 56 55 66 54 58 67
55 59 68 63 64 72 66 64 79 60 61 75 57 64 76
56 61 76 49 50 69 44 44 59 43 42 55 41 38 55
255 255 240 244 244 235 145 145 137 23 23 14 33 32 48
37 33 58 74 70 88 153 151 160 225 226 221 215 218 197
145 147 131 75 73 81 87 84 99 107 104 125 98 95 106
98 104 95 74 89 82 51 66 70 43 50 70 27 25 60
31 9 44 55 27 45 72 36 58 78 43 59 65 35 49
49 17 39 40 2 26 21 11 8 5 16 8 2 15 7
4 11 16 1 12 31 13 24 45 28 31 46 37 31 41
43 38 43 40 36 40 23 21 22 5 2 17 16 6 15
19 10 16 3 5 17 1 3 18 1 7 16 4 9 17
10 11 16 15 8 15 26 6 16 41 18 22 62 35 37
84 48 47 89 53 47 85 50 48 80 44 47 73 39 44
80 51 51 65 32 36 76 53 55 73 55 54 58 42 41
48 34 37 48 37 35 41 33 28 27 24 22 9 6 9
3 13 11 26 28 17 23 35 23 13 25 9 49 39 36
92 76 66 164 131 117 190 146 124 151 104 73 105 59 28
38 7 4 4 22 23 22 14 30 33 22 29 8 9 26
6 4 14 0 4 6 0 4 4 0 4 4 0 3 3
0 1 1 0 0 0 3 3 0 4 4 0 4 4 0
4 4 0 4 4 0 4 4 0 4 4 0 4 4 0
6 4 7 6 4 8 4 4 4 4 4 4 3 3 3
4 4 4 4 4 4 1 1 1 0 0 0 0 0 0
0 0 0 0 0 0 0 0 0 0 0 0 0 0 0
0 0 0 3 0 0 6 0 1 7 0 3 8 0 4
9 2 6 9 2 8 8 0 8 8 3 8 8 3 9
10 2 11 12 4 12 11 4 11 10 3 9 11 3 8
9 1 6 8 0 4 6 0 10 2 0 11 0 0 9
1 1 11 4 3 9 7 6 7 9 6 5 8 4 3
14 17 1 16 18 2 13 14 1 14 11 3 15 11 1
13 9 2 13 9 2 14 11 6 10 13 6 6 9 3
8 2 0 0 0 0 0 0 0 0 0 0 0 0 0
0 0 0 1 0 0 3 0 0 4 0 0 4 0 0
4 0 0 3 0 0 1 0 0 0 0 0 13 13 2
18 13 0 20 5 2 24 7 0 31 9 2 37 12 3
43 13 3 47 7 3 47 9 4 49 13 9 57 15 11
61 16 9 59 11 1 52 1 7 44 6 9 47 6 6
69 20 2 98 48 18 111 61 39 110 57 58 104 47 61
98 45 59 108 61 67 116 72 74 103 57 71 98 62 80
101 73 86 121 88 98 157 127 136 156 130 135 110 86 95
75 55 71 69 49 64 55 36 47 26 11 16 56 57 56
135 140 131 176 182 171 114 107 107 56 43 42 126 116 114
158 151 144 147 141 133 121 111 104 105 91 86 118 106 103
179 171 165 237 231 221 255 255 255 245 233 239 136 110 118
82 64 69 163 145 145 156 134 131 75 52 51 9 29 20
24 32 38 33 19 31 40 25 38 35 30 40 37 32 41
49 36 47 50 41 53 45 35 53 59 45 66 76 68 77
81 79 76 68 65 62 38 28 27 17 20 25 46 51 58
61 65 71 53 58 63 33 34 45 13 13 26 13 13 24
7 9 24 224 224 216 255 255 255 255 255 255 134 137 123
27 30 16 10 8 31 26 27 21 49 50 49 194 195 183
251 255 229 191 195 176 116 116 114 111 110 111 115 113 131
82 79 100 47 54 59 28 43 46 15 24 33 39 4 47
67 38 68 90 64 80 102 74 87 99 70 89 93 63 83
81 50 72 63 39 59 36 24 44 9 16 29 12 29 23
22 41 30 27 46 38 26 41 48 23 33 52 24 26 37
24 20 20 38 37 28 46 42 37 33 29 24 11 9 4
22 11 6 22 16 4 13 16 3 20 24 10 24 29 11
21 30 15 18 26 10 20 18 1 33 16 7 51 27 17
75 43 38 95 57 52 94 56 50 88 49 48 84 42 45
78 38 42 75 44 37 53 23 20 74 54 51 76 55 55
65 43 41 55 35 36 53 36 39 46 38 32 28 31 26
27 24 31 27 16 22 26 16 18 17 13 21 20 17 29
16 11 21 31 15 7 102 69 64 164 120 112 175 127 110
155 105 74 88 44 20 29 8 9 25 19 18 22 13 19
8 4 12 10 11 4 8 10 2 8 10 2 8 9 1
8 8 0 8 8 0 8 8 0 8 8 0 6 6 0
4 4 0 4 4 0 4 4 0 4 4 0 4 4 0
4 4 0 6 4 7 6 3 8 3 3 0 4 4 4
4 4 4 3 3 3 4 4 4 4 4 3 3 3 0
1 1 0 0 0 0 0 0 0 0 0 0 0 0 0
0 0 0 0 0 0 1 0 0 3 1 0 1 3 0
0 4 0 4 6 1 4 8 3 0 8 4 3 8 5
3 5 7 4 4 8 4 4 7 4 4 5 4 4 4
6 4 3 4 1 1 4 0 0 5 1 8 7 3 8
8 5 6 8 8 9 10 9 3 13 11 0 13 9 0
13 9 0 20 22 2 19 20 2 14 11 2 13 9 1
13 9 4 15 11 3 14 10 6 15 10 10 18 16 11
20 17 8 19 12 0 16 12 0 16 12 0 16 12 0
16 12 0 16 12 0 16 12 0 15 11 0 13 9 0
12 8 0 11 7 0 9 5 0 8 4 0 6 5 0
3 11 2 13 9 0 19 6 2 22 7 0 29 10 1
34 14 3 40 16 4 43 9 1 43 6 0 43 8 1
48 11 4 53 11 1 53 11 8 49 11 10 39 10 11
37 9 12 52 6 10 82 27 1 104 53 7 106 54 21
104 48 35 104 49 47 113 61 62 119 69 68 102 57 53
68 32 32 58 35 40 89 50 57 145 113 117 169 135 139
141 106 113 100 75 84 88 69 78 89 71 79 70 51 56
15 6 3 101 110 99 186 195 184 176 177 174 84 79 68
69 51 35 104 85 73 100 84 79 78 62 58 51 31 25
53 27 31 96 67 73 161 133 137 237 212 217 255 255 255
255 255 255 207 181 189 114 75 90 119 93 98 108 93 90
50 27 29 49 35 50 64 50 70 62 50 68 55 51 64
55 52 65 66 57 72 77 66 80 80 69 87 86 72 94
94 79 96 104 92 100 111 101 105 104 94 97 85 75 79
73 64 68 78 70 74 98 89 94 103 94 100 95 88 89
93 87 85 92 85 86 160 164 153 255 255 255 255 255 255
255 255 254 138 142 127 50 52 39 33 33 20 42 42 38
172 172 161 255 255 245 218 222 206 117 117 115 80 80 84
80 76 99 61 59 89 47 46 74 40 22 55 63 45 57
95 77 91 123 105 122 135 113 131 128 102 121 109 86 109
87 68 93 62 50 75 45 47 63 33 44 56 24 36 51
24 35 40 27 42 28 28 46 31 27 43 41 22 27 44
13 13 25 7 10 6 28 32 17 42 42 31 41 37 29
27 24 16 25 20 17 19 20 18 17 26 25 25 35 35
30 42 40 34 43 43 36 38 37 31 30 17 43 30 11
60 39 20 78 51 43 99 63 60 98 54 47 86 41 31
77 33 25 69 29 27 62 28 20 47 13 13 72 47 43
81 56 55 79 52 52 70 44 47 58 37 39 44 40 33
38 42 40 40 40 45 48 44 51 51 49 55 49 49 56
43 51 55 31 51 51 18 44 46 42 21 29 102 52 51
144 97 85 167 119 98 140 88 59 78 32 11 29 0 0
21 13 4 29 23 6 22 21 4 16 18 0 16 17 0
16 16 0 16 16 0 16 16 0 16 16 0 14 14 0
10 10 0 8 8 0 8 8 0 8 8 0 8 8 0
8 8 0 8 8 0 9 7 5 9 6 8 4 4 5
3 3 6 4 4 6 4 4 4 3 3 4 3 3 3
4 4 0 3 3 0 0 0 0 0 0 0 0 1 0
0 3 0 0 4 0 0 4 0 3 6 0 7 11 0
8 12 0 8 12 0 9 13 0 9 13 0 8 12 0
8 12 0 8 12 0 8 12 0 8 11 0 6 9 0
5 9 0 7 11 0 6 9 0 4 8 0 12 9 7
17 10 7 19 10 9 22 12 6 22 14 0 22 15 0
21 13 0 18 14 0 18 23 1 16 17 3 13 9 3
13 9 1 12 8 5 13 7 4 12 7 10 12 8 11
18 13 13 25 20 14 26 23 12 24 24 12 24 24 12
24 24 12 24 24 12 24 24 12 23 23 11 21 21 9
19 19 7 17 17 5 15 15 3 13 13 1 11 11 0
10 10 0 7 9 1 7 1 2 12 9 1 15 8 0
23 9 0 28 14 0 31 20 3 35 16 2 38 11 1
40 8 0 44 12 4 51 16 0 58 21 8 63 21 11
62 15 10 66 16 10 69 26 9 73 20 2 88 35 0
92 42 0 96 43 4 99 47 15 110 58 37 116 65 47
117 68 54 87 41 26 67 40 43 80 35 32 123 88 84
156 123 118 155 120 113 134 107 100 118 95 95 108 88 96
102 88 93 52 53 52 68 86 77 184 199 188 250 255 250
203 208 186 70 78 62 39 17 13 69 45 44 90 62 65
96 62 61 95 50 50 96 39 48 97 36 49 98 55 63
128 105 112 202 178 191 255 231 244 223 200 212 131 102 115
78 46 58 80 56 63 46 25 31 34 17 33 34 23 38
27 20 34 28 20 34 37 29 42 51 43 56 61 53 70
69 57 81 74 57 83 78 58 80 85 69 87 98 88 104
109 102 117 120 112 128 130 121 137 122 114 127 96 84 101
81 65 83 79 62 80 74 58 80 117 121 109 184 186 181
255 255 255 255 255 255 235 238 227 127 132 112 47 48 33
19 19 20 122 122 113 233 237 219 255 255 249 205 205 202
136 136 140 92 89 108 60 61 87 53 51 79 79 67 88
110 99 111 123 116 125 122 114 124 104 92 112 73 60 86
41 30 58 16 14 47 10 22 45 30 45 49 45 54 59
39 50 62 30 36 48 17 21 22 8 12 17 9 17 38
12 19 37 9 10 10 9 13 6 20 24 9 36 36 26
48 44 35 46 42 35 23 23 22 13 18 18 25 30 31
27 36 41 22 36 42 35 42 42 51 44 47 45 36 30
56 40 20 71 49 23 81 58 46 99 66 67 95 45 39
73 20 10 61 15 2 56 17 10 48 13 9 43 9 9
67 32 29 86 50 49 95 57 58 84 49 54 63 33 35
42 34 29 38 42 36 38 39 37 49 43 49 63 60 67
58 66 71 44 57 63 35 53 61 36 60 68 40 59 67
52 39 43 93 47 35 145 95 80 163 106 85 119 63 32
48 11 0 39 36 13 41 30 12 33 22 13 14 15 0
12 16 0 12 15 1 12 13 3 12 12 4 12 12 4
11 11 3 7 7 1 4 4 0 4 4 0 4 4 0
4 4 0 4 4 0 4 4 3 7 4 6 9 4 3
6 4 3 4 4 6 3 3 6 4 4 5 3 3 3
0 0 1 4 4 0 4 4 0 0 0 0 0 1 0
0 4 0 0 4 0 0 4 0 0 4 0 6 8 0
10 13 0 8 12 0 8 12 0 9 13 0 9 13 0
8 12 0 9 13 1 9 13 2 7 11 1 6 9 0
8 11 0 7 11 0 7 11 0 8 11 0 7 11 0
17 11 5 26 13 4 21 14 7 20 14 3 20 13 0
20 13 0 20 13 0 20 15 0 20 19 0 15 12 0
13 6 1 15 6 1 13 6 5 13 6 7 14 4 10
14 3 9 20 6 9 24 19 18 24 26 22 24 26 22
24 26 22 24 26 22 24 26 22 24 26 22 22 24 20
17 19 14 15 17 10 15 17 9 14 16 7 13 15 4
11 13 1 14 9 0 16 3 0 13 6 0 10 7 0
6 4 0 11 4 0 21 7 0 26 13 1 25 14 2
26 13 3 28 10 2 35 17 3 44 19 0 53 26 3
61 29 8 66 30 11 74 39 10 72 35 6 63 18 1
66 20 0 69 24 0 75 26 0 82 31 0 88 42 16
93 47 22 112 64 41 118 72 50 102 64 49 87 44 22
102 63 51 123 89 74 141 102 85 151 115 97 153 122 110
148 128 126 158 145 149 118 115 117 71 78 85 139 151 148
255 255 255 255 255 255 177 181 153 53 35 29 80 46 16
99 58 42 116 70 64 126 74 74 122 62 68 106 40 51
83 31 40 72 30 42 97 64 80 155 130 143 202 186 194
193 181 189 121 108 118 45 15 30 53 50 47 43 43 38
17 24 14 21 28 16 21 29 17 15 23 11 6 12 5
11 4 18 38 31 47 68 58 86 72 60 93 64 52 83
75 63 95 93 82 113 103 94 123 100 88 117 82 65 96
59 41 70 46 31 57 43 27 54 41 22 48 77 77 74
123 123 124 181 181 177 251 251 242 255 255 255 228 232 213
94 97 79 13 13 14 63 63 56 154 157 142 249 252 241
255 255 255 255 255 255 232 231 246 175 176 195 140 141 161
133 131 146 110 109 120 65 68 74 12 21 42 41 41 65
76 77 81 92 92 89 91 91 85 84 83 76 82 79 71
71 67 63 47 45 52 21 24 39 7 17 30 7 6 27
8 6 48 7 16 33 17 23 13 16 25 18 20 28 22
30 35 31 51 48 39 52 47 41 19 19 14 16 16 15
31 34 32 24 32 28 7 11 8 49 33 28 81 53 62
89 62 64 102 72 60 112 75 55 111 75 64 109 66 67
90 34 27 54 8 1 34 8 1 36 9 2 39 5 3
40 9 3 54 13 10 84 38 33 108 60 62 101 62 67
77 37 42 38 20 18 23 26 17 27 24 30 37 32 43
42 39 46 41 39 44 34 33 34 19 21 21 5 19 19
18 28 26 30 35 32 47 18 15 107 53 44 174 116 102
166 108 76 75 28 17 26 36 15 17 13 6 33 13 15
24 14 0 25 16 1 27 19 7 29 21 12 31 23 17
32 24 22 32 23 23 29 19 20 25 13 19 22 10 20
16 6 16 9 4 9 4 9 4 7 14 3 8 11 5
3 1 3 9 4 4 9 6 6 8 4 4 9 6 3
9 6 1 8 4 0 9 6 0 11 8 0 12 8 0
12 8 0 12 8 0 12 5 0 12 4 0 12 4 0
13 10 0 13 13 0 9 9 0 11 11 0 11 11 0
11 11 1 11 11 3 11 11 4 16 16 12 28 28 21
34 34 25 34 34 23 31 31 19 27 27 13 24 24 9
23 23 7 33 24 10 40 28 12 28 29 13 21 24 8
16 17 3 13 13 0 13 15 0 18 20 0 30 26 10
39 29 23 43 29 31 41 25 29 35 21 25 39 25 33
46 31 38 43 28 31 40 31 26 47 47 35 48 52 40
48 52 40 48 52 40 48 52 40 48 52 40 48 52 40
49 53 41 48 52 40 45 49 37 43 47 35 42 46 34
39 43 31 37 41 28 38 38 26 40 34 24 38 31 21
35 31 19 37 29 16 36 22 12 29 17 9 21 15 6
12 10 3 9 2 1 20 12 2 25 16 1 24 7 0
28 13 0 34 16 0 34 15 0 31 16 0 32 6 0
40 15 0 44 11 0 48 13 0 54 14 0 67 20 0
75 30 9 84 39 14 100 57 22 116 75 34 112 68 30
100 56 27 99 54 43 104 61 47 116 74 56 130 90 71
132 104 85 151 136 120 208 203 197 221 219 216 169 169 163
52 54 57 157 150 156 255 255 255 255 255 255 153 141 112
80 46 1 80 50 9 78 32 20 106 48 33 127 71 48
131 70 58 134 77 68 125 82 70 102 68 64 88 57 61
110 90 97 151 136 145 150 143 152 98 100 106 23 16 25
41 41 34 46 50 38 39 44 31 30 37 23 22 30 17
16 24 11 13 21 6 46 48 40 47 41 51 51 39 73
53 41 77 60 48 84 70 54 91 76 54 93 72 50 89
68 52 88 69 55 88 70 56 89 73 57 91 78 59 90
38 38 37 83 83 89 113 115 112 163 166 148 255 255 252
255 255 255 141 145 126 10 10 9 24 24 18 68 71 55
143 146 132 206 206 198 228 228 225 208 208 218 161 166 181
108 116 138 51 59 84 10 11 39 45 39 55 88 83 101
117 114 127 122 123 123 116 115 109 108 101 94 107 90 83
101 82 75 81 65 57 54 36 34 28 6 12 9 16 25
4 18 42 9 14 55 28 34 37 32 42 33 30 42 38
31 39 40 31 40 36 43 40 31 42 32 27 26 22 13
22 18 9 23 29 24 22 24 23 45 26 29 87 57 61
113 85 94 118 88 88 122 83 73 120 76 64 109 67 62
97 48 45 72 18 11 40 0 0 25 7 2 30 4 0
35 3 2 36 10 0 41 4 3 69 20 14 99 45 48
103 61 64 85 44 46 48 18 16 19 19 16 15 9 30
19 21 30 24 15 20 40 22 23 47 34 30 35 22 17
28 13 10 37 8 6 44 12 7 28 24 27 58 17 18
148 89 81 188 132 104 102 56 37 11 25 8 2 27 11
18 7 6 23 13 4 25 13 6 27 16 13 29 20 16
31 23 19 32 24 23 36 28 28 44 34 36 48 36 42
48 36 46 47 35 47 41 30 43 34 22 38 28 14 30
16 9 18 11 10 10 11 8 8 11 7 7 11 7 7
13 9 8 13 9 6 12 8 1 12 8 0 12 8 0
12 8 0 12 7 0 12 5 0 12 4 0 12 4 0
12 4 0 13 13 0 13 16 0 11 11 1 11 11 3
11 11 4 11 11 6 11 11 8 11 11 7 25 25 23
37 37 31 41 41 33 39 39 31 38 38 29 36 36 25
32 32 20 31 29 17 37 27 15 34 26 11 20 21 13
21 21 10 24 24 9 29 29 16 36 36 24 43 41 31
42 35 35 40 29 38 49 33 47 61 47 59 63 49 61
57 43 58 52 38 50 47 38 43 41 40 35 46 50 36
40 42 32 40 42 30 40 42 30 40 42 30 40 42 30
40 42 30 42 44 32 44 46 34 43 45 33 41 43 31
38 40 28 36 38 26 34 36 24 33 36 21 38 37 20
40 37 20 42 36 21 47 37 22 45 35 19 38 28 15
28 22 12 18 19 9 11 16 6 10 14 3 4 12 0
10 14 0 9 14 0 6 10 0 6 8 0 1 14 0
1 17 0 21 13 1 34 6 4 40 9 6 47 11 4
58 17 1 67 24 4 75 32 11 77 37 12 76 30 7
86 36 4 93 48 22 92 43 35 85 37 27 82 34 19
81 35 19 81 40 25 101 72 53 166 154 146 243 239 235
255 255 250 223 219 215 54 53 48 201 194 202 255 255 255
255 255 255 63 59 34 32 46 0 32 23 0 54 17 1
54 22 10 70 25 22 80 29 33 82 38 38 66 31 33
50 20 23 47 27 28 73 65 64 112 105 111 116 117 122
83 83 89 25 23 32 15 10 16 15 11 19 15 11 19
8 10 13 5 15 3 15 25 7 59 64 52 61 69 47
28 40 8 12 25 11 10 22 18 15 22 19 13 19 20
6 11 25 20 6 42 42 26 63 55 34 71 59 37 72
60 42 77 22 22 22 59 57 69 79 79 87 106 110 95
243 246 225 255 255 255 174 178 157 17 17 8 10 10 7
29 33 16 97 101 81 174 174 163 214 214 207 196 196 196
138 138 137 113 111 115 110 105 110 107 101 97 107 99 106
104 95 115 97 88 113 86 77 90 80 66 71 72 58 56
73 56 51 76 59 51 75 52 44 70 41 32 60 33 20
34 11 11 16 30 44 39 51 73 52 60 62 51 59 53
51 55 56 43 46 49 28 34 31 24 16 13 29 18 13
31 29 22 39 38 30 44 47 36 49 50 40 67 54 45
96 71 67 110 85 88 102 69 67 93 53 35 82 42 25
71 34 26 63 25 16 48 6 0 37 6 0 39 7 1
40 9 2 31 7 1 26 5 0 27 11 0 56 10 5
87 33 37 96 50 56 85 46 48 61 27 24 36 20 23
17 5 32 13 18 27 19 7 13 45 22 23 58 38 36
45 29 27 19 13 9 25 11 4 49 18 9 27 22 26
25 32 35 121 64 59 186 131 112 115 68 46 26 20 1
12 33 6 13 16 9 12 11 11 11 11 11 11 11 16
11 11 16 9 9 14 9 9 13 13 13 15 20 20 23
26 26 34 30 30 38 36 36 44 40 40 49 40 38 51
41 34 47 35 25 34 19 15 18 11 11 11 11 11 11
11 11 9 11 11 7 11 11 6 11 11 4 9 9 1
8 8 0 8 8 0 8 8 0 8 8 0 8 9 0
8 11 0 8 12 0 13 18 0 16 18 0 15 11 2
15 11 3 15 11 3 16 13 6 16 13 6 16 12 4
32 30 27 30 27 24 20 16 9 20 16 9 23 19 13
25 22 14 27 23 15 26 23 15 27 19 11 21 11 6
11 6 10 13 5 12 17 10 16 25 18 28 33 26 40
37 27 48 37 22 50 35 16 46 29 11 40 24 6 35
28 12 36 20 7 30 13 7 18 22 10 24 27 30 27
21 29 14 4 4 6 4 4 0 4 4 0 4 4 0
4 4 0 4 4 0 7 7 6 9 9 8 7 7 5
12 12 10 12 12 11 9 9 8 9 9 8 7 7 3
17 11 3 21 13 2 21 13 4 21 17 9 20 21 11
22 21 12 24 19 14 24 17 11 30 22 13 39 31 15
39 33 13 33 31 12 28 29 10 24 27 6 18 24 1
13 20 3 12 11 4 9 1 2 25 7 4 34 9 0
44 14 4 52 19 2 57 24 0 59 26 0 59 20 0
61 17 0 71 27 4 82 41 18 87 43 31 83 35 23
73 24 11 65 10 3 68 16 22 67 27 30 87 57 51
155 136 138 229 214 205 255 255 255 255 255 252 99 87 77
255 255 255 255 255 255 215 209 157 57 82 35 36 75 35
71 90 48 67 92 45 40 74 35 26 64 24 27 63 15
17 57 10 6 44 8 7 35 10 26 47 29 59 69 63
69 73 73 81 79 84 71 62 72 62 51 68 53 42 59
42 29 47 28 15 32 17 10 21 11 14 13 31 41 30
65 79 52 71 87 55 64 79 48 56 71 40 49 62 33
43 53 24 34 46 16 30 40 20 24 27 20 9 15 12
7 16 9 8 19 12 21 21 21 44 42 55 69 65 84
103 105 100 249 253 232 255 255 255 201 205 180 30 30 21
17 17 23 55 57 44 145 148 130 239 239 232 255 255 255
237 238 235 182 184 177 147 146 143 120 115 119 104 93 95
98 90 98 91 84 102 87 75 100 78 62 80 69 49 61
61 47 49 65 53 49 75 56 53 75 47 47 75 47 40
79 51 38 66 42 39 47 36 33 52 54 66 63 64 77
63 65 73 58 57 71 46 44 64 29 29 51 4 14 26
19 13 8 31 28 15 37 38 22 41 46 27 51 50 32
72 55 43 98 69 64 110 77 80 101 62 58 87 48 22
72 39 16 64 30 14 57 19 10 45 4 0 36 4 0
34 5 0 33 7 0 30 12 0 30 1 0 28 12 0
53 8 5 82 30 32 94 44 51 87 44 49 69 31 31
53 26 24 34 13 30 24 22 29 23 11 11 48 22 20
65 35 36 57 34 34 29 22 16 16 6 7 44 22 14
26 14 20 21 29 35 118 59 55 183 120 112 116 62 48
29 23 6 15 33 13 14 17 13 12 12 12 12 12 12
13 13 17 11 11 16 10 10 14 11 10 17 9 7 16
4 2 16 2 2 16 1 3 13 5 7 13 11 13 18
16 16 21 18 14 30 24 12 35 21 13 27 16 15 19
16 16 16 16 16 16 16 16 14 16 16 9 16 16 11
19 19 13 25 25 15 28 28 16 28 29 14 28 31 10
28 32 8 28 32 8 28 32 8 27 30 8 23 22 8
22 15 8 24 15 9 24 14 8 24 15 9 24 15 9
24 14 8 34 29 27 30 25 23 18 9 4 18 9 4
20 11 8 22 12 7 24 14 9 25 15 9 29 16 12
27 17 20 20 14 25 13 6 23 6 6 18 14 17 26
18 23 30 13 20 27 16 10 37 14 5 40 4 12 31
9 13 33 26 8 52 45 27 68 48 32 66 46 31 58
37 30 43 17 16 24 5 3 9 4 4 4 4 4 4
4 4 4 4 4 4 4 4 4 7 7 7 10 10 10
9 9 9 13 13 13 16 16 16 13 13 13 11 11 11
9 9 9 13 11 7 21 15 4 22 17 5 19 19 3
21 23 4 27 26 6 31 28 13 32 28 12 36 32 16
44 40 24 47 44 30 44 44 31 39 42 27 33 37 22
29 33 17 27 31 15 30 29 11 21 14 7 7 2 1
16 4 5 27 7 4 34 11 1 41 17 0 50 21 0
59 22 0 62 27 0 67 26 3 82 38 14 92 47 33
95 46 37 89 41 33 83 30 25 80 26 31 70 11 20
62 18 16 89 44 47 151 109 108 242 211 211 255 255 255
255 255 255 156 121 125 255 239 244 255 255 251 109 112 91
66 98 74 75 95 81 89 104 86 81 100 79 70 95 69
70 100 66 62 99 62 55 90 55 55 86 56 57 84 60
52 71 55 35 47 36 42 44 48 50 45 58 52 46 61
53 42 59 52 38 56 50 37 54 48 35 52 46 33 50
32 21 36 11 4 15 13 18 13 18 21 15 20 24 15
24 29 18 22 34 18 20 35 16 33 42 27 37 45 33
36 45 31 38 46 30 37 45 32 17 17 19 25 24 34
48 44 64 89 90 88 243 247 226 255 255 255 217 221 193
42 43 33 16 15 23 60 62 44 166 170 145 255 255 250
255 255 246 159 162 149 70 73 64 55 56 54 64 58 68
57 47 57 53 45 64 55 41 74 51 35 76 39 26 61
32 16 42 27 14 32 42 22 35 48 22 35 46 17 29
58 30 32 81 56 49 88 67 62 78 54 42 69 51 43
65 52 71 52 49 75 39 37 68 33 27 64 33 25 61
21 29 44 16 24 29 21 21 14 20 24 13 20 28 8
37 33 8 64 42 24 89 57 48 96 61 63 86 46 42
72 38 13 59 35 2 56 22 6 48 10 7 36 1 0
25 2 0 23 0 0 19 2 0 22 10 0 30 6 0
31 9 0 44 4 3 71 23 21 88 40 44 86 45 49
74 36 36 64 30 28 52 22 35 43 23 31 40 14 19
54 24 24 73 36 41 74 41 46 47 32 30 1 1 13
39 23 18 32 7 11 24 24 31 114 55 50 178 108 110
111 56 49 27 19 11 9 28 15 10 11 9 6 6 6
8 8 8 8 8 13 6 6 14 8 6 17 8 4 17
6 4 14 6 5 17 5 4 18 4 5 16 6 6 14
8 8 18 14 14 23 22 20 34 30 21 46 26 17 37
19 18 23 19 19 19 18 18 21 19 19 22 19 19 18
18 18 15 24 24 20 33 33 29 36 37 30 36 39 27
36 40 24 36 39 22 36 37 18 36 36 16 34 31 15
30 21 13 30 16 12 30 16 13 30 16 12 29 15 11
28 15 11 29 15 11 30 21 19 21 17 18 9 6 9
11 4 8 14 5 7 15 4 6 15 3 4 18 6 1
25 7 17 23 12 25 21 20 31 21 18 40 27 20 54
42 27 72 54 36 84 63 45 94 50 33 86 32 20 72
73 64 111 142 130 177 176 164 206 168 156 193 129 118 152
76 61 100 41 20 68 24 8 44 9 8 10 8 8 0
8 8 0 8 8 0 8 8 0 8 8 0 9 9 4
10 10 5 11 11 4 13 13 8 16 16 11 16 16 11
13 13 9 9 9 4 8 9 8 9 12 9 11 15 8
14 18 6 17 23 2 18 28 1 21 31 6 27 33 12
34 38 19 38 42 23 40 44 26 39 43 27 36 39 28
34 35 25 32 32 24 32 33 24 42 41 22 41 36 17
22 22 6 18 21 4 18 20 1 17 18 0 9 16 0
14 15 0 38 18 0 43 26 0 34 16 0 48 18 3
58 23 14 67 24 28 72 27 36 78 22 32 85 9 22
85 18 4 68 29 20 59 24 14 61 24 19 96 40 50
187 135 145 255 244 252 255 244 251 151 101 117 235 203 214
94 81 83 16 52 41 6 36 25 28 40 30 49 54 50
45 63 56 50 73 63 49 73 67 49 73 65 49 74 63
42 67 51 25 46 30 6 18 3 26 16 24 41 29 39
48 35 46 46 37 48 43 40 49 46 44 54 49 48 57
49 47 56 54 52 59 64 58 65 62 54 61 50 41 46
36 27 32 24 13 17 15 4 7 10 14 13 23 27 24
26 31 32 22 30 32 22 28 29 20 25 30 11 11 10
13 13 24 56 53 69 102 103 98 234 237 216 255 255 255
212 217 186 51 53 42 14 9 25 50 53 36 171 175 146
255 255 255 255 255 247 143 147 127 23 25 19 27 20 35
44 34 60 13 11 42 18 18 55 30 20 64 31 20 67
26 14 61 27 11 48 29 13 41 31 14 40 23 4 34
16 0 20 36 11 15 76 50 53 97 81 74 95 71 57
90 60 38 65 44 46 23 24 53 12 10 48 28 17 55
41 36 62 32 40 50 13 26 40 16 10 33 13 9 35
13 14 31 35 25 29 63 37 34 82 46 46 84 47 58
73 34 50 65 35 33 55 31 16 49 13 8 35 6 6
21 7 1 17 9 3 17 10 3 11 9 1 9 3 0
21 6 0 32 3 0 37 0 1 56 13 10 77 33 33
81 44 47 74 41 37 64 31 28 57 24 37 51 23 31
51 22 25 61 29 25 78 41 41 88 50 56 66 42 47
15 9 19 37 25 20 40 7 3 34 23 28 112 51 49
168 98 104 106 48 45 29 15 12 6 24 13 7 7 4
1 2 2 3 3 5 3 3 13 3 3 17 4 1 15
2 3 12 3 4 10 3 3 14 7 4 22 16 14 29
26 25 36 30 30 41 28 28 37 22 22 29 27 20 39
25 18 38 18 18 21 19 19 19 19 19 22 18 18 21
19 19 19 19 19 17 24 24 21 29 31 25 28 31 23
28 31 23 28 29 24 28 28 23 28 28 20 30 27 20
33 24 18 33 19 15 29 16 11 26 16 11 27 17 11
28 18 12 28 18 13 28 18 12 23 13 8 12 6 8
5 5 11 7 3 9 9 3 8 11 3 6 13 3 3
13 7 5 14 7 24 10 6 24 13 12 28 32 26 57
65 52 96 103 82 136 135 115 174 159 140 201 180 163 221
223 212 255 255 255 255 255 255 255 213 200 241 139 129 161
99 94 113 64 54 85 41 13 81 24 7 59 9 9 15
8 8 0 8 8 0 8 8 0 8 8 0 8 8 0
9 9 4 9 9 4 9 9 4 11 11 8 13 13 9
16 16 11 16 16 11 12 13 7 9 10 15 3 7 16
4 8 13 6 9 11 10 14 9 13 20 7 18 23 9
23 24 11 27 27 17 25 25 16 24 25 14 25 27 13
28 29 21 30 30 22 31 31 23 33 33 25 46 44 30
55 53 31 53 53 24 53 53 24 52 51 21 49 52 18
45 54 14 44 56 10 40 54 6 33 41 1 19 30 0
24 29 0 31 22 1 37 13 7 50 15 17 69 17 22
93 19 20 116 30 25 131 30 30 131 31 30 111 29 30
85 3 17 92 19 37 146 98 108 235 202 207 191 147 157
171 125 141 73 45 53 24 13 3 25 21 21 18 22 20
15 16 9 6 20 13 16 12 9 12 5 6 4 16 13
6 19 12 4 9 9 21 11 21 36 25 35 40 28 35
38 26 33 33 24 31 27 24 29 24 24 28 24 24 28
25 26 29 23 21 28 32 24 35 55 47 51 59 51 53
46 41 40 32 29 26 19 19 14 4 9 10 8 12 22
18 20 28 19 21 25 10 12 21 10 11 22 8 11 21
7 7 4 37 37 48 96 95 103 131 132 123 221 223 206
255 255 255 189 196 159 48 51 40 29 29 34 30 34 23
151 155 125 255 255 245 255 255 254 159 163 143 36 40 28
32 25 36 39 27 52 11 11 40 18 18 58 27 19 64
30 20 60 26 17 57 27 12 49 39 20 46 34 21 42
18 1 34 10 0 29 30 7 16 70 47 54 98 86 81
102 80 67 98 61 49 62 35 35 12 14 38 17 19 35
38 33 51 44 44 61 28 39 51 8 17 46 16 2 44
9 6 40 19 16 34 39 28 34 67 34 40 80 38 42
77 40 48 63 25 48 63 30 44 57 27 34 40 13 21
28 11 15 17 16 16 19 18 20 24 17 20 15 16 13
1 10 6 12 2 1 28 2 0 34 3 0 42 5 1
61 21 14 75 38 36 73 41 34 57 27 24 49 22 34
48 25 29 48 26 20 59 28 20 78 43 37 98 57 62
84 52 60 26 17 28 39 29 24 49 17 14 40 25 27
109 45 48 161 91 96 105 42 41 35 14 11 13 20 13
9 6 6 6 5 4 6 6 8 6 6 15 6 6 13
7 6 11 6 5 13 16 16 6 18 19 17 28 24 40
40 37 54 57 57 66 61 60 67 48 46 55 28 25 36
19 6 33 14 10 30 16 16 19 16 16 16 16 16 20
16 16 19 16 16 17 16 16 18 20 21 17 19 23 11
8 11 6 8 9 6 8 8 6 8 8 6 8 8 6
12 8 3 17 13 4 21 15 12 25 13 16 26 13 16
26 13 16 26 12 16 26 13 16 26 12 16 24 10 14
20 6 10 18 4 8 19 5 9 22 8 12 25 11 15
26 12 16 25 13 18 19 12 28 11 8 30 11 6 35
30 24 60 62 47 85 87 71 115 100 93 138 103 97 141
158 148 198 253 240 255 252 237 255 137 128 178 130 131 142
160 166 153 118 126 106 60 60 69 35 13 79 21 10 67
6 9 21 4 8 4 4 8 4 4 8 4 4 8 4
4 8 4 6 9 4 8 11 3 9 13 4 11 14 8
11 14 8 13 16 10 13 16 9 12 15 10 15 13 22
10 4 19 12 5 15 10 7 15 12 11 16 13 13 17
16 14 8 13 17 4 11 17 9 8 13 11 5 11 6
11 13 4 16 16 12 21 21 17 26 26 22 28 28 22
39 38 26 58 57 37 67 67 43 69 68 44 70 69 41
72 73 39 73 79 37 73 83 35 62 76 32 44 61 23
34 55 18 31 55 18 24 47 15 7 35 9 12 19 0
31 3 6 62 10 10 99 21 18 124 28 25 135 36 31
144 53 45 131 45 46 111 40 41 111 51 52 163 118 123
159 115 124 113 69 80 50 10 23 25 19 13 10 22 4
19 27 21 13 21 11 23 13 27 25 7 27 28 20 23
15 24 15 6 22 11 13 19 23 24 22 24 23 19 23
10 7 9 13 18 11 11 19 13 9 17 7 10 17 8
15 18 14 18 22 15 13 18 14 27 22 17 33 28 19
27 22 19 29 23 18 23 20 16 19 19 16 16 19 21
10 15 18 11 8 15 14 13 19 7 9 18 9 9 20
7 8 19 7 12 5 61 63 69 124 126 129 137 139 130
199 197 188 253 255 230 158 165 128 36 41 21 21 23 16
7 9 13 125 128 101 255 255 229 255 255 255 195 198 178
89 93 78 57 54 55 41 31 50 9 9 33 18 17 55
24 18 67 27 17 59 25 11 52 25 6 48 42 23 53
34 21 45 12 0 28 13 0 34 32 11 35 69 51 59
97 87 86 106 83 80 93 55 63 50 25 43 17 16 37
29 25 39 44 35 54 40 40 58 20 29 50 1 6 53
12 2 57 10 12 50 28 18 44 47 29 46 72 33 54
80 37 48 70 36 41 55 21 42 61 20 45 56 20 40
33 15 29 24 15 28 17 19 29 18 17 27 27 15 26
25 16 23 14 15 16 1 5 6 20 3 0 30 3 0
33 4 0 47 10 3 68 30 23 72 41 29 56 20 17
49 14 27 47 16 16 47 16 6 59 18 9 80 39 30
105 61 64 98 62 66 42 20 31 42 31 25 55 18 17
45 18 20 107 37 44 156 85 88 102 40 39 33 13 9
5 16 12 4 8 8 4 9 8 4 9 11 6 9 15
6 7 12 7 8 10 7 9 16 18 22 2 9 8 25
69 62 84 92 85 102 101 92 105 99 89 100 91 84 92
67 60 75 25 13 43 11 16 23 15 9 17 15 9 11
15 9 16 17 8 17 19 8 16 18 8 14 16 12 8
10 13 3 0 11 9 0 12 12 0 12 14 0 12 10
0 12 9 6 11 9 15 5 8 18 4 13 20 8 18
20 9 20 20 9 20 19 7 19 18 7 18 19 8 19
21 9 21 23 11 23 25 13 25 27 15 27 28 16 26
28 16 22 29 17 21 31 20 25 32 22 33 28 20 37
16 13 36 21 17 42 56 41 67 81 69 93 90 88 103
85 85 89 134 133 136 154 153 148 111 112 86 183 185 170
243 246 244 163 167 163 57 63 57 26 22 48 25 19 74
13 23 67 10 8 26 8 4 4 8 4 3 7 4 3
6 4 4 6 4 4 6 5 5 6 7 6 7 9 7
9 11 9 9 11 9 11 13 11 9 11 9 7 9 8
22 15 27 18 9 22 11 7 8 13 10 9 16 11 16
17 12 23 12 13 17 6 13 12 5 13 11 5 8 14
6 5 13 7 8 9 8 12 4 12 16 2 16 20 6
19 23 7 29 32 14 47 46 24 56 52 27 57 55 29
61 62 34 64 67 38 63 69 40 62 71 41 70 80 49
83 97 61 88 106 66 87 106 66 81 105 65 68 98 59
52 83 42 36 67 21 23 58 9 7 60 15 11 73 30
25 85 41 27 65 28 42 29 8 53 13 11 61 21 16
87 53 54 94 60 72 91 62 72 68 52 55 26 21 19
14 13 8 24 7 21 36 33 39 26 11 30 1 15 13
49 58 45 52 63 52 48 59 50 47 58 54 44 51 48
40 48 43 53 58 53 60 64 61 54 59 57 42 50 47
28 36 32 13 20 16 10 12 9 14 13 13 29 25 13
31 25 18 7 11 25 17 14 20 20 17 18 22 24 15
28 34 18 35 40 23 35 36 17 32 28 13 26 24 9
22 23 8 20 21 9 13 23 32 80 83 89 120 122 135
108 107 114 164 156 156 227 228 207 173 174 142 75 76 43
37 39 23 20 16 21 72 77 64 212 219 192 255 255 255
252 255 230 144 153 121 97 96 81 68 60 67 24 22 40
33 27 53 34 30 60 28 24 58 24 13 57 18 10 60
35 15 81 44 18 89 23 7 73 16 0 64 28 11 63
64 53 74 99 94 107 100 81 103 75 40 72 49 22 56
23 8 62 27 17 71 35 25 80 22 20 87 11 18 94
8 17 95 3 14 86 26 18 72 43 19 59 62 32 53
81 37 59 79 37 51 60 33 35 44 17 31 58 7 43
53 11 44 26 18 41 23 27 44 32 28 43 35 20 35
37 16 31 38 16 27 34 20 24 17 12 14 14 6 0
22 2 0 21 4 0 31 11 0 53 22 12 69 33 24
70 23 15 61 6 13 57 10 13 63 10 9 74 8 10
92 30 30 117 66 71 117 74 82 63 33 52 37 39 49
63 32 44 63 8 5 108 39 44 140 75 77 93 41 37
28 13 6 6 17 10 8 8 6 8 9 10 6 11 13
3 11 13 4 5 13 6 4 14 8 6 18 18 15 15
25 9 34 96 88 106 152 142 155 160 141 161 153 136 147
136 122 129 97 82 101 66 51 78 60 46 68 50 34 53
43 27 39 35 20 30 28 12 24 26 9 20 28 12 19
25 8 17 15 4 11 11 9 5 13 7 6 18 4 11
25 1 13 29 1 13 29 3 17 25 1 18 15 5 17
3 8 12 6 9 11 7 10 13 3 6 18 4 4 22
4 4 22 4 0 24 9 5 29 17 13 35 23 19 39
24 19 37 23 16 31 21 13 25 20 12 23 25 14 31
34 19 37 36 23 27 25 16 24 25 13 48 57 43 81
92 77 117 121 104 146 182 165 206 252 232 255 255 252 255
248 234 255 179 171 200 64 60 77 1 10 10 24 17 47
21 8 75 11 27 61 13 11 27 12 8 8 12 8 12
11 8 15 8 8 16 8 8 16 9 6 19 13 4 24
17 8 25 18 11 21 18 12 17 19 17 17 20 20 18
20 20 16 31 26 31 36 25 27 30 20 5 30 14 1
22 10 8 16 10 17 9 9 21 6 9 24 9 8 23
17 7 16 20 8 6 17 7 10 15 8 9 18 10 9
23 16 9 27 21 3 30 30 5 23 26 4 13 17 16
11 15 15 25 25 7 36 39 9 42 48 18 46 52 22
52 61 26 63 75 38 74 87 51 85 100 65 91 112 77
100 124 87 112 137 95 124 150 100 138 156 102 144 153 100
146 150 97 140 144 91 123 135 87 103 130 80 88 120 68
75 103 61 56 79 49 27 52 30 18 36 19 35 48 34
27 39 27 10 7 6 23 14 15 16 17 10 29 31 13
51 54 35 55 54 44 30 22 27 3 12 13 22 28 27
33 27 30 38 30 34 38 25 32 20 12 17 16 5 14
17 12 23 19 13 26 13 10 23 3 3 15 13 7 9
27 21 6 26 20 16 11 13 14 24 28 4 39 41 20
49 47 28 52 49 32 51 51 37 50 51 38 53 55 40
55 59 43 58 62 46 62 66 51 31 31 53 80 76 102
99 89 129 123 111 139 188 175 185 255 253 243 255 252 226
184 183 150 102 103 68 61 60 35 25 19 16 110 116 105
248 255 231 255 255 255 228 238 202 156 159 131 102 99 88
58 57 65 46 44 65 24 26 57 21 23 67 31 27 82
34 25 83 39 23 90 55 27 106 45 18 98 33 6 83
39 17 85 71 60 98 110 108 133 87 75 114 41 17 73
44 20 58 33 20 55 30 21 64 11 9 82 31 30 113
44 45 124 25 32 101 31 23 74 51 28 58 58 28 47
71 40 50 73 40 57 60 32 52 40 22 40 30 4 37
54 6 48 54 14 52 29 27 50 33 31 54 39 27 54
41 23 49 42 21 47 43 20 40 48 28 37 41 20 27
27 9 10 21 8 6 14 11 3 15 14 0 31 13 4
54 16 13 66 29 19 55 11 13 46 16 22 56 8 19
69 6 22 88 22 34 116 68 71 130 89 92 85 45 57
41 32 45 80 49 62 84 37 37 100 54 47 112 63 62
79 37 32 24 11 6 16 15 12 14 6 11 12 6 16
12 6 16 11 11 14 8 4 14 10 3 17 16 4 22
18 6 21 20 3 24 103 98 113 199 195 208 112 101 118
114 109 105 146 136 133 73 56 72 44 30 60 50 37 65
46 32 57 42 29 50 36 24 40 24 16 30 19 9 25
22 5 20 23 7 20 17 10 18 12 8 9 12 8 8
16 7 8 17 7 8 16 8 8 16 8 8 8 19 3
22 32 14 28 32 20 22 26 12 20 24 13 16 22 14
10 17 15 7 11 20 3 6 22 3 8 21 8 13 16
9 13 9 6 8 11 9 1 20 17 9 23 21 13 24
21 12 25 18 8 25 23 10 12 26 16 15 18 17 27
7 13 43 34 14 66 59 33 91 87 62 122 115 90 149
130 108 163 114 97 147 64 52 94 20 14 44 16 4 36
16 9 46 15 10 70 11 16 56 10 10 21 9 11 11
7 11 12 8 9 8 5 10 5 3 13 5 4 14 9
10 12 10 13 4 20 17 10 21 17 9 18 16 12 13
16 16 10 18 19 12 27 27 27 43 36 27 50 38 24
44 33 24 35 27 22 28 20 16 21 13 9 16 8 4
25 17 22 33 19 20 24 16 3 17 9 7 13 6 11
15 9 13 20 15 16 21 16 9 16 19 10 4 6 23
10 8 31 9 6 27 29 21 26 37 32 22 34 37 10
37 41 13 32 37 8 27 34 12 36 40 20 42 47 24
41 50 22 52 63 32 71 83 49 93 103 74 115 117 91
127 118 91 118 102 75 100 85 58 94 86 62 97 99 73
96 108 76 89 105 72 77 95 67 70 90 65 71 89 66
64 75 56 45 49 36 35 33 26 53 45 40 65 52 47
64 62 47 49 51 34 14 10 6 21 29 39 32 41 49
19 28 30 3 12 10 11 8 6 3 22 13 24 40 31
29 43 33 22 32 23 19 24 14 20 22 10 27 25 13
35 29 14 41 37 16 38 40 13 35 39 14 39 43 20
42 44 23 46 44 29 46 44 31 43 45 30 38 42 26
37 39 24 36 40 25 42 44 32 46 49 37 40 33 50
78 72 95 106 101 124 134 129 147 168 163 173 223 218 220
242 238 228 233 232 218 158 158 143 73 77 61 54 56 47
33 33 38 109 109 105 238 243 229 255 255 255 255 255 238
175 177 156 109 113 101 88 90 89 65 68 70 63 66 71
61 59 78 50 46 70 29 25 46 37 29 52 37 25 58
37 21 57 56 44 76 85 80 100 107 105 122 67 58 82
17 3 49 23 8 42 24 22 27 22 22 30 44 40 72
90 83 124 94 85 137 80 74 115 59 49 77 48 34 51
40 27 45 51 34 52 47 33 57 41 24 58 33 15 48
25 3 42 45 13 44 50 23 47 35 26 43 32 18 42
29 13 40 31 16 39 34 16 43 36 16 44 48 27 47
55 28 47 47 27 39 34 23 31 22 15 23 10 7 15
3 3 7 15 7 1 46 29 30 40 20 25 21 20 20
26 11 20 42 14 19 62 23 22 101 64 63 128 96 91
96 66 56 61 46 28 96 72 73 93 62 58 90 59 49
85 52 47 54 23 19 22 20 24 25 14 30 18 7 22
8 3 17 7 5 14 8 8 13 4 4 14 10 4 18
13 3 22 12 1 24 28 20 35 109 101 120 187 182 198
86 96 95 134 140 125 141 140 128 53 47 48 11 21 25
10 12 33 11 8 23 17 15 26 21 20 32 21 15 28
16 10 26 8 9 19 11 7 20 20 8 23 23 9 24
21 3 22 16 3 15 7 7 9 0 9 6 3 11 1
18 17 8 13 11 9 10 9 17 3 3 7 9 8 12
17 17 20 19 20 22 28 26 40 38 34 51 38 34 48
19 15 29 8 8 10 18 16 9 19 15 7 18 19 20
24 23 25 18 20 15 8 11 10 7 6 23 8 5 28
11 4 34 11 4 34 9 2 34 11 1 36 21 12 49
26 14 52 25 14 53 23 14 51 20 9 48 16 7 48
14 8 48 12 3 51 7 5 61 3 9 48 8 3 13
8 3 3 6 3 1 6 3 7 3 6 9 2 4 6
3 14 9 7 17 8 7 8 11 7 7 14 11 4 18
8 3 15 3 3 13 4 1 16 14 13 10 38 32 27
47 41 42 45 43 44 44 44 44 44 44 44 44 44 44
44 44 44 41 37 36 27 21 16 12 14 7 7 11 4
2 6 6 7 8 11 13 13 17 13 13 13 5 13 12
13 6 23 3 6 17 14 9 10 38 30 21 48 42 32
34 34 23 28 28 19 26 27 20 20 24 13 35 30 24
31 25 20 12 15 9 4 7 11 8 8 13 12 12 16
13 15 14 15 13 4 20 20 11 22 23 14 26 24 19
26 26 20 24 29 20 26 31 21 28 34 23 33 40 29
35 39 29 33 33 27 29 29 27 27 27 27 32 28 28
32 30 26 23 35 16 4 17 7 23 27 32 10 21 18
4 4 10 12 4 14 9 3 3 7 10 7 21 25 19
17 20 16 14 20 17 23 25 24 34 34 30 45 46 36
57 56 46 63 61 51 64 65 55 59 60 53 48 48 41
36 36 28 26 27 18 22 25 14 24 28 16 30 34 22
28 33 22 18 19 10 16 16 10 20 20 17 18 18 14
39 38 42 59 58 68 75 74 85 79 75 95 105 102 123
160 157 166 162 160 152 183 180 168 167 164 152 83 86 72
33 34 27 30 30 32 13 13 13 100 103 95 209 215 199
255 255 255 255 254 236 188 192 172 145 148 128 100 103 83
83 84 69 74 74 71 67 64 77 38 36 44 41 41 45
52 52 57 58 58 62 68 67 75 79 78 89 77 75 88
38 32 41 11 15 16 17 20 13 27 34 15 27 34 10
110 104 108 125 118 140 111 100 147 139 129 165 84 72 98
37 23 57 32 20 58 44 28 57 35 27 54 35 21 58
35 15 52 28 3 43 34 21 39 36 27 40 29 10 40
23 1 34 20 7 28 21 14 30 20 12 32 22 9 33
30 13 40 44 25 52 51 31 57 46 29 53 38 24 47
33 17 41 29 11 36 25 7 29 38 19 43 28 14 33
2 21 24 17 15 27 24 15 25 40 22 18 86 57 56
119 91 84 89 74 51 64 59 29 88 75 72 84 64 60
75 48 42 56 30 34 27 10 27 18 31 42 20 10 35
23 13 27 16 7 20 12 8 16 11 6 16 11 1 17
12 2 20 13 4 21 21 14 30 58 50 62 115 104 123
120 110 127 59 67 63 128 129 112 101 98 90 36 30 36
10 17 25 12 19 27 10 12 14 8 9 17 10 15 25
16 18 24 16 14 21 9 10 20 7 8 20 20 18 28
26 24 31 27 20 31 26 17 34 22 16 33 19 15 29
17 13 25 24 19 28 29 27 33 22 22 25 12 12 11
4 7 7 24 20 31 64 64 70 105 105 113 122 122 127
116 116 120 91 89 96 52 48 60 23 21 24 32 26 25
26 28 23 16 17 16 19 20 16 20 23 17 9 4 20
9 4 21 11 4 25 11 4 28 9 4 32 9 4 34
15 9 45 24 16 53 27 20 55 24 17 54 22 14 55
19 13 54 14 10 50 11 5 48 7 11 47 4 9 35
3 3 14 4 4 12 7 1 13 7 1 11 4 5 12
3 2 14 4 10 15 7 14 15 8 8 18 9 9 19
11 7 21 7 6 18 4 1 16 4 0 16 33 28 14
43 37 34 36 36 36 36 36 36 36 36 36 36 36 36
36 36 36 36 36 36 29 29 29 15 17 17 11 11 11
10 10 10 6 6 6 6 6 6 11 11 11 10 10 6
4 11 7 10 3 18 4 2 10 20 13 13 36 33 25
44 42 34 30 30 22 13 13 6 7 4 11 4 8 2
29 21 17 27 19 16 16 18 14 17 18 18 20 20 20
21 21 21 24 24 24 19 19 19 17 20 18 16 20 17
17 17 17 14 14 14 5 14 10 4 13 9 5 5 5
10 10 10 15 13 13 21 20 20 26 26 26 29 29 29
32 29 29 28 29 28 26 33 26 24 23 24 26 26 32
11 19 16 10 5 14 15 7 19 8 4 0 0 12 8
26 26 22 21 21 17 12 5 6 23 15 17 31 29 25
43 40 36 52 46 46 56 51 45 56 57 47 51 52 49
44 44 44 33 33 33 22 23 23 17 17 17 18 18 18
24 24 24 29 32 30 26 29 27 27 27 27 31 31 31
29 29 29 31 18 32 37 23 44 36 23 56 63 56 93
124 123 146 162 161 169 140 137 130 126 124 111 159 157 141
137 136 123 48 49 38 22 27 25 24 25 18 36 36 25
112 113 98 221 219 201 255 255 243 250 253 232 229 233 210
202 206 181 186 190 169 169 173 157 148 149 147 102 102 102
90 90 93 97 97 104 89 89 99 70 69 82 54 52 66
37 37 43 27 26 15 23 27 12 22 30 15 29 41 27
35 40 30 165 161 160 140 134 146 101 90 134 184 176 204
95 83 109 29 15 57 37 26 65 43 28 61 27 19 53
30 16 61 43 25 72 49 32 78 49 39 76 45 34 65
38 16 55 28 9 44 24 10 38 26 14 42 25 13 46
25 12 44 28 15 48 34 20 51 42 21 53 48 25 58
48 29 62 50 32 65 54 35 69 57 36 72 48 25 72
27 9 55 18 13 50 25 3 54 18 6 52 19 6 42
64 37 51 101 73 75 77 59 38 52 47 19 59 53 55
62 44 60 55 25 57 35 4 58 25 22 58 20 29 53
16 8 36 22 12 32 24 16 25 23 17 20 20 15 19
23 13 23 20 11 26 14 9 20 34 27 41 89 77 94
112 99 119 49 41 55 65 62 52 93 91 75 51 45 44
17 9 21 11 3 26 7 11 22 1 14 9 4 12 13
6 11 21 10 15 27 16 14 27 21 21 30 18 15 26
16 13 21 9 4 19 7 7 14 8 8 13 9 8 16
9 6 20 8 4 20 10 3 16 9 3 7 9 5 6
22 15 24 53 44 60 113 104 121 181 175 186 224 217 225
190 184 189 145 142 151 105 103 110 75 71 84 28 30 36
25 24 21 15 21 9 9 5 9 29 26 30 26 24 28
11 3 22 9 3 24 11 4 25 13 4 27 11 3 29
9 2 31 13 7 41 22 15 56 25 15 60 24 11 57
22 11 53 19 9 47 12 3 44 11 2 44 14 15 37
10 13 23 4 8 11 5 7 9 8 3 11 8 1 9
5 5 11 4 4 17 7 9 22 10 13 24 12 11 23
10 10 18 8 6 18 6 8 19 3 2 14 1 2 13
43 36 29 43 36 36 4 7 1 4 8 0 4 8 0
4 8 0 4 8 0 4 8 0 6 15 12 9 18 16
9 9 8 9 9 8 6 6 4 6 6 4 11 11 10
9 9 5 9 13 6 18 12 18 17 11 17 17 11 11
29 29 22 40 40 33 35 35 30 32 32 31 28 30 29
18 24 19 26 25 20 27 25 22 27 28 27 32 32 33
34 34 34 34 34 34 33 33 33 33 33 33 32 33 32
29 31 30 27 27 27 23 23 23 19 22 20 16 19 17
21 21 21 34 34 34 46 47 46 54 55 54 60 60 60
63 63 63 66 64 64 63 64 63 53 61 53 31 39 31
23 23 29 11 13 11 15 8 19 16 8 20 8 4 0
0 12 8 22 22 18 22 22 19 20 13 14 27 16 20
29 25 17 35 31 23 41 29 31 36 25 17 26 29 13
18 19 20 21 21 24 20 20 20 12 15 15 4 6 6
6 6 6 10 10 10 16 19 17 27 28 27 34 34 34
36 36 36 33 33 33 12 6 11 15 5 24 38 31 65
93 87 127 130 128 157 131 122 133 114 105 101 138 137 133
208 205 196 253 249 240 195 191 191 102 95 97 43 38 44
10 10 21 31 31 21 120 116 109 193 191 175 229 233 211
255 255 246 255 255 255 255 255 255 255 255 255 255 255 255
206 207 205 166 166 168 153 153 160 132 132 140 90 89 99
45 42 59 14 11 30 18 11 31 47 31 72 82 70 114
105 99 142 113 106 145 215 209 226 185 176 198 146 135 181
227 216 255 147 135 178 108 99 142 98 86 134 83 68 117
63 52 97 61 53 93 71 63 101 81 69 109 83 68 108
75 60 96 66 51 82 61 44 73 57 38 67 56 35 67
55 35 71 54 39 74 52 37 70 41 26 59 35 20 54
43 23 57 52 31 63 59 39 69 64 45 77 66 49 85
58 44 83 44 34 73 40 28 71 39 31 72 29 31 71
16 24 64 42 17 53 80 52 67 60 42 43 20 9 38
27 26 63 51 37 76 51 30 74 36 22 69 35 27 69
31 17 57 25 12 41 28 18 37 30 24 32 27 24 28
26 22 32 26 21 32 24 18 25 20 15 21 45 33 49
106 91 110 97 86 104 8 12 8 77 75 58 53 50 36
20 12 15 20 12 21 18 9 30 18 8 26 19 7 18
17 4 16 17 6 22 23 16 35 36 32 51 51 48 65
54 51 66 44 37 56 37 28 51 33 28 47 29 28 40
27 27 35 25 25 31 23 23 27 26 24 28 39 33 37
60 52 59 89 82 93 131 122 138 172 163 180 190 184 193
164 158 164 94 85 92 141 135 145 80 80 86 66 63 74
18 16 32 11 10 6 13 11 4 16 9 15 29 25 37
23 20 34 11 5 22 11 5 22 16 3 24 16 4 27
11 4 29 9 4 30 16 13 38 19 16 47 18 12 51
19 8 49 21 2 43 20 7 40 10 10 40 4 10 38
18 19 28 17 17 16 7 11 10 9 11 7 10 7 6
10 4 12 9 7 18 7 4 18 10 6 18 12 10 18
12 12 17 10 9 15 6 8 17 6 7 20 3 4 13
1 1 9 38 31 28 42 36 37 24 20 28 24 20 28
24 20 28 24 20 28 24 20 28 24 20 28 20 20 25
11 17 19 9 9 11 8 8 10 2 2 4 7 7 6
14 14 13 16 16 10 23 23 13 27 21 21 26 19 27
10 8 8 18 18 11 30 30 24 34 34 31 38 38 38
34 35 33 26 28 23 19 21 15 23 25 23 31 31 33
34 34 35 35 35 35 36 36 36 30 30 30 18 18 18
11 12 11 8 11 9 6 6 6 4 4 4 6 9 6
10 10 8 18 18 18 22 22 22 20 24 22 27 30 28
31 31 31 35 35 35 39 37 37 36 37 35 40 55 40
30 45 30 18 18 23 14 8 9 20 12 24 17 9 21
8 4 2 2 14 10 14 14 10 16 16 13 24 17 19
32 23 25 36 33 27 43 39 33 46 36 38 42 33 24
33 36 15 15 17 14 16 16 20 17 17 17 10 14 14
4 6 6 4 4 4 6 6 6 8 2 4 16 12 13
23 23 23 26 26 26 22 22 22 18 13 12 12 9 23
55 46 82 107 99 142 109 105 135 86 77 90 132 122 126
192 183 186 236 233 229 255 255 255 255 255 255 255 255 255
178 170 173 100 93 101 47 41 50 28 26 32 91 88 90
130 130 121 174 174 162 218 218 207 243 243 233 255 255 255
255 255 255 243 243 243 227 227 227 224 223 226 206 203 211
162 159 169 113 110 125 84 80 100 99 93 116 158 146 178
200 190 218 220 216 240 223 219 242 255 255 255 223 217 234
193 186 219 255 251 255 233 224 255 214 207 235 193 185 215
158 147 180 111 105 135 84 78 104 73 67 91 71 62 89
76 57 91 77 51 87 70 48 83 66 48 82 61 43 75
57 38 70 57 36 69 57 38 71 57 36 71 51 31 65
44 28 61 47 30 63 52 33 63 55 34 65 55 36 67
54 40 69 57 46 69 56 45 68 53 38 69 49 42 71
42 44 75 31 41 75 28 16 62 60 37 64 62 47 65
32 35 69 35 46 83 54 51 83 52 34 69 29 17 55
30 25 58 36 19 57 31 23 48 31 30 40 32 27 37
29 26 35 27 23 35 25 22 32 23 22 31 25 20 32
41 27 45 102 92 103 85 77 91 32 37 20 74 72 55
30 26 17 22 18 19 24 16 26 17 8 25 27 25 35
31 30 41 26 26 34 29 27 33 46 40 47 67 60 69
84 77 87 95 89 101 96 94 104 93 89 101 89 82 97
81 72 91 70 62 81 61 53 68 53 46 57 52 46 57
57 56 64 61 61 69 72 72 77 86 83 92 86 82 93
81 81 82 121 121 116 164 163 159 165 164 165 74 76 79
49 48 55 16 12 27 6 7 11 3 4 4 5 1 14
26 23 46 22 20 38 10 5 18 15 4 20 17 4 22
13 3 26 11 3 29 14 4 28 23 16 33 22 13 32
17 7 31 13 4 32 18 9 33 22 13 33 14 11 31
6 10 28 22 19 22 20 17 14 7 10 12 9 11 10
14 9 9 14 7 16 9 8 18 7 5 18 11 4 17
11 6 16 8 5 18 9 7 21 7 11 22 6 6 20
4 4 13 4 4 10 27 22 21 33 28 30 28 27 29
28 28 28 28 28 28 28 28 28 28 28 28 28 28 28
26 25 25 19 19 18 13 13 13 8 8 8 4 4 4
13 13 13 20 20 20 20 20 15 27 27 18 22 24 19
27 24 33 16 16 16 11 11 7 14 14 6 10 10 8
12 15 17 30 28 25 34 31 27 6 6 3 10 10 14
17 18 23 15 21 21 18 25 22 24 30 27 28 33 30
16 18 17 6 6 4 7 7 6 10 10 10 13 13 13
17 16 15 18 16 16 27 27 27 37 37 37 28 33 30
24 30 27 17 17 17 9 9 9 18 11 11 13 16 9
21 41 21 19 37 19 15 15 17 21 11 14 25 17 29
20 12 24 8 6 3 6 18 14 9 9 5 4 4 3
18 9 11 26 17 20 33 30 24 43 40 34 48 40 42
48 42 39 48 51 36 34 36 26 18 18 21 10 10 10
6 9 9 10 11 11 7 7 7 1 1 1 11 4 7
17 10 13 17 17 17 18 18 18 9 9 9 19 14 14
16 7 29 70 59 95 113 105 146 87 83 109 25 21 33
77 71 76 96 89 97 111 107 103 160 163 145 201 204 192
205 202 200 170 165 167 114 110 119 67 63 72 14 12 8
29 28 39 37 37 37 51 51 47 72 72 69 83 83 75
143 143 135 171 171 165 134 134 134 120 120 120 127 126 128
144 143 145 132 130 132 95 95 96 63 63 71 90 85 98
148 135 162 149 135 154 116 115 123 117 116 123 181 177 175
146 142 142 121 115 132 175 167 190 137 128 149 133 122 142
142 133 152 130 117 138 81 75 95 47 39 57 34 25 36
33 21 37 38 18 50 44 16 48 38 18 43 34 24 43
31 25 41 26 19 38 24 11 34 24 11 32 28 14 41
33 16 37 26 14 33 26 17 36 26 16 36 26 15 34
25 17 30 23 17 29 26 28 28 29 33 28 25 19 32
26 22 34 28 30 37 28 42 46 17 10 33 48 33 41
75 60 62 48 44 51 30 33 51 55 54 67 53 39 54
15 7 23 12 23 27 23 13 38 17 20 37 13 27 26
18 15 23 16 14 20 15 13 17 14 13 17 13 13 21
13 11 18 26 16 27 92 84 92 81 72 83 37 42 23
64 58 42 14 10 5 14 11 11 27 24 28 9 13 13
24 30 25 22 20 33 18 18 26 23 18 20 41 35 34
52 51 47 56 52 48 55 50 52 59 57 59 57 57 59
56 52 56 52 45 55 45 38 52 37 30 45 31 24 35
26 22 31 21 23 29 19 19 24 39 39 41 54 50 62
51 48 59 62 62 61 103 103 97 123 124 121 92 95 97
36 35 42 24 18 29 13 10 20 8 8 16 5 5 6
6 4 13 30 26 54 26 23 45 8 3 8 11 1 12
8 4 12 6 3 12 8 0 14 12 0 12 20 16 20
17 12 17 16 7 11 13 8 11 16 13 11 18 12 13
16 7 13 13 6 14 23 18 20 17 13 13 7 9 10
8 11 8 16 11 9 16 8 14 8 8 11 7 7 11
11 4 11 9 4 10 4 3 13 6 5 13 4 12 9
1 7 8 1 1 7 4 4 3 18 15 12 17 14 14
12 12 12 12 12 12 12 12 12 12 12 12 12 12 12
12 12 12 16 11 11 14 9 9 7 7 7 4 4 4
10 10 10 15 15 15 20 20 20 17 17 10 25 25 17
13 16 10 25 21 32 14 14 14 9 9 8 10 10 5
6 3 8 4 6 14 32 31 27 39 38 34 3 3 8
7 7 15 8 10 19 0 6 11 12 14 13 20 22 20
32 38 35 20 26 23 4 4 0 7 1 3 4 4 4
4 4 4 9 6 4 9 6 4 13 13 13 27 27 27
27 33 30 25 32 29 21 21 21 13 13 13 20 14 14
17 20 13 13 30 13 3 22 3 8 8 9 24 12 16
30 22 34 23 15 27 5 7 3 8 20 16 8 8 4
0 0 4 13 1 5 18 7 11 23 20 13 32 29 22
36 26 29 32 23 21 38 41 23 32 36 18 9 9 11
3 3 3 6 3 3 6 7 7 7 7 7 3 3 3
6 3 3 13 8 10 19 19 19 21 21 21 11 11 11
