P3
# Generado por NetPBM Image Processor - Diseno 1
236 295
255
8 0 0 5 0 0 12 0 0 8 0 0 10 2 0
10 3 0 16 3 0 14 3 0 14 3 0 10 1 0
18 3 0 16 5 0 19 2 0 23 8 0 25 8 2
19 5 0 27 18 7 24 18 6 21 13 2 18 17 3
28 10 3 25 13 6 24 9 0 16 9 0 38 16 7
29 14 0 36 16 8 27 13 1 40 10 11 38 10 15
39 16 15 43 10 26 30 0 20 44 11 33 52 12 40
45 8 23 54 13 32 41 8 14 47 3 20 60 19 23
57 18 36 48 3 15 51 17 43 75 32 55 71 35 71
93 49 92 79 44 83 54 15 55 43 8 78 55 18 86
78 51 116 40 7 72 17 0 42 42 16 56 25 0 20
44 25 31 35 15 9 34 20 7 35 12 8 32 17 10
39 11 10 35 17 7 42 17 17 45 18 10 48 22 14
46 15 3 49 8 5 65 22 12 87 37 30 98 50 33
105 55 41 98 53 35 109 52 33 100 54 34 112 51 35
112 56 36 98 37 27 80 23 6 86 32 19 99 53 35
106 56 43 62 26 10 68 15 34 158 118 140 220 168 219
181 140 190 184 134 192 179 134 192 177 136 187 178 132 186
176 139 190 178 141 192 186 140 194 187 144 197 189 144 194
189 149 201 181 141 207 184 144 213 181 149 219 149 111 179
88 51 123 72 46 108 87 47 131 65 42 107 100 62 146
85 67 133 88 56 141 77 59 132 92 68 154 99 75 157
89 79 159 92 69 152 96 72 157 97 71 155 94 72 155
98 72 156 94 72 156 96 72 156 95 72 156 96 72 154
99 77 164 100 75 157 99 79 172 100 78 164 101 77 175
102 78 170 103 81 178 97 79 168 107 75 185 103 75 179
106 78 176 105 77 177 104 76 176 107 79 179 106 78 178
103 74 177 112 86 180 109 82 179 109 82 179 109 82 181
109 82 175 109 82 177 109 82 177 109 81 170 108 85 187
108 82 181 110 86 184 107 85 180 113 83 188 109 87 186
120 86 192 113 86 186 120 85 199 106 78 181 118 81 190
125 90 194 111 78 171 98 68 159 132 98 181 152 126 200
226 177 255 205 158 238 211 166 247 211 167 251 214 165 244
205 160 243 210 158 239 212 168 240 196 142 224 197 147 221
199 146 219 196 144 220 196 144 214 197 146 218 200 146 218
199 144 219 204 155 221 201 150 219 203 152 221 202 151 222
206 155 218 209 158 225 209 158 225 211 160 227 206 155 222
213 162 229 216 165 232 216 165 232 216 165 232 211 160 227
212 161 228 210 163 229 226 165 235 222 167 232 221 166 235
226 168 234 215 166 221 217 165 229 211 161 225 212 158 224
199 146 226 203 152 227 223 163 235 255 203 255 244 192 240
152 105 131 83 35 62 110 60 68 84 31 39 110 60 59
128 75 80 123 78 79 85 49 47 46 10 9 25 0 0
41 21 12 23 0 0 21 10 0 25 6 0 18 5 0
16 1 0 20 5 0 20 5 0 0 0 0 60 51 52
99 85 92 102 85 83 97 68 76 102 72 77 113 75 77
105 54 70 23 0 0 74 13 25 80 21 21 87 23 32
102 43 42 5 0 0 9 5 0 9 0 0 11 0 0
12 4 0 14 7 0 14 1 0 13 2 0 10 1 0
11 4 0 21 6 0 18 7 0 22 5 0 21 6 0
24 7 1 18 4 0 29 20 9 19 13 3 20 16 3
23 12 3 27 11 3 24 12 5 26 14 0 31 9 0
30 13 0 32 13 9 29 8 2 38 11 5 38 12 14
40 13 19 32 13 13 42 12 23 36 0 24 62 31 62
72 30 55 52 19 45 48 12 26 38 4 18 54 14 24
64 27 38 63 22 33 59 19 41 91 43 64 101 64 96
106 61 101 118 80 124 118 68 109 82 49 92 52 20 86
53 21 85 74 34 101 45 20 81 42 9 64 53 31 69
32 8 28 48 31 36 30 13 6 35 14 5 35 20 13
40 10 8 33 11 8 43 18 14 37 16 5 43 17 13
52 21 13 42 13 1 54 13 10 63 20 10 85 35 28
103 55 38 103 53 39 97 52 34 107 53 33 108 47 32
115 57 40 109 55 34 96 35 25 83 26 9 88 34 21
101 55 37 106 60 41 74 23 22 66 18 34 171 121 143
215 167 217 184 133 188 186 138 195 180 135 193 182 141 192
182 136 190 178 144 194 180 146 196 190 144 198 191 148 201
193 148 198 194 154 206 178 138 205 184 149 218 202 156 233
167 135 204 130 91 163 113 72 142 107 77 144 92 57 132
103 74 146 100 71 144 94 65 149 88 65 138 88 67 152
91 71 152 99 76 160 84 67 148 108 82 164 99 80 160
111 76 163 95 76 158 101 77 160 97 76 160 104 79 162
95 75 156 94 64 156 95 76 155 104 75 173 101 84 168
109 82 179 98 78 169 102 73 174 96 71 166 108 78 177
104 76 184 108 80 178 106 78 178 105 77 177 108 80 180
107 78 181 104 74 180 114 88 182 111 84 181 111 84 181
111 84 183 111 84 175 111 84 177 111 84 175 110 84 182
115 82 187 106 86 180 114 85 184 110 83 179 109 87 188
120 85 187 112 85 188 116 82 188 126 99 200 123 81 194
128 96 198 139 101 199 127 93 191 112 80 161 136 106 193
165 131 206 224 177 254 202 154 238 210 166 250 207 171 244
208 158 241 202 157 230 202 150 233 201 157 231 195 141 213
198 148 224 199 146 219 196 144 220 195 143 211 195 144 214
204 150 222 201 146 221 206 158 221 202 152 218 203 153 219
208 158 224 205 155 225 210 159 222 210 159 224 212 161 226
210 159 224 217 166 231 221 170 235 217 166 231 214 163 228
210 159 224 212 161 226 214 165 229 213 162 229 225 166 234
223 166 231 222 162 223 217 169 230 211 161 217 209 156 230
207 156 222 195 144 219 218 167 243 234 180 248 217 162 220
170 124 157 94 46 82 75 29 47 135 84 97 109 56 55
119 68 69 119 63 69 107 60 61 68 32 30 35 0 0
24 0 0 35 15 6 24 3 0 26 5 0 24 7 0
15 4 0 19 6 0 15 2 0 22 9 0 0 0 0
69 50 56 95 86 91 110 95 92 99 70 78 99 69 74
117 79 83 115 64 70 40 0 0 83 20 33 88 29 29
98 34 43 109 50 49 11 0 0 8 0 0 11 1 0
12 1 0 14 6 0 9 2 0 17 4 0 13 4 0
20 3 0 21 6 0 14 1 0 20 9 0 23 6 0
23 8 1 26 9 3 21 7 1 23 14 7 20 16 0
25 11 5 20 13 2 26 10 2 22 11 2 22 13 4
27 9 2 32 10 5 25 10 0 29 14 4 36 8 15
39 11 16 32 5 21 45 9 21 33 5 26 25 0 18
86 39 84 101 58 89 67 26 55 56 8 34 44 0 25
50 4 31 64 20 45 81 31 62 84 46 69 120 75 108
138 102 141 142 100 145 144 104 152 139 99 144 128 86 143
93 53 118 60 25 99 61 21 97 64 30 97 82 48 98
65 38 81 37 15 32 51 29 38 32 18 8 43 14 8
38 12 9 38 16 12 37 16 11 45 10 10 47 21 12
42 20 5 53 24 18 50 16 4 49 9 6 66 23 13
88 38 31 99 51 34 106 56 42 98 55 37 104 50 30
111 53 37 110 54 36 117 53 37 96 37 26 83 26 9
88 34 21 101 56 35 106 55 51 72 25 18 65 20 35
169 123 142 214 169 218 184 135 189 186 140 196 178 135 193
185 146 195 182 139 192 189 143 197 191 145 199 191 148 201
194 151 204 196 151 201 194 156 209 182 146 208 194 150 217
206 163 234 202 163 224 164 130 201 159 122 193 142 114 185
129 97 173 92 64 137 96 72 143 92 64 150 84 69 139
94 66 158 92 76 153 97 71 158 92 74 155 109 76 170
102 78 169 107 74 160 106 82 165 107 75 161 99 84 164
108 73 160 98 83 161 99 66 155 94 72 155 105 80 176
108 88 175 114 83 186 109 92 180 106 79 180 101 77 170
107 80 183 108 80 178 103 77 177 110 82 182 106 80 180
111 82 185 108 86 176 108 82 176 110 86 182 110 83 180
108 84 180 110 83 180 108 84 182 110 83 182 108 84 182
107 84 177 109 82 183 111 89 193 116 81 187 118 86 190
118 88 193 121 87 194 115 86 190 126 85 194 126 89 198
119 80 192 120 86 187 133 96 192 122 84 181 115 79 165
140 113 188 162 121 203 220 174 255 203 162 239 213 161 241
207 157 240 201 154 238 191 145 223 192 139 225 192 148 222
200 146 220 199 149 225 199 146 219 195 143 217 199 147 223
198 147 225 200 146 216 203 149 221 206 154 229 207 154 229
206 153 228 209 156 231 213 159 237 212 163 228 215 165 233
210 159 230 218 167 238 218 167 238 224 173 244 222 171 242
215 164 235 214 163 234 212 161 232 210 161 231 217 162 233
212 161 231 214 163 236 213 162 229 211 157 227 208 156 226
212 154 219 210 153 222 216 158 228 225 172 232 208 148 214
148 94 144 97 44 76 75 29 46 100 42 61 142 98 93
129 72 80 115 66 68 95 49 51 75 35 37 55 17 15
31 0 0 21 0 0 29 9 0 26 5 2 24 5 0
21 6 0 22 3 0 22 3 0 24 5 0 31 10 0
0 0 0 59 48 51 107 85 96 115 93 94 107 79 88
100 73 79 117 79 83 129 78 86 77 26 29 70 17 26
92 28 30 98 32 42 106 47 46 9 0 0 14 4 0
11 0 0 13 1 5 13 7 0 15 10 2 17 4 3
13 4 3 19 4 0 19 6 0 21 8 0 20 9 0
24 7 1 24 9 2 26 8 5 28 14 5 22 13 0
19 17 0 21 12 4 22 18 6 27 14 4 27 15 3
33 10 2 26 13 6 26 9 0 33 12 7 36 3 14
32 13 13 35 6 22 35 15 22 39 6 29 33 2 18
29 0 23 88 53 86 101 60 99 65 28 58 54 10 45
41 1 31 46 0 34 57 12 45 115 72 104 122 76 110
153 102 149 162 115 159 159 105 162 158 117 168 153 104 155
155 106 161 123 82 157 74 37 104 60 18 89 84 51 119
101 68 120 69 44 82 30 3 23 44 17 27 43 21 14
42 18 9 40 17 12 33 15 8 46 14 13 41 15 12
50 20 14 48 19 10 46 22 14 52 19 7 50 12 8
67 25 15 89 39 32 101 53 36 105 57 43 109 56 38
106 54 34 107 49 33 113 57 39 116 54 37 101 42 31
87 30 13 91 37 24 104 59 38 110 60 53 75 31 23
73 15 32 169 119 151 227 169 220 185 141 193 188 134 194
186 137 192 187 140 199 185 146 195 185 143 196 188 146 199
190 149 200 193 152 203 192 151 199 202 156 208 185 143 213
185 147 218 204 162 225 206 163 237 197 160 220 191 158 226
179 142 210 161 134 198 105 76 153 115 82 158 99 79 150
105 72 155 110 89 164 113 80 170 109 93 176 129 100 186
103 76 161 118 78 167 110 75 164 109 69 160 95 70 156
95 64 152 90 60 148 86 53 140 110 81 173 109 77 163
105 78 166 113 85 177 118 90 179 121 86 189 117 86 178
123 92 192 111 79 182 102 80 182 120 86 187 104 82 184
116 82 183 107 85 189 118 82 179 102 84 178 126 89 189
110 92 186 123 86 186 110 92 186 123 86 186 110 92 186
121 87 186 118 87 183 120 93 192 120 81 193 121 88 193
117 84 188 117 87 194 127 86 195 127 90 199 127 89 194
125 89 201 119 80 180 121 89 179 134 93 183 130 89 182
136 100 186 163 122 203 181 149 229 202 157 235 197 157 229
202 154 240 203 157 233 196 149 230 191 151 220 188 142 217
184 142 220 203 149 223 194 144 220 200 147 219 194 142 215
196 144 218 201 150 226 202 149 216 204 151 220 208 157 227
206 154 224 210 158 228 211 159 229 214 162 232 216 163 236
214 160 236 211 162 225 222 172 238 223 173 239 224 174 240
223 173 239 218 168 234 212 162 228 212 162 228 212 164 227
215 159 236 216 162 236 213 159 235 214 160 228 210 157 227
204 154 223 211 150 228 203 149 218 234 179 250 206 153 215
140 86 136 79 30 66 85 38 64 116 75 85 128 77 82
113 65 64 119 72 72 101 44 50 69 30 28 57 11 15
54 13 12 39 0 0 25 0 0 29 9 0 24 3 0
28 9 3 24 9 0 22 5 0 22 5 0 22 5 0
26 12 1 0 0 0 65 41 52 108 93 92 122 101 105
106 86 86 110 67 70 121 86 91 140 89 97 110 59 63
46 0 0 74 23 22 84 25 31 95 33 33 14 4 1
13 2 2 11 4 0 13 7 0 18 3 1 19 6 5
15 4 0 19 10 2 18 3 0 20 7 3 21 8 0
21 10 1 25 8 2 24 8 3 27 14 1 28 14 8
18 13 0 22 13 0 28 9 4 28 14 4 27 8 5
25 13 8 29 14 6 34 15 5 35 10 9 28 15 9
33 9 8 36 5 25 43 8 20 42 8 38 42 6 33
28 0 27 50 6 58 93 52 100 90 38 87 45 0 46
54 5 52 50 6 52 66 14 64 88 39 85 146 90 142
145 100 151 159 113 162 149 106 161 154 104 162 141 103 160
142 95 162 145 103 166 155 116 180 96 58 128 69 29 102
111 69 137 119 73 131 55 18 62 30 0 15 27 1 13
41 21 15 50 19 12 45 18 14 45 9 10 46 14 15
45 20 14 49 13 11 44 20 7 59 21 18 45 17 3
57 10 11 67 22 11 91 42 35 102 54 37 107 59 45
110 59 41 102 50 30 109 52 36 113 59 40 117 55 38
100 42 31 85 28 11 95 41 28 106 64 42 107 58 51
72 30 19 75 20 34 172 124 153 228 173 223 187 145 195
191 139 203 188 142 193 181 140 195 187 139 198 187 143 194
190 146 197 192 144 203 194 147 204 201 152 208 192 154 205
199 152 212 181 145 210 206 153 218 200 164 227 198 150 225
211 169 241 199 155 227 187 147 222 135 92 177 139 107 183
119 86 168 130 94 177 122 89 177 119 83 163 114 92 174
141 106 190 113 77 165 112 81 167 110 79 165 105 74 160
108 74 161 104 68 156 98 69 153 95 65 148 127 93 179
115 82 174 113 80 172 107 66 170 97 71 163 108 81 171
116 85 187 127 97 192 114 80 183 115 89 182 118 80 180
117 91 184 121 83 183 113 87 180 123 85 187 115 88 184
124 86 188 117 90 186 122 84 186 117 90 186 122 84 186
117 90 186 121 85 186 117 86 185 119 91 185 124 85 188
125 90 197 127 92 197 128 95 198 126 87 194 128 92 200
127 90 192 135 100 201 132 89 190 126 85 186 130 87 179
140 103 188 153 115 209 193 146 227 222 180 255 180 138 219
198 153 219 199 143 233 199 151 224 196 147 225 190 143 213
199 142 217 200 146 220 199 148 223 195 145 220 199 146 222
198 146 223 200 148 221 197 147 220 204 147 226 206 149 228
206 156 231 210 158 234 209 157 232 215 163 239 219 167 243
216 164 240 218 166 244 210 157 228 222 169 242 223 170 245
224 171 246 223 170 245 218 165 240 212 159 234 212 159 234
213 160 235 212 161 233 209 158 230 210 159 231 206 156 228
206 153 224 202 155 229 207 146 223 202 150 220 253 192 255
186 137 189 118 59 100 78 20 52 106 51 73 152 103 111
133 78 74 81 33 36 90 35 40 70 26 28 58 10 11
52 13 13 51 20 16 38 11 7 38 8 5 30 10 1
28 7 4 26 7 1 22 7 0 25 8 0 22 5 0
27 12 4 31 7 1 0 0 0 64 51 50 113 92 95
124 107 111 107 89 90 115 75 79 125 90 95 144 91 100
124 73 77 38 0 0 71 18 15 80 18 25 84 26 26
14 3 4 13 1 5 18 10 1 13 6 0 18 5 2
18 7 5 22 11 3 17 8 2 24 9 5 20 7 5
21 10 0 21 12 2 25 7 3 31 14 11 24 14 2
33 16 10 27 14 0 17 15 0 25 10 4 24 14 3
26 13 8 36 17 9 32 11 2 37 12 13 32 18 16
39 10 15 38 8 13 35 13 27 43 9 33 42 11 40
41 8 41 22 0 29 91 49 92 101 49 107 65 22 70
49 0 58 83 37 91 91 38 96 94 45 98 130 81 137
151 103 165 155 106 162 156 100 168 142 95 157 140 85 159
143 94 159 143 90 159 137 95 151 162 120 194 127 80 147
100 50 124 133 93 163 115 76 129 30 0 38 26 0 13
36 10 18 54 22 18 45 14 9 42 12 11 46 16 13
42 13 11 49 19 17 45 18 15 54 17 11 55 25 19
45 20 5 58 13 13 69 25 14 86 38 31 105 58 41
102 57 42 107 56 38 105 54 34 115 55 38 119 56 42
116 57 39 105 42 31 89 35 17 89 41 26 113 57 40
114 65 54 80 29 31 78 25 46 170 122 149 227 174 223
192 140 193 188 139 198 189 140 206 196 146 198 186 144 201
189 147 196 193 151 200 192 149 203 196 154 206 194 152 202
197 154 208 204 155 224 190 150 213 202 154 219 202 156 220
200 152 219 205 162 233 198 162 229 198 158 223 131 97 173
127 92 171 112 73 148 109 78 156 108 74 154 97 61 147
99 65 156 114 86 175 101 59 143 105 67 152 122 81 167
135 94 180 146 105 193 162 118 207 167 136 221 182 149 232
147 110 204 144 108 194 121 84 179 109 72 159 99 65 159
105 71 168 112 74 174 125 84 179 122 88 183 115 85 189
115 85 186 119 87 189 116 86 187 122 90 192 118 88 189
116 84 186 126 97 195 124 93 192 123 94 192 124 93 192
123 94 190 124 93 190 121 95 190 131 90 192 124 88 191
130 95 191 126 87 196 128 90 194 128 91 195 134 97 199
127 93 199 144 97 206 120 81 173 124 83 183 118 80 169
135 89 179 149 103 196 169 128 208 186 147 238 209 170 251
189 137 216 196 147 217 196 151 221 198 152 225 193 147 220
191 148 222 202 147 225 209 157 234 196 146 222 194 145 221
199 146 221 197 145 221 196 146 217 199 151 222 205 149 224
210 154 229 202 152 224 205 153 225 214 163 238 217 165 237
216 164 237 216 164 237 214 162 235 209 157 233 218 166 244
218 166 234 224 172 242 222 170 240 215 163 235 214 162 234
212 160 232 211 159 231 217 163 238 215 161 236 212 160 230
204 154 233 207 152 233 212 150 227 207 157 219 214 157 229
232 182 241 186 126 175 127 76 110 106 54 76 113 65 80
122 75 77 107 52 58 75 30 17 56 11 16 53 9 8
39 0 0 57 12 14 60 25 22 47 15 13 39 6 4
32 12 2 27 6 3 26 7 1 20 7 0 21 6 0
23 8 0 26 13 4 28 9 1 0 0 0 74 52 60
112 99 101 129 101 104 116 88 93 116 79 82 133 96 102
137 94 98 108 53 59 58 0 3 81 21 34 91 27 32
88 26 25 16 8 0 16 8 0 13 4 0 15 8 2
19 6 3 21 10 8 17 6 0 20 11 7 25 10 0
21 10 0 27 8 3 26 8 4 26 14 1 24 14 2
36 10 5 32 23 12 16 4 0 26 12 6 27 11 2
24 15 3 33 11 6 28 15 4 34 17 16 27 10 4
45 20 18 40 10 18 40 20 25 44 11 25 47 9 37
46 12 44 51 15 44 28 0 24 104 53 117 92 38 104
70 21 77 111 54 120 183 135 202 173 112 179 130 72 146
154 96 166 137 81 151 161 103 173 155 96 161 129 78 152
146 92 162 147 98 167 144 92 159 147 96 174 158 102 171
144 101 178 127 79 152 159 112 184 117 70 124 19 0 28
28 0 15 52 24 34 50 18 16 48 20 12 44 18 14
54 14 15 51 14 15 49 12 15 54 23 10 56 21 5
59 23 23 57 19 8 53 11 10 71 28 17 94 42 35
104 56 38 115 56 46 108 62 42 100 52 31 113 54 37
115 54 39 117 61 42 104 44 32 92 31 17 104 43 32
114 66 46 110 65 51 78 31 29 77 26 44 175 131 155
226 175 219 189 142 203 194 147 203 185 139 201 199 156 204
200 149 204 196 154 211 192 151 205 211 157 221 205 154 215
211 160 221 212 161 218 214 162 220 196 154 219 216 162 220
209 166 232 205 160 222 207 163 227 206 152 233 200 159 230
125 80 155 123 80 156 112 67 148 113 76 159 123 82 169
110 74 155 120 82 169 135 101 187 149 100 186 149 103 190
153 120 203 177 141 227 196 160 237 212 176 255 233 194 255
253 214 255 195 157 245 198 157 236 166 131 222 145 110 195
125 85 171 120 81 171 124 84 177 117 84 182 125 87 183
124 90 188 123 89 183 127 91 186 125 91 185 124 88 183
127 93 187 125 90 182 129 91 195 128 90 191 127 90 191
128 90 189 127 91 197 128 90 195 127 91 197 123 91 188
129 95 187 135 93 192 131 92 185 133 94 197 131 97 197
137 88 196 137 100 194 140 93 194 116 79 172 135 87 182
140 97 186 155 108 195 173 127 217 185 138 231 194 150 246
192 149 239 202 151 225 208 154 227 205 153 229 205 153 229
203 151 227 197 145 219 198 149 222 207 160 230 195 140 214
199 146 218 198 146 222 195 145 219 204 146 225 205 149 227
207 153 230 208 152 228 200 151 223 203 153 223 209 153 240
218 168 238 216 165 238 218 166 242 211 159 236 210 158 230
210 158 232 217 165 241 221 169 245 217 165 243 214 162 232
210 158 230 212 160 232 216 162 237 214 168 231 214 168 231
212 158 233 203 154 221 205 153 235 206 150 227 211 154 231
231 169 229 215 158 216 168 107 144 136 80 111 135 78 107
109 57 61 84 33 44 79 26 29 91 38 44 48 9 7
50 8 11 42 2 2 55 14 13 51 14 14 39 13 7
25 5 0 27 1 0 31 8 5 24 7 0 28 7 2
27 6 1 28 7 2 31 12 6 32 7 2 0 0 0
81 60 56 108 90 93 127 104 105 117 83 92 124 89 91
134 97 103 136 89 93 82 34 34 65 17 17 83 28 35
84 31 28 86 33 37 15 6 1 13 4 0 16 9 3
16 11 4 22 9 8 17 6 6 20 11 3 15 8 4
25 12 0 20 11 1 25 7 3 30 13 10 28 18 6
27 19 8 37 17 10 40 17 11 14 5 0 25 13 3
20 12 1 31 10 2 31 18 10 34 15 7 30 8 10
36 8 5 43 16 17 45 12 14 42 13 27 43 8 30
38 8 31 32 0 33 27 0 26 8 0 14 66 9 78
57 4 72 63 13 83 154 110 170 255 209 255 220 165 235
126 71 148 136 84 153 105 44 125 143 91 165 140 86 163
135 77 153 163 102 183 164 115 184 153 100 172 159 108 176
143 89 168 161 114 187 117 64 136 154 115 180 138 91 157
11 0 11 33 0 15 75 47 59 42 3 3 46 12 6
45 9 10 46 13 13 43 11 12 54 20 22 52 16 10
51 22 6 55 21 20 47 12 0 42 2 1 64 24 12
90 41 33 98 54 35 106 53 41 106 53 37 114 53 36
109 53 35 121 63 47 126 55 41 102 48 34 81 23 8
94 40 26 117 62 44 126 70 69 82 30 29 69 14 33
167 107 142 216 162 217 187 129 187 180 128 185 169 118 180
208 152 219 197 156 203 199 153 204 204 159 207 204 157 217
209 163 220 209 163 220 212 166 221 203 157 218 207 159 214
226 180 245 228 181 237 212 158 225 206 166 223 196 149 221
177 127 203 123 85 153 109 72 142 98 55 142 131 84 165
139 97 183 136 93 173 163 118 205 187 145 235 210 171 244
204 153 239 208 166 247 215 171 254 227 181 255 234 188 255
240 194 255 247 201 255 255 210 255 232 195 255 201 157 246
162 118 198 139 92 190 126 80 170 126 78 167 128 83 174
118 83 182 115 87 178 120 79 184 116 88 184 118 77 180
111 83 179 124 84 184 117 89 181 129 91 193 121 89 189
127 90 187 121 91 185 127 85 193 121 92 191 127 88 190
124 87 197 129 88 182 122 84 181 123 88 184 126 92 189
141 97 194 130 93 192 129 81 185 107 69 164 129 80 172
131 93 174 152 103 192 173 131 211 190 149 231 203 164 247
200 153 242 195 143 230 174 134 200 189 137 202 194 145 212
190 141 208 190 141 206 189 140 213 196 147 216 200 154 229
191 137 212 195 143 216 193 143 218 187 139 212 197 141 216
204 150 224 208 154 226 215 161 240 194 141 220 205 151 230
210 157 233 212 158 239 217 162 246 212 162 231 213 161 236
207 155 232 204 152 224 214 162 235 219 167 241 218 166 242
217 165 235 210 158 230 210 158 230 213 159 234 215 168 234
214 167 233 206 154 229 205 153 224 209 149 223 212 155 229
217 153 221 246 190 251 230 169 220 157 103 143 135 84 99
156 105 113 117 64 81 68 18 22 75 21 28 111 59 62
67 22 22 58 20 20 50 10 9 50 16 13 46 18 15
31 0 0 16 0 0 6 0 0 32 16 6 25 6 0
25 6 0 24 5 0 24 7 0 27 12 4 34 14 7
0 0 0 81 67 63 112 85 92 123 89 94 119 91 98
120 87 86 129 94 97 137 90 102 69 20 27 75 17 25
87 30 32 89 26 39 83 27 25 14 5 0 17 10 4
18 3 1 19 6 5 19 8 0 20 11 3 25 8 2
29 16 10 17 0 0 22 4 0 22 10 0 20 10 0
29 6 0 28 8 1 27 10 2 30 13 5 36 16 9
30 10 3 30 14 5 29 6 0 31 14 8 36 14 10
37 22 11 42 19 16 45 23 22 44 17 17 48 16 30
60 21 43 64 32 54 83 37 73 84 44 81 66 28 73
64 5 73 121 62 132 129 68 145 152 96 162 236 174 255
225 168 244 153 98 171 123 66 148 196 126 217 150 94 181
134 73 152 152 98 179 154 97 173 139 82 156 145 84 162
138 86 164 166 112 188 78 22 99 255 198 255 213 159 226
0 0 11 40 0 52 81 42 63 45 13 23 71 34 32
62 23 22 59 24 19 52 16 13 51 21 18 56 11 9
56 18 11 56 14 3 53 24 22 69 36 24 84 37 35
81 30 22 88 35 30 116 60 45 123 68 55 113 66 48
105 48 30 110 56 37 104 49 32 113 48 32 114 46 37
110 52 35 112 49 40 98 50 27 97 46 41 79 32 28
91 40 55 206 152 181 255 206 253 220 167 231 214 167 230
217 170 226 216 168 224 213 160 223 215 162 225 215 162 225
215 163 223 216 164 224 213 161 221 214 162 220 222 172 235
218 168 229 215 163 221 212 161 224 217 161 231 213 166 230
214 158 230 255 213 255 131 82 156 171 123 195 177 128 200
168 127 203 180 140 216 204 155 239 208 172 255 205 159 242
248 195 255 235 190 255 231 186 255 229 179 252 219 179 253
216 173 247 213 171 246 201 158 238 245 204 255 233 189 255
229 180 255 219 179 252 186 143 233 158 114 197 135 93 180
132 85 171 136 97 192 128 100 191 138 97 194 135 100 196
152 112 206 146 112 204 140 96 200 127 95 189 141 97 203
133 102 197 139 96 205 132 96 202 138 97 200 133 98 199
133 89 204 129 92 191 143 105 204 142 110 209 156 108 217
140 99 195 126 86 189 126 88 187 142 99 196 138 104 193
196 152 232 186 145 230 215 170 250 231 194 255 240 192 255
235 189 255 216 174 255 208 164 254 255 200 255 240 186 250
227 174 244 214 162 228 196 144 208 192 140 211 194 143 209
200 144 219 208 156 234 198 148 220 205 147 226 216 160 235
214 160 242 195 141 221 193 141 215 211 152 240 202 151 232
203 150 232 215 162 246 217 164 238 221 168 246 217 162 246
217 166 238 210 158 233 218 166 242 213 161 239 210 158 231
215 163 241 215 163 233 215 163 235 220 168 240 214 161 236
239 189 252 198 150 213 223 168 240 232 185 255 211 154 234
203 149 220 222 161 234 255 195 254 108 49 85 140 80 116
97 41 63 74 16 29 83 36 36 99 46 51 92 43 42
102 44 50 27 0 0 54 16 14 50 19 15 47 7 8
34 11 4 38 4 3 31 12 1 30 12 0 24 6 1
24 5 0 29 10 4 25 8 1 31 6 3 26 9 3
37 7 3 0 0 0 66 43 42 143 120 124 132 105 108
103 72 76 140 100 113 151 108 111 110 66 72 59 6 8
45 0 4 63 12 16 71 17 21 80 27 29 13 6 0
15 10 3 17 4 3 18 7 7 17 8 0 17 10 4
23 8 4 26 15 11 17 0 0 22 6 0 23 10 0
22 11 1 28 8 1 27 10 2 28 11 5 31 14 6
29 14 5 30 17 6 28 7 0 30 15 4 30 11 7
41 11 9 40 16 10 38 13 13 46 13 15 49 17 18
50 12 27 45 16 30 54 11 43 63 27 56 77 36 77
76 29 75 139 89 164 147 88 170 155 103 171 202 143 222
254 203 255 198 135 213 119 54 140 130 69 158 148 80 169
147 86 171 150 84 176 143 88 171 144 83 167 147 91 169
164 111 183 166 110 184 114 58 131 141 84 157 255 217 255
197 142 221 26 0 35 28 0 32 74 26 50 46 12 25
59 25 22 57 20 18 50 19 14 49 20 16 55 11 14
55 16 14 56 22 16 55 18 6 64 25 23 57 28 15
72 29 26 72 26 16 90 39 33 108 55 39 114 63 49
116 55 42 114 57 37 113 53 38 120 52 39 109 48 31
111 46 36 106 49 32 109 51 38 107 46 37 109 54 49
84 26 28 91 35 60 195 136 174 250 190 248 210 153 216
212 154 214 203 151 218 211 155 223 207 161 214 210 160 219
211 161 220 211 163 219 213 165 221 210 162 218 211 165 218
216 160 226 220 164 228 214 168 223 213 166 227 213 162 231
212 159 224 212 159 223 219 168 236 180 125 198 189 148 219
191 140 217 185 143 216 198 141 229 204 158 234 218 168 254
218 174 254 213 164 233 211 170 237 222 164 238 216 174 243
218 170 242 220 175 248 224 175 245 222 178 247 223 169 246
221 177 251 233 181 255 220 183 255 220 167 252 173 134 211
153 95 179 125 82 169 128 83 179 125 92 193 129 94 190
133 97 192 135 101 198 135 101 194 131 94 198 127 89 187
134 99 201 132 95 194 130 95 199 135 99 201 133 98 198
133 98 195 132 94 203 140 101 213 120 89 187 142 97 204
139 99 199 136 99 196 121 83 180 137 95 192 166 132 219
176 130 213 244 207 255 231 189 255 241 201 255 251 207 255
255 214 255 255 216 255 255 216 255 255 214 255 255 210 255
255 207 255 253 207 255 241 190 255 233 183 250 219 169 236
211 162 224 199 152 216 209 157 228 197 149 222 207 151 229
209 155 229 210 156 236 202 150 222 204 147 232 210 153 233
196 145 224 206 153 233 211 158 238 214 161 245 219 166 242
214 160 241 213 162 234 213 161 236 206 154 231 211 159 231
210 158 234 208 156 224 206 154 226 210 157 232 208 155 230
206 154 226 209 159 231 215 161 230 206 154 237 202 143 219
202 147 222 236 174 246 228 170 231 227 168 220 110 57 88
134 79 104 109 56 62 96 42 46 92 41 47 95 45 49
86 30 39 79 32 37 43 6 5 45 17 12 46 11 10
42 13 10 40 8 4 30 10 4 32 8 1 21 3 0
24 6 0 29 10 4 24 7 0 26 11 3 27 10 4
39 9 7 30 9 2 0 0 0 66 44 42 144 111 117
136 102 108 101 76 77 131 93 100 147 108 115 129 75 92
78 36 41 36 0 0 57 3 10 65 2 14 67 7 19
16 3 0 19 6 5 16 5 0 16 7 0 25 8 2
25 10 6 21 8 0 25 14 3 22 5 0 20 4 0
22 9 0 20 9 0 32 12 5 30 13 7 32 15 0
29 14 9 32 9 3 31 12 8 35 10 8 30 10 6
38 8 6 35 13 9 37 16 8 52 20 19 38 12 8
45 17 24 50 20 37 52 11 31 54 10 42 70 30 71
108 59 103 118 71 123 157 97 168 178 115 200 193 139 215
255 195 255 255 245 255 251 182 255 142 78 167 128 66 151
144 72 162 142 80 166 167 101 188 160 98 179 146 84 160
146 93 165 160 103 177 148 88 164 92 31 111 210 153 234
255 247 255 183 133 208 25 0 36 18 0 25 65 23 45
52 5 22 60 29 25 54 20 17 61 18 17 58 17 17
52 14 15 56 19 18 58 14 3 50 16 6 63 28 25
65 28 19 73 24 24 80 26 20 88 39 32 112 59 43
119 68 54 114 56 42 116 60 40 110 55 38 112 49 35
116 50 33 111 49 38 110 53 36 111 53 40 116 58 46
106 53 47 89 36 33 89 38 57 196 140 175 252 197 251
207 155 214 210 157 225 203 156 215 208 158 220 213 157 225
209 162 218 210 162 218 215 159 227 214 160 225 216 162 227
218 164 229 219 167 229 216 164 224 222 168 237 218 164 227
219 165 233 211 162 227 210 159 225 212 160 233 225 172 237
222 171 245 223 169 238 215 177 245 228 167 246 219 175 245
222 178 255 238 178 255 214 164 240 218 168 237 222 163 239
221 171 246 228 173 240 215 175 237 235 175 254 218 179 244
225 167 247 220 179 247 236 186 255 253 211 255 255 201 255
222 178 253 179 123 204 147 102 179 118 86 173 134 94 189
132 93 183 138 98 186 140 97 196 146 103 198 140 100 193
130 89 189 137 93 199 141 97 198 138 96 202 143 99 202
140 98 208 146 102 211 144 103 208 147 106 211 128 88 195
141 94 207 139 95 208 128 86 188 124 87 188 161 114 201
208 167 255 243 198 255 249 209 255 237 193 255 231 194 255
241 195 255 244 200 255 241 197 255 248 206 255 242 198 255
255 208 255 255 205 255 255 204 255 255 208 255 255 209 255
244 192 255 214 157 228 189 134 207 219 166 239 204 147 225
201 147 224 213 159 231 213 161 235 204 147 232 200 145 232
216 159 247 197 146 223 202 149 229 210 157 237 215 162 246
213 160 236 214 159 243 211 160 232 207 155 232 210 158 230
212 160 236 209 157 235 210 157 230 211 157 235 212 163 226
208 159 222 215 163 238 195 137 218 227 176 254 214 157 237
183 128 199 218 157 233 255 193 255 204 145 199 176 108 152
90 28 61 118 57 74 98 49 56 96 42 42 94 43 43
84 37 30 76 23 16 58 13 12 45 2 8 47 15 11
48 7 8 35 12 5 38 6 4 32 6 2 30 3 0
22 4 0 28 10 4 23 6 0 31 6 3 29 9 4
38 8 6 28 6 2 34 13 5 5 0 0 70 37 48
144 119 124 136 109 113 118 78 87 127 94 99 143 96 110
130 94 101 100 55 63 136 75 95 130 85 88 138 87 95
137 88 96 15 4 1 18 7 7 16 5 0 16 7 1
23 8 2 23 10 6 21 8 0 25 14 5 19 1 0
24 7 4 23 13 1 22 14 3 30 10 5 29 12 8
31 14 2 27 12 0 36 15 10 27 11 6 31 10 7
26 10 5 33 8 5 36 12 7 50 16 11 46 23 15
30 0 6 45 13 13 55 14 29 52 15 41 64 22 57
83 45 93 126 80 128 144 98 158 101 42 115 157 103 181
173 110 189 189 129 212 255 212 255 255 241 255 233 166 255
190 125 217 152 89 180 133 65 160 153 83 173 165 101 190
161 91 181 167 106 187 149 82 162 109 57 128 151 96 173
255 199 255 255 225 255 161 97 177 41 0 50 31 0 34
61 20 42 55 11 27 54 23 19 54 20 17 64 21 20
57 16 16 57 19 22 55 17 19 58 15 7 59 19 4
63 31 28 60 27 16 72 25 24 75 23 16 90 44 36
118 67 50 119 71 56 112 54 40 121 68 47 122 53 41
116 51 36 111 49 31 121 49 43 113 61 42 115 59 45
115 57 45 110 60 49 92 32 41 99 36 67 202 146 177
254 193 251 217 154 215 215 158 225 206 148 221 223 166 225
208 157 222 213 162 215 212 167 220 216 162 227 220 168 230
219 169 231 215 165 227 221 169 229 218 166 224 221 169 235
222 170 232 221 169 237 219 165 230 211 162 231 211 161 225
215 166 238 219 169 237 222 171 237 216 165 239 216 168 237
219 168 236 215 164 242 209 162 231 218 167 231 218 168 236
217 169 238 222 171 233 225 172 239 228 181 244 226 181 239
229 176 249 236 187 252 232 180 254 238 185 255 239 198 255
252 207 255 242 197 255 202 152 232 182 131 204 122 77 175
130 99 195 140 95 194 135 102 192 146 104 204 138 102 196
143 97 199 132 98 186 144 101 207 136 99 198 142 95 205
137 102 201 142 96 207 137 102 205 142 98 205 142 100 207
139 97 204 135 96 209 141 93 196 137 92 192 147 105 195
178 132 222 221 180 255 252 207 255 242 203 255 241 192 255
238 195 253 237 193 248 234 190 255 236 192 249 236 194 255
247 203 252 239 183 245 237 188 246 239 191 249 252 206 255
255 206 255 245 195 255 218 171 234 195 143 209 214 162 227
208 153 232 201 147 222 209 156 235 209 152 239 205 150 227
202 147 231 212 155 241 196 145 222 203 150 230 208 155 239
208 155 229 213 159 240 210 160 229 211 159 235 209 157 229
220 168 244 218 166 234 216 163 236 223 174 237 223 173 239
224 173 244 228 177 248 232 187 246 203 150 235 241 185 255
227 168 250 229 169 240 255 200 255 232 174 226 159 93 134
137 82 112 85 27 47 110 53 65 104 50 54 101 54 52
94 47 44 76 37 24 59 11 13 40 1 0 49 9 4
45 10 11 36 7 4 42 10 6 28 8 2 28 6 0
23 9 0 23 1 0 28 10 4 30 13 6 30 7 3
29 11 5 35 9 6 38 14 9 42 8 5 1 0 0
65 39 44 145 114 117 150 115 130 116 83 81 127 89 106
141 97 101 150 107 125 125 74 85 170 123 132 165 110 123
164 106 125 168 111 126 15 4 0 18 7 0 16 5 0
16 7 1 23 8 2 23 10 6 21 8 0 24 12 5
24 10 0 20 10 0 30 7 1 29 9 4 27 10 0
28 11 0 29 12 2 31 17 4 31 12 8 35 16 7
35 7 1 37 14 5 39 11 9 36 17 9 44 17 17
47 17 17 35 0 3 33 4 18 54 16 41 67 25 60
97 47 88 112 67 112 131 76 141 131 82 146 127 64 150
158 95 175 126 56 144 100 36 126 169 99 186 245 180 255
255 197 255 255 222 255 204 129 222 129 69 159 126 61 148
143 83 168 169 103 189 167 111 188 138 79 152 130 66 146
255 197 255 249 196 255 203 146 231 121 61 138 61 12 69
49 2 53 55 16 37 61 17 33 54 23 19 56 19 17
52 21 16 55 26 24 61 19 16 60 25 15 60 25 15
48 14 0 70 29 30 68 27 20 69 24 22 76 27 19
103 44 40 120 65 51 132 71 60 108 53 38 126 75 53
122 56 43 114 50 35 113 54 35 122 55 47 126 61 46
126 63 53 123 70 54 112 59 58 93 36 40 100 42 69
200 148 176 250 193 247 214 156 220 207 155 219 204 150 220
221 166 225 211 163 225 214 161 226 220 166 231 217 165 227
219 169 231 226 168 230 229 171 231 219 169 237 224 172 238
226 174 238 226 174 236 223 171 239 224 172 238 221 168 233
223 171 234 208 152 221 212 157 224 218 161 227 215 166 237
218 166 235 215 163 233 214 162 229 211 161 231 225 168 234
225 170 237 226 169 240 226 174 237 232 178 243 228 177 243
233 180 245 226 174 241 246 194 255 237 186 254 232 175 250
226 178 255 252 197 255 251 197 255 213 156 230 178 134 206
128 83 177 138 102 196 145 96 186 138 102 190 150 97 193
141 108 204 152 101 201 130 93 187 156 102 212 141 107 204
150 98 206 134 96 199 149 94 207 133 97 201 140 88 202
137 88 196 145 96 210 135 94 200 128 76 184 145 102 196
175 133 223 210 164 248 230 190 255 244 194 255 238 194 255
242 195 255 240 201 255 249 196 254 252 206 254 250 203 252
244 201 249 243 193 251 255 206 255 252 195 254 250 196 253
255 203 255 255 211 255 255 207 255 241 182 255 232 173 240
208 158 225 206 151 230 194 140 215 207 154 231 205 149 229
200 145 231 199 144 231 201 144 229 205 154 231 205 152 234
207 154 228 210 157 235 213 158 242 215 164 236 213 161 238
210 158 231 214 162 240 216 163 236 220 166 244 226 176 244
231 180 253 238 187 250 241 192 254 241 187 255 250 192 255
238 180 255 253 189 255 255 233 255 255 228 255 189 124 170
98 40 74 129 64 93 102 42 55 115 61 58 111 60 60
106 55 55 98 49 41 71 25 21 59 14 3 34 0 0
43 9 5 35 7 6 37 10 4 37 5 3 33 9 4
30 3 0 23 5 0 19 2 0 35 16 11 29 12 5
30 7 3 28 13 6 35 10 7 35 15 9 37 10 4
13 0 0 61 31 39 151 114 125 149 122 137 127 91 97
128 95 113 137 93 101 154 112 133 156 106 118 144 88 108
138 95 97 145 89 112 139 91 98 15 4 0 18 7 0
16 5 0 16 7 1 23 8 2 23 10 6 20 9 0
23 13 5 23 8 0 19 8 0 27 7 0 25 8 2
31 14 2 31 14 4 31 16 6 32 14 1 34 11 7
29 15 6 38 12 7 33 12 4 34 10 7 43 11 7
45 12 11 42 11 20 49 18 23 57 17 32 68 25 51
92 56 83 120 70 123 126 83 138 122 73 137 106 55 124
154 98 174 146 83 169 126 62 152 107 47 129 118 53 141
129 69 151 191 121 212 255 201 255 255 217 255 199 127 221
168 93 183 132 66 155 159 92 176 158 95 174 120 53 140
153 96 168 255 255 255 212 145 225 163 105 187 109 51 125
69 15 87 59 15 62 63 14 40 66 24 39 47 16 12
56 19 17 57 23 19 56 24 23 66 24 23 59 23 16
62 25 16 52 17 3 71 32 32 65 26 18 69 24 22
73 24 16 100 44 39 123 70 55 128 70 58 106 53 37
138 77 60 124 60 46 112 51 35 122 48 34 120 56 47
131 69 53 128 69 57 133 72 61 118 58 54 90 37 40
105 40 69 206 143 183 253 191 251 219 156 221 213 149 217
204 148 217 221 169 228 220 162 224 215 167 229 214 164 226
218 169 228 218 171 230 230 175 234 233 178 235 220 170 234
226 173 235 227 175 237 226 174 234 228 176 244 227 175 241
222 170 236 221 170 234 222 167 239 223 169 239 229 174 246
230 177 239 230 181 249 231 181 244 234 184 251 234 186 251
225 170 239 225 171 241 230 181 241 227 176 240 231 179 245
231 177 243 226 177 243 224 174 238 233 182 250 230 180 240
225 172 249 235 180 251 240 191 255 249 199 255 204 153 227
171 117 195 129 89 185 150 106 203 147 104 196 144 100 189
149 104 202 153 106 197 147 103 204 146 101 194 151 105 213
151 103 205 150 105 212 147 101 203 146 99 210 143 94 201
142 96 207 137 94 202 146 99 209 132 82 183 136 87 194
166 117 212 206 166 252 247 196 255 247 202 255 241 193 255
215 173 239 232 182 237 237 190 243 247 193 255 248 200 255
247 200 255 243 187 250 229 183 232 255 222 255 255 208 255
253 200 255 254 203 255 254 199 255 252 199 255 238 182 247
242 185 255 212 165 231 207 154 233 199 145 220 201 148 223
211 155 245 205 150 232 199 144 230 202 145 230 209 158 235
204 151 235 210 157 233 208 154 235 212 162 231 211 159 235
213 161 233 215 163 239 209 156 227 210 161 224 218 168 236
222 171 234 231 180 245 234 183 251 241 192 255 240 188 255
255 212 255 249 184 255 255 205 255 255 234 255 255 196 235
131 73 104 80 19 45 122 69 75 115 57 66 123 65 66
114 66 63 104 56 46 89 34 31 63 26 14 45 4 0
41 7 0 39 9 0 37 13 9 37 8 5 29 10 3
34 4 1 27 15 5 29 8 1 25 7 0 34 15 10
29 12 5 35 15 10 37 8 6 37 13 8 43 11 9
47 13 11 12 0 0 57 19 38 142 112 126 161 121 132
134 95 109 139 93 107 138 98 110 151 108 121 151 106 122
158 103 123 153 103 114 151 96 119 150 96 111 13 4 0
18 6 0 14 5 0 14 7 1 23 8 2 22 11 6
24 5 0 27 9 5 21 9 0 23 12 2 30 10 2
29 12 6 29 12 0 29 13 1 34 15 2 34 18 5
35 16 13 37 8 6 35 12 6 32 12 2 38 15 9
44 16 4 48 18 8 30 1 0 68 43 40 72 32 50
100 57 82 116 78 106 124 76 134 131 76 144 122 72 139
105 54 137 143 73 155 145 76 171 153 81 169 161 94 183
153 75 173 118 46 135 144 67 168 180 105 207 255 208 255
251 186 255 241 169 255 146 85 171 162 97 178 156 97 172
115 54 134 211 144 231 255 230 255 164 98 175 165 107 187
132 74 146 58 4 76 60 16 63 59 12 37 68 26 43
46 18 13 55 18 16 58 28 21 55 26 24 67 25 22
61 26 16 59 22 11 48 15 0 74 35 35 61 24 16
66 23 22 75 27 19 105 50 47 124 74 58 132 76 65
103 53 38 139 83 64 122 59 45 112 54 37 121 50 33
121 59 50 135 75 56 129 73 59 137 80 65 109 55 49
92 44 45 101 41 67 205 147 181 247 190 245 210 149 211
214 150 216 196 140 209 225 174 230 217 164 223 223 168 227
225 171 227 227 168 237 229 171 237 231 175 241 229 170 235
225 176 243 223 177 243 231 179 245 229 178 244 230 179 243
228 177 241 228 176 242 224 172 238 232 181 245 235 184 248
231 180 248 233 181 239 237 184 255 241 188 246 240 187 255
246 194 255 229 174 246 234 180 250 229 174 246 232 176 250
228 177 241 231 179 245 228 175 241 228 174 239 225 175 243
233 183 245 231 177 255 224 172 242 242 189 255 250 198 255
215 154 236 169 121 201 133 94 184 148 107 197 144 103 198
142 102 190 150 104 205 150 106 198 152 108 210 147 104 197
152 106 216 149 104 205 151 106 215 152 108 210 153 106 216
153 109 220 154 112 221 148 95 217 168 123 224 165 110 220
168 119 210 202 154 239 232 189 255 255 207 255 242 199 255
235 181 247 241 196 253 250 196 255 249 200 255 255 209 255
255 210 255 255 208 255 255 206 255 255 206 255 255 200 255
253 200 247 253 200 253 248 196 255 249 194 255 246 190 252
240 181 255 255 198 255 226 163 236 222 159 240 200 148 223
207 154 229 215 159 249 209 154 236 204 149 236 209 152 237
211 160 239 209 156 228 210 157 235 209 156 237 212 163 234
216 166 241 216 166 238 212 161 239 225 173 248 223 173 241
226 176 250 228 178 244 233 183 254 239 189 255 242 193 255
237 192 255 255 202 255 255 192 255 253 197 255 230 176 224
157 98 129 105 48 71 108 43 50 132 66 76 115 62 57
120 63 63 105 52 46 87 37 32 59 18 17 49 0 0
48 6 0 52 9 8 42 3 8 39 13 7 36 6 2
34 12 6 37 5 3 26 14 4 34 13 6 23 5 0
35 18 12 31 16 8 28 11 5 36 11 8 35 15 9
44 15 12 41 9 6 16 0 0 54 18 36 137 110 121
158 123 142 140 106 124 147 105 123 139 94 115 144 102 120
139 93 113 161 104 128 154 103 115 148 91 119 144 89 106
20 3 0 13 13 0 21 4 0 21 8 2 20 9 4
21 12 8 22 5 0 26 11 2 21 7 1 20 13 0
27 8 2 26 9 0 28 11 4 29 14 6 33 8 8
31 17 0 31 12 3 37 10 2 32 10 4 32 8 3
38 13 7 37 8 9 27 0 0 0 0 0 69 24 42
73 38 51 116 74 114 129 92 129 140 85 141 123 74 137
120 71 144 124 69 151 112 51 134 141 75 166 157 88 180
155 91 173 168 101 189 169 103 202 170 99 193 155 87 173
222 147 241 255 224 255 255 232 255 146 71 166 145 83 172
166 101 184 109 40 120 255 220 255 255 198 255 123 62 141
194 137 221 166 103 187 35 0 40 49 4 56 60 12 41
71 33 41 46 5 8 48 21 14 63 17 24 67 29 25
61 25 26 62 24 22 58 27 17 52 9 0 72 42 38
73 30 22 73 25 20 71 24 20 93 40 27 126 67 59
128 73 58 100 47 27 142 79 67 118 61 43 114 44 29
113 49 40 130 63 44 125 65 54 125 65 48 124 73 64
103 44 42 89 29 36 101 36 66 210 151 193 255 199 255
219 157 221 208 157 224 186 131 193 235 176 243 224 165 232
220 162 227 228 170 233 230 173 241 233 176 240 233 179 244
236 180 242 222 173 237 229 177 240 230 179 242 229 178 243
229 178 243 225 173 242 223 175 237 217 168 233 230 181 246
221 172 241 221 172 231 217 168 231 221 172 233 224 175 238
228 179 240 236 187 246 233 184 254 237 188 255 235 186 254
234 185 253 230 178 248 227 175 243 223 171 239 220 167 232
229 181 248 242 193 255 230 183 247 211 159 232 227 175 252
248 196 255 218 166 235 189 131 208 116 79 167 143 104 197
141 94 187 143 95 195 138 101 185 145 101 197 140 96 193
145 102 198 130 84 184 136 91 198 141 96 197 150 106 212
152 108 222 164 113 227 154 104 222 123 84 194 164 111 208
157 108 199 179 128 216 205 159 245 248 191 255 254 203 255
244 196 255 219 173 241 241 188 252 235 187 245 242 183 253
241 190 249 244 192 255 242 193 250 252 190 255 251 197 255
238 185 239 247 194 240 255 206 255 255 211 255 255 203 255
255 210 255 255 205 255 255 232 255 210 157 240 212 162 229
201 144 224 212 159 238 222 165 248 211 158 245 207 154 238
210 156 241 205 156 230 207 154 236 210 160 233 214 161 240
214 162 236 213 161 239 208 155 234 194 145 215 247 193 255
232 185 251 234 182 248 232 181 255 241 190 254 251 200 255
251 203 255 255 208 255 241 178 254 255 215 255 255 231 255
211 146 187 89 30 60 102 34 52 142 84 89 133 71 72
116 56 55 118 71 63 114 61 57 81 38 30 52 0 3
31 0 0 41 0 0 51 16 17 36 6 2 36 9 3
42 9 8 38 13 6 31 13 3 39 11 5 30 16 5
29 15 4 34 12 9 27 10 4 36 8 6 35 14 8
48 14 14 39 14 11 44 15 12 18 0 0 45 17 28
147 108 120 153 116 134 154 106 121 151 112 131 132 88 106
132 89 103 116 66 82 168 115 134 150 101 121 155 100 119
142 89 110 20 4 0 14 1 0 21 6 0 22 3 0
23 6 0 24 7 0 26 11 10 25 13 9 17 0 0
26 9 0 31 10 15 31 16 4 30 14 5 27 11 2
31 18 11 40 19 19 35 16 0 49 28 4 41 19 10
29 8 0 18 0 0 33 0 19 76 38 70 84 53 89
146 99 153 120 79 134 120 70 134 110 72 137 118 64 131
112 59 129 118 67 131 105 63 120 151 87 167 127 74 155
134 78 158 135 79 170 143 82 176 150 85 177 152 82 180
145 86 171 95 25 118 148 81 161 255 191 255 255 252 255
214 139 236 161 98 191 255 191 255 249 177 255 123 71 161
171 122 210 180 123 211 148 96 169 72 23 82 40 0 37
66 24 47 65 23 26 60 16 14 62 24 24 62 21 19
62 21 21 64 23 24 67 25 28 66 22 23 65 34 23
72 19 22 68 27 22 59 9 0 84 30 22 132 72 57
144 83 76 133 68 48 145 70 53 141 76 55 144 71 62
124 56 39 114 47 32 124 53 50 154 83 79 168 94 97
184 110 111 118 40 35 113 43 45 118 53 83 189 123 165
237 173 233 214 156 232 190 139 204 228 178 250 214 167 230
215 166 230 221 169 240 222 171 236 222 172 240 217 170 247
231 171 239 239 182 255 235 177 255 233 175 253 236 178 255
233 175 247 236 177 255 240 180 253 239 183 248 248 190 255
230 172 242 237 179 241 239 181 247 240 182 248 245 187 253
244 186 252 244 186 252 250 191 255 230 175 230 232 176 236
231 175 235 232 174 232 220 170 226 227 175 241 230 178 238
230 179 245 246 190 255 219 164 231 218 163 234 236 181 255
244 193 255 238 186 255 212 159 231 223 172 248 149 99 182
159 107 196 128 87 175 128 82 172 138 93 191 152 105 204
146 104 206 135 92 191 191 144 252 171 125 228 170 124 224
172 130 237 164 117 221 150 97 205 174 126 241 200 149 254
255 213 255 243 192 251 241 188 255 236 189 255 233 176 254
234 183 247 243 190 255 254 200 255 243 194 255 240 190 247
245 197 255 242 193 248 245 196 255 248 200 255 255 206 255
252 203 255 255 202 253 255 200 255 245 198 255 248 197 255
245 194 255 245 195 255 247 198 255 255 204 255 246 196 255
239 184 255 216 166 243 206 148 226 206 156 233 226 161 248
218 160 240 209 143 237 231 175 255 214 167 252 210 152 240
212 151 233 217 154 232 228 166 245 239 178 254 245 183 255
239 181 246 237 191 255 255 208 255 255 216 255 249 194 253
232 178 240 238 182 236 232 180 243 255 228 255 255 216 255
169 116 152 77 19 53 98 27 56 145 88 101 141 79 93
113 58 64 109 52 50 85 38 30 49 6 1 34 0 0
47 9 5 49 20 9 53 15 9 36 8 6 38 13 9
34 17 6 39 10 18 32 11 3 37 12 10 32 7 5
38 7 7 26 12 6 38 8 6 40 14 11 45 21 16
50 16 16 34 8 2 38 9 3 46 12 8 21 0 0
63 20 26 117 83 90 177 132 137 143 105 112 134 94 104
157 110 127 159 119 140 165 118 141 129 86 107 131 90 114
141 94 107 142 96 114 20 6 0 20 5 0 22 8 0
18 6 0 18 4 0 20 7 0 22 9 8 20 10 6
23 2 0 28 9 8 32 15 13 34 16 17 29 11 12
31 12 16 32 20 9 34 14 8 41 24 6 38 13 5
26 4 0 22 1 0 27 3 18 58 25 47 81 46 80
82 48 96 114 64 129 103 58 127 112 66 141 119 66 137
118 64 134 116 66 129 122 73 133 117 72 131 133 79 154
129 83 152 138 77 164 138 87 172 152 84 179 152 93 182
158 94 188 154 91 175 163 91 181 150 81 172 195 126 215
255 213 255 255 193 255 254 182 255 255 217 255 255 221 255
144 86 182 165 115 206 178 128 213 144 92 173 64 13 80
43 0 40 65 22 47 63 22 25 60 19 19 62 23 14
59 16 27 62 20 27 63 20 30 65 26 26 61 22 25
66 25 25 67 24 19 75 22 19 66 19 5 79 20 16
126 70 52 138 76 66 138 66 50 130 64 42 148 76 57
139 66 56 128 56 49 116 45 38 120 49 49 140 73 72
163 85 88 174 90 102 134 64 54 118 40 40 107 39 63
169 95 148 222 157 226 204 150 219 183 128 202 200 151 219
215 159 224 209 165 224 219 165 233 222 171 242 214 161 242
216 166 242 229 172 249 230 176 247 225 166 253 228 170 253
227 169 254 228 169 250 229 174 251 232 176 251 231 173 248
232 178 245 228 173 241 231 176 237 232 177 240 233 178 241
233 178 241 234 179 242 235 180 243 241 185 253 230 177 238
230 176 230 229 175 229 228 173 234 227 177 237 230 178 234
230 178 240 232 181 247 231 177 247 226 173 239 224 171 245
230 176 244 241 189 255 237 184 255 222 169 240 221 167 237
180 126 208 181 134 215 175 117 205 178 127 211 172 128 224
174 130 222 170 122 217 168 125 223 130 88 189 152 110 208
158 118 219 158 112 209 148 96 201 151 107 206 201 148 255
229 175 255 252 203 255 239 190 252 240 191 255 239 189 255
236 188 248 242 193 255 236 186 251 239 188 255 237 190 249
241 193 255 240 192 250 244 196 255 247 199 255 245 197 255
251 201 255 248 204 255 248 194 255 248 202 246 251 195 254
247 200 255 250 200 255 246 201 255 248 202 255 253 206 255
235 184 255 228 180 242 208 157 226 206 153 227 212 151 234
207 156 234 212 146 226 201 138 219 214 160 246 210 151 239
204 155 231 209 149 228 215 154 235 225 166 244 241 171 247
234 176 243 255 201 255 248 193 246 232 178 230 238 185 242
255 208 255 247 194 246 244 176 241 255 202 255 255 255 255
219 166 198 143 76 111 106 48 71 120 58 80 128 58 77
120 60 65 117 56 68 97 52 46 91 42 37 63 21 13
44 7 0 51 12 5 43 14 9 39 12 13 36 9 0
43 12 16 37 8 12 35 15 11 33 9 11 37 10 5
39 12 9 34 7 4 37 7 5 34 10 6 36 13 9
41 18 13 44 14 13 44 13 8 41 14 9 41 11 7
28 0 0 57 22 22 132 89 91 171 130 141 143 105 110
136 94 113 145 109 126 153 108 131 149 109 126 142 102 120
140 101 116 144 98 124 143 104 114 20 6 0 18 4 0
21 7 0 22 11 0 32 10 5 27 8 1 30 11 2
29 11 0 25 6 5 31 14 12 41 20 10 37 17 9
37 17 9 29 9 0 29 8 1 25 10 0 43 26 22
27 4 0 20 0 0 26 0 13 65 27 52 92 63 91
110 69 112 108 76 125 113 67 123 109 68 128 111 71 133
117 63 137 118 68 133 119 66 144 124 70 141 131 73 155
134 81 152 125 73 159 137 76 159 137 86 171 151 83 178
152 93 182 158 95 186 151 83 180 185 115 207 131 63 155
141 73 167 221 151 244 255 206 255 255 241 255 255 225 255
182 124 205 162 103 190 163 113 202 177 120 214 144 92 168
63 12 75 39 0 34 65 23 44 68 27 40 58 17 13
59 21 12 64 22 30 60 19 23 62 20 27 64 25 24
66 27 28 63 24 19 69 28 30 75 26 24 66 15 15
78 24 20 128 66 56 146 79 71 132 68 53 136 67 53
141 68 58 138 68 52 130 60 48 116 51 38 131 50 49
150 75 72 166 85 87 158 84 85 174 105 106 129 53 66
91 18 56 142 75 121 204 140 208 197 131 211 182 122 206
179 130 210 207 156 225 205 152 223 209 153 232 205 153 231
214 151 227 214 154 231 217 159 236 222 164 239 210 153 232
216 159 236 223 166 245 225 167 242 225 171 244 223 167 238
224 167 237 219 166 229 223 168 233 225 170 239 226 171 240
227 172 241 228 173 242 229 174 243 232 177 248 228 172 236
232 180 236 233 180 241 231 179 237 229 169 241 226 177 240
227 175 237 232 180 250 234 183 247 228 174 244 226 173 241
231 178 244 235 180 245 238 190 255 240 190 255 232 183 246
238 183 255 222 169 244 219 173 255 223 175 255 224 182 255
235 182 255 221 180 255 204 163 255 213 171 255 142 95 190
161 115 204 150 106 205 137 88 177 145 102 202 191 138 233
237 189 255 255 213 255 255 206 255 255 201 255 249 194 255
248 193 255 248 193 255 240 184 255 240 188 252 238 185 253
243 189 252 240 186 253 241 187 248 244 190 254 248 194 255
249 193 255 245 196 255 250 202 255 246 197 251 246 196 253
247 196 255 243 200 254 244 200 252 244 194 255 248 194 255
242 204 255 242 197 255 233 189 252 221 181 245 221 168 237
220 177 235 218 165 237 210 164 226 197 150 220 212 154 236
210 156 234 207 154 232 217 157 231 223 164 238 225 175 240
243 182 255 237 184 252 255 205 255 255 203 255 232 178 237
237 183 246 255 211 255 252 197 255 232 181 248 255 239 255
255 231 255 148 99 125 82 22 54 110 53 81 117 52 77
103 38 53 108 46 60 137 80 77 75 26 24 84 29 25
50 14 8 43 10 0 38 3 0 46 11 3 45 11 12
31 5 0 35 11 14 33 13 9 36 12 10 40 13 14
27 12 3 31 13 7 33 15 9 25 10 3 36 9 6
35 12 8 40 17 12 45 12 12 42 11 6 37 10 5
43 13 9 29 0 0 54 19 19 127 87 88 171 131 137
146 103 121 138 98 120 149 106 128 152 110 124 147 101 130
150 104 133 151 112 127 149 102 121 150 104 127 19 8 0
24 13 0 22 11 0 18 10 0 29 11 6 24 9 2
28 13 6 27 13 3 26 8 9 27 11 11 38 20 9
36 19 10 29 12 1 28 11 8 25 10 2 28 8 6
34 3 3 26 2 16 40 12 21 62 37 55 99 65 93
118 85 125 121 85 135 121 78 136 115 70 133 116 71 137
123 65 138 115 67 139 120 65 137 116 68 143 132 75 152
138 84 158 125 77 155 139 80 159 138 83 169 140 82 170
151 87 180 153 86 179 159 88 181 154 90 178 177 103 203
164 93 190 141 69 171 142 73 161 195 126 216 255 217 255
255 215 255 94 29 98 183 125 218 165 117 205 176 121 212
140 90 166 59 10 77 40 0 42 64 19 45 65 27 31
55 16 18 63 27 18 59 18 25 63 24 25 65 25 29
61 24 20 64 27 26 60 24 15 76 25 26 74 29 29
64 17 18 81 31 28 129 68 62 146 79 76 139 67 58
136 72 57 138 69 59 140 73 60 129 63 55 115 48 38
130 55 58 149 79 80 161 87 93 167 86 90 196 115 121
128 59 67 85 10 48 131 62 120 206 135 212 208 148 233
181 127 200 185 123 199 194 143 218 195 140 211 198 148 226
195 148 219 203 144 231 203 147 221 208 152 228 212 155 232
204 148 230 208 151 234 212 155 240 217 160 241 221 162 241
218 163 240 218 162 237 213 155 230 222 169 233 218 163 228
220 165 231 222 167 233 223 168 234 225 170 236 222 167 233
222 167 237 234 178 242 232 176 242 228 172 238 230 172 234
225 177 244 230 179 245 233 182 246 234 184 246 228 174 244
236 183 252 243 190 255 241 186 255 236 187 255 235 184 255
241 190 255 248 197 255 242 195 255 249 200 255 251 194 255
251 208 255 252 200 255 252 203 255 229 188 255 234 189 255
210 166 255 196 152 243 151 111 194 142 91 179 178 130 215
227 181 255 248 202 255 227 183 255 237 184 255 232 181 253
235 184 255 238 187 255 234 183 251 238 186 255 243 192 255
241 189 255 240 188 250 239 187 253 240 188 248 245 193 255
245 191 255 247 191 255 244 195 255 249 199 254 239 196 247
248 200 255 247 199 254 247 197 252 244 197 254 250 202 255
239 201 255 242 199 255 252 210 255 248 206 255 242 200 255
233 197 250 243 194 255 240 197 255 226 181 250 232 179 242
214 167 237 223 166 238 221 166 242 222 168 242 225 177 240
245 187 247 246 192 255 255 201 255 241 186 251 251 196 255
255 208 255 255 204 255 250 192 255 255 201 255 255 211 255
255 252 255 196 139 171 116 66 86 90 26 56 133 65 96
115 54 66 99 42 55 125 56 68 143 86 92 54 0 1
65 23 15 49 6 0 43 4 0 37 6 1 35 4 7
35 10 1 35 6 1 41 15 17 38 16 13 34 10 8
38 11 12 34 16 8 31 10 5 33 12 7 32 14 8
33 6 3 39 16 12 45 19 15 38 19 14 40 11 7
44 16 11 47 17 13 37 2 0 45 11 18 125 80 91
171 133 143 149 107 118 138 100 116 151 112 138 151 104 129
146 102 123 151 107 128 149 105 133 156 109 128 150 103 122
31 12 4 30 10 5 30 10 5 28 12 6 29 6 0
33 12 5 31 10 3 32 11 3 25 5 0 30 12 1
37 12 15 36 13 11 32 10 3 28 6 6 31 11 2
28 12 5 16 0 4 45 13 42 77 47 71 102 76 104
123 88 135 124 84 132 120 75 141 107 69 138 121 76 139
119 72 139 125 72 144 120 74 149 118 68 141 130 72 152
133 79 152 138 90 170 139 80 155 138 76 156 139 82 167
150 81 172 150 91 182 155 90 178 163 94 194 154 90 182
167 94 196 185 116 212 175 104 208 143 73 164 135 73 160
241 179 255 255 228 255 184 120 185 167 111 200 170 113 207
180 124 211 141 84 171 63 9 83 43 0 39 66 17 48
72 29 38 62 17 25 63 21 20 67 26 22 63 17 28
65 19 30 69 27 30 65 21 24 61 25 25 73 30 32
78 26 36 72 16 12 86 27 28 135 63 63 144 85 83
142 71 61 145 76 67 148 69 66 147 71 65 140 66 57
126 52 49 133 53 53 153 78 78 174 87 92 174 101 107
173 99 102 128 50 66 85 14 52 125 61 116 204 131 212
212 150 237 183 126 211 181 125 203 184 132 217 187 139 205
200 134 229 197 135 222 195 136 220 197 138 226 202 142 233
204 150 224 202 141 234 205 150 225 211 155 235 215 158 235
216 158 233 215 161 234 218 162 233 211 155 222 218 160 235
216 163 226 219 165 231 216 161 230 219 164 233 221 166 235
219 164 233 217 162 232 237 183 247 226 172 237 226 172 237
231 174 241 223 171 240 233 179 249 234 180 250 232 178 248
239 186 255 246 193 255 252 199 255 250 195 255 235 186 253
230 179 244 241 190 255 250 199 255 246 193 255 249 196 255
245 192 255 245 195 255 251 198 255 243 202 255 249 197 255
244 200 255 255 215 255 236 191 255 194 146 227 181 127 209
203 154 232 241 191 255 240 198 255 219 165 254 228 175 249
235 171 248 235 179 242 235 178 246 243 186 255 247 184 255
239 190 255 244 192 255 241 189 253 241 187 255 242 190 250
244 188 255 241 195 248 244 193 254 245 193 255 250 198 254
247 199 255 239 201 246 240 199 247 242 204 249 247 197 255
248 201 255 249 200 255 247 198 255 255 208 255 250 201 255
251 202 255 253 206 255 255 204 255 255 206 255 251 198 255
245 195 255 236 186 252 240 190 255 235 185 244 236 186 244
236 192 243 245 192 248 250 201 255 252 205 255 240 186 240
242 187 249 255 223 255 255 218 255 252 192 245 255 232 255
255 229 255 248 195 243 98 46 68 114 51 69 104 50 71
130 66 79 112 54 66 134 67 74 131 77 74 87 42 36
52 0 0 58 17 7 44 7 5 36 3 0 34 7 0
36 13 5 40 4 4 37 7 9 40 12 13 36 14 11
39 15 13 36 9 10 32 14 6 36 15 10 31 10 5
29 11 5 38 11 8 37 14 10 43 17 13 43 21 17
42 12 8 44 16 11 47 17 13 38 3 0 42 9 10
128 85 93 171 128 146 145 106 120 145 100 120 152 105 128
149 105 132 146 102 127 151 107 134 151 107 126 145 101 127
147 108 122 30 12 11 30 16 3 29 16 7 33 12 8
31 13 5 30 12 7 30 12 7 30 12 4 27 10 4
29 14 2 34 14 9 26 10 6 26 6 8 33 15 12
37 17 21 46 18 21 42 6 39 64 35 67 102 74 116
133 96 135 129 87 146 111 76 135 107 67 133 110 62 129
130 79 153 122 82 156 132 83 156 131 77 150 132 74 154
127 76 149 130 82 164 143 82 160 143 80 164 141 89 170
150 82 178 148 89 172 159 92 183 159 98 194 162 96 187
154 93 190 176 107 200 173 101 208 183 115 206 174 100 208
136 74 154 194 129 213 255 228 255 255 246 255 146 91 181
174 121 214 176 124 210 145 93 176 57 8 75 40 0 42
63 20 48 69 26 44 58 21 18 59 18 19 62 21 35
64 24 33 66 26 37 62 20 30 65 30 23 65 19 24
82 29 36 75 31 32 69 12 22 88 35 28 134 70 75
156 84 80 147 71 71 144 76 71 144 71 60 146 76 68
141 68 68 132 54 58 132 59 60 146 76 80 175 97 95
189 104 114 155 76 84 123 46 70 94 25 70 141 63 133
201 134 216 201 138 234 174 119 200 173 117 208 193 130 213
182 136 218 197 137 217 194 137 226 193 137 226 195 139 218
200 144 228 199 142 226 209 151 234 207 148 235 205 145 235
212 156 238 215 158 239 220 161 240 221 166 243 225 169 242
215 159 236 217 160 232 220 162 239 219 166 228 217 163 228
221 167 232 220 166 231 212 159 221 232 174 250 225 168 241
229 171 247 231 176 237 228 177 251 229 176 240 236 183 249
233 180 246 240 187 255 246 193 255 251 198 255 249 194 255
235 186 255 233 182 249 238 187 255 247 195 255 238 192 252
236 189 251 233 187 245 234 182 254 237 184 255 240 193 255
250 195 255 250 207 255 240 194 255 249 203 255 236 191 255
220 180 243 224 171 249 234 184 250 236 186 255 234 184 248
245 191 255 248 189 255 244 186 255 247 189 255 245 184 254
239 193 255 239 187 255 242 188 255 248 192 255 240 193 254
248 189 255 246 197 255 245 189 255 244 202 250 251 197 254
242 199 255 250 200 248 241 202 254 241 199 252 241 202 254
253 200 254 253 203 255 251 201 255 255 209 255 239 189 244
243 195 247 244 196 248 247 202 253 250 204 253 250 206 252
249 201 255 246 199 251 255 204 255 254 209 255 251 205 255
254 205 255 249 200 246 250 205 252 255 202 252 255 211 255
255 205 255 238 185 239 255 202 255 255 204 255 255 205 255
255 249 255 255 201 253 138 86 128 75 20 37 106 41 47
106 43 59 105 47 60 118 54 58 143 89 97 117 56 64
24 0 0 60 5 0 47 11 1 52 10 3 43 6 5
33 5 4 37 5 5 36 10 11 27 3 1 42 22 18
35 11 9 37 13 11 41 14 15 30 12 4 34 13 8
35 14 9 33 15 9 36 9 6 37 14 10 42 16 12
40 18 14 44 14 10 45 17 12 47 17 13 46 12 5
36 1 14 124 84 95 170 130 150 148 112 128 146 98 127
154 110 137 153 109 140 146 102 131 146 102 133 146 102 127
147 103 132 148 103 125 32 10 15 32 14 9 31 14 3
35 9 8 34 14 7 35 14 1 35 14 1 32 12 5
40 19 14 30 13 9 40 12 11 36 8 6 39 9 23
49 20 31 63 37 43 59 38 46 85 57 94 99 58 105
118 79 120 119 83 142 108 71 121 106 61 133 116 66 134
115 69 151 121 81 149 132 74 155 137 82 159 133 85 159
132 82 157 139 76 155 141 81 155 136 83 158 150 95 183
151 89 171 154 84 175 155 92 185 161 90 191 160 97 187
171 95 197 162 93 184 190 111 223 171 95 206 169 100 212
183 107 214 143 77 171 180 115 198 255 214 255 255 255 255
156 96 191 185 126 220 193 131 221 147 86 169 66 9 77
45 0 54 70 19 50 70 21 46 64 14 25 70 23 28
67 19 27 69 21 29 70 21 33 73 23 39 70 25 25
63 21 17 86 29 38 78 30 34 71 17 21 91 33 29
138 66 73 152 87 80 142 73 69 153 80 70 141 62 60
153 79 70 143 73 66 141 60 55 136 53 64 157 80 80
179 90 109 183 100 114 177 97 117 154 77 105 139 58 106
155 85 151 200 133 219 203 137 231 188 117 222 179 127 219
187 127 216 194 131 223 197 137 228 194 135 224 198 136 224
200 139 233 205 143 232 201 137 222 217 161 245 211 153 235
210 151 238 208 152 232 216 159 236 220 162 239 225 171 244
238 182 251 213 157 232 219 163 230 223 167 238 221 164 238
221 164 238 220 163 237 219 162 236 220 163 233 228 172 247
229 173 246 225 169 244 227 167 236 227 177 254 233 180 248
238 185 255 237 184 255 232 179 253 240 187 255 249 196 255
247 192 255 242 193 255 233 182 253 237 186 251 240 190 255
247 195 255 239 187 249 244 190 251 240 187 254 240 185 251
243 197 255 245 191 255 248 200 255 234 186 255 247 197 255
253 203 255 252 204 255 238 183 251 224 171 234 234 181 245
250 199 255 247 193 255 244 193 255 241 192 255 245 194 255
242 191 255 241 187 246 246 189 255 235 186 241 251 197 255
243 201 247 252 197 255 244 199 249 251 201 255 238 201 255
252 199 255 248 198 248 251 200 255 249 202 246 254 204 251
255 205 252 247 206 253 251 208 255 248 205 255 254 211 255
242 201 254 255 204 255 248 202 251 253 202 254 251 193 249
255 200 255 252 198 240 255 200 255 255 214 255 251 211 255
248 206 255 255 209 254 252 207 251 252 209 252 255 206 255
255 212 255 254 208 255 255 201 255 243 192 255 249 197 244
255 224 255 255 207 247 165 109 152 91 35 68 102 34 53
114 50 59 107 41 52 107 47 52 116 54 59 112 54 55
72 26 16 35 0 0 60 11 9 50 19 8 53 9 13
45 15 3 40 10 7 39 6 3 40 13 8 32 6 14
40 18 13 40 16 14 35 11 9 39 12 13 33 18 9
33 12 7 34 13 8 32 14 8 36 9 6 36 13 9
46 20 16 41 22 17 45 16 12 47 19 14 48 18 14
47 16 8 42 0 9 123 78 90 174 128 149 150 106 123
143 98 123 152 108 133 152 108 137 145 102 127 149 105 134
149 105 126 150 106 131 145 101 128 32 14 9 33 13 16
35 15 14 36 17 11 37 21 13 31 14 0 31 14 0
22 10 0 57 28 21 47 24 22 40 16 18 28 3 11
22 0 10 29 6 21 53 28 46 51 21 54 133 92 135
112 78 124 107 72 127 102 61 117 92 48 114 93 56 119
115 71 145 135 89 161 131 72 153 128 80 152 137 88 159
144 89 164 150 87 166 138 82 159 135 81 156 130 69 151
155 92 176 150 81 175 147 86 180 157 89 179 158 97 188
169 95 197 165 98 191 162 93 200 181 108 217 177 99 216
165 94 206 169 96 207 148 85 185 223 153 244 255 235 255
255 195 255 143 84 179 188 133 216 199 142 230 151 96 184
68 12 84 43 0 44 64 16 55 69 23 44 59 12 31
65 20 29 63 17 32 66 19 38 66 24 32 66 22 28
61 17 33 60 18 21 80 31 34 82 26 32 82 21 27
88 27 26 135 71 75 155 84 81 150 71 70 154 79 70
133 64 53 149 67 68 143 65 64 127 48 51 127 52 56
158 77 83 173 91 107 167 87 101 213 138 150 171 99 124
157 75 135 165 94 170 217 139 233 205 139 244 188 126 225
210 144 245 188 133 224 193 135 231 198 142 237 200 146 240
203 142 243 199 139 233 203 147 237 204 142 231 234 178 255
219 161 246 211 152 238 205 149 227 216 159 246 223 166 239
233 174 255 248 193 255 197 141 212 216 160 237 220 164 233
226 170 241 226 170 239 228 172 241 224 168 235 213 157 232
233 177 255 226 171 246 229 174 251 228 169 241 228 179 247
233 180 254 238 185 255 246 193 255 222 169 238 236 183 255
246 193 255 253 198 255 246 197 255 241 190 255 241 190 255
231 184 255 255 198 255 255 204 255 250 203 255 249 200 255
245 196 255 244 193 255 243 190 255 242 197 255 255 207 255
234 187 255 235 186 250 255 206 255 253 204 255 231 182 244
225 176 238 235 186 250 225 177 233 225 176 237 233 174 240
228 179 244 237 186 243 238 186 250 240 191 243 238 193 248
248 198 252 235 195 252 240 199 248 238 195 250 243 197 245
240 199 245 241 203 248 244 196 248 238 198 249 250 197 249
242 200 252 248 199 254 249 206 255 252 207 255 253 207 255
246 199 255 255 227 255 255 225 255 255 215 255 255 203 251
253 204 250 255 204 249 255 214 255 255 218 255 244 206 254
254 208 255 252 217 255 244 203 244 255 207 249 255 210 251
255 214 253 255 224 255 241 177 235 255 240 255 255 199 251
255 195 252 255 255 255 255 194 239 114 53 95 95 30 62
133 68 81 122 64 59 121 59 67 140 82 84 128 71 81
67 7 8 39 0 0 94 52 41 47 12 10 58 11 13
50 19 9 47 22 20 44 10 9 37 15 13 34 0 9
30 5 8 38 18 12 36 14 11 37 15 12 32 8 8
39 9 5 26 11 4 31 13 7 30 15 8 30 4 1
32 10 6 40 20 14 48 15 15 45 14 9 40 15 9
49 22 17 46 17 8 35 0 4 126 83 94 170 126 145
148 106 128 146 101 125 158 114 139 148 105 132 138 89 126
159 116 141 151 107 138 152 108 131 154 110 137 42 12 22
40 15 12 35 8 5 28 0 0 29 5 0 33 8 3
33 10 3 33 8 3 42 14 7 30 0 7 21 0 0
40 13 22 70 37 64 101 69 107 109 84 116 109 68 107
97 65 117 97 52 111 102 61 118 104 69 124 100 64 119
111 61 129 122 71 135 118 78 150 119 68 140 128 72 156
142 86 164 129 81 161 130 73 146 134 74 152 148 89 162
151 103 165 146 79 169 166 97 196 169 106 192 171 95 193
160 91 192 175 99 196 185 112 215 185 110 221 169 93 207
155 80 193 175 101 226 190 114 232 169 102 199 184 118 210
244 179 255 255 255 255 239 183 255 165 101 196 156 93 184
155 94 177 54 0 78 31 0 46 81 25 72 58 4 41
71 22 49 69 20 34 69 19 41 65 15 36 70 18 38
77 29 46 79 31 40 85 33 42 73 19 21 82 23 31
67 3 12 91 27 21 139 71 72 150 82 75 145 71 63
146 62 62 157 80 77 160 76 71 162 82 86 160 76 84
147 70 77 157 67 83 181 95 109 197 114 132 216 126 149
210 127 157 183 106 164 204 138 212 211 131 230 183 121 223
203 136 239 190 130 236 174 117 215 187 128 221 190 123 222
192 129 227 193 124 224 193 125 228 202 135 222 197 138 222
195 141 228 202 144 228 214 155 241 219 163 241 208 151 236
213 156 229 225 167 246 234 179 254 255 204 255 226 170 245
214 158 227 218 162 231 216 160 237 202 146 221 217 161 236
246 190 255 215 161 234 222 163 244 221 162 243 232 176 249
224 170 251 232 181 247 233 181 250 230 177 252 243 190 255
241 188 255 234 181 255 236 181 255 237 188 255 238 187 255
242 191 255 235 188 255 252 191 255 248 192 255 248 190 255
249 191 255 248 190 255 253 194 255 254 197 255 241 193 255
253 193 255 248 198 255 253 199 255 240 184 247 228 180 238
234 184 243 238 188 247 241 191 254 242 186 250 234 195 242
242 190 246 240 195 248 236 189 240 238 191 247 242 191 241
223 183 236 255 214 255 250 209 255 248 205 246 254 208 255
253 211 251 243 206 252 249 210 255 240 208 250 255 227 255
255 213 255 255 211 255 255 221 255 247 215 255 243 205 255
254 220 255 255 243 255 208 175 232 223 189 227 240 210 255
251 217 255 246 214 253 252 207 251 245 205 247 243 198 241
251 222 255 235 206 246 242 197 235 251 209 247 255 219 255
255 223 255 255 203 248 231 179 229 255 246 255 231 175 233
255 200 255 255 255 255 251 184 225 103 37 73 67 0 27
136 70 105 105 41 46 118 62 60 142 78 84 125 62 67
65 11 14 51 0 4 66 13 21 60 16 9 36 0 1
52 13 12 47 10 6 33 9 5 42 9 3 34 12 8
50 17 23 56 33 35 32 6 4 41 13 13 42 14 15
45 25 23 41 18 12 45 18 15 37 11 8 29 4 1
54 27 23 40 20 14 49 15 14 44 19 16 47 21 14
55 23 21 59 21 19 42 6 1 45 4 18 116 73 86
179 134 157 169 127 145 141 95 123 145 101 126 167 123 154
173 130 157 143 99 128 148 104 135 150 106 133 145 100 122
41 17 20 40 14 23 34 13 13 33 11 8 33 10 3
33 11 4 41 18 7 43 18 11 29 3 9 35 13 15
40 16 25 53 24 49 68 43 75 91 52 98 92 52 99
85 54 100 99 56 118 101 64 124 100 65 118 106 65 125
110 61 128 107 64 126 114 71 144 129 76 148 123 65 151
125 76 148 136 83 169 144 85 157 139 75 160 135 81 153
139 87 156 150 91 164 161 95 189 169 94 194 165 94 197
155 89 186 165 92 190 169 100 197 172 104 200 155 85 190
182 107 228 166 91 210 172 99 227 181 106 228 162 97 197
181 110 210 235 175 255 255 230 255 252 188 255 179 126 204
174 114 207 159 103 193 65 11 84 44 0 60 85 33 91
71 22 58 65 14 47 67 23 42 66 19 50 69 22 48
67 18 46 73 27 47 72 31 44 81 35 44 84 35 38
85 31 32 79 20 21 95 33 36 149 74 81 168 93 91
163 79 76 153 79 77 158 76 78 158 81 74 162 81 92
152 76 76 150 63 81 153 73 86 176 90 112 190 106 131
189 104 128 186 107 140 158 81 142 194 114 193 201 126 221
178 114 218 201 139 241 187 124 236 192 127 231 188 134 227
199 138 239 194 137 239 202 136 232 204 140 237 217 148 247
214 158 248 210 146 236 215 159 242 223 164 250 219 163 241
220 163 248 220 163 236 233 175 254 238 183 255 255 201 255
229 173 250 217 161 230 217 161 230 219 163 240 222 166 241
222 166 241 223 168 237 222 163 246 224 167 242 224 167 244
227 166 247 228 177 249 230 175 253 234 178 255 232 181 247
240 188 255 235 182 255 238 185 255 240 185 255 239 191 255
238 187 251 241 190 255 236 187 255 245 194 255 248 189 255
249 194 255 246 191 255 250 195 255 247 191 255 245 194 255
252 198 255 247 193 255 253 195 255 244 193 255 244 189 255
232 184 246 233 183 246 234 184 249 235 181 244 244 203 251
241 191 241 243 192 244 239 200 251 241 199 254 242 198 245
244 198 253 243 201 244 253 206 255 241 205 249 249 208 255
241 209 246 246 206 250 248 215 247 246 212 244 245 210 255
245 197 242 248 202 254 247 208 255 236 198 248 237 199 249
243 217 255 252 220 255 237 211 255 255 246 255 255 232 255
255 230 255 250 221 255 255 221 254 247 220 252 252 215 250
253 220 255 229 194 231 245 215 255 255 226 255 255 221 255
255 211 247 253 207 247 255 208 253 255 222 255 255 195 253
255 216 255 255 231 255 253 199 240 193 131 168 127 66 93
122 43 79 136 61 84 121 54 64 128 63 65 131 72 80
109 52 58 67 14 21 55 8 9 59 14 13 50 10 11
47 9 7 44 11 6 48 18 20 44 6 7 34 1 4
35 4 0 35 5 10 36 18 19 45 13 9 35 15 14
50 18 16 38 13 16 44 21 13 33 12 8 39 15 10
32 9 4 40 21 15 49 15 14 45 21 16 48 16 17
52 18 15 46 21 16 54 20 17 43 10 6 36 0 0
106 64 73 167 129 142 166 123 140 140 99 115 142 96 131
135 91 116 116 72 97 154 110 135 149 104 134 144 98 123
146 105 120 43 16 19 39 12 17 41 13 11 41 13 17
39 11 5 37 13 16 49 14 12 53 24 21 25 0 5
47 14 32 68 35 56 93 55 92 96 62 103 100 57 108
93 55 107 88 48 104 103 59 126 101 59 119 104 63 119
101 62 129 108 67 123 110 66 122 126 69 143 122 77 145
124 72 149 132 76 158 144 80 169 138 82 171 133 78 158
142 77 155 146 86 153 151 86 168 152 79 173 151 74 178
146 72 173 141 73 171 164 83 183 180 102 208 174 97 204
156 74 183 176 106 218 165 90 203 170 96 219 178 103 217
166 101 203 189 117 217 233 173 255 255 222 255 248 187 255
187 125 203 174 109 200 155 90 178 63 0 89 53 0 68
85 22 88 67 8 61 73 14 60 74 15 55 73 17 53
76 18 55 74 20 47 80 23 58 80 27 49 83 30 50
87 30 40 90 27 33 75 12 19 100 34 36 151 72 80
170 98 100 162 81 89 157 77 76 176 91 93 173 91 100
169 83 91 162 82 88 167 73 96 169 79 95 178 88 102
189 104 124 164 80 102 164 88 116 150 64 128 177 104 177
190 120 218 185 109 219 202 133 245 185 128 232 183 125 220
188 127 232 198 127 227 197 128 232 196 133 228 202 138 235
208 139 238 212 159 248 198 136 227 205 149 233 212 153 239
215 159 237 210 153 240 214 157 230 224 165 246 217 162 244
255 217 255 243 187 255 220 164 233 211 155 226 221 165 234
232 176 245 225 169 236 211 156 227 225 167 246 225 168 253
225 168 243 230 170 248 226 175 252 231 177 250 230 176 251
230 175 253 238 182 255 233 182 248 236 184 254 238 184 255
237 184 255 235 186 252 239 189 255 234 185 255 242 187 255
240 191 255 244 188 255 244 189 255 245 190 255 247 193 255
248 189 252 253 193 255 241 189 244 246 189 248 244 197 252
240 189 245 232 183 240 230 180 237 236 185 245 233 182 237
255 209 255 245 206 252 246 203 255 251 210 249 255 211 255
255 218 255 255 216 255 255 222 255 251 213 255 249 218 247
249 212 248 249 222 255 254 214 255 246 216 245 254 219 254
255 224 255 239 203 239 255 222 254 250 211 244 244 211 242
254 232 255 255 248 255 243 214 255 198 173 217 248 227 255
234 215 254 223 209 242 232 207 242 243 224 255 252 224 255
245 223 255 252 224 255 232 198 235 247 215 244 255 223 255
255 217 250 253 202 242 243 196 236 253 200 246 255 215 255
231 178 230 255 242 255 255 233 255 184 120 165 107 39 80
103 42 74 140 54 95 133 56 78 133 71 77 127 65 64
126 65 77 90 34 44 52 3 6 47 3 5 69 20 30
42 3 10 58 16 22 49 16 19 48 13 18 53 14 20
37 6 11 36 10 12 43 13 14 44 15 20 44 9 9
43 19 15 50 14 17 44 18 17 49 17 13 39 22 15
43 11 9 37 6 4 49 20 17 45 21 16 43 11 11
51 21 19 47 22 16 56 18 18 59 23 19 41 12 7
39 0 6 109 64 73 173 125 142 178 132 145 160 118 141
160 119 133 159 113 140 133 88 112 156 110 137 146 105 118
149 107 126 149 106 125 32 9 11 31 8 10 33 10 13
34 12 12 34 13 11 38 16 12 44 14 23 41 11 26
24 0 14 54 22 49 87 54 85 98 67 107 104 63 112
93 54 110 95 58 119 89 51 113 107 62 131 103 60 124
98 61 126 108 59 120 112 60 130 114 70 140 124 74 146
125 73 141 127 67 152 126 77 158 139 82 166 140 78 163
141 75 161 137 75 162 141 83 158 152 95 172 148 75 181
155 84 190 155 89 189 164 85 189 172 99 201 189 116 214
197 125 230 200 122 235 166 86 193 167 92 206 166 96 216
180 103 220 180 112 213 199 136 229 242 179 255 255 230 255
254 199 255 191 131 204 176 114 201 145 85 171 68 7 99
51 0 69 83 23 97 69 14 68 67 11 59 72 18 57
72 20 59 68 13 56 72 21 58 78 24 57 79 29 51
74 23 48 92 38 55 86 26 37 76 16 35 98 34 45
157 87 94 181 103 112 177 91 100 163 86 88 188 105 115
178 97 100 177 98 106 168 88 100 171 83 102 170 86 105
177 86 111 183 97 124 160 80 97 161 81 120 144 63 123
176 95 170 193 115 223 178 109 222 194 132 235 181 112 223
208 138 246 188 135 233 199 131 230 197 131 234 191 130 224
191 127 229 202 143 229 211 141 233 199 140 223 204 148 229
210 151 238 214 158 238 206 149 226 208 150 227 216 162 235
213 157 226 255 201 255 244 188 255 234 178 249 211 154 228
213 156 230 226 169 243 231 175 244 210 155 226 226 167 248
221 164 249 222 165 240 229 169 247 221 170 245 228 174 252
230 176 249 224 170 244 233 179 253 234 179 255 231 175 255
234 182 248 232 181 252 236 183 255 233 179 255 235 188 250
241 185 255 234 182 255 243 179 255 246 190 255 243 188 255
243 189 255 247 190 253 251 193 251 240 190 248 245 188 251
241 193 253 240 188 249 234 184 246 235 184 246 240 184 251
229 186 243 255 216 255 246 210 249 253 214 255 255 213 255
255 213 255 255 224 255 255 220 255 255 227 255 251 217 255
254 216 255 255 225 254 254 220 254 252 220 254 255 223 255
249 224 250 254 228 255 240 208 232 255 236 255 255 239 255
254 221 245 249 207 244 245 212 247 255 248 255 255 255 255
255 254 255 255 255 255 255 243 255 255 235 255 255 243 255
255 234 255 242 214 255 236 195 236 255 236 255 255 217 243
245 210 245 255 206 237 255 216 255 255 226 255 255 220 255
255 215 255 255 208 255 255 233 255 243 185 235 143 81 127
81 12 55 104 32 66 137 55 90 136 54 87 143 79 88
137 69 86 119 57 67 80 20 29 39 0 3 54 7 17
60 22 32 43 1 9 43 12 19 56 15 27 53 20 25
52 14 25 43 17 16 47 13 17 52 16 23 54 27 31
44 16 13 44 14 14 45 17 16 50 20 22 47 14 12
43 18 13 48 13 14 37 15 9 50 17 17 47 17 16
49 22 18 56 18 19 54 19 17 56 22 19 53 25 19
55 12 15 43 3 7 116 70 80 175 134 144 169 122 135
150 109 128 158 116 137 162 120 141 153 111 129 163 121 140
163 120 139 159 114 139 160 115 131 33 1 6 34 2 5
37 7 9 39 4 16 42 10 19 39 6 26 48 12 33
42 6 30 39 2 33 60 22 58 89 50 100 102 63 109
103 61 118 92 48 112 93 51 113 100 55 124 105 63 124
98 59 120 107 56 125 108 66 135 111 64 139 111 67 141
125 74 150 123 70 150 120 69 154 139 78 168 145 81 169
141 85 177 142 76 170 139 78 161 149 82 170 145 79 166
175 100 209 190 110 218 201 128 230 197 117 224 198 119 228
209 130 241 223 142 242 247 178 255 164 83 199 170 98 206
164 97 204 176 98 202 181 115 213 200 137 224 232 169 247
255 203 255 255 227 255 229 166 244 207 143 223 174 107 197
90 25 115 76 7 100 101 39 112 101 37 107 64 6 60
71 8 67 72 12 65 74 17 60 77 16 58 78 20 62
78 23 56 78 23 49 106 44 71 97 31 54 89 18 44
114 40 59 181 97 116 196 124 140 192 108 122 186 99 116
205 115 120 195 107 124 186 99 109 177 88 107 178 85 102
178 87 106 177 87 105 177 85 109 169 82 105 168 86 117
148 68 129 176 97 171 188 114 220 176 99 213 193 123 235
167 104 211 222 158 255 214 146 249 211 146 244 204 139 244
202 132 234 197 132 224 199 129 218 197 137 216 205 144 234
210 154 236 221 161 251 219 163 245 214 157 238 214 155 234
221 166 243 221 165 238 224 168 245 243 187 255 243 185 255
224 171 233 209 155 220 216 163 225 225 168 240 225 169 242
223 169 242 222 164 241 224 167 244 227 167 245 223 172 247
226 172 248 223 169 246 226 172 249 228 174 252 230 176 249
227 173 248 231 174 253 229 179 254 232 180 255 229 177 255
233 180 251 230 178 255 232 187 248 233 181 253 233 184 251
244 187 255 239 184 252 247 190 255 249 192 254 242 181 249
246 190 246 240 192 247 242 189 246 232 186 239 238 186 242
240 198 249 236 188 245 255 214 255 255 206 253 255 203 250
254 216 255 255 215 255 255 219 255 255 222 255 255 227 255
255 221 255 255 220 255 252 222 255 255 225 255 255 223 253
255 220 252 255 228 255 255 231 255 238 206 235 255 214 239
253 214 237 255 242 255 255 255 255 255 255 255 255 236 255
255 252 255 255 252 255 255 255 255 255 247 255 255 238 255
255 255 255 255 255 255 255 254 255 255 255 255 255 212 242
255 204 237 246 194 226 244 195 227 255 207 248 255 219 255
255 211 255 255 198 255 255 252 255 252 188 245 182 119 169
150 81 129 127 59 96 116 46 80 119 48 84 136 67 96
155 79 102 122 65 71 99 44 58 71 16 28 40 0 9
51 9 19 62 22 40 46 13 29 35 0 2 37 3 15
48 15 18 45 10 16 51 10 12 39 13 16 46 16 13
55 21 21 44 12 14 48 16 18 49 17 19 55 20 25
52 20 15 48 19 18 48 14 12 38 9 8 52 19 17
47 21 17 55 19 18 57 16 20 53 24 18 62 18 19
60 23 21 58 17 15 35 0 0 112 72 65 179 134 143
174 133 141 146 100 118 150 104 123 149 106 121 146 103 125
142 99 121 145 99 118 142 104 113 143 103 117 33 6 8
37 11 14 41 11 20 44 17 21 50 20 35 47 17 42
51 16 36 52 18 50 48 14 53 66 31 78 87 50 102
95 58 115 93 49 105 94 53 119 95 55 112 94 50 118
110 71 134 99 63 129 104 58 126 105 59 134 116 69 139
125 71 144 130 75 161 117 65 150 135 72 159 133 73 167
143 84 170 138 81 174 140 74 176 137 76 174 146 80 177
142 77 171 172 99 206 189 113 223 211 128 244 200 120 233
185 110 210 196 119 229 213 136 240 237 156 255 197 122 222
195 127 226 183 105 211 167 108 206 189 122 212 194 131 211
208 152 216 224 169 239 255 231 255 239 176 253 230 167 250
183 119 210 101 33 130 80 17 107 99 36 122 106 42 118
64 5 66 80 23 75 75 15 76 77 19 72 80 24 68
81 26 64 87 35 61 84 33 53 88 28 69 90 27 62
78 9 36 108 36 65 174 95 119 208 120 146 189 107 122
177 98 112 215 126 145 191 105 122 177 91 107 174 91 106
176 85 108 177 89 112 172 80 111 169 82 102 175 90 112
172 91 123 147 68 130 178 99 175 192 118 214 174 98 216
193 126 237 174 106 213 194 131 235 194 129 231 198 132 233
198 138 229 194 125 224 191 127 224 186 117 210 184 122 207
194 138 218 198 140 227 208 153 230 207 150 227 203 145 220
201 147 220 206 150 221 209 153 220 213 157 226 235 177 254
255 203 255 241 186 255 218 163 231 215 161 226 220 162 237
229 173 248 222 167 242 222 164 243 226 169 246 226 166 244
218 167 242 223 169 245 222 168 244 218 164 240 229 175 251
224 170 248 228 174 247 226 170 245 225 175 247 227 175 248
230 178 251 229 177 255 224 172 242 225 173 250 232 178 248
230 178 247 242 184 255 240 190 245 246 187 248 247 194 246
243 185 244 244 192 246 242 192 250 246 192 251 240 190 247
237 194 246 243 196 254 246 198 255 253 208 254 251 207 252
251 207 250 255 208 255 255 209 255 255 216 255 255 213 255
255 218 255 255 219 255 255 222 255 255 218 255 251 221 255
255 223 254 255 221 255 248 223 253 254 229 255 255 218 255
255 234 255 255 237 255 255 255 255 255 255 255 255 209 246
153 104 130 106 53 93 116 52 86 136 73 111 122 53 88
126 64 100 169 105 145 203 141 173 225 155 193 240 172 211
255 250 255 255 233 255 255 244 255 255 235 255 255 217 255
251 202 253 251 202 251 255 212 255 255 251 255 201 140 192
131 70 118 163 92 137 171 105 151 136 58 100 113 42 82
156 81 108 134 73 88 112 45 62 87 24 50 66 14 32
48 4 25 52 10 30 66 22 38 48 10 25 21 0 5
35 0 11 40 4 17 43 11 16 39 6 14 43 4 10
48 11 9 34 8 9 58 22 22 56 20 21 60 22 23
48 19 23 53 26 20 47 18 15 48 20 17 44 15 12
51 26 22 55 17 17 57 17 19 52 21 21 61 20 18
63 29 26 62 20 21 57 21 19 40 0 0 122 79 79
192 152 155 195 151 155 180 134 152 186 140 158 190 152 159
189 144 165 162 117 138 169 127 140 166 129 134 168 129 139
51 21 17 53 22 18 59 26 35 65 33 47 67 35 47
70 35 54 69 37 70 76 39 87 52 10 54 71 28 80
87 47 99 99 55 111 97 57 112 98 58 117 96 56 113
91 56 105 120 68 133 104 58 118 102 54 132 104 63 129
110 63 147 125 71 156 125 68 162 121 74 155 131 66 159
132 77 169 138 80 170 145 79 175 140 73 165 139 75 171
146 84 186 147 87 195 156 74 186 173 93 203 184 106 227
187 108 222 187 105 230 197 119 227 216 137 246 218 135 249
242 164 255 224 153 255 207 126 240 189 127 224 211 141 236
212 153 227 213 153 222 237 177 248 255 217 255 252 191 255
244 178 255 196 132 223 102 35 141 74 8 105 98 34 119
107 49 125 74 15 84 88 31 92 83 24 78 85 28 82
89 33 80 89 34 73 95 43 66 88 41 64 102 35 71
90 20 66 80 13 52 111 39 74 182 103 132 212 128 153
202 119 143 203 116 128 214 124 138 196 108 125 176 88 105
166 78 92 168 82 99 170 87 107 185 86 115 171 76 102
171 89 112 167 90 124 151 67 124 175 97 175 189 114 217
179 107 211 189 121 230 185 116 226 166 103 209 180 115 219
194 127 231 202 141 236 208 139 242 203 138 228 204 141 219
202 139 222 194 137 220 203 144 234 212 158 237 211 154 233
208 151 228 205 150 227 208 152 225 204 148 217 232 174 251
234 181 247 255 200 255 255 207 255 241 186 255 216 161 229
215 162 224 227 169 240 223 168 249 223 164 247 222 164 243
226 163 243 217 166 242 223 169 245 223 167 244 221 165 242
226 170 247 223 167 244 226 171 246 225 167 246 223 173 248
225 173 249 228 176 253 227 175 250 223 172 242 224 174 250
231 176 250 226 182 242 238 179 244 240 189 249 245 186 249
246 189 246 243 194 248 247 191 242 243 197 246 244 193 246
241 195 243 242 196 244 251 204 255 255 206 255 251 210 255
253 201 249 255 203 254 251 206 255 255 209 255 255 212 255
255 212 255 255 211 255 254 216 255 250 216 255 255 219 251
255 214 255 255 223 251 254 220 253 255 219 249 254 214 255
255 232 255 255 255 255 255 243 255 188 139 181 119 61 102
77 14 54 66 0 44 112 20 64 102 15 65 131 34 79
122 26 69 110 7 52 138 44 83 137 40 78 143 52 76
130 50 81 255 221 248 253 210 242 255 236 255 255 255 255
255 251 255 255 237 255 255 225 255 255 248 255 244 185 250
175 114 171 136 61 121 164 97 149 195 115 164 139 81 119
121 51 86 148 88 121 113 48 74 82 17 29 59 0 21
73 16 31 60 11 32 45 11 24 46 9 27 32 0 15
50 11 33 51 18 34 57 14 24 56 19 23 52 11 20
50 16 18 46 14 9 51 17 17 57 15 20 53 23 22
57 23 24 57 21 26 59 22 20 59 22 22 53 16 16
49 12 13 59 24 23 52 21 20 54 21 22 62 17 23
63 20 20 61 21 23 66 19 25 67 21 29 44 5 0
100 61 52 142 99 102 138 98 97 137 95 108 166 118 135
171 131 150 156 115 130 170 129 146 170 126 137 168 131 146
165 125 131 52 18 27 56 31 31 66 32 41 73 47 58
79 41 68 81 53 79 78 39 81 91 54 101 41 4 57
64 24 83 84 45 103 96 60 118 102 61 128 98 58 118
92 52 112 74 37 91 120 76 145 101 56 128 93 52 118
99 54 127 121 62 152 124 74 156 125 71 157 119 62 154
126 66 158 135 74 171 152 87 181 147 83 178 141 71 185
128 67 172 146 75 187 149 79 188 141 66 178 159 77 190
181 104 218 179 101 219 186 108 214 205 129 233 226 138 245
219 148 242 251 165 255 226 153 254 185 121 214 191 117 210
210 144 230 217 153 235 229 168 238 255 213 255 255 228 255
255 207 255 248 186 255 183 113 205 79 19 106 67 0 101
99 34 127 119 55 142 68 6 80 86 27 89 83 23 91
84 26 83 85 31 83 100 46 93 92 43 76 87 29 59
126 61 106 113 39 85 86 21 55 111 39 80 187 108 136
229 149 180 238 147 171 255 168 196 210 118 137 196 105 120
167 74 93 167 74 91 180 87 112 188 95 118 179 87 105
165 75 101 167 85 102 172 82 115 135 57 119 170 92 167
185 107 202 166 95 205 195 122 235 181 120 222 180 112 215
194 125 227 213 151 243 237 175 255 249 180 255 248 184 255
249 178 255 249 187 255 199 144 236 217 167 247 233 171 255
233 181 255 229 170 254 216 164 233 222 168 247 224 168 246
226 175 246 224 171 255 252 197 255 255 216 255 255 201 255
211 156 229 192 137 206 200 147 210 222 165 239 219 163 238
220 162 244 211 161 239 215 160 236 217 159 239 214 165 238
214 163 235 225 174 246 222 172 241 224 168 253 222 172 241
225 172 245 229 176 249 225 173 249 231 182 255 222 170 243
226 174 244 226 177 242 240 180 249 235 179 245 236 185 245
243 181 243 237 185 240 245 194 248 254 196 247 246 199 253
251 199 243 242 197 251 242 197 251 253 206 255 255 219 255
255 204 251 253 204 254 255 207 255 255 213 255 255 213 255
254 213 255 255 215 255 255 215 255 255 221 255 254 221 255
255 221 255 252 222 251 251 217 254 255 220 248 255 220 255
252 217 255 255 238 255 255 249 255 175 131 182 17 0 15
17 0 0 94 22 73 126 38 85 96 13 61 148 46 84
182 81 125 174 69 102 166 64 90 180 75 104 145 47 67
136 22 52 163 61 79 90 19 42 115 59 83 197 141 171
255 222 255 255 252 255 255 226 255 246 187 240 255 225 255
209 155 209 188 115 180 137 60 117 155 81 132 177 107 146
146 75 120 121 58 103 164 104 137 122 55 77 70 6 27
46 0 16 66 16 42 69 26 46 47 2 24 33 0 16
0 0 0 73 37 59 59 29 36 74 34 48 73 33 48
72 32 41 57 24 32 62 25 33 66 35 32 55 17 20
56 16 22 50 20 23 53 21 15 50 18 16 53 20 20
53 20 21 45 14 10 56 17 23 49 20 15 58 15 16
58 25 22 62 20 25 63 23 20 71 28 26 73 31 29
34 0 0 67 27 22 64 21 23 33 0 0 39 0 6
85 41 52 92 51 64 76 35 44 79 38 47 80 38 51
77 37 41 75 37 46 75 30 64 63 34 61 84 37 71
67 37 69 84 33 76 75 41 90 91 45 96 110 64 117
55 7 70 82 36 96 99 54 116 111 62 125 106 61 125
103 56 129 109 64 134 112 70 131 112 60 142 115 62 148
113 66 147 123 69 144 118 65 148 120 72 152 131 79 164
134 82 166 138 81 178 125 67 160 137 66 175 145 80 188
152 74 189 161 79 196 171 90 212 170 88 214 179 84 213
199 105 224 137 61 162 166 92 180 240 174 251 255 232 255
255 255 255 255 230 255 255 255 255 255 236 255 255 211 255
255 186 255 255 201 255 255 223 255 255 232 255 255 203 255
255 211 255 255 221 255 255 255 255 255 226 255 178 111 192
99 28 112 102 27 118 126 57 135 82 12 96 96 26 111
115 39 141 111 42 140 89 7 93 51 0 49 72 2 63
106 38 92 127 47 104 112 41 95 137 54 107 194 113 154
255 193 231 255 203 240 250 152 197 228 131 163 185 83 121
208 110 141 197 105 132 166 72 101 152 56 87 161 65 86
175 77 103 183 87 105 172 86 99 161 73 103 170 83 137
182 104 183 193 122 213 187 126 233 183 114 222 176 118 225
162 104 195 180 123 215 219 153 251 228 166 255 234 165 255
241 176 255 249 190 255 251 191 255 255 220 255 255 217 255
255 211 255 255 215 255 255 214 255 255 218 255 255 217 255
255 224 255 255 240 255 255 231 255 255 228 255 255 216 255
255 211 255 255 203 255 244 189 255 236 182 255 211 153 210
220 168 234 232 176 239 234 183 252 241 186 255 233 183 255
227 177 253 228 174 255 213 160 242 214 161 241 223 171 255
220 167 247 223 173 254 215 166 249 221 170 244 215 158 241
230 168 237 219 165 228 217 162 231 218 164 234 236 180 246
244 191 250 245 193 255 243 189 251 243 182 243 235 188 246
238 190 237 241 191 248 252 198 245 251 206 252 249 200 248
245 195 249 255 212 255 255 214 254 249 206 249 252 206 251
255 203 251 247 207 253 250 203 244 249 207 247 239 204 243
241 204 246 250 209 255 247 219 248 252 216 255 244 224 247
241 215 255 245 206 251 255 255 255 255 223 255 64 14 77
17 0 32 101 29 91 89 12 70 80 8 39 78 8 29
94 25 35 117 42 47 152 75 83 155 64 70 156 65 67
178 73 80 191 71 84 154 36 47 192 89 99 147 47 67
114 18 26 104 14 33 207 107 133 255 255 255 255 255 255
229 159 212 154 89 143 136 71 126 204 124 182 193 105 157
160 82 132 204 120 167 153 88 132 129 62 104 27 0 7
58 6 35 57 9 39 60 19 47 40 0 29 22 0 11
46 13 41 96 58 88 119 77 92 105 62 86 89 52 70
83 42 53 67 39 41 66 31 38 55 19 24 51 20 17
50 12 19 51 15 11 64 26 25 72 34 35 67 27 32
52 17 12 50 17 17 58 28 16 61 18 23 61 20 14
63 28 24 67 22 23 68 26 28 63 26 15 58 21 15
58 23 12 66 23 24 60 20 15 46 3 7 37 0 0
33 0 0 32 0 0 36 0 0 33 0 0 31 0 0
32 0 0 34 0 0 30 0 0 84 43 88 88 45 86
82 43 85 94 48 99 96 57 111 107 62 114 102 57 123
115 74 133 54 9 77 82 38 106 98 56 125 103 59 135
108 56 135 99 59 128 106 57 127 113 67 140 111 63 149
106 64 143 116 60 143 112 61 143 119 71 149 127 73 151
128 74 155 139 78 172 118 62 153 131 66 167 133 66 178
143 69 174 143 64 185 149 62 188 162 70 205 160 71 198
173 75 197 185 99 205 190 116 212 255 186 255 255 227 255
255 204 255 255 198 255 211 147 193 222 150 206 255 208 255
255 236 255 255 217 255 255 201 255 255 209 255 255 201 255
227 178 232 193 152 203 214 170 224 250 190 255 255 219 255
249 182 255 165 98 181 113 35 116 124 50 138 118 41 138
72 0 92 40 0 67 77 3 100 132 54 149 154 84 164
158 83 158 166 88 156 178 103 162 208 130 187 223 143 199
228 144 197 246 148 191 215 114 163 185 87 126 174 77 113
215 108 147 214 110 144 190 95 122 171 71 103 155 63 87
167 73 103 177 81 104 180 88 108 171 77 94 156 71 93
163 78 136 175 97 173 191 119 218 182 117 220 183 117 228
176 115 222 193 133 233 200 140 229 214 149 241 210 149 243
206 138 237 195 126 227 192 128 225 184 120 208 223 163 254
216 151 237 216 153 246 219 158 240 216 156 233 216 150 232
217 163 242 219 159 240 217 162 239 222 164 238 225 173 248
235 181 253 249 195 255 254 199 255 255 209 255 255 220 255
234 177 245 238 180 238 224 167 230 214 165 229 207 160 219
217 161 241 222 171 251 220 183 253 216 168 250 217 170 250
216 170 245 215 172 248 222 167 247 221 170 250 219 166 245
221 171 241 225 166 242 225 163 229 222 160 232 235 177 237
236 181 249 246 193 252 246 190 254 246 186 248 240 195 248
239 188 247 245 192 253 247 198 248 250 200 255 249 195 244
251 205 254 252 204 255 255 208 252 255 205 253 255 212 255
253 205 250 247 211 253 252 208 254 248 212 251 254 212 254
241 204 248 247 214 254 245 210 253 248 208 255 248 218 253
248 213 255 252 220 255 253 217 255 255 255 255 227 190 247
86 33 103 55 0 64 89 17 87 83 18 70 90 18 49
86 19 39 86 14 22 104 45 37 127 52 49 129 57 48
151 56 56 171 61 62 186 72 79 178 54 60 206 87 95
197 80 92 192 76 84 168 60 71 191 94 112 255 173 203
255 193 230 236 166 219 188 112 180 175 93 157 195 112 173
194 107 163 162 69 127 187 107 153 165 91 143 103 41 79
53 0 38 57 13 52 61 9 54 52 15 43 48 2 43
33 0 27 57 14 44 79 46 64 77 37 61 72 32 50
69 35 50 66 27 37 65 25 33 56 23 29 56 20 25
57 26 25 53 15 12 55 19 19 55 22 21 68 34 35
64 34 27 46 17 15 57 13 6 61 20 16 59 23 17
59 24 22 64 23 14 62 24 16 65 29 20 61 24 20
59 22 6 60 25 18 63 20 21 68 28 23 61 17 24
53 10 14 53 10 13 61 18 18 68 26 28 64 23 19
60 19 24 62 21 24 62 21 24 63 20 24 102 60 100
90 43 94 84 38 90 82 39 88 90 42 101 89 45 97
80 36 102 72 22 92 80 35 103 91 47 117 109 61 132
108 65 137 118 62 144 104 60 136 118 61 149 118 63 147
117 66 148 114 59 151 116 60 148 121 68 155 121 70 156
127 73 160 134 74 166 140 85 178 126 54 150 141 76 172
153 77 188 152 74 182 149 72 181 145 70 185 163 79 193
164 78 191 183 96 217 194 109 217 255 185 255 255 254 255
255 196 255 187 113 171 174 96 154 127 56 107 158 84 140
206 142 189 255 196 255 255 226 255 255 224 255 255 220 255
239 184 243 188 146 200 211 156 210 200 158 210 200 145 213
255 195 255 255 247 255 252 186 255 158 82 165 129 59 144
167 91 181 174 96 186 205 128 222 236 160 255 232 151 244
200 129 206 196 114 187 202 128 187 182 107 175 179 102 161
150 68 124 143 67 120 189 91 139 198 101 140 193 97 134
195 100 133 214 110 146 213 112 145 193 100 125 171 73 104
154 62 86 164 70 100 170 74 97 174 82 102 169 77 94
153 68 92 158 74 128 174 97 175 192 115 224 186 123 228
186 119 233 180 121 229 185 120 224 189 132 230 195 126 234
193 128 227 184 118 219 177 109 206 175 112 212 167 106 191
206 141 233 195 135 214 203 142 225 203 141 229 200 137 220
204 138 226 200 143 221 203 147 218 206 148 224 202 142 214
202 148 221 209 153 220 224 166 240 241 188 253 255 201 255
255 210 255 255 223 255 255 209 255 244 187 255 221 174 235
208 159 228 204 151 216 205 158 223 203 148 215 218 176 237
216 172 231 214 165 239 210 166 233 219 165 236 219 170 237
218 169 235 222 167 242 221 162 228 221 165 233 228 175 245
236 179 245 244 187 255 254 196 255 239 189 255 241 194 251
244 193 248 246 195 253 246 194 252 250 202 250 248 198 251
255 203 255 253 207 253 250 202 252 255 209 255 251 203 255
250 203 255 255 204 255 245 203 249 250 203 252 248 208 254
244 201 251 255 208 255 241 206 255 239 201 241 242 206 247
244 206 250 249 211 255 252 216 255 255 230 255 255 255 255
157 102 162 67 12 86 61 0 75 65 0 64 80 5 69
69 4 36 86 10 41 46 0 0 79 8 16 97 21 26
105 22 33 122 31 33 149 54 57 173 69 68 181 71 72
200 76 93 214 102 106 211 86 96 171 50 71 155 47 70
175 71 97 206 116 157 235 156 207 218 145 194 199 120 180
191 102 165 194 110 173 175 90 142 156 77 136 147 71 117
91 18 71 54 0 36 66 18 61 63 17 46 52 0 46
44 0 25 42 7 34 59 23 45 87 44 77 52 14 33
58 21 38 66 17 39 54 20 29 58 23 30 56 24 32
56 21 28 53 24 22 56 18 17 46 16 14 67 22 25
71 28 32 68 28 26 53 12 12 53 15 16 57 21 23
62 18 16 62 19 21 60 22 14 66 29 23 67 22 20
68 25 22 66 23 22 63 20 15 62 21 23 67 26 26
66 26 21 52 12 7 52 12 7 66 27 19 67 24 27
66 24 23 54 12 14 58 16 16 58 16 16 58 16 16
97 54 105 93 51 107 90 50 106 88 43 106 85 43 103
76 33 100 84 28 106 63 23 92 106 51 127 104 53 129
114 59 145 119 68 150 116 57 139 107 59 142 115 59 140
115 66 153 123 65 160 117 62 160 121 69 164 124 65 162
123 70 165 134 79 167 138 79 173 145 77 176 140 76 181
166 99 198 181 101 210 166 88 195 166 85 201 171 82 194
180 96 219 178 98 210 208 122 223 233 157 255 255 236 255
255 217 255 151 83 140 84 5 65 127 53 90 153 63 115
156 81 129 143 70 110 171 95 141 229 150 209 255 213 255
255 224 255 240 184 234 182 145 191 243 194 250 222 170 224
214 147 224 225 166 243 255 217 255 255 232 255 219 144 229
124 56 140 155 80 168 178 102 199 211 138 238 224 152 243
185 110 205 118 47 130 105 29 102 118 48 104 107 32 103
102 24 93 87 14 68 129 39 94 192 99 145 229 133 178
206 112 144 196 104 136 215 110 151 217 116 139 192 99 128
167 68 97 154 62 91 160 65 88 170 72 100 167 75 97
166 74 91 154 70 91 158 69 138 173 97 171 189 114 215
187 119 234 187 120 234 190 124 239 171 108 216 173 111 212
187 121 225 186 124 221 186 114 221 189 121 219 192 131 224
192 126 230 213 152 237 212 149 235 212 149 237 212 148 239
216 154 233 218 153 235 211 152 239 219 161 246 227 168 250
220 159 238 212 158 239 208 151 229 207 153 228 218 162 236
223 165 238 218 167 238 255 213 255 255 203 255 255 210 255
255 202 255 251 198 255 231 182 247 217 171 233 209 158 220
218 179 238 219 177 236 215 175 227 212 169 236 219 171 230
215 167 237 223 167 239 218 169 236 219 167 238 218 170 231
238 174 244 237 191 250 255 194 255 249 203 255 250 199 255
243 190 254 251 198 255 252 199 255 247 196 253 253 200 255
254 206 255 255 204 255 249 205 255 255 212 255 249 198 255
254 202 255 247 203 255 253 203 255 245 205 255 245 201 255
244 200 255 241 202 245 244 200 255 244 202 249 242 201 252
238 190 245 244 200 255 250 205 255 255 214 255 255 238 255
255 249 255 102 51 118 55 0 74 63 2 80 61 0 67
70 0 55 64 0 43 65 8 24 50 0 1 61 0 2
74 1 14 79 7 6 92 4 7 118 27 30 158 59 60
169 58 70 176 65 65 217 87 101 212 85 101 196 68 79
178 55 81 152 44 71 171 68 107 219 130 173 255 180 232
242 164 211 176 95 157 181 93 156 186 103 159 123 38 95
99 24 83 118 45 101 44 0 46 74 17 64 59 2 48
39 0 33 41 0 35 55 9 42 75 27 61 73 38 64
44 9 27 49 14 33 58 15 26 61 20 33 60 12 24
55 22 24 59 22 20 61 23 30 50 20 16 62 18 21
62 24 25 70 31 34 68 33 29 54 18 16 50 14 12
61 27 26 58 17 14 58 18 19 64 28 17 63 28 19
65 22 19 66 25 21 64 23 19 61 20 16 61 20 14
66 25 19 65 24 26 51 10 10 51 10 10 65 25 22
66 22 29 66 23 27 52 9 11 57 15 19 57 15 18
57 15 18 103 51 121 116 66 129 123 68 140 116 65 136
113 63 134 107 56 136 118 60 141 123 72 159 108 51 142
116 62 155 119 67 151 117 61 159 116 60 151 109 56 156
116 55 157 114 66 159 126 68 163 125 69 164 122 69 160
131 69 170 133 70 167 143 73 179 145 80 190 150 75 181
151 78 186 195 116 224 201 123 228 183 99 218 173 96 206
181 92 204 193 106 231 203 112 228 210 140 242 255 189 255
255 255 255 250 172 255 89 3 61 75 8 46 182 85 125
217 129 164 192 101 138 174 81 125 149 64 109 152 77 121
222 156 196 255 236 255 255 230 255 211 164 214 234 181 236
224 170 225 237 176 248 211 155 234 208 136 232 255 220 255
255 216 255 145 67 156 144 71 158 91 17 111 47 0 66
56 0 82 99 14 112 111 33 114 120 40 109 121 50 117
139 55 134 143 64 132 150 60 129 161 74 140 201 105 162
208 110 156 202 102 148 212 106 145 212 115 142 212 110 140
194 99 129 170 76 96 152 57 85 161 69 86 164 74 95
170 73 89 165 71 91 152 68 89 156 67 136 171 95 167
188 113 223 188 119 230 177 118 236 183 126 235 183 123 232
188 126 231 191 121 234 186 119 225 183 117 226 187 125 233
194 127 227 192 130 223 200 135 236 201 136 230 207 142 238
208 140 237 201 145 240 201 142 238 210 148 247 209 150 240
218 158 247 212 150 238 216 157 242 222 160 244 220 164 244
222 163 242 226 172 249 227 172 246 215 158 231 229 171 242
247 195 255 255 214 255 255 228 255 255 227 255 255 224 255
255 215 255 255 212 255 255 208 255 255 202 255 247 197 251
238 193 242 229 180 240 221 177 228 221 167 233 217 167 226
227 181 240 238 183 249 242 196 252 253 202 255 245 196 255
249 198 255 247 201 255 248 201 255 250 205 255 252 199 255
254 203 255 251 198 255 255 207 255 255 204 255 255 206 255
245 197 255 251 202 255 245 198 255 247 200 253 238 197 251
241 193 249 240 201 255 236 194 246 250 200 255 240 196 248
236 196 249 238 189 244 243 188 250 248 203 250 255 199 255
255 231 255 255 234 255 112 60 121 67 0 85 85 17 104
64 0 72 72 6 80 66 0 31 66 0 35 66 7 19
62 2 11 65 5 5 64 0 3 81 2 0 104 9 14
129 40 37 154 53 55 168 50 51 191 64 70 209 73 90
218 84 94 223 98 110 191 64 77 166 59 83 170 66 98
255 171 222 255 218 255 213 116 189 151 60 123 171 78 157
111 27 96 73 0 58 128 62 110 50 0 40 65 12 58
53 2 51 48 0 43 50 1 38 56 17 52 63 23 48
70 23 53 62 19 40 64 25 44 64 18 35 61 23 30
60 22 22 56 26 24 53 20 25 51 21 15 65 22 25
61 19 20 65 26 26 75 34 36 67 27 26 55 13 14
51 11 11 61 22 24 65 22 18 65 23 21 64 21 22
65 22 25 69 28 22 64 23 19 62 21 17 65 24 20
64 23 23 70 29 17 62 21 19 55 14 10 55 14 8
62 21 13 70 30 27 70 30 25 52 13 5 58 14 20
58 16 16 58 16 16 102 55 126 104 52 131 108 60 139
109 53 139 102 50 136 98 42 128 101 48 135 100 49 135
129 74 165 123 65 165 131 74 174 120 67 162 122 54 154
108 58 150 127 63 159 129 66 162 131 70 163 132 71 171
131 73 165 132 73 172 140 74 179 142 79 181 158 80 193
151 78 187 143 63 182 204 123 242 209 127 246 178 98 205
173 94 210 173 95 209 183 103 221 193 114 234 230 158 252
255 212 255 255 255 255 202 128 200 74 2 47 127 34 78
189 94 132 191 95 119 211 116 146 255 166 199 235 144 177
158 66 108 176 97 151 255 224 255 255 255 255 243 196 239
230 172 231 214 150 218 241 180 248 193 129 211 128 56 141
241 166 255 255 245 255 231 154 255 241 168 255 220 146 243
191 112 211 161 86 186 127 48 136 100 17 113 104 30 108
139 54 127 154 75 156 137 58 137 120 37 108 135 51 113
191 97 149 216 121 166 210 112 147 210 106 141 209 111 135
211 107 142 193 103 126 168 70 93 150 60 82 157 62 79
169 79 92 161 76 95 167 80 98 152 65 90 157 73 127
173 96 171 187 112 218 183 114 232 176 116 236 181 117 241
181 121 229 173 116 222 189 120 232 185 119 225 184 118 230
187 119 229 192 126 226 190 120 223 193 128 219 196 130 226
201 135 231 202 134 230 194 133 232 199 136 235 204 140 241
205 145 243 201 138 235 205 147 237 214 153 243 222 158 249
227 176 251 229 174 250 228 172 244 235 180 255 204 145 223
223 162 239 231 175 250 255 200 255 255 211 255 255 225 255
255 229 255 255 231 255 255 245 255 255 243 255 255 234 255
255 227 255 255 208 255 242 195 242 226 176 236 213 167 215
234 185 248 233 178 240 245 193 255 250 202 252 250 196 255
251 202 255 250 200 255 251 200 255 254 205 255 251 204 255
255 200 255 254 201 255 253 202 255 252 200 255 253 201 255
255 204 255 240 196 250 247 195 255 247 193 255 243 196 255
247 193 255 238 196 255 240 191 246 230 193 245 243 196 252
236 192 249 240 190 246 240 189 248 242 187 243 244 195 253
253 199 255 255 212 255 255 238 255 159 100 182 90 24 119
87 29 110 92 14 103 80 12 79 64 3 48 57 1 31
78 26 38 68 14 24 63 6 15 65 7 3 78 0 6
86 1 0 110 24 22 137 34 38 162 48 54 176 49 54
197 63 67 215 80 93 234 99 109 216 86 103 179 68 83
130 23 48 207 115 151 255 231 255 255 179 239 151 54 126
135 48 120 112 31 108 88 8 73 104 29 100 60 0 55
65 10 68 57 0 55 60 5 54 59 14 63 62 18 48
64 18 55 56 17 42 72 25 51 70 26 41 66 26 34
63 24 30 67 23 35 60 21 16 63 22 22 62 22 24
64 24 24 58 22 19 68 23 27 72 38 37 72 27 28
54 20 16 56 12 15 61 18 23 60 23 17 60 22 19
65 27 24 66 28 27 63 25 18 66 28 23 64 26 21
61 23 20 63 22 12 68 26 22 67 25 19 52 10 2
52 11 11 67 26 22 68 27 29 69 28 28 51 10 10
57 18 12 57 13 20 57 14 18 104 48 133 96 41 122
91 40 125 98 41 125 111 51 142 119 61 153 113 59 151
94 39 138 151 84 185 143 80 174 145 84 184 138 79 176
127 59 161 124 67 163 127 64 166 137 76 177 134 73 170
132 72 172 131 70 179 138 69 176 145 76 185 148 80 193
158 82 201 160 80 198 139 58 178 209 124 246 219 135 255
178 100 211 174 87 215 171 93 214 186 103 234 197 116 240
235 166 255 255 229 255 255 253 255 165 104 159 82 0 36
122 39 81 166 66 93 167 51 86 216 114 135 255 176 211
255 189 222 186 95 130 158 73 109 235 166 213 255 237 255
255 227 255 255 205 255 208 148 213 230 172 239 200 141 221
105 34 119 144 71 163 255 198 255 255 237 255 255 237 255
255 242 255 255 242 255 255 209 255 203 122 219 109 30 127
84 1 83 86 1 84 130 46 128 114 30 115 110 21 88
153 62 127 237 142 192 255 155 205 211 116 156 192 93 116
202 101 133 213 113 132 186 93 108 166 73 85 151 58 76
163 67 88 168 77 93 161 72 87 170 81 92 156 67 95
157 70 127 174 97 172 184 109 215 184 115 231 172 112 230
180 118 235 169 104 223 169 113 221 182 105 227 183 118 229
190 124 230 195 126 230 189 130 236 187 130 226 192 133 234
195 136 237 200 141 242 198 139 243 200 139 233 202 140 239
206 144 247 211 147 246 213 153 250 210 147 244 218 159 250
219 159 249 222 158 247 223 164 251 221 160 245 212 151 230
228 167 250 224 166 240 225 172 251 228 167 241 223 179 248
236 180 251 236 192 243 229 178 239 255 218 255 255 213 255
255 225 255 255 225 255 255 222 255 255 204 255 234 199 232
219 176 223 234 197 251 246 196 253 246 199 255 248 200 253
242 198 255 242 197 249 250 205 255 253 210 255 251 200 255
251 202 255 252 205 255 246 201 255 252 199 255 252 201 255
247 196 255 252 201 255 245 191 255 245 197 255 246 196 253
237 193 249 241 192 248 233 194 251 234 192 242 233 186 242
237 195 247 234 193 248 240 196 246 240 193 248 237 190 247
248 189 251 245 188 240 249 191 252 255 232 255 225 166 255
120 58 150 92 22 120 106 45 130 90 27 100 59 0 56
57 0 27 76 25 42 68 14 27 68 11 13 78 17 10
75 5 8 83 1 0 98 16 12 119 29 30 151 45 41
159 46 39 171 50 52 189 63 61 204 69 75 231 103 111
212 103 109 172 63 79 143 48 75 254 162 203 255 217 255
218 129 200 124 33 117 109 22 107 97 22 96 91 26 99
85 14 93 65 7 69 62 0 68 85 26 78 89 37 88
72 29 73 62 14 45 58 19 41 70 22 47 68 24 39
66 21 39 69 24 27 69 25 27 65 28 25 66 27 28
66 29 29 64 21 20 59 21 30 76 22 26 74 39 39
76 22 29 52 16 19 61 13 13 66 20 23 65 18 14
65 18 18 70 23 23 70 23 25 74 27 23 70 23 21
69 22 20 68 17 21 58 21 14 67 29 17 65 26 16
56 18 6 56 14 8 65 24 14 67 26 22 67 26 20
54 13 7 59 18 10 59 19 16 59 19 14 118 67 150
92 43 124 87 29 114 109 51 142 146 93 183 165 115 206
162 98 196 149 85 183 73 15 116 92 36 132 112 49 157
138 77 182 126 67 171 114 56 162 140 70 170 144 78 174
134 68 170 123 58 163 131 65 167 145 75 181 143 72 191
152 75 199 144 69 190 154 72 200 121 43 159 195 110 237
216 138 251 175 94 213 170 91 210 171 97 213 178 94 224
187 118 223 220 149 248 255 234 255 255 253 255 184 111 166
79 0 49 120 26 57 183 81 113 241 124 153 219 107 135
252 141 162 255 157 188 209 111 147 159 75 118 192 117 159
255 199 243 255 255 255 255 207 255 205 145 208 232 168 239
255 209 255 161 93 181 89 13 96 199 114 219 255 255 255
214 134 249 158 83 176 124 45 148 199 127 221 255 232 255
255 255 255 253 168 253 162 78 164 139 60 145 163 83 163
175 91 168 184 97 158 212 121 170 217 116 168 232 127 162
255 162 191 187 92 112 207 110 122 191 97 119 164 69 88
148 59 68 163 71 83 168 75 87 164 80 89 174 82 98
156 75 98 152 73 131 176 95 171 188 110 217 184 114 230
176 116 234 177 115 232 190 126 242 186 127 234 187 126 240
202 132 240 198 132 246 199 130 241 186 126 230 178 114 218
189 125 233 192 128 235 197 133 241 202 138 243 202 137 249
206 145 247 211 149 248 215 152 249 221 161 255 220 158 252
214 155 244 208 148 234 209 149 241 205 143 231 210 153 237
208 149 227 213 155 245 216 154 242 212 157 228 215 161 238
222 158 231 211 167 227 209 156 224 194 148 197 219 168 228
226 176 231 252 205 255 255 221 255 255 224 255 244 207 251
232 188 234 227 184 224 230 183 233 233 190 243 239 196 246
241 201 251 244 191 242 245 195 255 252 202 255 255 215 255
254 201 255 255 205 255 252 203 255 255 208 255 255 202 255
255 205 255 255 209 255 255 207 255 246 198 255 248 198 251
248 191 255 245 195 248 241 187 254 239 192 245 241 189 250
224 188 234 247 194 255 241 199 243 249 194 255 247 196 249
252 192 250 242 189 245 242 188 239 236 181 247 255 228 255
255 213 255 127 55 158 89 27 114 136 74 159 76 19 94
69 8 56 48 0 29 68 13 38 51 0 10 61 6 13
76 17 22 86 14 11 81 9 11 111 23 26 118 30 29
148 51 43 151 49 43 182 62 65 168 49 46 170 48 43
235 110 114 255 142 141 213 112 119 99 0 17 174 80 117
255 255 255 255 204 255 131 45 126 86 4 91 79 7 93
98 26 108 99 32 111 70 1 72 58 0 63 68 2 71
78 30 75 80 26 76 61 6 44 67 25 53 51 9 31
51 13 29 67 16 22 54 15 21 60 22 24 65 24 25
64 22 22 64 25 22 71 20 32 64 18 25 70 27 25
80 34 35 75 31 34 56 8 14 53 12 9 61 19 19
63 21 25 64 22 16 65 23 21 67 25 25 70 28 20
66 24 18 63 19 19 66 25 13 70 22 18 66 32 21
65 28 19 56 20 9 49 9 5 57 18 10 69 30 30
68 29 27 49 11 6 55 17 10 55 17 16 55 17 14
85 28 112 92 35 118 93 39 121 140 86 173 234 169 255
255 224 255 255 238 255 255 249 255 255 198 255 255 220 255
211 140 240 69 1 100 108 41 140 159 93 192 111 44 141
167 97 204 104 37 145 180 114 215 135 64 183 118 52 168
137 68 188 147 70 188 172 95 219 142 66 182 167 86 206
255 186 255 217 135 249 175 91 210 163 84 195 162 84 197
213 142 255 226 155 255 255 222 255 255 194 255 255 255 255
110 40 98 46 0 5 154 53 98 135 27 54 191 72 102
205 77 96 255 168 196 255 168 203 214 110 148 169 75 117
167 92 137 244 187 227 255 238 255 255 198 255 252 194 255
228 166 236 199 130 217 139 68 147 93 30 115 172 99 195
255 240 255 255 207 255 168 98 186 81 0 97 110 38 134
182 95 198 209 124 225 246 160 251 255 199 255 255 222 255
255 206 255 252 157 228 225 134 200 246 141 196 232 141 180
212 111 146 231 126 157 193 89 114 200 105 114 183 92 111
177 83 100 160 71 79 154 62 74 161 68 80 168 84 93
169 77 91 152 69 91 155 72 129 173 100 169 182 116 219
176 108 225 166 105 225 150 88 206 178 113 232 171 112 219
178 112 229 172 112 220 186 118 230 193 124 231 186 126 226
193 130 232 201 139 247 200 138 244 203 141 249 198 135 238
198 134 239 193 132 232 196 134 233 196 132 231 202 142 239
204 141 238 207 148 239 215 155 241 219 159 249 221 161 243
219 157 247 219 163 243 211 148 240 215 157 243 220 157 243
215 160 243 214 160 233 212 153 229 224 161 236 217 165 235
223 174 247 227 176 241 211 164 227 213 165 221 229 189 244
255 230 255 255 235 255 255 223 255 255 219 255 255 217 255
253 210 255 244 206 252 247 202 250 241 198 251 243 202 253
237 199 248 244 196 254 244 201 254 242 191 251 241 193 248
235 185 250 234 186 248 231 181 237 227 175 243 255 201 255
242 194 252 243 192 255 245 199 252 246 198 255 240 190 249
234 182 246 237 194 244 228 176 242 231 180 234 222 178 241
231 185 240 248 191 252 243 193 251 239 180 239 230 177 244
255 220 255 254 195 255 166 108 201 73 14 110 42 0 78
121 67 140 31 0 16 65 23 50 67 13 34 70 21 29
73 22 25 70 14 14 74 4 0 70 0 0 99 19 16
116 31 33 164 66 69 116 26 11 144 37 33 176 58 56
187 71 72 239 118 114 255 162 152 255 165 171 227 123 143
136 41 75 176 78 142 255 255 255 161 65 150 44 0 53
92 24 115 88 23 111 63 0 80 77 3 88 43 0 59
177 117 187 168 107 167 35 0 34 87 43 75 66 16 44
79 30 54 77 31 49 80 26 38 76 34 37 77 31 36
77 28 32 78 34 31 74 31 26 63 21 28 76 25 33
77 30 39 74 24 36 67 24 23 69 22 25 63 18 23
61 13 14 77 29 32 72 24 31 70 22 21 68 20 21
72 24 27 72 23 29 74 27 24 70 31 19 67 24 19
80 34 27 58 12 6 46 0 0 73 28 23 84 39 33
69 24 16 68 24 13 75 27 28 71 24 20 72 25 27
72 25 25 104 47 133 150 93 176 173 119 202 150 95 185
136 73 167 117 58 154 140 83 170 169 116 206 255 194 255
255 224 255 255 238 255 217 152 255 126 58 160 98 31 133
101 38 136 133 68 173 146 73 179 176 104 217 151 84 195
145 79 193 163 89 213 156 91 214 186 115 236 204 119 237
182 103 219 236 154 255 216 142 245 226 148 255 219 147 255
167 95 193 186 120 225 209 143 239 255 188 255 255 201 255
255 255 255 110 43 93 55 0 21 140 50 78 149 31 68
204 84 108 209 85 114 255 146 170 255 149 177 231 117 152
175 73 113 169 86 138 244 180 219 255 237 255 250 183 238
244 188 244 244 182 255 230 158 236 159 86 172 114 46 125
198 119 213 255 255 255 255 187 255 181 104 193 114 42 129
141 65 165 162 85 183 141 54 150 135 50 145 144 55 146
179 97 179 170 83 167 167 76 143 176 87 150 222 123 170
233 133 179 222 118 155 237 136 167 191 91 112 200 104 129
194 91 113 170 75 91 158 67 85 160 63 79 165 75 88
174 85 96 163 73 89 154 72 95 155 73 134 174 94 175
184 117 215 177 108 227 173 110 222 165 99 218 183 120 226
177 117 231 177 111 218 182 120 230 189 119 229 194 123 238
190 130 236 188 126 232 198 130 247 198 131 245 200 132 249
203 140 248 195 131 239 198 137 236 201 138 241 203 144 235
205 143 235 207 149 235 208 148 232 215 155 243 211 153 243
213 155 249 213 155 239 209 150 238 226 165 253 225 167 249
228 169 255 231 168 246 225 171 254 222 164 245 230 177 254
239 177 252 217 164 242 223 171 237 221 172 246 224 172 229
228 187 244 255 212 255 254 216 255 246 200 235 254 217 255
248 210 255 244 209 250 251 203 251 249 206 249 245 204 253
247 199 246 252 209 255 248 195 253 250 202 255 247 194 253
247 198 249 242 191 251 242 194 248 240 185 249 240 191 255
241 182 246 241 185 255 240 181 250 231 183 251 232 181 250
231 180 241 246 197 255 255 209 255 237 188 252 244 198 255
249 187 255 234 181 237 228 179 236 232 175 239 245 193 251
255 208 255 255 202 255 255 201 255 126 67 164 71 12 111
113 55 139 140 84 161 72 20 66 51 1 32 64 21 39
60 16 21 73 15 20 69 14 13 77 6 13 79 8 1
92 15 23 101 25 17 145 61 51 142 41 39 151 41 48
157 51 49 172 56 54 214 98 96 242 135 125 254 153 148
210 103 123 163 61 94 202 98 152 255 208 255 183 90 178
78 0 90 89 20 114 77 14 110 129 50 144 72 0 85
103 36 117 172 112 182 125 63 129 56 0 44 59 7 55
77 28 52 71 22 47 72 23 44 72 26 35 74 29 35
71 22 30 69 28 25 69 26 28 77 30 29 65 17 27
68 25 31 84 31 36 70 29 37 77 22 25 59 22 22
73 17 23 60 20 23 68 25 25 65 22 25 70 27 22
69 26 23 68 24 24 68 23 26 68 27 18 73 24 27
64 23 15 77 34 26 59 16 9 46 3 0 66 23 18
76 33 27 66 24 15 66 25 13 68 23 23 65 21 16
66 22 23 66 22 21 116 65 140 143 94 178 145 88 170
122 71 151 110 51 137 91 32 123 100 35 130 123 63 161
81 12 111 120 54 149 222 159 253 255 239 255 255 198 255
238 174 255 247 175 255 210 142 237 146 76 189 157 85 198
151 83 201 159 89 203 159 93 207 162 93 203 171 92 209
199 135 238 255 196 255 255 190 255 255 174 255 255 192 255
255 191 255 208 135 219 221 148 234 255 187 255 231 171 241
255 211 255 255 255 255 97 25 81 51 0 20 122 31 62
147 29 68 204 87 113 214 91 116 255 122 152 245 120 147
228 112 149 182 82 127 146 58 102 222 139 200 255 242 255
255 199 254 255 199 255 255 193 255 223 164 242 151 83 167
118 55 135 204 133 226 255 255 255 246 181 255 181 108 189
126 48 143 155 77 180 173 94 191 151 62 167 122 35 127
133 49 145 120 37 115 125 39 117 125 34 107 151 64 125
218 116 178 236 135 179 225 125 166 236 132 170 196 94 128
199 102 122 191 88 116 173 81 97 161 66 88 160 72 95
171 76 90 176 91 106 158 64 85 150 65 102 152 72 124
172 94 176 183 111 221 182 112 229 169 113 223 169 112 232
168 116 225 178 112 218 181 115 226 181 117 227 180 118 228
187 124 237 186 125 226 185 122 224 191 132 240 191 131 237
198 138 248 197 137 244 199 134 241 199 138 239 201 138 231
203 143 238 202 140 234 206 147 236 208 148 234 207 149 239
215 149 231 217 153 237 211 147 233 211 145 231 208 148 238
216 158 240 217 158 248 218 158 237 217 154 242 219 161 236
221 159 241 220 166 242 214 160 246 223 175 242 226 180 250
223 172 235 221 180 233 240 195 238 255 216 255 255 219 255
255 227 255 253 214 255 252 216 255 248 208 255 243 205 249
245 212 253 254 208 255 252 214 255 240 197 255 243 205 255
245 199 249 243 197 255 243 191 255 242 194 254 240 186 255
243 194 252 228 172 246 244 183 255 247 186 255 240 186 252
231 178 244 226 175 244 234 174 249 243 185 255 232 174 244
229 171 241 225 172 240 223 167 240 212 158 233 226 164 228
228 168 232 229 169 233 244 189 255 255 218 255 150 82 174
84 18 112 134 70 152 76 12 83 61 11 63 47 0 18
71 25 48 62 14 20 58 10 15 79 13 13 70 18 14
83 10 2 83 18 14 82 6 6 136 41 45 140 49 37
159 50 50 148 34 32 169 49 48 190 74 73 221 110 101
255 152 157 212 110 119 180 67 97 189 79 131 250 139 213
236 140 222 123 30 131 95 32 128 93 23 126 96 24 121
65 0 81 167 102 182 142 66 154 66 12 73 84 30 82
62 8 44 91 34 71 78 21 47 80 30 48 76 27 34
78 26 33 77 27 27 71 26 35 73 26 35 72 28 37
74 23 28 77 30 34 88 31 41 75 30 35 81 24 30
69 23 25 72 15 23 73 25 29 72 21 24 73 21 25
73 21 27 73 20 29 73 24 21 73 23 23 76 22 28
69 25 22 68 29 20 75 32 24 57 14 7 50 7 0
69 26 21 79 37 28 70 24 27 64 19 19 68 24 21
65 21 16 66 22 23 66 22 21 105 52 134 99 48 125
78 19 108 88 34 115 129 65 149 137 81 161 121 55 155
108 48 136 128 59 160 78 12 109 83 20 114 193 132 225
242 174 255 255 191 255 255 215 255 255 192 255 144 69 188
130 66 172 163 93 204 169 102 215 182 111 225 173 109 209
179 118 219 251 177 255 255 195 255 255 213 255 255 215 255
255 231 255 255 225 255 255 207 255 255 186 249 226 162 224
252 171 244 255 237 255 255 243 255 86 15 70 58 0 20
119 22 60 138 33 58 210 85 120 221 96 118 238 110 132
220 100 122 233 110 147 198 85 133 136 34 78 207 116 173
255 250 255 255 192 251 255 208 255 255 209 255 237 173 248
168 95 179 127 57 138 190 123 198 255 230 255 254 186 255
153 90 165 99 25 119 132 62 154 186 103 203 174 94 195
147 63 162 147 61 161 149 67 150 142 58 134 138 51 120
155 67 140 224 122 189 242 140 193 225 123 172 225 120 163
194 92 124 197 100 138 189 84 122 166 78 105 167 71 105
161 70 94 171 75 105 177 90 110 166 74 93 156 68 107
155 72 138 175 99 179 180 109 217 181 111 225 173 114 228
177 122 230 173 114 218 165 114 221 181 112 224 180 116 226
182 118 226 183 119 227 189 122 234 188 119 230 190 130 244
190 128 243 196 134 243 193 132 239 199 132 240 196 134 233
201 138 231 208 149 242 202 140 234 201 142 231 201 144 229
206 151 240 213 149 233 208 146 232 209 147 234 208 143 232
205 153 234 205 148 238 212 154 241 212 158 231 210 155 230
209 153 234 216 160 243 217 154 232 237 177 255 236 181 255
240 185 255 237 188 251 229 187 242 239 199 242 255 216 255
255 240 255 255 215 255 255 225 255 251 220 253 249 208 254
247 212 248 245 202 248 242 209 249 252 209 255 243 197 247
245 205 255 246 193 255 244 198 253 243 191 255 242 194 250
240 186 249 240 191 255 245 189 255 247 188 255 242 185 255
228 175 247 240 174 253 252 192 255 255 194 255 250 192 255
255 202 255 248 192 255 255 189 255 255 214 255 255 216 255
255 216 255 252 194 255 218 156 222 255 206 255 255 219 255
172 108 205 70 12 90 124 62 152 49 0 60 69 10 58
80 34 62 64 20 33 57 9 17 54 1 5 70 17 22
82 21 17 77 12 11 77 10 14 68 0 0 103 23 14
154 50 52 156 60 64 153 39 42 166 52 50 181 65 62
206 89 87 255 149 144 227 116 130 191 83 98 176 58 106
191 80 133 255 167 251 176 83 175 117 40 140 110 43 150
51 0 82 138 65 161 214 133 231 84 20 101 34 0 43
117 57 116 88 28 76 67 17 47 79 28 52 83 29 50
79 28 35 83 28 45 82 28 40 77 29 29 80 30 33
73 25 27 83 30 38 81 30 37 83 34 40 84 33 42
76 27 27 74 23 26 74 25 29 79 25 33 77 26 27
74 27 30 70 22 25 72 23 29 73 26 23 75 27 27
72 21 24 67 25 21 71 22 18 78 37 27 61 18 10
48 5 0 68 26 18 78 37 25 68 23 23 69 25 22
67 23 18 65 21 14 66 22 21 66 22 19 89 36 112
109 56 130 103 52 129 96 47 128 114 62 141 110 58 141
118 58 154 122 68 152 178 115 217 149 92 184 97 28 134
112 47 148 134 68 167 123 60 158 208 138 248 255 242 255
145 83 184 128 58 159 144 78 176 148 97 189 168 98 195
179 120 209 202 138 227 255 233 255 255 202 255 251 165 230
237 156 205 255 164 213 254 168 224 255 170 217 255 178 235
255 183 239 255 170 231 255 255 255 255 218 255 75 8 47
67 0 30 109 21 56 140 31 62 197 91 112 224 99 118
230 117 133 226 90 125 234 111 139 201 92 129 127 28 79
205 104 159 255 255 255 235 168 221 255 208 255 255 225 255
255 199 255 190 127 211 144 83 166 168 108 178 205 136 214
255 255 255 212 141 227 148 74 161 151 76 165 178 92 195
164 80 180 151 66 161 143 58 153 170 85 171 163 74 151
143 46 135 166 70 143 225 119 184 236 136 202 225 124 172
228 124 175 201 94 152 197 95 142 189 86 129 169 75 112
167 66 112 169 79 111 179 84 120 180 85 120 166 82 118
169 81 118 163 77 146 182 103 192 181 112 220 177 107 227
169 111 220 178 122 233 169 110 218 171 117 215 180 109 224
179 115 221 181 117 231 186 120 233 181 124 232 182 122 234
184 122 233 189 127 240 193 131 240 196 133 239 193 136 234
195 136 243 202 139 236 206 142 241 203 142 232 205 150 235
212 143 230 215 148 241 215 154 237 216 154 242 214 152 235
209 147 235 227 160 246 229 167 244 234 169 249 234 173 246
230 167 241 235 172 240 242 175 250 235 179 247 234 180 247
236 185 255 241 193 251 241 190 254 230 188 235 232 191 236
255 215 255 255 243 255 255 220 255 246 221 255 243 218 246
250 214 250 240 207 249 241 204 250 240 200 246 247 201 250
246 198 251 245 206 254 246 194 255 244 198 252 243 191 252
242 194 255 240 186 255 240 192 255 246 190 255 247 188 255
230 179 252 241 178 254 255 197 255 255 217 255 255 222 255
255 192 255 255 241 255 255 218 255 255 224 255 255 228 255
255 205 255 255 204 255 255 218 255 255 204 255 245 189 255
255 221 255 224 158 247 23 0 40 55 0 72 85 22 84
78 19 56 79 28 56 71 21 38 56 12 19 54 0 3
67 11 16 80 20 18 70 19 6 68 5 3 60 0 0
77 0 0 138 50 41 168 61 64 157 53 50 173 61 58
187 67 70 200 87 82 246 129 136 241 123 129 206 80 103
185 60 90 158 45 95 255 160 236 212 109 200 156 59 160
130 42 156 109 27 129 231 149 255 204 134 222 74 3 90
79 10 75 104 51 105 89 35 78 76 17 52 82 32 53
87 28 52 85 28 38 78 29 41 79 31 33 74 25 37
78 28 40 71 24 37 86 28 34 83 31 39 84 29 38
85 30 39 77 22 33 76 21 34 79 22 28 83 35 40
72 23 24 77 26 29 79 28 31 76 23 29 75 29 26
71 23 23 76 25 28 69 30 23 68 21 13 76 35 29
59 16 11 47 5 0 67 21 24 77 32 32 67 23 20
67 23 18 67 23 26 65 21 20 66 22 27 66 22 25
108 53 132 127 72 149 121 68 148 108 58 137 118 56 150
101 48 138 109 47 140 131 75 170 80 15 111 142 83 183
139 71 168 133 70 173 147 77 182 113 46 150 166 94 209
255 245 255 244 178 255 191 128 215 169 114 205 178 114 202
170 116 205 203 140 218 234 173 241 255 244 255 255 194 255
160 85 132 121 31 81 151 62 104 157 68 103 166 80 116
225 132 171 255 222 255 253 164 223 255 255 255 255 188 238
52 0 30 87 7 48 111 23 52 135 33 63 186 78 101
223 100 115 238 118 133 221 94 111 229 104 135 200 85 129
133 26 67 209 105 156 255 243 255 255 195 250 255 215 255
255 205 255 234 177 245 191 122 203 165 98 180 193 130 195
190 125 206 255 255 255 255 210 255 235 171 251 188 117 208
147 72 170 130 53 157 140 53 156 156 72 165 146 63 149
144 52 147 135 44 117 153 57 140 213 109 184 240 131 198
226 117 188 227 121 187 209 103 154 202 101 156 194 85 139
175 83 135 179 79 129 182 87 131 186 86 134 188 94 138
181 92 131 171 89 138 179 95 166 185 103 193 182 107 222
175 106 226 169 106 228 177 123 228 167 108 214 169 113 212
173 112 218 180 112 228 181 117 235 181 117 231 179 115 234
180 120 225 183 121 232 187 125 240 190 128 235 191 129 242
194 130 241 192 133 238 203 141 240 204 141 242 207 148 239
203 143 237 218 154 244 217 153 243 221 160 244 223 161 244
225 163 250 220 157 239 228 169 247 232 169 251 236 178 252
235 173 243 237 179 244 234 173 241 241 183 240 242 187 250
241 178 241 233 187 245 241 184 242 241 196 248 229 186 241
228 183 231 237 204 244 255 223 255 255 227 255 255 223 254
248 215 254 237 212 240 243 208 242 237 205 242 239 204 244
240 205 252 243 203 250 246 200 255 246 195 255 244 198 255
243 191 255 242 195 255 240 188 255 244 191 255 223 168 236
246 190 255 255 203 255 255 216 255 255 210 255 255 205 255
231 160 234 199 127 199 127 48 129 142 72 143 169 100 173
170 95 169 143 72 146 184 110 185 255 196 255 255 222 255
242 174 234 255 255 255 255 255 255 94 29 114 0 0 7
67 13 75 75 19 54 63 5 35 67 13 25 59 4 21
47 0 0 61 15 16 72 11 8 71 9 9 63 3 10
61 8 0 65 0 0 108 30 29 150 59 54 163 61 67
183 69 72 193 79 73 212 95 94 225 112 113 251 134 138
210 97 106 190 70 89 169 40 86 238 122 185 237 125 210
171 75 180 145 49 166 184 99 203 219 145 252 125 45 145
76 13 89 118 51 127 81 21 74 84 22 69 95 43 75
84 25 51 87 32 54 83 33 38 86 30 43 86 26 47
82 34 36 81 30 36 77 28 33 80 28 42 91 26 34
81 34 40 78 28 35 75 25 32 76 26 35 82 29 33
91 33 43 75 31 28 75 28 28 78 28 31 77 25 31
70 26 22 75 29 28 71 25 24 77 23 29 70 26 25
79 39 27 62 20 11 50 9 0 70 25 25 80 36 33
70 26 21 71 27 20 66 22 21 65 21 16 66 22 25
66 22 23 111 62 136 109 62 133 101 46 127 98 46 126
120 69 155 120 65 154 113 51 144 113 57 148 135 70 174
152 93 197 155 87 188 139 77 182 163 94 201 131 64 170
129 62 175 192 127 247 255 255 255 255 214 255 243 191 255
246 197 255 249 196 255 255 204 255 255 226 255 255 255 255
138 64 101 71 0 25 103 16 55 171 92 117 178 90 127
160 68 106 177 80 120 210 121 158 228 159 222 255 255 255
209 154 207 26 0 8 81 14 54 104 23 52 134 30 60
171 64 85 205 97 108 249 128 139 230 97 118 207 92 112
198 78 110 139 38 76 213 107 158 255 219 255 255 230 255
255 215 255 252 192 255 221 167 239 197 141 226 200 143 217
227 169 234 221 162 233 255 193 255 255 206 255 255 198 255
211 134 230 150 67 177 135 52 164 150 59 164 156 61 174
141 57 152 157 65 155 154 54 150 173 70 160 220 108 192
239 122 202 224 112 189 231 107 174 234 123 195 221 113 179
206 92 154 190 87 154 194 90 149 199 102 152 203 101 158
205 109 159 198 105 145 188 106 156 191 99 182 193 109 203
178 113 225 169 103 232 165 102 219 171 111 232 170 112 225
171 115 220 178 113 229 172 115 219 181 117 230 181 112 233
179 118 234 181 116 234 179 118 228 183 121 226 191 129 238
190 128 239 191 128 236 194 137 235 203 136 245 201 141 240
214 150 253 212 156 248 223 154 255 225 162 249 230 169 254
235 173 255 233 170 255 237 173 255 225 163 242 227 169 243
237 175 245 235 176 246 235 178 228 240 183 230 246 184 231
244 194 236 255 190 250 232 186 236 244 188 244 247 196 254
242 195 249 233 190 233 241 202 250 248 204 246 255 241 255
255 230 255 250 225 253 249 217 254 248 209 249 244 209 252
240 203 245 246 207 255 243 201 249 247 200 255 246 195 255
244 198 255 243 192 255 242 190 255 240 183 255 241 189 255
233 178 255 255 202 255 255 197 255 224 161 226 199 131 197
167 97 166 125 52 128 85 5 74 99 20 108 100 12 90
115 25 109 98 20 100 45 0 47 57 0 56 93 19 101
66 0 66 195 133 199 255 234 255 255 255 255 200 129 213
37 0 49 61 0 68 92 31 72 76 26 45 64 10 31
54 6 7 51 1 3 59 3 4 59 16 15 59 9 0
56 6 4 74 19 20 48 0 0 85 8 5 127 42 35
159 61 61 165 56 55 201 85 93 223 113 107 219 99 96
255 139 143 226 98 108 209 78 100 186 64 93 185 59 131
253 126 214 207 86 203 159 60 182 255 176 255 155 86 193
61 0 80 88 14 102 112 41 119 78 27 85 84 30 70
102 48 77 83 30 52 87 38 54 98 33 51 80 32 39
84 31 43 81 32 45 81 30 43 78 28 43 77 29 33
89 30 44 85 26 32 82 23 31 78 19 29 79 17 30
77 29 32 85 32 38 81 25 34 80 21 33 78 33 32
78 28 33 78 26 24 76 24 26 75 21 24 74 25 27
69 26 20 78 34 34 61 16 16 49 4 4 69 25 22
79 35 30 69 25 28 70 26 25 66 22 29 65 21 26
66 22 23 66 22 25 73 23 101 107 58 138 108 51 131
101 49 129 101 47 138 102 46 140 111 49 144 140 84 175
124 59 161 106 50 147 135 70 175 123 58 163 154 89 190
158 94 193 136 73 177 186 117 220 255 213 255 255 208 255
255 205 255 255 242 255 255 236 255 255 211 255 255 209 255
255 255 255 72 0 31 63 0 11 154 64 90 235 134 165
215 125 147 205 103 129 163 69 97 136 38 77 255 194 244
255 255 255 221 149 199 13 0 0 84 6 42 103 23 49
132 46 61 172 63 75 213 96 113 255 153 158 231 112 132
203 75 97 179 68 100 141 25 72 226 114 161 255 255 255
255 234 255 255 249 255 255 246 255 255 213 255 255 187 255
249 179 255 223 165 236 179 122 181 237 165 255 255 236 255
255 234 255 221 139 251 149 78 173 149 70 172 157 69 176
146 65 164 138 50 139 173 76 177 172 84 167 194 95 184
234 126 214 228 129 203 212 95 174 177 66 148 248 137 210
212 108 174 202 93 167 185 89 151 194 94 157 202 102 170
204 102 161 204 102 165 200 108 160 188 104 149 190 104 187
196 112 216 184 112 230 160 90 219 156 98 209 163 111 222
170 111 217 164 108 213 171 107 218 175 112 230 177 109 229
179 112 227 176 115 227 180 113 234 177 113 223 183 118 226
192 127 237 197 132 244 196 131 235 197 132 245 206 140 246
202 135 245 224 163 255 218 157 255 228 157 255 232 166 255
239 178 255 238 174 255 237 178 255 234 172 255 232 173 253
234 172 245 247 186 255 243 184 243 245 179 243 239 188 235
249 189 238 255 200 249 247 196 245 239 187 236 238 188 237
248 205 254 250 206 254 233 195 243 234 194 231 245 199 243
255 255 255 255 233 255 255 221 255 247 222 249 240 213 246
239 206 239 243 204 251 242 207 255 238 193 245 238 201 255
245 192 255 244 198 255 243 191 255 240 194 255 233 182 248
224 178 247 255 220 255 255 202 255 231 169 230 133 73 145
64 0 69 55 0 52 83 1 70 78 2 77 137 47 116
97 10 91 132 46 117 157 75 145 114 37 108 98 17 89
79 0 70 0 0 0 8 0 0 80 13 76 115 40 119
201 134 206 89 18 92 55 0 55 76 15 52 21 0 0
81 24 39 60 10 12 52 0 8 57 12 14 55 4 0
46 0 0 59 11 5 82 25 26 40 0 0 51 0 0
113 33 25 158 70 69 176 75 70 225 113 118 253 143 139
209 97 91 255 152 151 231 113 114 234 103 112 212 82 117
158 30 84 255 134 216 191 84 195 119 12 125 255 255 255
165 84 196 76 0 98 82 9 99 94 26 97 117 52 112
117 51 102 61 8 39 90 33 59 85 29 50 82 31 47
88 30 38 84 22 41 75 25 34 75 21 39 69 19 35
85 27 37 79 26 38 82 28 35 79 25 37 76 22 26
77 20 32 87 29 32 88 39 45 74 23 29 81 27 35
80 26 28 74 28 29 75 27 33 74 26 22 74 22 24
74 25 27 69 27 18 79 36 31 58 14 9 45 1 0
71 27 22 82 38 31 70 26 27 74 30 29 67 20 18
65 18 16 66 19 27 66 19 17 100 46 134 98 49 122
99 52 127 110 53 141 103 53 129 108 56 131 122 59 149
119 63 158 114 55 153 141 72 182 142 73 175 152 83 203
161 86 201 145 72 194 156 88 210 177 103 226 226 146 246
176 90 184 161 100 185 169 108 180 203 142 228 255 255 255
255 255 255 155 96 150 27 0 0 124 44 85 126 23 52
161 53 68 223 110 131 234 118 140 224 113 128 246 132 161
119 28 45 255 234 255 153 70 81 26 0 0 127 47 60
112 29 35 103 2 12 165 60 72 171 62 65 213 93 101
209 92 101 209 88 117 205 83 112 198 75 125 243 118 172
248 134 193 177 86 137 165 92 153 165 76 129 255 185 248
255 250 255 255 199 255 250 194 246 243 197 252 255 246 255
243 193 255 255 237 255 255 255 255 255 251 255 255 211 255
230 176 231 176 116 175 215 128 207 174 93 157 163 76 153
189 108 175 209 130 200 199 107 188 193 110 181 208 120 194
226 141 219 213 126 199 193 109 185 187 93 167 175 87 160
188 90 169 196 100 181 210 116 185 190 103 169 189 103 170
176 109 189 166 100 189 168 99 203 174 111 215 178 114 228
180 112 221 162 105 210 168 111 223 178 114 227 171 110 227
178 113 230 175 107 234 181 117 240 172 117 232 184 129 236
181 125 230 179 123 230 180 124 231 184 128 239 189 135 238
197 137 236 196 138 240 208 145 248 209 145 243 216 163 243
223 168 248 228 163 242 237 178 255 249 187 255 252 193 255
255 210 255 255 204 255 255 206 255 255 217 255 255 215 255
255 223 255 255 226 255 255 226 255 255 223 255 255 227 255
255 234 255 255 229 255 253 220 250 255 223 252 249 227 245
247 224 236 255 229 255 255 240 255 255 234 255 249 219 251
251 221 251 255 222 255 255 217 255 236 205 249 255 215 255
251 211 255 252 195 255 242 195 255 240 188 255 242 192 247
255 197 255 254 199 255 255 217 255 255 232 255 184 123 206
71 0 87 78 3 97 119 40 131 107 31 104 83 11 68
109 24 75 109 35 62 104 35 63 102 27 61 104 34 69
109 35 69 105 35 76 124 55 90 60 8 33 33 0 2
8 0 0 0 0 0 43 0 17 58 13 32 53 0 27
61 11 26 32 0 0 44 0 4 48 0 13 54 0 7
60 3 11 63 15 8 61 9 4 45 0 0 123 60 48
109 42 25 99 29 18 89 19 10 104 14 8 137 37 36
206 95 96 254 141 143 224 109 118 217 96 105 195 62 69
202 80 94 178 61 101 174 71 115 255 165 237 255 198 255
233 150 251 126 43 147 115 38 130 131 48 131 118 42 122
115 49 109 100 29 86 116 43 89 103 40 73 104 38 69
108 41 62 94 38 62 98 42 49 98 42 60 100 50 55
112 52 64 73 13 36 84 24 45 88 32 46 84 24 41
79 17 33 69 15 24 78 26 28 82 25 31 89 30 36
81 32 38 81 28 38 84 32 33 78 24 29 79 23 33
73 25 23 75 29 27 73 26 30 74 32 32 71 29 29
65 21 22 60 16 17 69 25 26 70 26 25 54 7 7
66 34 33 68 30 19 68 30 31 68 30 21 100 45 128
104 47 136 104 55 128 100 54 124 106 54 135 108 55 135
121 58 152 120 67 149 129 55 160 139 77 180 143 71 186
140 76 185 153 84 200 141 77 196 162 86 215 182 113 229
225 137 255 192 107 205 194 121 211 195 133 202 206 160 216
255 234 255 255 255 255 155 105 150 58 0 29 131 47 78
142 31 62 169 59 74 220 103 117 230 107 120 220 104 120
244 134 147 175 61 84 255 175 186 115 37 46 49 0 0
109 33 33 88 12 11 115 22 29 155 46 52 198 92 92
237 115 120 218 102 120 214 85 107 192 68 102 177 51 87
207 82 128 238 115 170 130 42 94 186 99 158 191 94 156
222 121 182 255 166 228 255 188 248 255 203 255 249 201 254
255 231 255 183 142 191 174 125 176 250 189 244 255 218 255
255 233 255 255 229 255 255 212 255 222 151 207 198 124 188
169 95 156 160 90 154 173 103 169 173 107 172 197 127 195
210 145 212 219 139 215 208 131 201 207 131 202 210 126 197
207 119 198 201 118 190 202 109 190 200 116 191 201 120 182
185 106 183 162 86 167 145 87 170 164 95 191 177 107 210
176 113 209 173 107 220 190 133 237 181 127 226 184 119 235
181 116 233 183 107 234 176 117 231 177 112 238 172 116 235
181 126 236 183 127 232 178 122 227 182 126 231 185 129 234
190 137 247 201 134 244 199 141 243 203 141 237 204 141 244
217 156 247 219 163 246 235 168 254 239 177 252 245 181 255
252 190 255 255 200 255 251 190 250 250 198 255 254 195 255
255 200 255 252 204 255 255 209 255 255 208 255 255 221 255
255 224 255 255 227 255 255 234 255 255 233 255 255 230 252
255 238 255 255 245 255 246 222 243 255 237 255 255 234 255
253 222 251 247 213 250 250 224 253 248 216 255 235 195 241
252 216 255 248 205 255 245 203 255 242 191 249 244 193 250
246 189 254 242 197 244 250 195 252 255 216 255 255 204 255
159 99 184 84 13 106 98 19 130 109 32 132 91 11 91
101 27 90 93 21 46 102 24 50 102 31 58 107 30 56
101 34 58 102 31 54 96 24 59 101 33 57 81 15 42
70 22 29 67 6 32 62 11 22 59 8 23 57 8 25
54 3 15 45 6 17 49 3 19 44 0 15 57 3 17
56 11 13 63 13 17 64 10 5 59 12 9 51 3 0
97 31 20 96 28 11 107 34 24 99 33 23 123 38 27
141 54 47 189 81 83 219 103 103 216 101 112 213 91 93
201 73 75 203 76 91 172 57 85 175 68 107 248 145 220
255 210 255 167 85 182 97 24 120 95 10 109 120 34 125
109 36 111 113 32 98 90 11 69 75 10 60 103 32 73
95 32 65 85 20 44 80 18 45 76 15 30 79 16 28
78 14 28 75 14 31 99 35 57 96 32 66 95 31 47
78 26 39 75 19 28 79 22 30 87 26 33 93 42 46
72 19 24 75 18 24 76 17 23 65 14 24 68 20 21
69 17 23 70 14 16 67 13 17 54 12 12 56 18 14
58 8 11 49 9 6 53 11 9 65 23 21 68 25 26
55 12 15 59 10 5 51 16 10 53 15 8 53 15 10
93 47 127 94 51 130 110 54 140 104 53 136 109 53 141
112 59 135 124 61 151 121 70 163 136 65 165 138 78 180
138 70 181 140 71 184 156 77 196 148 75 186 162 85 210
191 114 231 213 119 229 183 106 206 200 120 214 199 137 211
212 162 228 255 235 255 255 255 255 129 68 115 66 0 34
134 55 88 138 33 59 151 36 63 203 81 97 223 117 128
223 105 124 244 132 151 173 71 100 172 78 96 60 0 0
68 0 6 110 27 34 79 0 0 140 36 51 152 52 49
188 80 85 219 102 104 202 84 101 204 75 98 191 74 99
172 46 85 175 58 107 158 53 99 110 17 64 214 127 181
228 117 176 178 83 147 200 107 171 255 180 241 255 238 255
255 211 255 255 210 255 154 103 165 143 81 141 205 150 205
234 164 234 234 167 229 255 215 255 255 255 255 255 230 255
255 223 255 255 201 255 250 196 255 248 190 251 249 191 255
245 186 243 243 189 251 235 178 233 246 196 241 255 208 255
255 221 255 255 222 255 255 235 255 255 227 255 255 213 255
255 238 255 255 213 255 250 198 255 244 187 255 237 184 255
215 164 255 183 123 220 141 87 181 171 124 212 172 117 211
168 106 215 169 109 216 175 107 209 179 108 223 184 122 218
185 120 228 185 121 233 186 121 229 189 126 241 189 124 238
195 130 246 198 133 239 201 139 250 201 139 247 189 123 232
201 141 240 206 142 239 218 157 252 222 165 250 228 173 255
242 185 255 241 189 255 250 188 255 251 188 255 243 188 255
250 194 255 250 201 255 254 195 253 246 198 255 249 201 254
247 199 255 243 204 255 254 206 255 255 210 255 249 217 255
255 215 250 255 227 255 255 228 253 251 222 252 255 233 253
255 236 255 255 231 252 255 221 242 255 231 255 251 215 244
239 205 228 255 215 255 252 206 247 246 207 247 242 202 245
244 197 240 244 193 241 243 203 235 241 196 244 255 232 255
250 189 255 133 69 161 68 0 99 116 41 153 121 39 140
80 4 88 102 24 94 70 0 36 80 5 43 80 6 31
86 9 32 80 14 39 88 16 43 87 16 44 82 15 44
74 17 37 77 19 45 75 11 42 69 9 33 52 0 25
52 0 17 45 0 19 56 0 24 50 6 14 53 12 26
62 12 16 60 9 16 57 13 5 65 15 11 64 23 16
60 5 7 85 20 7 93 27 17 102 30 27 108 29 21
110 24 11 124 32 27 156 44 47 162 48 50 205 77 79
197 77 83 197 67 75 199 79 89 175 48 81 155 50 95
237 140 211 255 255 255 135 46 156 100 12 120 102 26 111
127 49 132 117 35 112 103 30 94 82 12 69 87 12 53
98 22 64 89 26 55 99 33 59 96 36 56 97 38 57
81 21 35 74 11 26 59 0 17 95 28 56 87 20 46
81 16 37 70 10 30 67 0 21 60 10 12 66 12 14
79 20 28 82 21 30 79 28 32 78 25 30 81 24 32
77 16 22 67 21 27 68 16 21 71 22 15 68 20 22
67 25 28 74 22 21 57 13 16 65 19 20 81 34 40
81 39 30 78 32 27 67 23 19 70 25 23 71 25 23
71 25 23 101 52 133 103 57 137 110 55 137 111 61 140
110 54 136 108 60 142 125 63 158 129 69 159 134 67 173
139 70 174 141 73 180 149 74 183 149 78 193 162 91 199
172 100 227 184 112 225 214 126 241 201 110 218 215 146 233
230 160 240 245 185 255 255 243 255 255 255 255 111 52 106
73 0 43 136 51 86 132 29 58 135 28 40 183 73 83
222 103 113 224 105 124 237 121 137 180 77 94 144 53 76
36 0 0 82 2 8 117 44 52 79 2 4 143 49 44
164 52 64 197 86 88 221 103 106 198 84 85 197 72 85
193 72 110 179 58 88 166 48 93 117 6 47 148 48 102
255 172 218 255 171 229 199 92 151 174 85 146 241 159 217
255 226 255 255 222 255 255 209 255 158 107 165 155 99 162
222 156 231 195 126 197 142 73 143 190 128 204 255 211 255
250 194 255 255 217 255 255 230 255 255 247 255 255 255 255
255 255 255 255 255 255 255 255 255 255 255 255 255 255 255
255 255 255 255 255 255 255 255 255 255 233 255 255 218 255
255 199 250 255 209 255 255 206 255 255 210 255 255 229 255
255 234 255 255 224 255 248 191 255 234 184 255 186 132 225
193 146 239 202 140 240 208 142 241 211 142 250 219 148 249
205 148 244 215 164 254 180 115 226 188 131 238 192 125 241
185 127 236 191 131 239 191 131 241 198 138 250 200 141 247
187 124 228 195 131 237 206 146 245 210 147 241 218 155 247
225 165 255 230 167 250 230 174 255 247 184 255 239 175 252
237 184 255 240 185 252 240 179 247 240 189 252 245 186 255
243 193 254 225 178 243 230 184 245 236 192 241 243 191 242
234 191 242 240 196 243 242 200 240 246 209 236 239 213 241
255 224 252 255 231 249 255 229 250 255 234 255 255 229 253
255 230 255 246 210 241 252 217 243 252 210 246 240 206 240
244 201 242 236 196 234 247 206 238 248 203 247 247 197 241
255 235 255 255 202 255 144 80 172 87 17 111 143 59 174
141 65 175 90 6 94 84 5 80 76 2 56 79 10 47
90 9 43 79 15 36 87 13 37 84 17 43 89 16 36
87 23 40 88 19 48 86 21 44 84 29 48 74 13 37
59 0 24 51 0 15 49 0 20 55 11 13 58 6 22
57 9 9 54 5 10 57 13 9 57 9 11 58 18 4
63 16 17 59 15 2 81 11 0 90 16 7 98 28 19
104 26 25 116 22 23 116 22 13 130 26 25 125 3 8
186 74 73 199 74 83 204 71 75 198 77 92 162 39 75
141 26 76 218 122 187 255 255 255 193 110 208 143 56 158
141 67 158 153 77 163 133 56 135 125 52 116 112 35 92
123 56 95 98 26 61 101 31 69 105 36 65 109 36 64
115 46 67 127 54 81 126 68 90 140 76 96 113 52 80
112 50 78 113 48 78 112 49 65 110 48 60 108 49 60
113 49 62 105 54 55 101 47 53 104 48 55 103 44 55
99 48 49 100 47 53 102 44 47 102 46 41 92 45 44
99 47 48 97 52 46 98 43 53 89 42 35 97 49 54
108 59 55 112 59 61 98 62 58 94 38 41 90 50 47
92 49 47 92 49 47 102 53 134 104 58 137 111 56 142
111 61 140 116 60 149 113 66 149 131 71 168 130 67 158
129 64 173 133 69 169 137 69 184 152 79 194 158 85 207
182 96 223 197 122 231 193 113 232 216 130 246 210 124 228
233 156 254 253 180 255 255 200 255 255 243 255 255 255 255
94 30 80 77 0 43 135 51 81 134 29 57 135 21 42
185 63 80 212 92 110 212 87 105 219 104 125 174 64 81
177 80 90 50 0 0 78 0 0 132 46 53 93 11 3
135 31 39 155 53 47 224 115 107 240 121 125 202 89 98
193 65 85 196 79 93 181 56 89 163 49 85 87 0 12
148 46 86 255 155 201 255 172 220 215 109 163 180 75 137
209 117 172 255 194 255 255 227 255 255 200 255 166 107 181
155 92 167 223 162 243 212 143 224 167 98 181 190 130 204
249 192 255 230 159 226 243 186 241 255 205 255 255 225 255
255 219 255 255 208 255 237 176 228 208 149 191 219 149 188
211 146 188 218 143 185 214 135 171 210 139 175 211 137 175
217 149 179 215 141 184 204 121 187 203 121 197 201 134 193
212 146 218 230 170 251 249 195 255 255 208 255 255 217 255
255 199 255 255 206 255 255 201 255 255 199 255 255 194 255
248 184 255 235 169 255 228 172 255 188 113 223 186 127 239
202 126 244 191 131 240 189 126 244 196 131 246 199 134 249
201 136 255 193 129 242 199 133 245 205 143 253 210 143 254
206 151 244 205 144 242 212 157 255 212 154 243 238 175 255
226 164 252 235 167 254 223 167 250 230 173 249 234 174 252
234 172 255 234 179 253 232 169 243 233 180 252 241 187 254
235 185 242 240 189 247 237 188 242 247 189 241 239 189 236
231 201 238 239 213 236 246 229 253 248 228 255 255 231 255
255 236 255 255 231 255 255 229 255 244 216 248 253 219 255
246 210 248 241 208 247 247 198 249 248 196 244 253 202 252
253 201 255 255 227 255 255 221 255 194 132 213 108 43 144
135 61 170 148 76 186 98 20 121 48 0 46 104 31 88
90 21 64 96 21 59 85 19 43 89 19 40 85 26 44
92 26 43 87 27 42 89 29 54 95 29 54 84 30 53
82 20 36 65 9 26 50 2 9 60 5 20 63 11 28
53 4 15 59 4 8 54 5 13 55 1 1 55 8 0
59 8 7 55 11 3 59 14 8 73 4 0 84 5 5
100 27 22 106 36 26 105 22 13 115 18 22 122 20 14
101 0 0 189 72 75 206 84 92 194 72 78 200 73 84
166 40 73 119 4 50 211 108 172 255 255 255 228 141 234
166 87 184 171 84 173 183 97 181 161 80 150 147 64 130
138 58 112 150 80 131 139 58 100 140 71 107 140 73 103
143 73 104 134 65 92 123 54 83 114 40 71 97 28 56
130 69 92 134 66 97 137 73 92 137 69 95 141 75 88
131 71 90 131 65 72 118 59 72 127 64 69 127 63 74
127 65 68 117 62 69 121 60 73 114 58 62 120 60 65
120 64 58 101 52 48 112 68 58 110 54 60 96 51 39
102 49 55 111 64 55 111 62 55 101 53 48 86 34 28
88 39 34 89 39 34 89 39 34 104 55 135 105 59 137
118 63 144 112 62 150 116 62 142 119 64 155 130 67 163
138 79 181 128 60 168 134 65 169 152 74 193 160 84 206
177 93 213 200 123 242 212 135 255 196 121 233 206 118 231
209 121 234 237 162 255 253 184 255 255 199 255 255 243 255
255 241 255 67 0 58 81 7 55 127 39 82 128 25 52
136 24 36 181 63 73 207 81 96 192 75 87 199 82 95
160 59 66 192 95 103 65 0 0 56 0 0 116 39 35
94 10 1 119 20 16 139 33 30 221 102 101 223 112 106
196 71 72 186 63 72 194 79 95 195 71 94 174 66 86
95 0 22 157 46 85 235 136 175 255 164 212 237 132 179
192 80 134 171 74 133 233 157 219 255 245 255 212 144 224
160 107 176 175 115 199 228 162 241 205 136 219 189 120 205
236 173 253 255 209 255 255 249 255 255 217 255 249 176 241
214 139 193 169 107 157 129 69 111 116 46 90 94 27 63
116 41 83 111 37 70 117 51 77 138 57 96 156 79 113
185 96 138 195 117 151 203 116 153 255 157 219 241 148 216
233 155 215 229 161 216 231 161 221 219 160 227 217 151 232
214 157 242 246 184 255 241 181 255 238 171 248 235 176 255
241 175 255 235 165 250 214 149 232 204 143 232 189 122 235
203 138 250 192 125 243 197 128 240 199 129 245 192 130 249
194 130 248 195 132 247 200 133 253 202 140 255 205 139 247
201 138 243 197 137 243 199 141 237 200 142 247 198 134 234
220 151 250 213 153 243 216 152 243 221 155 241 217 164 250
219 162 246 222 165 242 226 163 249 224 164 243 222 168 237
230 168 243 225 179 244 220 167 231 224 173 229 230 179 230
227 176 227 229 194 233 228 210 244 247 219 254 254 218 255
250 230 255 255 241 255 255 238 255 255 237 255 245 214 244
250 219 246 247 211 249 244 202 246 242 204 252 245 203 253
254 203 250 253 208 255 253 200 255 255 221 255 239 174 255
148 83 179 113 44 156 129 50 157 101 29 125 40 0 52
91 13 71 79 5 51 72 3 31 72 0 28 61 0 28
68 2 20 68 9 26 64 0 13 100 43 54 94 34 46
92 25 42 77 25 40 70 11 26 64 9 26 67 7 20
71 22 28 53 0 4 52 8 14 57 5 0 48 6 0
55 0 1 52 7 0 59 14 1 63 13 0 74 9 7
86 15 4 87 23 14 109 25 26 111 31 27 109 20 17
126 20 19 101 0 0 179 59 65 193 77 76 181 56 55
181 62 67 160 41 68 107 2 41 193 83 157 255 255 255
210 120 220 147 69 169 163 80 172 184 102 187 163 86 157
153 75 139 136 63 114 146 71 113 145 69 118 145 71 109
148 66 107 136 65 104 137 56 93 127 48 86 124 43 82
118 39 76 125 54 93 121 58 90 124 60 87 125 65 88
129 62 83 126 59 74 106 46 58 105 39 50 117 61 73
118 58 66 117 59 63 120 56 65 109 60 58 111 58 56
111 55 50 117 55 60 92 38 32 92 43 41 87 38 33
80 29 26 80 30 28 91 40 36 92 39 40 77 31 26
84 37 33 85 37 33 85 37 33 85 37 33 107 58 141
108 62 142 121 66 156 114 66 145 118 67 151 119 64 161
133 75 170 130 69 176 141 78 181 140 68 188 161 87 206
177 103 224 182 104 226 213 133 249 223 147 255 199 112 242
193 115 225 195 113 227 240 161 255 249 186 255 255 194 255
255 226 255 255 236 255 40 0 31 89 15 61 117 30 70
124 20 47 152 38 53 195 72 88 189 74 78 171 50 61
169 61 70 174 69 69 180 75 79 55 0 0 63 0 0
112 34 26 92 0 0 131 28 26 134 29 20 170 51 50
194 87 76 179 51 55 176 54 57 189 70 82 196 72 99
177 72 83 99 0 13 158 49 75 240 127 164 255 160 204
254 145 178 190 76 126 147 47 96 218 130 194 255 236 255
219 148 224 196 133 216 207 138 225 222 144 232 201 127 209
218 143 231 254 185 255 255 198 255 255 202 255 239 146 206
158 66 132 117 29 90 105 11 70 109 18 68 137 50 89
155 63 97 223 126 161 212 115 149 218 114 147 214 105 135
210 97 129 202 88 120 202 76 106 173 45 90 249 136 181
231 130 176 251 155 206 255 186 237 255 193 252 255 190 254
236 170 248 219 155 231 200 140 217 195 132 206 189 132 203
197 131 201 200 134 210 205 142 221 201 133 221 193 127 229
200 134 240 201 129 242 201 132 243 200 132 246 198 123 246
194 129 245 198 130 243 202 126 255 189 130 250 199 132 250
199 136 254 201 134 252 190 128 242 192 132 230 190 130 238
194 134 237 203 141 234 203 130 235 204 142 238 209 147 237
213 146 236 216 153 236 224 157 243 213 160 247 212 153 236
218 155 239 221 161 242 222 165 244 227 170 237 225 170 229
236 174 239 229 175 230 232 199 255 242 208 254 247 205 255
241 213 252 253 220 255 255 230 255 255 237 255 250 233 253
249 225 254 241 220 247 246 219 255 235 209 250 242 209 246
238 207 254 247 209 251 252 210 252 255 203 255 255 218 255
255 212 255 190 131 215 93 28 125 97 23 125 109 32 123
75 11 84 62 0 63 64 0 46 59 0 41 56 0 25
59 0 24 63 0 26 69 13 27 68 8 24 101 40 53
85 26 47 78 23 31 76 15 30 81 17 25 67 16 24
69 13 18 62 11 16 67 9 15 53 12 6 63 1 0
48 4 1 64 6 0 52 11 0 67 10 8 58 15 0
81 15 9 87 12 11 88 17 18 96 24 17 98 19 17
116 23 19 117 24 17 119 16 15 144 36 27 178 57 64
145 28 29 166 44 50 163 42 75 105 0 32 192 84 150
255 255 255 229 139 233 153 66 165 155 70 153 171 87 173
161 77 149 155 72 140 138 54 111 147 70 117 134 55 100
124 49 90 115 33 74 106 35 66 128 47 87 162 83 122
204 126 165 251 173 214 148 76 116 157 85 124 145 74 99
145 65 103 128 66 89 129 63 78 123 63 82 118 56 61
103 38 53 106 42 47 100 44 46 100 41 49 102 40 45
105 37 42 93 39 35 103 48 44 79 28 17 94 39 33
85 30 22 81 26 16 85 30 31 94 39 27 94 37 36
74 25 23 99 46 42 96 43 39 96 43 39 96 43 39
99 53 134 100 57 135 110 59 143 122 67 155 123 68 157
124 59 155 128 67 168 131 60 164 153 84 203 145 77 194
171 97 217 189 118 233 202 115 239 231 150 255 233 148 255
184 106 219 193 107 228 198 119 222 246 178 255 255 181 255
255 186 255 255 232 255 255 255 255 60 0 47 96 23 69
121 31 72 122 18 47 151 41 53 189 79 93 188 66 77
151 33 49 154 31 39 205 98 104 150 54 48 37 0 0
68 0 0 120 32 25 98 14 6 155 56 42 137 35 21
155 40 31 203 91 78 172 55 59 164 52 52 187 65 75
177 63 64 168 52 77 62 0 0 134 27 50 211 102 132
255 134 167 242 126 168 172 64 109 132 28 87 224 130 195
255 206 255 255 236 255 224 154 230 182 107 196 185 119 203
235 154 237 255 231 255 255 240 255 255 223 255 108 8 79
120 19 85 109 12 69 153 52 107 177 80 132 154 62 107
137 39 75 140 44 83 106 5 34 134 36 57 193 79 104
217 112 140 246 120 153 230 111 144 214 85 120 196 72 98
148 30 64 169 48 81 191 85 122 241 148 189 255 193 251
255 194 255 228 162 226 205 138 216 241 179 244 223 164 236
215 145 220 205 140 205 214 148 228 221 158 237 212 149 235
219 152 246 191 115 236 195 133 236 199 131 242 196 129 242
196 130 243 197 122 246 195 132 248 201 136 247 195 119 248
190 129 245 199 136 250 199 133 244 186 128 241 181 120 233
191 130 241 196 134 241 199 129 227 200 134 232 198 128 228
199 138 239 205 140 240 212 151 245 219 154 246 218 153 235
231 171 255 232 174 255 237 174 255 250 188 255 243 187 255
248 193 255 253 193 255 255 209 255 243 199 255 249 218 255
255 214 255 246 212 255 248 223 255 255 229 255 252 234 255
251 225 255 243 221 247 240 215 249 235 201 240 230 199 241
229 197 232 236 200 234 234 204 247 255 208 255 255 223 255
255 209 255 255 232 255 213 147 232 74 4 92 41 0 65
93 27 109 99 19 104 58 0 42 70 5 55 79 2 50
73 10 38 85 11 42 90 28 53 104 35 58 123 56 77
67 9 24 74 17 24 63 2 8 58 4 9 72 15 21
78 17 27 73 9 17 57 0 0 75 15 11 60 10 5
51 0 0 57 2 0 53 0 0 60 6 0 64 15 3
75 19 12 88 25 18 88 21 14 81 14 13 92 21 12
96 17 13 105 22 17 114 26 19 126 26 28 114 2 1
147 51 38 115 3 2 152 32 42 161 52 69 118 13 49
192 94 162 255 255 255 255 198 255 181 96 196 162 78 161
166 84 165 143 62 139 139 59 124 134 55 118 156 79 133
133 50 104 118 39 82 143 64 113 190 109 152 220 140 187
220 143 189 214 121 175 193 112 152 197 129 166 179 107 139
148 75 107 112 51 77 111 45 65 105 44 56 100 40 53
107 43 59 90 24 35 93 36 49 93 31 41 96 36 42
92 27 33 83 33 30 85 28 35 86 29 24 99 48 41
103 50 36 97 44 42 87 34 30 96 43 35 113 60 54
115 62 52 109 52 40 86 37 34 91 40 35 92 41 36
93 42 37 124 71 152 133 82 160 129 72 155 99 45 141
101 47 141 131 73 168 146 85 192 159 95 198 115 45 170
150 78 200 165 95 208 151 74 207 163 76 200 174 99 217
202 117 242 213 129 246 214 138 244 206 136 241 188 114 214
255 202 255 255 218 255 255 255 255 216 141 211 0 0 0
99 24 73 94 11 50 92 0 26 173 65 79 191 72 84
160 47 49 181 61 70 186 65 80 172 68 68 171 65 64
82 0 0 77 0 0 125 40 30 107 22 5 122 22 17
130 27 16 181 62 59 159 46 38 191 74 68 171 51 52
190 72 79 196 86 95 116 14 14 59 0 0 151 43 54
224 117 143 255 157 180 232 110 147 183 72 108 153 49 95
206 114 176 255 242 255 255 206 255 253 179 255 239 155 238
236 161 242 255 198 255 255 224 255 205 133 209 92 9 82
97 17 77 140 48 102 136 64 111 118 43 82 96 20 64
98 14 44 94 17 39 85 6 25 126 37 56 98 12 33
94 0 10 92 0 13 135 28 48 176 68 88 224 109 130
234 122 153 234 114 123 194 81 95 176 70 99 153 59 83
168 80 123 255 189 236 255 249 255 255 213 255 232 176 251
220 163 239 196 138 205 192 135 204 206 139 225 218 153 242
234 154 255 224 162 255 216 147 249 210 142 245 203 131 241
193 121 227 189 121 230 197 130 238 199 124 251 192 128 242
210 144 255 204 132 248 184 126 242 196 132 244 204 138 255
209 141 255 200 137 245 182 125 232 192 120 231 190 127 220
202 137 233 212 142 246 217 152 245 222 153 245 216 157 250
214 147 240 203 148 230 232 173 255 239 188 255 233 176 252
232 176 250 253 200 255 255 201 255 244 195 255 248 198 255
241 187 248 240 200 253 250 206 251 254 211 255 255 227 255
255 231 255 255 243 255 255 222 255 255 242 255 255 253 255
255 232 255 255 229 255 255 235 255 255 245 255 255 220 248
255 243 255 255 235 255 255 255 255 255 241 255 193 117 194
124 37 120 143 64 140 189 111 173 134 57 113 130 54 105
108 31 75 90 19 57 99 20 60 104 36 60 111 44 61
124 50 71 111 45 49 101 29 42 90 17 25 84 21 31
73 11 9 54 0 0 60 0 0 67 16 13 63 5 3
91 28 21 88 32 27 70 8 0 60 9 0 79 22 8
75 19 7 50 0 0 67 0 0 80 13 10 95 36 20
91 23 21 94 19 14 103 19 15 114 23 20 111 20 8
134 43 33 136 31 24 146 37 37 126 19 24 166 60 80
82 0 22 152 52 110 255 255 255 255 166 255 186 101 197
132 49 139 157 71 162 148 64 137 161 79 157 169 88 151
138 60 126 115 30 88 251 171 220 255 221 255 212 129 185
136 59 102 111 36 81 121 31 82 117 32 88 111 40 80
114 53 87 123 55 94 126 58 87 124 57 84 116 53 72
115 46 69 114 57 63 102 42 47 110 47 60 111 45 52
96 41 48 100 47 46 97 40 37 97 38 40 96 44 44
79 27 17 86 33 21 86 33 21 91 38 24 91 38 32
83 31 19 87 35 33 92 35 29 90 41 38 93 43 36
90 40 33 87 37 30 115 61 147 125 71 155 128 78 166
120 68 154 128 63 159 139 78 179 154 83 189 148 78 190
147 75 194 148 80 199 167 86 208 171 99 219 196 117 243
219 137 255 217 132 247 205 127 243 188 112 218 197 122 215
220 148 234 255 185 255 255 215 255 255 247 255 144 80 145
25 0 17 115 39 87 109 22 61 123 25 50 190 92 99
222 108 115 185 73 73 185 62 79 180 64 73 175 69 66
165 65 55 67 0 0 76 0 0 120 37 17 111 23 15
127 25 11 138 31 25 170 65 45 167 47 44 178 68 62
165 51 48 191 74 78 195 85 86 125 23 29 69 0 0
148 51 60 226 117 127 251 139 162 214 96 130 185 71 117
164 50 96 188 93 158 255 210 255 255 193 255 249 164 242
255 195 255 255 230 255 255 192 255 190 109 182 137 56 122
121 40 99 125 42 91 126 54 89 122 36 82 102 33 69
95 18 53 88 14 38 80 7 28 76 11 17 86 5 16
83 8 21 89 10 17 93 1 17 105 10 25 124 33 49
158 63 82 162 61 72 240 125 126 225 105 108 219 114 119
196 89 115 172 84 121 205 127 169 255 186 250 255 207 255
244 182 255 240 175 244 227 165 246 215 161 233 215 146 229
202 133 225 201 141 231 227 148 241 215 151 253 213 143 244
204 136 238 204 135 240 200 134 241 200 135 235 196 127 241
192 121 241 199 134 248 192 126 241 193 121 240 190 131 240
194 131 246 195 136 242 191 132 237 193 127 236 200 128 228
199 127 229 207 138 236 207 147 234 211 148 243 215 150 240
212 143 239 209 148 234 225 156 251 219 162 249 221 162 251
202 148 225 204 151 224 219 163 241 237 185 248 243 187 254
232 171 244 247 195 255 255 204 255 230 182 237 200 158 204
202 162 204 240 204 251 255 225 255 255 255 255 255 252 255
255 244 255 255 237 255 255 249 255 255 255 255 255 254 255
255 255 255 178 104 170 197 106 178 199 113 190 190 114 187
145 61 130 134 51 115 150 67 129 161 74 130 159 75 126
146 65 102 130 42 85 107 27 64 106 20 49 109 24 49
109 25 48 98 18 31 121 49 57 105 39 41 108 30 34
107 36 39 102 25 32 78 11 8 75 2 8 80 9 9
69 9 0 85 17 13 74 15 0 65 11 0 82 13 8
95 39 27 89 30 20 43 0 0 94 23 15 86 17 10
91 22 18 80 20 8 103 24 14 109 39 25 125 33 21
113 27 17 127 29 26 134 44 29 146 35 36 125 31 30
158 48 68 86 0 24 176 94 144 255 255 255 242 155 247
163 74 182 151 67 148 202 116 203 162 79 162 148 62 142
169 85 156 125 42 106 182 104 166 236 156 212 195 109 173
131 55 110 156 73 125 145 63 119 117 36 96 171 85 136
128 54 94 127 68 100 124 58 95 121 58 84 120 52 80
110 52 65 113 48 64 104 49 66 99 40 56 99 45 50
99 42 55 98 45 49 99 43 50 94 37 39 93 35 46
95 38 32 104 50 45 101 46 35 100 45 36 102 47 36
103 50 42 106 48 48 105 45 38 103 57 54 96 46 38
100 45 50 98 44 46 96 42 44 106 51 140 119 64 153
127 75 157 130 68 165 126 70 167 135 73 182 144 79 187
142 74 193 138 67 186 128 59 183 154 71 197 186 116 234
225 143 255 226 154 255 211 133 242 203 117 230 154 89 182
176 114 196 241 166 242 255 177 251 255 227 255 255 202 255
50 0 41 69 0 49 104 35 71 116 30 66 117 28 37
196 91 109 229 118 117 190 75 74 184 67 82 182 66 70
180 73 77 157 56 49 69 0 0 83 0 0 117 46 25
103 20 9 128 34 15 138 33 26 160 54 48 156 43 31
164 49 45 162 41 44 186 77 73 190 86 86 123 20 18
66 0 0 156 48 52 220 121 128 240 121 138 194 72 98
193 82 123 163 48 103 172 77 126 255 183 245 255 176 243
255 197 255 255 237 255 255 219 255 200 109 171 109 23 80
92 4 51 101 24 64 108 38 77 94 32 61 77 20 44
67 5 27 58 5 15 55 2 18 49 0 7 39 0 0
41 0 0 48 1 0 61 4 2 48 0 0 41 0 0
61 0 0 97 34 41 98 30 32 242 127 132 241 117 119
238 124 124 207 105 116 170 71 80 146 53 84 196 112 148
253 174 239 255 221 255 255 185 255 248 181 255 234 169 255
214 156 236 202 138 225 203 132 226 203 137 226 217 152 240
213 145 239 209 142 238 212 144 241 209 145 246 204 135 241
201 134 244 191 126 225 195 124 238 193 123 234 195 123 235
191 126 228 200 131 241 205 138 246 202 136 239 193 132 230
206 133 233 206 144 238 208 141 242 214 145 241 216 145 246
209 147 238 214 148 245 208 149 234 210 148 239 219 159 239
222 156 242 200 146 229 201 145 217 212 154 235 219 164 232
212 156 222 228 172 241 231 181 248 238 178 250 225 182 233
245 195 255 255 226 255 255 236 255 255 237 255 255 220 255
255 227 255 255 225 255 255 237 255 255 248 255 255 229 255
237 174 232 222 162 215 139 42 119 129 30 103 114 25 89
135 30 99 122 29 91 143 43 102 162 71 128 151 49 93
171 73 119 157 65 103 151 52 90 135 45 72 139 42 72
137 44 63 139 45 62 142 43 64 140 54 59 133 52 59
143 50 56 143 60 67 142 50 54 114 39 30 99 16 16
104 26 19 95 16 7 88 13 10 78 2 1 75 5 0
96 35 31 115 60 41 99 43 24 51 0 0 104 38 28
96 19 12 73 15 2 76 9 4 103 21 18 129 41 37
125 51 35 116 28 21 126 33 25 140 50 37 144 42 39
140 40 43 133 34 48 74 0 12 208 120 188 255 255 255
182 96 188 187 108 203 182 101 199 176 93 178 156 77 160
152 70 155 159 80 156 100 20 96 255 184 252 200 122 188
137 51 110 100 24 79 142 59 121 147 65 119 128 40 105
139 64 120 131 73 106 134 72 96 132 66 95 131 68 90
132 65 91 117 60 77 122 65 78 124 70 82 109 52 63
117 57 64 117 54 66 107 57 59 108 54 62 108 57 62
107 54 55 104 56 49 99 50 46 104 55 53 101 54 51
104 56 49 105 52 58 107 56 53 106 55 58 112 61 66
94 44 45 101 51 57 98 48 52 96 46 50 118 58 150
129 69 161 132 74 163 132 71 164 131 72 168 139 74 177
145 72 185 135 70 180 146 74 191 142 74 191 169 98 212
211 138 244 234 155 255 210 130 235 198 123 225 199 123 213
174 107 186 222 153 225 255 184 252 255 209 255 255 255 255
216 146 198 5 0 0 114 41 88 98 25 66 106 27 49
107 9 32 166 70 67 204 92 98 172 59 57 174 53 55
180 53 64 183 83 73 150 46 44 64 0 0 88 0 0
120 47 24 108 24 11 130 26 24 140 33 22 161 50 38
142 36 33 150 33 27 154 38 36 188 79 78 183 79 72
108 11 7 82 0 0 142 45 49 233 128 137 229 109 127
179 69 86 205 82 125 174 58 105 161 64 124 255 173 232
255 208 255 255 230 255 255 206 255 163 75 136 86 1 45
127 48 84 163 74 113 107 33 63 97 30 53 81 23 42
60 0 16 43 0 7 52 0 17 47 8 6 38 0 0
32 0 0 31 0 0 49 7 0 54 6 0 41 0 0
27 0 0 39 0 0 62 16 15 63 6 5 195 89 92
202 85 85 223 111 115 229 121 120 207 100 111 144 51 59
153 54 97 189 109 145 255 212 255 255 194 255 255 193 255
234 169 252 218 155 244 231 173 250 228 160 240 204 143 225
208 140 225 206 137 228 209 141 228 214 146 233 217 154 250
218 151 249 208 143 243 204 135 244 191 125 228 197 131 232
196 131 242 199 130 237 202 136 233 199 141 230 208 140 239
211 146 243 203 141 241 219 139 237 206 144 240 211 146 237
214 148 244 219 156 240 221 156 243 220 155 246 198 132 223
209 141 238 214 151 237 226 156 250 228 171 246 246 185 255
252 194 255 255 205 255 240 176 253 250 189 255 251 202 255
255 209 255 255 234 255 255 255 255 255 229 255 255 202 255
202 141 207 203 130 200 171 100 175 165 93 160 179 98 166
173 92 167 147 72 133 135 52 108 173 62 136 155 46 124
148 46 110 136 36 96 128 20 70 134 33 74 159 53 90
152 47 91 145 46 76 157 47 76 155 47 77 155 50 77
159 52 75 164 63 80 172 59 83 173 69 77 146 54 59
148 49 52 152 55 65 164 61 65 150 62 67 136 39 43
124 36 37 132 38 34 110 31 30 116 36 22 91 18 5
85 12 0 104 27 13 127 58 51 107 39 31 56 0 0
113 39 35 104 24 22 90 18 13 78 0 0 80 9 0
119 38 22 130 43 34 113 26 18 128 38 28 142 55 50
148 46 41 141 42 42 113 8 38 79 0 13 237 153 212
255 249 255 162 78 175 191 106 206 168 79 176 134 50 145
160 73 169 128 45 127 133 44 129 143 73 140 246 155 239
108 35 105 94 22 85 132 56 121 112 41 90 114 40 99
137 63 115 97 17 71 120 57 92 110 57 82 113 54 84
108 52 74 110 52 79 109 51 65 110 46 63 108 54 70
98 44 50 98 53 59 97 50 59 100 47 52 98 43 55
97 50 53 94 46 49 98 46 48 88 35 42 91 42 42
94 35 38 91 42 48 93 43 43 95 46 51 94 38 54
99 53 62 85 29 39 86 35 50 89 37 50 86 34 47
129 69 166 129 69 166 129 72 166 134 66 159 131 66 172
134 64 169 141 74 189 142 72 176 182 109 230 170 105 212
198 126 231 206 136 240 202 133 229 188 123 204 208 139 228
243 167 255 255 194 255 255 232 255 255 207 255 255 251 255
255 255 255 166 84 126 14 0 0 116 44 80 105 26 58
114 33 58 106 15 26 182 70 77 222 109 113 180 64 61
169 51 55 180 60 60 193 89 86 144 48 42 63 0 0
89 12 0 124 43 36 115 28 11 127 37 26 146 44 37
145 42 35 143 29 31 141 37 31 148 32 37 179 79 74
168 64 58 98 0 0 84 0 0 137 38 29 231 129 133
229 116 128 192 66 93 207 90 135 175 53 99 170 76 133
255 174 227 255 255 255 255 201 255 177 89 140 68 0 27
70 0 21 177 88 115 187 96 119 111 35 46 74 15 26
69 13 23 47 0 10 49 0 0 46 5 0 48 11 14
48 8 10 43 5 0 20 0 0 26 0 0 32 0 0
28 0 0 27 0 0 36 0 0 35 0 0 16 0 0
127 35 38 132 29 30 166 59 65 234 123 125 255 149 149
206 92 107 154 48 64 142 48 80 229 119 170 255 172 225
255 214 255 255 189 255 232 177 243 240 189 255 235 184 245
224 161 229 196 134 214 199 137 212 200 140 217 208 144 227
224 162 245 231 165 251 221 157 253 222 156 255 202 134 229
209 143 236 209 137 240 207 141 234 215 144 248 211 150 241
221 150 252 229 165 255 199 126 217 205 137 229 211 140 235
212 141 228 212 141 232 217 145 239 219 144 237 208 147 235
232 168 255 213 151 241 207 144 228 200 135 223 210 147 230
213 148 232 223 164 240 234 162 240 255 193 255 255 207 255
255 199 255 241 171 251 219 150 229 199 127 214 195 109 198
183 103 185 191 103 196 183 89 177 170 66 157 159 63 155
168 61 147 180 71 154 174 69 145 189 75 157 174 60 122
173 58 112 177 67 113 168 58 107 145 39 81 145 44 70
171 58 93 169 62 73 162 54 76 167 55 76 162 54 72
163 53 68 159 54 64 150 46 62 156 43 53 155 44 62
151 53 60 146 41 49 145 41 43 155 55 54 157 55 58
151 49 48 149 41 41 159 65 51 157 54 45 148 51 46
133 36 29 104 16 6 105 13 3 125 37 31 111 29 20
70 0 0 145 50 51 139 44 43 123 39 32 91 8 7
86 0 0 100 9 1 106 23 15 101 5 0 132 33 25
138 35 36 145 35 33 139 45 40 123 15 37 98 0 39
255 172 242 255 249 255 179 98 188 122 35 142 107 32 129
115 36 127 135 55 148 83 5 94 145 63 154 209 140 217
128 45 134 53 0 49 80 5 73 130 51 118 87 10 75
87 10 64 105 39 99 82 7 61 66 11 35 68 17 45
68 12 43 69 15 38 68 12 28 63 12 31 63 13 24
66 19 27 61 11 24 66 13 27 65 10 27 53 12 18
58 12 17 57 11 9 58 15 13 48 5 8 71 19 29
68 16 37 69 12 28 68 18 38 70 18 33 72 20 43
72 19 33 66 24 46 73 15 38 65 17 47 68 19 44
64 15 40 123 58 153 113 48 142 116 52 146 117 53 156
120 50 155 120 57 161 136 64 169 138 69 184 161 93 195
161 93 204 179 104 210 180 111 210 179 106 193 202 131 212
255 185 255 255 238 255 255 252 255 255 245 255 255 207 255
255 245 255 255 255 255 119 47 83 35 0 6 76 3 39
118 38 68 135 48 66 147 46 57 210 109 106 255 151 145
213 95 88 189 63 60 187 69 72 197 93 92 140 42 37
63 0 0 99 17 5 132 49 38 112 30 23 134 40 26
151 45 33 152 45 45 144 33 29 146 29 32 147 38 33
188 79 75 142 49 37 76 0 0 99 7 0 145 45 46
223 120 118 225 111 127 192 72 99 209 78 118 171 57 107
183 81 133 255 185 241 255 255 255 177 109 141 81 0 42
98 24 52 159 71 90 150 70 84 118 30 36 85 5 7
58 3 4 58 3 11 43 0 0 36 0 0 46 0 3
45 4 0 36 7 0 40 10 0 32 0 0 27 0 0
25 0 0 28 0 0 42 0 0 38 2 0 31 0 0
12 0 0 59 0 0 67 0 0 126 30 25 194 96 95
255 150 157 246 133 131 195 79 89 172 55 75 127 23 57
220 121 168 255 209 255 255 217 255 255 200 255 247 197 255
246 194 249 238 188 250 216 152 221 217 152 231 206 144 222
209 144 220 224 158 247 237 173 255 231 169 250 233 169 255
213 143 240 220 152 244 220 156 247 218 152 248 211 149 232
216 151 242 219 159 240 255 180 255 189 120 213 203 131 223
199 130 221 202 133 228 203 134 219 206 137 222 207 140 232
203 133 224 240 172 255 230 154 249 236 161 255 249 179 255
253 182 255 249 177 255 242 176 252 255 191 255 255 178 255
221 144 222 178 95 186 146 64 141 135 51 141 147 57 149
150 57 147 154 52 153 155 47 143 160 55 145 168 60 159
192 76 156 189 71 158 162 47 125 160 37 115 160 36 106
165 49 105 163 50 94 162 41 92 158 48 80 159 47 70
170 55 83 164 54 68 145 37 51 159 49 62 157 56 61
166 50 55 163 50 58 154 42 49 153 40 42 152 35 54
147 31 36 160 56 64 143 44 43 145 34 41 150 47 42
158 46 53 152 43 45 161 59 52 177 72 69 163 58 56
179 70 69 165 63 58 134 28 25 113 20 15 131 29 22
130 32 33 100 0 0 167 75 70 170 78 69 163 75 78
119 30 26 110 13 3 115 26 20 128 25 17 103 10 0
122 27 20 126 25 21 136 36 27 143 30 43 129 22 42
119 24 57 255 175 236 255 240 255 144 59 161 95 7 107
130 53 144 96 16 110 83 0 98 140 65 153 244 167 255
166 81 178 42 0 43 70 0 83 64 0 68 71 3 66
78 10 77 53 0 34 60 0 47 87 27 74 47 0 22
56 6 24 56 0 22 52 3 29 55 0 18 56 10 12
57 4 17 45 3 10 51 5 14 48 5 15 49 2 11
49 1 17 53 6 12 39 6 5 51 3 4 47 1 11
53 1 29 51 8 29 59 0 33 51 4 29 54 4 38
56 7 32 54 5 38 60 10 35 59 6 46 58 12 39
59 6 47 60 8 46 129 61 161 125 57 155 136 68 173
149 85 179 158 89 189 157 85 194 164 98 205 178 112 217
167 99 208 170 108 206 188 115 210 196 126 218 221 154 242
255 186 255 255 210 255 255 255 255 255 187 240 175 116 158
197 138 175 235 170 203 233 176 206 109 40 74 55 0 34
64 0 28 114 49 72 142 60 80 141 52 59 225 119 116
255 157 157 216 102 91 195 66 60 196 72 70 203 98 95
143 42 37 62 0 0 103 28 17 135 60 44 117 32 22
142 45 39 144 47 42 149 40 43 145 44 38 157 42 49
148 40 45 180 71 73 131 24 30 71 0 0 99 15 0
159 57 50 202 101 96 209 95 112 184 61 92 200 69 115
173 53 113 186 76 138 255 204 255 185 109 160 91 20 69
70 0 20 146 72 99 174 84 96 106 18 28 62 0 0
72 0 0 58 5 0 52 7 0 51 1 0 41 0 0
37 0 0 42 1 0 33 3 0 24 3 0 45 20 15
31 8 0 34 6 0 36 4 0 50 10 7 51 11 10
40 0 5 37 0 0 12 0 0 34 0 0 94 20 23
141 57 53 198 94 86 238 135 129 255 136 135 232 125 119
148 28 52 176 74 103 215 123 172 255 193 254 255 228 255
255 206 255 238 192 250 246 203 255 255 205 255 248 183 255
220 161 232 209 155 225 224 158 239 231 169 248 234 168 253
237 176 255 220 151 236 225 161 255 232 155 241 226 150 242
225 153 238 223 150 241 235 162 243 240 171 255 222 145 240
217 160 244 223 148 238 215 145 234 208 138 229 207 139 227
211 135 234 214 143 236 210 143 245 207 132 221 216 144 239
242 173 255 255 194 255 255 198 255 255 206 255 255 255 255
205 104 196 166 71 141 100 0 93 104 7 87 156 49 147
169 71 154 181 65 163 163 57 149 205 87 186 191 74 157
186 62 137 186 62 138 175 58 113 169 41 93 161 42 82
183 68 107 153 31 67 156 47 84 162 39 78 138 32 51
153 34 61 165 52 65 159 47 55 145 36 32 150 39 42
155 44 43 159 48 49 161 52 50 153 45 53 159 38 51
164 44 59 169 58 72 157 52 59 146 43 47 145 39 49
154 50 55 162 54 52 158 46 45 176 59 60 193 73 66
169 53 47 193 79 72 191 74 68 163 50 42 161 39 41
163 57 50 161 45 46 132 18 15 169 61 58 177 85 74
183 85 87 162 66 55 158 65 59 174 86 73 184 77 77
159 59 55 158 54 52 133 28 31 158 44 41 139 33 41
139 29 57 139 31 77 221 124 194 255 204 255 127 44 138
127 52 159 166 86 184 76 0 93 121 49 143 216 137 238
255 178 255 80 15 103 58 0 75 104 34 116 89 15 88
65 0 63 84 17 74 71 0 58 60 0 44 79 21 64
68 20 42 73 19 41 75 21 42 58 17 28 72 16 31
59 17 17 61 12 22 61 18 23 62 14 22 53 20 22
65 14 23 56 19 25 61 18 31 53 19 19 58 15 20
54 20 14 58 8 41 58 11 44 58 6 38 58 13 37
59 16 42 61 13 48 60 13 51 57 12 41 65 11 57
55 15 51 57 16 57 57 16 55 167 100 196 173 106 200
202 138 234 237 170 255 253 181 255 242 178 255 255 178 255
255 189 255 255 199 255 255 195 255 255 198 255 255 198 255
255 216 255 255 242 255 255 199 255 255 255 255 191 132 178
29 0 0 115 51 81 146 74 106 150 75 109 86 12 38
50 0 1 90 14 40 132 53 71 147 61 75 134 33 39
196 94 88 255 160 145 211 87 79 177 46 43 194 72 70
212 109 104 141 43 42 67 0 0 113 33 20 133 56 44
104 17 10 125 32 27 150 46 44 155 50 46 165 55 57
163 54 51 159 54 55 183 77 79 141 44 40 61 0 0
91 8 0 184 83 80 207 96 98 205 86 108 184 66 89
206 81 128 191 75 118 209 103 157 255 255 255 4 0 0
68 0 27 113 31 54 157 74 95 135 62 63 96 23 14
92 7 8 83 10 0 61 10 5 67 18 12 58 18 12
60 16 5 43 6 0 33 5 0 38 5 0 27 6 0
41 16 14 33 10 5 25 0 0 27 0 0 26 0 0
33 0 0 38 0 0 41 0 0 3 0 0 42 9 0
110 53 47 136 59 62 141 51 45 242 122 124 255 190 186
255 171 171 219 105 115 144 37 57 134 48 84 255 178 217
255 255 255 255 232 255 254 193 248 251 198 255 255 255 255
255 221 255 222 159 237 205 145 214 222 158 238 225 165 240
227 163 246 236 165 255 216 149 241 222 160 244 227 159 251
219 158 234 213 150 233 215 149 226 228 162 245 231 165 245
255 203 255 251 181 255 233 169 255 219 147 242 210 143 233
213 150 234 219 154 241 224 149 236 219 139 237 148 78 175
92 22 111 92 9 104 87 11 108 121 40 133 154 80 170
197 120 203 213 112 203 169 65 144 143 34 119 171 60 148
186 79 163 172 53 147 166 52 135 194 74 162 171 55 134
157 38 111 167 42 108 174 60 110 181 56 108 154 38 69
145 24 54 155 33 59 130 14 40 162 55 80 179 59 82
142 40 50 143 30 40 150 37 41 167 57 60 183 70 71
149 43 37 160 55 45 166 54 50 158 53 46 162 45 49
157 46 41 164 53 66 176 58 71 168 61 64 148 52 57
159 48 45 168 61 63 168 58 57 169 56 55 171 50 45
183 72 68 155 33 32 189 62 65 198 75 74 188 62 60
183 66 67 192 71 70 179 46 56 125 10 11 131 25 26
179 68 65 191 91 87 183 88 80 205 100 98 252 151 151
247 141 131 203 104 92 170 64 63 124 20 16 160 43 41
129 15 24 127 16 40 126 20 61 177 75 148 197 100 184
138 61 165 144 66 161 120 37 140 87 5 105 251 164 255
217 140 243 178 106 202 78 0 95 104 32 128 101 29 111
112 39 121 92 30 101 67 3 61 99 37 94 100 34 88
37 0 22 77 19 49 59 17 36 59 9 32 63 15 31
57 9 30 61 8 28 53 9 21 48 5 9 64 18 25
52 14 24 63 15 26 55 19 19 52 13 18 55 14 23
54 16 13 46 10 16 75 23 63 62 14 55 76 22 66
68 25 59 59 3 48 52 0 42 56 6 47 69 12 66
54 9 54 59 10 53 60 8 63 62 11 63 168 101 204
150 85 185 142 72 181 146 81 181 146 77 186 148 75 179
159 87 193 180 101 211 196 110 225 214 127 238 212 139 246
255 189 255 255 254 255 255 231 255 255 255 255 226 157 209
11 0 0 159 41 84 173 72 109 220 100 131 245 132 149
255 147 154 189 81 92 58 0 0 107 3 10 115 9 8
157 54 50 195 86 88 193 85 85 193 91 90 194 76 72
185 77 68 221 123 120 103 19 7 71 0 0 103 35 12
136 55 39 170 87 70 180 88 76 147 45 38 143 48 32
134 32 31 121 27 15 151 58 50 155 59 56 49 0 0
36 0 0 116 34 26 162 51 62 160 47 54 186 79 92
161 54 67 126 20 35 171 67 88 172 76 93 115 20 34
66 0 0 122 48 53 132 66 75 100 33 33 70 2 1
47 0 0 65 0 0 89 20 16 39 2 0 41 5 0
52 5 0 45 0 0 40 5 0 36 0 0 32 0 0
28 0 0 40 5 0 42 6 0 38 2 3 41 8 1
44 0 3 45 6 7 48 11 13 56 20 18 31 0 0
58 7 6 29 0 0 38 0 0 152 59 62 185 93 92
210 109 110 255 216 217 202 100 104 149 63 66 127 32 59
194 114 145 255 209 246 255 252 255 255 233 255 239 196 236
216 164 226 220 174 232 255 240 255 255 194 254 222 159 226
255 196 255 242 180 255 212 164 232 233 180 255 230 165 253
218 151 237 211 147 234 216 147 241 210 156 234 216 156 231
206 146 219 237 181 255 220 157 233 230 171 246 255 213 255
255 203 255 225 154 240 212 135 229 224 152 238 255 187 255
255 220 255 246 158 246 155 72 152 159 68 159 113 29 113
111 23 104 222 128 218 113 16 102 157 44 142 155 46 135
140 43 109 146 38 103 149 45 90 151 48 102 146 42 75
178 73 110 178 67 95 165 59 96 153 44 75 151 39 65
148 45 66 163 41 71 146 45 64 160 49 67 151 54 57
156 45 57 152 50 56 147 40 46 142 37 40 141 39 41
147 49 49 145 36 33 150 46 40 154 46 47 163 49 44
155 37 37 157 41 40 163 49 45 177 61 58 147 37 30
166 46 43 155 52 46 154 51 45 163 47 49 166 58 49
187 72 69 200 78 77 195 75 76 187 65 60 175 47 54
173 46 50 175 51 54 179 49 54 184 68 67 200 84 84
197 72 77 157 46 35 157 32 43 173 62 51 206 86 83
218 100 98 228 115 106 255 148 148 207 85 79 255 141 131
207 87 96 178 63 69 185 65 104 134 24 73 154 50 116
255 211 255 250 154 255 175 97 204 200 102 215 157 62 170
251 153 255 212 122 225 100 5 109 118 39 128 128 38 134
118 48 128 125 56 122 123 58 128 112 45 110 67 9 67
73 5 69 103 38 94 65 12 49 68 29 47 77 32 62
72 24 58 67 24 45 61 17 45 69 23 48 76 29 49
58 12 37 62 21 37 66 14 40 62 19 36 64 19 29
64 18 33 63 19 30 65 15 30 72 23 55 81 34 75
61 1 41 37 0 40 102 39 93 128 71 130 93 33 101
52 0 51 106 47 113 90 33 96 87 24 88 79 18 81
151 92 190 141 87 181 152 80 187 158 93 193 162 93 202
167 97 198 174 100 220 205 123 232 179 94 214 206 118 227
191 122 221 208 141 240 255 215 255 255 228 255 255 245 255
155 105 137 95 0 39 158 42 76 199 75 103 232 107 139
255 125 145 245 117 134 183 65 59 101 0 0 116 5 0
131 28 26 167 56 54 194 90 92 212 102 99 194 87 83
179 70 72 185 85 73 168 67 63 89 6 0 68 0 0
107 34 15 128 47 33 145 61 49 171 75 57 162 72 53
133 28 22 124 37 18 117 23 16 145 59 48 145 65 57
77 0 0 55 0 0 143 77 67 134 25 36 148 34 52
162 54 71 138 38 41 117 21 28 143 37 46 145 47 57
115 23 29 106 28 33 129 44 40 119 51 49 103 42 37
88 19 16 67 8 0 73 7 3 79 13 9 57 13 3
55 15 10 55 8 3 55 12 2 45 2 0 45 4 0
42 3 0 33 0 0 46 7 4 35 8 0 40 1 2
37 5 0 42 0 2 46 3 7 43 2 5 49 9 9
33 0 0 58 6 3 49 0 0 65 0 0 137 54 54
180 89 95 215 115 117 255 171 174 235 146 140 183 83 93
172 78 90 192 97 117 226 138 165 255 222 255 255 255 255
255 206 254 232 196 237 225 180 236 255 204 255 225 173 229
209 150 214 241 181 252 229 168 235 210 156 238 225 170 248
214 165 236 221 163 246 224 157 245 213 157 227 217 153 232
213 161 237 217 164 233 196 137 208 225 162 234 253 197 255
255 193 255 242 174 255 213 147 243 228 153 233 249 177 255
249 163 255 255 178 255 220 136 225 168 77 164 134 46 128
134 40 122 159 64 153 218 127 208 132 20 119 148 45 131
147 33 112 135 30 99 145 37 92 141 36 73 138 36 71
142 36 64 129 26 47 135 31 54 142 40 66 156 47 71
162 56 80 168 59 81 165 58 86 171 66 82 160 58 59
164 57 64 161 60 58 159 55 61 153 54 52 157 49 58
158 59 61 174 60 63 167 59 69 164 55 51 160 44 44
149 40 38 155 44 34 153 45 38 157 39 29 158 42 31
156 36 35 157 47 39 173 58 52 177 62 56 177 65 58
172 65 58 175 64 60 177 62 59 189 63 62 182 56 55
180 50 59 177 51 57 183 54 61 185 66 68 188 62 69
192 72 65 171 49 45 187 60 62 188 60 59 184 63 67
196 67 67 210 83 85 221 94 90 228 105 94 245 117 104
249 123 121 198 80 74 166 48 60 176 64 97 149 33 93
194 70 141 255 212 255 209 117 219 171 76 194 190 95 196
177 82 193 255 169 255 215 115 221 104 16 118 133 49 145
132 64 141 128 52 138 128 56 125 121 56 126 108 43 104
92 27 89 80 14 82 84 20 84 68 22 58 72 23 56
78 26 68 75 28 58 64 15 51 68 19 57 67 18 48
70 23 58 72 15 47 72 16 43 70 17 47 71 16 39
71 15 45 71 20 35 71 20 33 73 23 46 52 0 26
83 23 63 57 0 52 67 8 54 100 42 105 94 34 97
84 21 93 96 30 112 81 16 91 82 20 94 99 26 103
98 28 104 146 84 183 137 83 177 147 75 182 151 86 186
156 87 196 157 87 188 170 97 214 199 117 226 166 83 201
195 109 217 168 99 198 176 109 198 255 206 255 255 250 255
255 202 255 53 0 34 113 21 58 144 37 78 194 81 116
243 133 154 255 143 160 254 136 147 196 87 90 142 29 38
98 0 0 126 26 27 160 52 51 193 89 91 211 101 98
195 87 82 181 68 69 189 82 72 165 77 69 94 6 0
69 0 0 110 40 28 128 49 30 139 55 41 149 53 45
133 37 28 126 35 30 128 29 23 116 31 23 140 49 39
135 44 35 67 0 0 73 2 0 139 66 53 230 130 141
229 116 122 219 114 121 198 89 103 176 69 89 151 58 64
122 28 40 112 28 35 124 37 46 111 36 44 104 33 39
87 23 25 81 7 10 72 10 5 76 7 6 82 13 12
57 16 5 53 15 10 61 16 11 53 12 2 49 10 6
48 11 0 45 10 2 39 8 0 39 4 2 40 2 0
33 1 1 35 3 1 36 4 0 35 5 0 39 7 9
52 13 10 27 0 0 52 8 0 29 0 0 43 0 0
101 24 30 150 63 59 189 94 93 230 131 132 255 171 172
215 119 124 214 112 131 171 75 93 141 53 96 255 181 217
255 255 255 255 207 252 255 203 255 223 182 237 241 184 242
224 167 227 216 151 223 230 170 239 218 156 226 212 150 220
227 165 242 231 171 245 239 173 249 236 172 244 221 160 243
222 157 241 214 161 232 216 162 240 235 177 243 205 145 213
182 120 193 213 145 229 255 205 255 255 238 255 253 177 255
183 108 198 209 123 217 155 68 165 135 42 140 132 33 137
134 36 127 177 82 169 190 86 179 143 47 140 138 35 118
154 36 134 146 42 116 147 40 108 141 41 91 143 38 90
137 40 75 131 27 55 160 61 94 164 54 84 163 64 84
167 58 82 157 60 78 159 46 68 140 38 50 135 20 40
160 53 64 160 53 64 164 61 62 164 61 69 167 58 62
172 59 66 180 71 76 186 75 73 185 79 85 178 63 55
157 49 47 154 37 39 162 45 38 170 53 53 166 51 42
162 47 38 155 43 41 163 51 47 174 62 58 177 65 61
172 63 58 186 62 62 179 64 61 182 62 63 193 73 70
187 65 64 186 62 62 198 66 67 203 75 73 203 73 74
197 65 64 190 66 70 175 45 53 201 78 72 214 87 85
188 70 60 173 47 50 186 62 62 206 82 86 209 86 82
239 111 107 233 107 102 185 65 62 165 54 63 180 60 93
161 47 91 183 69 127 255 158 244 195 101 200 211 132 238
245 153 255 209 113 219 255 187 255 228 138 246 110 23 125
140 59 152 150 77 161 147 78 159 133 72 139 127 63 130
117 58 115 119 47 108 106 31 96 87 9 73 81 26 61
82 32 67 88 32 73 84 28 62 82 26 62 74 18 54
76 20 58 80 24 62 79 25 66 78 25 58 82 26 60
81 26 62 81 26 62 81 25 64 81 26 62 85 26 70
62 8 46 99 43 81 70 13 63 97 38 96 115 54 118
92 38 103 134 65 141 171 107 173 125 61 135 134 72 143
114 47 121 96 31 104 138 82 177 144 75 172 149 80 186
146 81 181 151 82 191 160 90 191 174 99 217 182 110 214
198 113 232 196 108 217 167 98 199 186 122 218 255 224 255
255 255 255 234 179 234 18 0 2 121 19 66 150 36 67
197 86 118 245 134 160 255 144 166 252 133 149 204 92 99
157 59 53 89 0 0 128 28 31 159 51 50 189 85 87
210 100 96 192 84 84 184 68 69 195 87 75 183 91 83
98 9 0 60 0 0 116 33 21 150 64 59 165 85 65
169 74 61 141 45 32 137 41 34 133 35 27 124 36 26
144 55 49 117 32 32 58 0 0 62 0 0 113 30 31
255 165 161 241 131 143 220 117 130 200 97 101 191 85 97
139 40 57 104 12 22 103 19 26 132 50 58 113 37 41
87 13 21 75 8 6 71 12 4 73 8 0 83 11 6
79 18 3 70 15 12 63 22 17 66 15 11 60 12 10
56 11 6 50 6 2 47 6 6 48 9 1 40 7 7
42 6 1 38 4 7 35 1 1 39 2 0 40 5 1
40 0 6 38 9 5 46 5 0 42 1 0 40 0 0
31 0 0 72 0 0 115 38 36 177 77 86 197 98 93
255 175 180 244 139 142 234 126 145 171 80 100 140 48 79
214 128 170 255 214 255 255 204 252 255 227 255 241 194 255
235 178 236 223 173 231 221 164 226 216 165 226 226 163 233
220 155 230 237 173 244 239 176 247 254 190 255 243 185 254
234 174 249 224 166 236 218 157 230 215 158 228 252 192 255
255 202 255 255 218 255 255 217 255 255 209 255 255 196 255
255 190 255 255 192 255 255 168 255 178 92 188 114 14 119
93 0 97 117 24 116 193 96 183 209 113 209 166 55 149
135 29 124 155 47 124 154 44 117 150 45 111 157 46 105
141 49 84 135 38 70 124 33 57 129 26 56 130 37 50
144 41 65 145 47 65 157 51 74 150 50 67 154 47 63
155 55 70 129 25 34 140 30 38 145 35 50 145 44 44
148 41 54 159 50 53 168 53 64 172 62 72 177 59 64
161 50 54 157 40 40 149 37 34 158 36 44 167 52 44
177 61 58 172 60 58 186 66 64 182 57 59 172 51 51
166 45 45 166 45 45 172 56 55 197 72 73 199 80 79
211 86 89 205 79 84 210 78 83 212 86 80 219 85 95
212 82 79 202 73 81 196 62 62 190 59 58 216 96 94
220 96 93 186 64 60 173 45 50 195 69 71 211 86 85
204 79 80 193 69 68 202 72 74 187 62 68 192 65 84
196 75 105 172 48 99 168 45 109 192 77 148 201 101 205
255 174 255 255 187 255 173 80 185 214 126 230 224 141 239
118 36 133 136 65 160 145 75 153 156 87 165 151 76 153
130 59 133 120 55 115 115 43 108 104 30 93 88 12 80
93 37 74 91 42 72 99 32 73 97 33 75 90 26 68
85 21 63 89 25 67 87 23 65 86 25 66 85 26 68
89 21 68 88 22 68 88 22 68 88 22 68 88 22 70
90 25 66 74 12 53 85 21 71 73 8 63 91 25 85
71 4 77 96 29 101 210 135 219 232 160 235 63 0 74
101 31 111 123 45 129 140 64 147 147 79 184 150 87 190
152 83 187 148 83 183 152 83 192 171 99 200 177 101 222
183 109 214 213 124 246 186 108 214 165 94 188 209 140 235
255 252 255 255 255 255 185 129 187 19 0 1 130 28 64
142 31 68 188 77 113 245 130 154 244 138 149 241 120 126
191 78 83 164 63 61 96 0 0 124 24 17 162 54 55
192 88 90 205 95 91 198 87 87 178 76 70 203 96 94
151 62 56 82 0 0 63 0 0 113 37 20 144 65 52
170 81 73 185 87 84 175 78 71 125 28 25 128 40 30
134 46 42 133 55 42 113 28 17 48 0 0 68 0 0
104 35 28 183 82 88 174 75 73 159 65 65 155 54 68
154 61 63 119 23 38 96 2 8 106 29 34 127 47 51
103 32 33 74 8 9 67 0 0 67 5 4 83 16 9
83 21 15 82 18 7 62 14 12 62 14 6 60 14 3
54 16 0 50 7 1 45 11 0 42 4 0 42 7 0
36 5 0 40 3 0 37 7 0 36 5 0 35 1 1
38 5 3 39 7 3 40 3 7 49 21 15 38 11 0
30 0 0 31 0 0 39 0 0 86 12 18 162 86 76
168 78 84 255 177 171 248 148 157 231 116 129 196 85 110
183 90 113 166 79 120 206 131 167 255 201 243 255 242 255
255 207 255 244 189 253 244 187 250 239 186 247 232 175 244
233 175 238 233 179 242 240 186 249 244 193 255 255 199 255
255 197 255 243 186 250 230 165 239 225 166 232 229 167 236
213 148 223 241 176 246 252 180 254 195 124 201 97 26 118
74 0 82 167 82 181 255 179 255 255 206 255 255 194 255
255 171 255 223 116 223 199 97 200 212 105 208 188 78 180
159 50 150 120 5 91 135 22 102 123 24 95 129 29 85
130 32 76 120 24 63 112 20 39 102 11 26 90 0 13
91 5 18 106 10 24 111 25 27 132 31 45 145 46 61
151 60 62 170 75 83 129 17 33 145 33 45 148 41 54
156 39 54 151 38 46 165 48 49 173 53 62 174 59 67
183 63 66 186 60 66 184 65 63 168 48 45 158 40 39
152 33 35 162 44 48 172 58 50 192 65 66 185 61 59
185 55 57 177 51 51 173 47 47 179 56 58 196 72 63
196 73 68 214 96 89 212 79 77 214 86 87 224 98 88
234 104 109 246 109 100 228 89 98 217 80 74 197 75 68
227 96 90 223 89 92 184 67 60 194 61 65 218 90 85
226 95 104 208 78 84 205 70 76 197 76 76 205 82 85
223 94 103 222 98 129 193 76 115 191 62 115 166 52 121
199 91 187 255 164 255 255 173 255 171 83 182 187 107 195
216 134 237 109 41 128 154 79 170 134 70 162 151 75 159
145 78 155 134 62 132 115 41 116 101 31 103 110 28 99
100 25 92 106 38 85 104 44 85 102 43 87 100 39 85
89 30 75 88 27 73 85 26 71 89 33 77 93 22 71
92 24 72 90 25 72 91 25 72 90 25 72 91 24 76
90 25 64 83 20 66 115 44 93 94 23 72 103 33 97
95 21 90 61 0 63 172 100 179 255 236 255 244 169 255
255 233 255 255 233 255 255 239 255 255 240 255 149 84 186
155 92 193 158 89 193 150 86 186 158 87 196 167 104 208
185 112 218 194 117 227 183 104 216 178 94 204 178 107 203
215 152 245 255 240 255 255 255 255 137 81 132 19 0 0
130 36 76 138 28 59 179 69 99 225 110 139 229 116 133
200 93 99 182 65 75 161 60 62 110 2 0 138 38 35
165 57 58 195 91 93 206 96 90 194 83 83 174 69 64
207 96 93 135 42 36 84 0 0 73 0 0 109 26 17
108 16 11 100 18 3 120 22 15 108 13 4 117 33 21
111 18 8 112 26 19 126 54 45 102 16 18 56 0 0
75 2 0 117 39 33 177 88 85 156 62 63 153 63 70
140 49 52 144 48 53 122 33 30 113 27 36 132 55 47
111 29 33 97 20 12 77 5 10 71 3 0 76 12 7
82 14 14 79 16 1 79 17 9 65 10 3 62 18 12
59 11 7 59 12 3 54 11 10 48 6 0 47 6 4
48 8 0 47 8 4 42 6 0 35 4 0 36 4 0
39 1 3 37 0 0 41 1 5 29 1 0 51 27 11
37 3 0 44 9 0 37 0 0 20 0 0 68 0 4
163 81 78 164 67 73 255 168 167 255 149 159 219 110 124
199 90 101 209 104 138 160 65 92 167 74 121 255 179 223
255 229 255 255 221 255 255 206 255 245 200 255 255 202 255
233 180 250 243 195 255 246 190 247 247 192 255 247 194 250
255 196 255 253 204 252 255 198 255 248 187 251 232 171 239
248 185 254 163 86 162 153 80 157 128 59 138 122 48 133
93 4 92 44 0 55 54 0 67 71 0 81 226 128 241
239 146 247 255 185 255 255 180 255 255 181 255 255 166 255
179 69 178 89 0 76 115 14 95 127 23 97 125 21 88
121 23 78 120 21 63 112 22 44 103 10 37 90 0 12
134 41 58 126 36 37 125 35 43 123 30 41 123 35 36
131 40 38 134 44 46 134 38 41 167 74 79 173 70 85
174 72 87 168 72 79 180 72 79 173 71 81 189 75 84
187 74 77 205 94 99 213 91 98 224 109 106 207 91 94
181 66 61 161 46 43 164 56 54 175 58 55 179 55 61
190 64 59 196 71 69 203 71 73 195 72 71 201 71 71
196 62 70 191 59 56 207 73 75 196 72 71 208 80 73
224 98 94 248 114 112 248 120 119 246 110 108 242 105 106
213 79 80 218 92 86 207 79 82 200 69 67 206 79 79
233 104 113 233 98 104 218 83 88 224 98 101 212 79 78
210 81 88 214 91 106 204 82 106 203 73 113 193 73 113
194 67 126 173 62 154 214 111 207 255 172 255 255 189 255
255 201 255 255 179 255 130 61 158 172 106 194 167 106 185
165 91 173 150 77 162 144 73 143 131 46 129 113 37 104
110 32 108 113 43 121 110 39 96 115 52 95 121 45 104
108 44 93 108 31 88 95 31 81 100 25 83 104 31 88
98 28 84 97 28 84 101 28 86 96 28 86 101 27 88
96 32 79 100 27 81 92 23 76 124 53 112 93 23 89
124 42 104 94 29 101 114 32 114 255 184 255 255 252 255
249 168 255 255 212 255 255 187 255 230 142 245 183 104 191
145 80 182 160 97 198 159 92 196 157 88 188 153 83 192
168 103 207 191 116 225 193 113 224 170 85 201 201 127 232
222 152 254 229 156 250 255 215 255 255 255 255 119 59 116
14 0 0 148 48 82 133 21 49 173 59 87 212 97 123
204 94 104 187 76 78 173 61 60 154 54 49 137 29 30
148 48 45 177 69 70 194 90 90 207 97 101 189 76 72
173 64 59 183 82 75 140 56 42 73 0 0 73 0 0
114 37 20 131 46 34 134 42 36 121 25 18 87 0 0
122 28 30 102 15 4 99 15 13 110 32 22 83 11 0
58 0 0 90 11 11 117 42 44 176 88 87 156 60 61
147 53 52 128 44 38 101 13 8 103 15 12 109 32 33
119 43 32 91 16 17 89 19 8 77 14 9 72 14 0
79 16 4 86 23 11 87 18 8 70 14 7 80 22 18
69 21 10 73 15 6 66 18 4 61 8 3 63 12 0
49 9 2 51 13 1 38 5 0 37 9 0 39 9 0
37 2 0 31 5 0 33 3 0 36 4 0 32 7 1
51 21 9 21 0 0 42 12 0 31 0 0 10 0 0
58 0 0 148 78 84 165 80 78 230 137 132 252 145 144
238 129 134 207 92 110 206 105 123 187 80 109 174 82 123
174 98 137 255 219 255 255 230 255 255 207 255 255 205 255
250 208 255 239 194 255 248 198 255 239 183 255 247 198 248
240 193 247 246 191 245 252 200 255 255 206 255 255 208 255
246 188 243 248 173 247 255 233 255 255 172 255 179 97 184
132 46 138 105 22 118 113 21 117 157 66 170 204 104 202
172 75 180 146 41 148 139 36 149 166 57 163 202 97 195
255 174 255 255 142 255 142 37 140 121 14 96 140 39 108
136 36 99 132 35 89 134 35 70 117 34 53 114 28 49
106 22 36 112 26 34 113 28 33 117 32 43 122 34 42
124 44 48 123 45 43 129 48 49 122 44 36 150 57 74
138 55 68 149 52 60 139 49 60 135 45 54 143 39 57
139 50 55 145 46 55 148 51 55 169 68 68 186 87 89
187 92 96 184 85 83 171 76 77 179 75 70 174 74 75
184 66 59 200 67 74 214 81 88 216 93 94 223 84 95
211 82 79 209 70 73 206 70 78 209 70 69 198 67 70
202 76 68 221 90 88 242 113 110 250 122 121 241 110 99
234 103 94 223 95 94 216 85 83 205 77 70 202 74 73
218 91 91 224 96 101 234 100 107 225 92 95 226 96 109
207 70 79 200 75 80 202 76 85 187 56 84 178 62 86
209 76 119 192 65 118 194 65 149 174 57 145 236 129 216
255 208 255 255 225 255 255 231 255 184 120 202 247 181 255
239 162 245 191 123 205 161 83 170 173 92 174 165 91 168
136 56 144 124 44 136 150 66 149 118 51 108 124 58 107
129 53 124 119 54 109 113 42 101 102 36 98 109 39 90
104 35 90 117 48 103 110 44 101 121 44 91 108 44 94
121 43 95 108 48 94 119 44 90 118 41 99 98 25 84
96 23 92 116 32 114 83 8 82 183 98 184 255 199 255
210 127 223 167 84 177 85 5 100 103 26 116 110 16 118
89 11 104 143 78 180 156 94 195 168 96 200 143 76 176
147 77 186 170 104 208 191 118 228 180 112 219 150 72 184
226 148 255 255 193 255 243 174 255 255 207 255 255 255 255
137 70 124 13 0 0 143 37 78 126 19 48 168 54 78
200 93 109 209 83 105 183 75 79 175 64 68 167 57 56
156 49 53 165 66 65 181 75 76 205 103 103 215 101 101
178 74 79 161 53 51 182 86 77 139 55 50 50 0 0
40 0 0 154 65 57 250 158 156 255 180 164 229 134 131
195 98 93 92 0 0 78 0 0 79 1 0 99 21 16
78 3 0 53 0 0 77 11 0 127 44 47 181 92 89
138 49 50 145 60 61 121 34 36 73 0 0 96 8 8
129 56 48 146 61 61 83 13 4 89 23 17 87 19 10
83 25 15 80 16 8 82 18 10 73 11 1 68 0 0
75 20 10 73 15 11 67 14 10 61 8 0 54 10 4
47 0 0 59 8 6 65 22 16 39 0 0 44 7 0
35 0 0 34 1 0 34 2 0 32 7 0 38 11 0
36 3 0 46 25 2 22 0 0 39 10 0 33 0 0
0 0 0 52 0 0 173 103 102 160 84 82 198 96 99
245 138 137 255 152 154 218 103 113 202 90 111 223 121 147
212 112 134 100 3 39 255 237 255 255 233 255 255 206 255
255 207 255 247 202 255 224 186 247 255 211 255 225 176 227
240 193 250 236 184 233 228 179 230 247 202 251 255 232 255
255 225 255 255 210 255 255 215 255 255 241 255 255 195 255
209 115 216 147 60 153 153 53 153 171 78 175 185 89 186
164 67 164 232 126 236 129 27 134 141 30 128 99 0 95
109 2 104 255 188 255 255 241 255 212 102 201 72 0 50
129 32 99 141 37 106 131 42 90 128 38 80 127 37 58
121 32 46 126 39 45 77 0 0 96 7 15 104 19 30
110 34 37 110 30 32 99 34 23 96 25 18 100 30 24
77 13 15 86 13 32 81 14 21 85 0 18 69 0 0
65 0 0 72 0 0 73 0 0 46 0 0 79 0 0
128 52 46 173 86 88 181 95 90 182 101 97 177 97 96
164 78 73 220 105 105 207 88 86 203 87 86 204 81 85
219 84 90 219 76 87 221 82 91 225 90 89 218 80 86
194 65 61 202 73 74 208 89 79 230 107 100 233 108 104
214 90 90 201 77 65 224 100 98 207 86 81 202 68 65
206 75 75 217 88 88 217 85 89 216 83 98 224 92 101
224 88 94 190 67 79 209 79 86 215 88 94 186 54 80
186 62 95 211 87 113 189 67 110 242 116 183 167 46 126
173 61 131 217 120 191 245 157 231 255 255 255 255 194 255
255 255 255 255 205 255 209 138 218 155 81 163 184 101 189
187 105 199 142 63 159 115 37 131 148 71 162 123 46 115
125 58 119 135 59 124 126 50 120 127 52 112 120 44 106
104 29 95 93 17 76 123 48 109 117 40 100 113 39 102
114 38 97 113 39 101 116 38 93 116 42 104 111 39 95
131 52 123 156 76 154 132 51 130 60 0 63 245 166 255
255 255 255 126 45 144 86 8 106 138 45 140 140 49 149
140 56 147 147 59 154 148 83 185 150 90 190 159 88 192
162 95 195 171 101 210 172 106 210 175 101 211 157 84 194
217 134 253 255 174 255 255 218 255 222 158 253 255 215 255
255 255 255 82 15 73 78 0 45 136 37 69 142 26 50
169 56 88 200 92 103 191 64 82 147 39 42 154 41 39
150 41 35 165 64 57 147 44 36 176 63 66 195 83 83
186 84 84 193 83 87 183 72 70 173 76 62 107 19 21
56 0 0 82 0 0 141 50 50 151 63 62 206 115 107
239 135 141 185 97 96 170 80 77 161 70 64 109 40 32
73 4 0 47 0 0 51 0 0 98 16 24 116 37 32
142 68 57 138 60 58 123 37 29 97 13 7 114 30 23
127 47 43 115 32 27 79 9 1 74 0 0 71 10 0
69 4 0 78 5 0 83 25 12 89 31 17 100 24 20
88 28 15 91 24 20 89 33 21 93 33 24 87 29 15
94 35 31 92 50 33 76 25 20 38 2 0 59 14 9
46 16 0 52 12 0 37 6 0 32 5 0 30 2 0
28 0 0 23 0 0 27 0 0 32 10 0 24 0 0
29 0 0 34 0 0 22 0 0 94 29 27 209 128 127
172 80 73 243 138 129 255 149 154 233 115 120 202 96 107
203 93 117 205 94 115 184 88 116 166 98 145 255 230 255
255 255 255 251 198 253 255 231 255 254 216 255 198 161 212
255 217 255 238 188 238 243 197 250 255 223 255 255 204 255
235 185 239 255 243 255 255 255 255 255 205 255 168 67 172
214 113 225 230 127 226 229 128 230 198 99 202 166 74 169
153 47 150 131 31 134 197 95 187 143 46 137 76 0 74
183 80 181 179 79 177 88 0 79 199 93 199 255 216 255
151 57 142 163 64 135 106 6 80 103 13 59 123 33 80
116 30 55 100 11 30 119 29 43 121 37 50 111 29 29
98 21 22 82 2 10 77 14 9 67 2 3 49 0 0
38 0 0 15 0 0 20 0 0 21 0 0 17 0 0
20 0 0 18 0 0 18 0 0 0 0 0 81 30 21
41 1 0 19 0 0 45 0 0 120 68 56 117 63 58
100 56 41 145 88 75 153 63 64 201 102 102 240 132 127
218 109 106 200 81 88 203 77 75 219 80 88 210 71 78
222 86 97 250 115 116 221 88 92 229 105 100 237 111 113
232 115 104 240 118 111 189 68 63 222 99 91 213 94 87
215 89 84 212 89 88 212 87 89 223 101 101 234 109 117
245 119 132 243 115 127 225 103 109 197 72 77 173 50 55
179 64 76 187 65 81 190 64 91 182 58 89 178 48 102
188 72 134 198 76 139 184 73 133 146 49 111 147 58 129
255 167 255 255 255 255 255 185 255 205 137 218 149 73 159
137 64 158 170 89 185 206 126 221 197 109 226 159 79 182
136 54 135 142 69 147 156 75 152 141 62 142 103 24 104
102 23 105 138 58 143 152 77 149 136 64 140 152 66 147
152 69 150 160 77 155 155 71 153 151 73 139 142 59 141
139 52 133 163 89 163 68 0 65 96 19 102 255 209 255
255 255 255 243 162 255 144 63 158 141 60 157 126 48 140
132 51 146 126 50 137 123 43 136 148 87 187 166 96 201
166 97 200 158 91 191 145 75 184 156 90 194 184 108 220
179 113 214 240 167 255 247 176 255 240 174 255 210 145 230
255 225 255 255 255 255 92 16 70 78 0 33 150 42 74
144 33 52 176 68 94 206 93 113 188 81 83 171 56 68
165 62 59 182 68 67 121 19 15 141 39 33 182 71 74
203 93 93 177 71 72 161 59 59 150 48 39 149 41 44
130 48 41 71 0 0 88 5 4 146 56 49 167 80 72
198 104 102 201 112 106 152 57 53 141 52 45 147 64 60
125 41 42 92 28 17 66 1 0 55 0 0 85 9 5
111 35 39 124 43 44 114 35 28 97 21 18 86 12 3
109 24 23 131 52 47 123 48 42 107 31 29 77 3 0
83 12 7 80 12 2 80 15 6 91 23 13 94 26 15
93 28 18 94 24 12 79 18 16 90 22 20 85 21 16
80 23 14 85 23 22 83 30 24 70 15 13 41 0 0
64 13 11 55 8 4 43 2 0 40 9 0 30 6 0
32 1 0 31 8 0 33 6 0 32 8 0 34 8 2
28 0 0 25 0 0 17 0 0 20 0 0 91 34 27
168 95 94 182 92 84 241 129 130 255 152 150 235 126 126
219 106 114 203 95 112 201 87 108 189 95 115 189 104 154
255 198 250 255 239 255 255 211 255 244 195 252 240 195 243
220 175 225 215 171 219 251 203 249 231 181 226 221 174 233
223 183 226 224 159 230 156 106 173 100 46 107 108 35 114
148 46 147 190 72 193 215 113 216 208 105 204 179 74 177
150 49 144 136 36 126 122 22 117 200 98 188 157 58 147
105 0 93 132 24 118 167 60 160 137 32 137 181 76 178
255 180 255 194 98 183 144 58 137 131 33 100 121 26 85
137 44 86 137 49 75 113 17 43 112 29 38 106 10 32
96 13 28 91 9 15 85 19 20 76 15 20 70 13 19
58 10 0 44 7 4 31 3 1 27 0 15 32 5 6
23 5 8 24 2 0 24 0 0 19 0 0 22 0 0
27 10 0 51 28 17 54 26 11 49 8 2 62 32 20
102 56 57 114 73 63 130 80 73 111 38 33 164 79 74
193 112 108 207 112 116 208 99 98 215 92 102 213 88 90
206 77 83 213 85 86 213 81 84 206 84 88 207 81 80
209 89 88 213 86 82 216 104 97 199 87 80 217 92 92
216 91 82 208 86 80 206 87 73 213 82 88 222 95 97
232 100 113 231 110 120 244 120 127 221 99 107 204 80 89
197 68 82 184 64 67 192 67 91 191 73 84 190 60 91
220 89 131 199 75 126 190 59 115 170 59 105 163 53 115
182 86 141 255 163 234 255 235 255 255 239 255 255 185 255
237 164 247 238 166 255 231 149 246 190 112 213 157 79 190
149 58 168 120 32 123 121 50 130 147 60 153 140 56 138
119 35 129 127 43 127 154 70 158 164 80 173 147 59 144
155 71 157 155 71 159 138 54 138 139 55 140 150 65 156
156 68 158 143 57 137 78 3 82 182 103 187 255 190 255
255 243 255 255 238 255 249 167 255 173 91 186 164 81 183
127 41 138 133 55 149 134 47 134 127 53 132 161 92 196
150 84 187 151 82 185 152 85 185 167 97 206 191 125 229
222 146 255 239 171 255 247 171 255 232 158 255 197 131 217
216 139 227 255 255 255 255 235 255 85 8 66 89 3 50
147 40 74 149 34 59 172 66 87 195 81 103 185 73 73
173 61 65 176 67 60 174 75 66 124 19 17 162 60 54
218 107 110 228 118 118 188 82 83 159 55 56 151 44 37
140 48 41 127 42 44 78 1 0 93 8 11 147 59 56
166 73 75 183 94 95 177 88 89 138 45 48 106 11 10
116 38 37 120 50 39 99 27 26 56 0 0 37 0 0
71 0 0 102 27 33 125 54 45 97 14 8 71 0 0
81 5 3 119 37 32 136 63 57 121 38 28 97 26 13
79 4 0 80 11 0 80 16 7 87 19 8 100 28 25
99 30 22 103 34 33 103 37 35 90 21 10 99 28 20
97 29 18 86 25 10 86 21 15 92 32 19 76 18 10
52 0 0 56 8 2 51 10 0 47 10 0 43 2 0
42 5 0 32 11 0 34 9 0 36 11 0 36 4 4
40 7 9 29 0 0 31 0 0 22 0 0 15 0 0
60 11 0 129 60 59 186 90 88 212 114 102 255 144 143
255 146 136 230 117 129 198 87 95 200 84 89 202 96 111
183 79 135 194 107 162 255 175 222 255 219 255 255 212 253
255 213 255 255 225 255 253 220 255 234 198 253 255 224 255
255 225 255 255 243 255 255 242 255 220 145 222 127 55 150
157 76 170 152 49 163 166 54 164 166 60 163 186 78 183
208 103 198 201 92 191 176 72 163 139 28 123 182 86 169
173 74 158 126 30 121 89 0 78 135 34 123 131 31 123
131 29 130 255 178 255 255 161 255 147 59 140 136 42 112
124 34 103 127 39 79 139 59 90 114 19 51 107 17 28
81 0 12 91 8 20 84 13 25 76 10 23 72 18 17
58 12 8 40 2 0 34 6 0 9 0 7 16 0 1
14 5 5 12 4 3 13 0 0 6 7 0 6 1 0
2 3 0 0 0 0 24 11 0 47 38 24 33 15 11
25 1 0 71 41 28 121 100 88 151 128 116 72 18 12
91 34 30 111 45 33 152 74 73 210 119 115 230 136 138
212 103 109 170 56 69 226 101 113 201 79 85 217 98 97
229 94 98 188 72 75 196 77 73 210 88 87 209 88 88
210 94 95 215 90 87 210 89 80 206 87 75 214 90 94
219 98 101 225 101 102 229 102 107 251 124 134 238 113 127
228 103 100 201 85 91 195 76 83 188 71 81 205 72 96
198 81 89 207 83 119 197 82 112 198 76 110 190 68 104
188 54 115 185 66 112 209 92 154 219 112 175 255 177 243
255 206 255 255 246 255 255 226 255 235 153 255 217 136 235
196 107 214 150 58 171 159 67 183 157 70 177 165 74 185
153 63 164 128 38 152 126 36 142 149 60 160 145 57 163
160 68 166 157 66 169 158 67 165 158 66 169 159 68 173
149 66 156 160 57 159 140 57 145 82 3 88 253 179 255
255 255 255 251 176 255 164 84 186 143 64 159 140 59 161
129 49 140 133 53 136 123 56 138 133 50 127 118 48 122
185 118 221 151 85 188 135 66 169 165 101 200 214 144 253
239 173 255 249 170 255 238 170 255 191 115 223 202 128 235
168 102 189 236 166 250 255 255 255 252 177 235 74 0 42
114 25 68 126 24 53 144 32 52 180 63 81 182 77 86
171 56 64 165 62 54 176 65 63 154 52 45 160 55 53
191 89 83 251 140 143 254 144 144 212 106 107 189 85 86
183 73 67 187 92 86 84 1 0 69 0 0 101 10 6
150 64 63 169 75 79 182 90 88 177 83 83 153 67 61
64 0 0 110 28 23 111 36 37 82 18 6 43 0 0
43 0 0 97 24 33 135 63 66 170 96 97 104 33 28
75 0 0 90 8 5 118 44 35 125 45 42 95 28 12
67 0 0 89 14 4 84 17 2 94 20 16 95 32 19
100 34 27 110 38 29 107 40 35 122 40 43 102 31 21
110 35 30 99 28 24 99 29 21 99 32 28 103 33 30
79 18 19 61 3 0 66 9 8 57 10 2 57 10 9
44 10 0 39 8 0 40 9 0 37 9 0 35 11 0
39 10 7 36 5 3 32 0 0 31 6 1 31 0 0
6 0 0 51 0 0 104 35 23 173 89 85 195 89 83
250 134 132 255 155 151 234 129 129 194 90 88 192 69 71
219 106 116 187 81 129 138 38 100 167 82 127 255 190 228
255 242 255 255 235 255 255 233 255 255 253 255 255 231 255
255 255 255 254 202 255 190 125 201 177 107 186 182 106 204
177 89 190 185 98 201 195 82 196 168 54 160 135 22 136
141 31 136 170 66 161 196 95 182 184 75 165 149 54 135
169 68 155 169 67 154 183 79 163 104 11 95 114 16 106
124 24 112 111 9 104 253 159 255 255 188 255 137 44 138
131 41 117 126 38 95 102 18 68 133 41 75 102 19 44
89 2 28 100 11 29 95 14 24 92 12 34 83 23 27
68 19 25 49 8 12 38 2 0 19 0 0 6 0 0
4 4 5 2 0 0 0 3 2 0 0 0 4 2 0
0 3 0 0 0 0 4 3 0 0 0 0 24 12 2
50 37 31 20 3 0 29 6 0 89 69 59 148 114 111
125 90 82 82 43 32 42 0 0 64 12 8 152 81 77
228 146 150 242 145 147 230 136 133 200 87 94 185 70 72
215 91 94 213 99 102 204 77 77 208 86 90 202 82 87
202 80 81 217 95 101 205 89 90 210 86 83 210 90 88
212 86 81 221 98 94 226 96 104 218 100 104 248 122 139
243 118 117 226 109 114 218 96 100 192 76 82 197 67 81
196 75 76 213 83 106 174 58 78 192 68 97 212 84 116
219 91 130 217 80 118 190 68 114 177 55 106 149 40 93
148 53 101 211 125 187 255 235 255 255 255 255 255 187 255
215 142 235 209 112 221 179 90 196 164 69 185 161 75 183
165 78 187 163 76 188 146 59 166 155 69 183 181 92 200
181 93 195 192 105 213 151 64 164 145 56 164 170 88 182
176 83 186 154 62 162 164 75 175 178 87 193 235 158 240
255 230 255 255 205 255 145 63 165 84 1 97 129 44 146
146 63 155 125 53 145 124 51 135 127 51 121 115 43 117
120 49 107 194 127 230 162 96 199 157 94 195 201 122 226
229 162 255 229 160 255 197 133 241 186 113 219 166 88 199
192 118 220 176 110 198 253 186 255 255 245 255 145 78 136
60 0 30 136 44 95 134 24 45 152 43 62 190 77 99
189 73 92 173 60 68 178 73 68 177 66 64 141 39 32
165 60 58 183 81 75 229 118 121 234 124 124 203 97 98
195 88 90 178 83 72 193 93 88 63 0 0 68 0 0
102 8 17 151 65 58 162 76 74 176 90 89 167 81 80
141 51 51 110 21 22 132 50 43 120 47 40 82 11 13
51 0 0 66 5 1 137 67 71 187 119 117 204 124 122
125 53 46 80 7 5 93 23 14 127 49 40 115 36 30
77 3 0 68 0 0 90 16 11 86 22 14 95 25 17
105 35 24 108 40 31 117 37 38 120 46 51 120 49 44
116 30 29 126 46 36 117 42 39 115 43 35 117 42 38
113 50 34 98 28 25 78 18 5 60 3 0 68 24 7
56 12 3 50 15 0 43 11 0 37 9 0 38 11 0
40 17 2 32 0 3 39 6 9 30 8 8 40 7 6
33 9 0 15 0 0 47 5 0 96 30 15 170 77 77
168 69 59 222 116 114 255 148 146 240 123 120 192 86 77
195 79 70 214 91 103 214 82 131 162 43 92 140 29 77
193 104 146 255 212 253 255 249 255 255 229 255 255 218 255
255 239 255 255 227 255 224 170 246 132 62 138 93 2 100
146 48 147 191 90 201 171 69 185 137 25 128 155 45 142
143 44 145 125 21 113 106 5 97 103 0 84 118 22 109
136 39 117 156 55 137 129 33 115 212 116 194 162 65 145
104 0 96 101 11 101 113 21 105 203 105 199 255 192 255
143 44 140 128 35 122 131 39 109 109 17 73 116 26 71
109 20 49 97 16 33 109 30 49 105 33 43 105 32 55
83 30 35 69 21 28 41 10 10 29 5 0 22 2 8
0 0 0 1 0 0 9 0 2 1 0 0 6 0 0
0 0 0 0 0 0 0 0 0 20 15 0 0 0 0
20 4 0 39 20 8 9 0 0 10 0 0 45 16 12
47 20 17 139 109 107 104 69 59 72 33 31 66 21 12
87 37 32 139 90 90 225 154 159 255 229 231 175 87 90
182 90 91 184 74 80 188 78 88 201 85 91 202 85 88
201 89 92 204 79 82 211 99 95 212 92 90 212 88 81
211 91 87 215 89 86 221 96 95 224 104 110 222 99 98
242 116 120 231 114 119 230 107 118 213 98 91 204 76 84
191 73 71 194 69 74 206 76 81 178 60 80 184 66 83
192 66 82 201 66 98 212 72 109 209 81 118 208 80 114
199 80 123 148 43 86 148 53 98 246 152 213 255 246 255
255 210 255 226 147 224 209 125 205 209 129 225 167 83 193
172 88 198 171 87 195 168 83 196 156 71 177 165 82 181
194 102 207 183 96 192 179 92 194 165 77 173 158 74 167
170 84 174 180 96 187 197 113 212 224 130 232 223 136 229
255 240 255 255 191 255 186 108 201 114 30 129 128 56 151
160 89 174 148 74 170 117 43 121 123 46 123 115 48 121
113 46 100 109 39 100 154 87 190 152 89 191 183 105 211
217 144 246 212 145 253 186 117 222 168 99 208 165 100 207
173 103 209 216 138 243 194 128 216 255 198 255 255 196 255
63 0 36 72 0 40 141 46 96 149 46 68 179 65 87
214 102 116 214 100 111 190 77 82 195 90 88 187 76 75
149 47 42 121 16 15 147 45 39 178 67 70 182 72 72
165 59 60 176 67 70 161 62 50 141 54 40 87 0 0
81 2 1 109 17 20 150 59 67 166 77 73 166 76 75
154 64 63 122 30 29 152 63 60 146 65 65 115 37 43
71 1 0 37 0 0 59 9 0 131 64 68 175 111 113
181 109 114 117 39 41 85 8 3 114 42 42 142 59 58
111 34 24 78 5 0 87 10 5 89 18 10 100 21 16
97 34 21 105 37 32 117 38 41 116 45 39 117 41 47
127 45 44 125 46 40 131 52 45 142 60 58 146 60 61
140 70 61 137 62 58 114 47 41 94 28 20 72 14 8
66 21 9 69 15 11 54 16 4 54 10 5 35 12 0
37 12 0 34 13 0 36 0 0 31 3 14 30 3 1
35 10 5 34 14 5 20 0 0 54 5 0 87 27 24
156 71 64 154 49 43 199 88 80 235 125 120 218 108 101
200 82 88 202 80 71 212 88 89 201 69 104 217 86 140
169 55 97 143 42 88 242 153 193 255 255 255 255 243 255
238 196 247 189 136 208 165 112 183 181 104 188 169 91 186
138 43 147 150 51 158 174 68 185 164 61 170 129 15 118
152 48 145 161 52 149 154 50 143 131 22 111 108 12 99
106 9 83 98 0 80 130 37 117 104 9 86 201 102 185
221 121 206 107 16 100 85 0 80 123 28 117 126 27 124
255 208 255 160 58 164 121 30 112 144 49 123 128 41 96
104 25 65 116 38 68 112 28 52 123 43 62 119 38 56
102 41 53 91 29 41 56 17 24 33 9 7 27 1 8
23 0 3 0 0 0 6 0 8 0 0 0 2 0 2
2 0 0 4 0 0 3 0 0 0 0 0 12 1 0
17 9 0 28 15 0 15 0 0 10 0 0 33 12 8
54 21 14 29 7 0 13 0 0 68 43 42 138 100 103
123 88 88 67 26 22 52 10 0 134 75 73 186 129 122
255 187 187 252 173 166 199 99 108 179 76 80 210 105 110
204 96 95 215 93 103 197 85 86 211 89 91 210 91 94
215 91 92 213 93 87 218 92 89 221 96 96 221 100 102
228 103 105 218 101 108 222 100 108 220 102 98 214 97 99
208 84 86 200 73 74 195 66 73 197 71 83 200 76 85
194 74 90 198 69 92 189 60 80 201 75 92 223 83 117
219 92 124 213 87 120 195 81 116 178 60 105 172 78 131
185 94 144 182 100 165 254 171 247 255 206 255 241 171 255
171 96 193 179 97 204 172 90 196 160 83 174 147 69 166
152 74 168 164 91 185 141 56 158 202 120 211 242 159 255
255 198 255 255 184 255 255 202 255 255 242 255 255 228 255
255 205 255 231 148 244 178 99 193 108 30 120 107 23 122
143 67 166 142 67 159 110 32 124 100 22 111 118 48 123
113 45 102 110 41 89 106 40 85 136 69 172 143 81 183
181 106 209 206 133 233 197 130 237 168 99 203 171 102 211
185 121 226 186 112 220 220 152 252 213 146 235 255 218 255
246 177 232 26 0 8 98 3 68 130 31 74 158 47 76
191 80 103 236 125 142 227 112 128 202 88 99 205 100 89
186 72 71 135 33 20 105 0 0 136 34 30 174 60 66
176 64 64 160 50 53 161 64 56 157 52 51 126 35 29
94 4 11 86 10 18 119 27 28 153 60 68 147 68 64
152 71 67 136 55 51 118 34 27 150 59 64 140 60 53
101 24 25 56 0 0 42 0 0 65 13 10 112 41 49
137 71 71 139 62 66 77 16 10 77 2 0 134 61 59
153 72 67 101 19 19 70 0 0 95 18 13 87 16 8
98 25 17 109 33 30 116 45 35 117 42 43 115 45 40
125 43 52 116 44 42 132 48 47 142 61 59 153 70 69
166 84 79 160 87 85 163 88 80 125 56 55 111 44 38
72 12 11 83 29 19 71 25 18 52 19 5 51 12 6
44 14 0 37 4 0 37 4 0 37 13 16 31 0 8
27 0 0 38 9 3 35 10 1 13 0 0 43 0 0
86 18 15 165 72 65 134 33 27 172 68 57 204 91 82
202 89 78 205 86 86 226 93 88 215 86 87 193 67 99
214 89 126 205 88 121 157 48 89 169 78 129 255 177 239
255 211 255 200 135 215 213 141 226 180 97 198 172 81 189
205 110 223 195 90 208 161 62 170 148 50 167 176 78 194
149 46 134 143 41 131 135 38 128 139 40 129 156 56 143
159 60 140 140 34 122 118 22 98 122 22 100 106 7 91
171 69 154 245 142 228 161 67 156 93 0 77 139 43 132
70 0 57 255 207 255 181 83 183 95 3 82 142 56 119
151 68 120 104 28 58 129 49 74 107 34 57 115 41 56
109 36 57 101 36 52 75 14 34 45 9 16 23 0 3
22 0 3 13 4 1 0 0 2 6 0 12 8 0 2
8 0 6 8 0 0 6 0 0 10 3 0 11 4 0
0 0 0 28 20 0 26 6 0 15 0 0 32 10 0
57 34 31 71 37 26 69 46 41 0 0 0 43 7 3
96 64 62 114 84 81 82 56 55 44 8 9 45 12 5
9 0 0 246 181 185 255 204 207 192 100 106 181 90 92
242 133 139 213 106 109 225 113 123 217 99 105 206 82 87
211 91 95 215 89 85 213 91 83 217 89 87 222 96 97
224 96 102 230 106 109 207 90 99 213 93 103 210 94 93
208 94 91 212 89 89 208 86 92 208 74 73 196 63 75
209 69 85 211 77 105 204 78 93 201 74 94 204 76 101
207 86 104 205 77 96 186 65 89 210 77 114 201 77 110
182 64 113 109 1 61 88 4 67 227 151 220 255 255 255
255 226 255 193 113 193 190 128 201 187 122 194 197 129 205
197 129 205 219 152 231 246 173 255 242 157 249 255 203 255
255 234 255 255 255 255 255 250 255 255 250 255 255 252 255
255 229 255 255 210 255 185 120 192 192 110 202 148 71 158
146 60 165 144 76 161 122 44 142 104 29 120 128 52 129
111 42 110 111 39 103 101 34 86 104 39 72 177 113 213
157 91 188 165 92 201 200 128 231 197 133 237 173 107 210
161 98 199 191 114 226 161 92 195 208 141 240 216 149 235
255 241 255 255 219 255 52 0 29 126 40 89 107 9 59
153 46 73 189 81 100 243 126 147 237 130 136 220 110 111
213 104 99 176 77 72 110 3 0 137 30 29 158 51 46
190 87 81 193 84 91 169 68 61 177 71 76 160 60 54
143 44 42 73 0 0 97 7 11 97 8 16 135 51 44
161 74 67 158 67 72 153 60 57 131 52 54 146 57 58
134 48 48 101 22 24 61 0 0 70 9 8 90 34 34
120 61 58 145 78 77 101 27 28 62 0 0 63 0 0
145 75 70 172 92 87 95 17 15 67 0 0 85 10 4
79 8 0 90 17 9 107 38 32 115 41 38 128 45 44
117 42 39 117 44 38 108 30 32 139 56 55 143 60 51
167 78 73 171 95 86 190 113 108 188 108 105 152 81 75
147 76 75 80 25 13 90 36 32 84 37 34 69 25 12
52 17 7 43 5 0 35 10 0 36 9 0 53 19 20
35 0 8 16 0 0 29 6 7 35 11 0 12 0 0
43 0 0 83 29 11 179 89 87 133 37 34 176 62 63
207 101 85 207 92 84 207 90 82 227 97 90 214 82 76
220 92 115 177 47 85 215 94 127 202 86 126 113 9 56
177 90 143 255 165 240 171 101 176 217 135 230 207 119 220
179 75 188 206 102 218 225 126 242 146 47 159 109 11 123
137 39 151 117 22 113 129 28 112 123 22 107 110 8 90
102 0 87 126 24 110 153 65 143 189 96 170 104 11 85
112 20 97 135 40 120 255 182 255 194 93 183 91 1 91
163 65 148 51 0 49 255 220 255 188 86 189 58 0 52
128 36 111 176 94 151 105 18 59 122 50 78 96 14 47
101 34 45 106 43 57 100 40 54 75 25 37 40 0 10
14 0 0 12 0 0 18 0 0 10 0 2 4 0 0
10 0 1 9 0 2 8 0 0 12 0 0 7 4 0
11 0 0 22 9 0 24 0 0 0 0 0 7 0 0
46 15 9 30 6 0 31 0 0 72 37 35 181 148 148
43 14 21 0 0 0 31 8 0 117 97 94 125 96 94
61 24 27 0 0 0 115 71 68 254 193 195 161 87 92
204 118 124 255 190 193 215 107 111 245 134 142 238 131 138
178 55 67 206 83 81 215 92 96 210 90 90 220 94 85
223 99 100 229 108 101 232 108 111 202 77 80 208 85 85
218 94 98 221 98 98 225 102 101 221 94 94 212 78 84
208 72 81 197 59 81 205 71 89 194 68 79 178 52 69
188 65 72 213 85 102 225 99 117 216 84 109 212 76 106
167 40 72 205 80 119 204 92 131 126 27 82 180 95 153
255 240 255 255 255 255 255 240 255 255 205 255 255 194 255
254 190 255 255 184 255 255 228 255 255 255 255 255 255 255
255 232 255 244 181 255 215 141 217 200 139 214 171 103 179
133 67 139 145 80 147 198 135 203 255 184 255 255 194 255
255 179 255 221 144 232 187 100 203 130 58 146 101 27 108
123 46 130 109 41 101 108 38 95 105 40 76 100 31 73
161 90 198 178 111 217 199 123 229 188 116 225 176 102 216
183 109 223 191 120 237 196 117 234 199 127 239 205 135 239
251 172 255 255 255 255 163 94 165 33 0 12 134 47 98
123 26 73 142 27 53 198 82 90 235 124 131 207 83 95
161 53 48 180 71 68 168 64 59 121 21 16 73 0 0
164 62 56 216 116 107 207 104 96 190 84 87 193 87 88
183 78 88 202 103 121 65 0 0 70 0 0 150 59 54
183 91 86 153 63 65 157 63 68 150 58 76 142 48 60
135 44 57 128 48 54 124 51 53 79 12 17 37 0 0
77 9 10 106 44 52 98 24 29 99 28 34 69 0 0
132 59 57 159 79 77 107 28 19 83 4 0 80 0 0
81 10 6 124 55 45 111 40 32 116 39 34 118 39 35
106 29 17 120 31 29 128 41 31 147 55 46 131 40 31
156 71 66 182 99 91 173 96 84 163 79 79 132 67 52
96 21 20 57 0 0 69 6 0 64 5 0 49 0 0
39 0 0 40 10 0 30 8 0 18 1 0 15 0 0
0 0 0 30 0 0 17 0 0 18 0 0 25 0 0
24 0 0 36 0 0 37 0 0 107 34 36 119 40 30
128 33 28 123 14 7 166 54 52 232 109 113 234 109 100
197 72 68 193 64 71 200 83 99 186 62 85 165 37 68
148 35 74 130 16 64 111 0 61 127 16 83 120 20 93
138 37 129 234 130 221 193 91 198 209 114 212 219 126 228
87 0 105 108 15 110 116 22 106 125 36 107 106 15 95
85 0 69 78 0 66 66 0 49 76 0 53 102 10 83
163 71 140 160 69 139 159 66 147 119 23 110 255 195 255
150 66 146 92 0 94 101 7 94 255 198 255 209 115 204
120 21 108 144 52 123 109 19 90 110 36 87 121 40 88
94 28 57 100 36 66 80 17 28 31 0 0 29 0 0
35 1 0 46 9 6 31 0 0 2 0 0 18 0 0
3 0 0 17 0 0 16 0 0 15 0 0 17 0 0
16 0 0 25 2 0 15 0 0 12 0 0 22 0 0
21 2 0 20 8 3 29 3 0 32 14 3 0 0 0
84 49 62 129 90 106 130 103 109 38 0 7 0 0 0
54 20 17 99 57 55 35 0 0 24 0 0 129 95 82
136 82 75 66 7 0 172 88 94 255 182 182 238 138 146
234 119 124 232 119 128 208 96 99 197 83 81 210 100 102
225 107 102 211 99 95 201 84 81 205 78 86 255 148 147
226 96 105 182 56 61 185 59 65 208 82 88 223 99 107
210 83 83 178 55 59 198 77 71 187 74 78 195 75 72
199 75 79 198 69 80 196 68 82 193 66 72 197 77 82
202 62 83 231 98 114 253 120 149 252 127 161 228 118 154
152 47 85 174 78 116 255 196 236 255 247 255 255 234 255
255 217 255 255 247 255 255 255 255 255 233 255 205 153 225
252 200 255 222 167 242 197 129 213 149 77 167 153 63 165
160 72 188 155 70 178 142 57 163 143 60 171 101 16 129
138 53 172 157 71 173 134 58 150 114 33 114 103 32 104
114 39 109 113 48 104 111 42 94 108 39 84 103 38 69
104 42 69 168 99 205 174 108 209 189 115 233 189 114 235
189 115 241 180 107 225 194 117 231 183 110 225 207 123 241
204 129 231 255 191 255 255 242 255 158 93 154 39 0 28
131 39 94 121 28 66 161 44 70 204 90 99 243 131 145
223 105 108 176 67 66 191 82 79 174 67 63 122 24 18
79 0 0 156 56 50 208 106 97 194 88 79 176 73 80
174 76 82 170 69 86 190 95 104 72 0 0 80 0 0
137 50 45 162 74 65 148 55 64 155 66 71 143 45 60
142 44 67 126 39 42 122 42 53 110 29 48 69 0 5
44 0 0 74 9 24 108 41 42 88 30 26 115 41 45
67 0 0 134 50 61 158 76 72 121 37 41 96 11 8
86 7 2 92 9 8 115 39 33 107 40 30 111 36 33
112 36 23 113 33 30 120 36 17 138 41 35 143 48 35
150 57 52 162 72 62 160 79 67 157 75 61 139 60 45
132 55 46 110 32 19 94 19 10 83 13 10 76 17 3
62 1 3 51 7 0 48 3 0 36 14 0 35 20 0
41 22 15 16 0 0 31 0 1 21 0 0 19 0 0
34 6 4 19 0 0 38 0 0 50 7 6 112 51 41
132 52 53 139 54 36 139 35 34 173 51 48 208 95 94
223 106 92 212 81 83 191 73 84 205 81 97 194 76 89
175 58 78 173 47 79 175 47 94 172 58 104 173 55 127
127 14 93 131 23 106 158 57 153 136 47 131 194 99 194
228 133 232 126 37 143 63 0 79 137 42 123 117 26 100
98 5 81 101 12 80 123 33 106 119 28 98 105 17 80
101 13 76 119 31 100 165 79 146 196 107 186 160 69 153
255 171 251 148 53 146 102 12 101 78 0 86 255 180 255
185 87 178 50 0 45 129 45 126 179 95 160 141 58 117
112 36 82 87 13 53 99 33 67 78 21 37 53 8 16
49 0 7 44 8 10 41 10 5 31 0 0 24 0 0
27 1 0 21 0 0 20 0 0 17 0 0 18 0 0
18 0 0 30 0 0 20 7 0 25 0 0 24 0 0
26 2 0 26 2 0 26 2 0 35 14 13 33 13 9
27 8 14 44 13 19 53 22 28 69 33 45 71 30 43
52 17 13 64 29 24 79 48 47 61 25 13 23 0 0
123 87 77 115 73 65 73 25 13 147 74 76 220 135 135
229 129 140 230 123 131 235 124 132 226 107 107 205 93 101
215 100 97 212 104 107 209 93 87 208 90 90 213 92 85
227 100 105 216 97 94 224 98 103 229 101 105 226 100 108
215 93 91 210 86 87 213 85 88 188 82 76 193 88 77
195 71 69 193 70 73 197 74 82 210 75 81 217 89 102
222 85 93 225 92 107 229 95 115 242 103 119 242 108 136
217 94 121 177 67 99 194 82 116 224 136 168 255 184 225
255 253 255 255 251 255 251 193 243 241 197 248 233 189 241
187 149 206 165 117 176 193 133 215 192 117 204 187 110 216
202 120 229 212 118 229 191 96 219 176 81 204 178 80 202
144 56 176 170 81 187 165 83 187 152 70 159 131 54 130
121 52 123 118 46 108 108 37 100 112 46 94 108 41 83
103 41 68 103 37 62 183 114 225 180 114 222 194 120 232
189 115 231 192 119 242 189 117 232 195 119 237 176 107 211
215 138 247 198 124 228 255 221 255 255 228 255 111 42 108
44 0 14 123 33 77 129 35 66 152 48 68 210 90 104
244 129 146 212 103 108 173 62 61 184 73 71 158 62 51
100 0 0 86 0 0 154 52 46 202 93 90 189 83 77
171 68 71 172 73 80 173 73 86 201 101 117 82 0 0
95 3 12 144 55 56 167 75 79 148 58 63 153 65 74
142 47 55 133 38 54 134 42 59 127 46 49 98 30 36
60 2 9 45 0 0 69 10 18 91 38 38 90 27 29
108 34 41 81 4 3 135 55 63 156 76 71 112 30 31
98 15 11 88 12 6 95 16 14 124 54 46 114 37 32
110 37 33 109 33 22 110 31 28 123 40 25 142 49 44
144 51 42 152 68 54 149 64 53 160 68 59 140 58 46
132 55 38 127 46 34 115 31 15 109 27 22 82 0 0
79 3 0 60 0 0 43 0 0 35 0 0 41 0 0
39 0 0 35 13 0 32 0 0 40 8 16 28 3 6
24 0 0 33 8 4 30 0 0 35 0 0 50 1 0
104 42 31 129 48 43 150 58 55 131 33 25 147 31 24
184 70 65 212 87 88 209 85 84 195 77 82 210 85 100
197 80 92 180 60 87 169 45 76 166 51 93 168 55 107
158 49 104 169 57 133 135 33 104 120 16 98 140 38 128
227 136 225 255 213 255 202 111 208 30 0 38 92 5 82
107 23 98 115 30 105 123 37 107 130 43 120 103 23 89
100 7 80 116 26 96 122 33 108 176 83 164 192 102 178
162 69 152 255 191 255 215 121 210 119 27 117 37 0 40
135 39 137 243 144 239 120 26 114 114 23 111 139 48 119
116 33 104 119 44 101 80 14 52 82 15 49 67 17 44
66 7 29 47 10 23 49 8 9 47 16 20 39 11 10
36 6 0 31 5 16 33 8 13 28 4 7 31 4 9
26 2 4 30 5 10 33 2 9 36 13 17 23 0 0
27 0 7 27 0 5 26 0 6 27 0 5 29 2 9
33 6 11 36 10 14 12 0 0 0 0 0 33 1 9
69 36 39 62 31 41 42 11 16 55 22 27 80 56 48
13 0 0 74 39 37 79 38 34 51 0 0 90 16 21
165 79 82 220 120 134 242 143 155 241 120 127 225 107 105
209 96 101 213 95 89 210 87 91 202 86 83 215 91 89
211 93 88 226 104 107 228 101 104 255 118 127 246 121 127
212 93 90 186 60 62 188 61 67 210 96 97 190 74 72
203 74 79 203 76 87 208 80 86 218 79 94 217 86 96
224 86 96 221 90 106 220 81 92 227 84 109 212 76 106
218 88 111 226 98 130 204 81 115 190 81 102 180 82 121
153 66 113 254 174 227 255 218 255 250 185 235 225 155 223
214 163 220 185 124 197 151 93 176 201 124 222 199 121 222
221 138 248 241 145 255 220 132 245 187 99 214 162 76 179
162 78 186 138 50 163 148 59 170 137 60 155 128 45 135
130 51 128 130 60 131 123 47 111 104 38 96 109 41 90
105 36 79 100 36 64 100 38 58 194 125 234 187 121 227
190 116 228 195 120 241 195 121 237 198 125 247 195 118 230
171 101 209 229 151 255 197 121 226 255 252 255 255 181 255
65 1 53 50 0 23 113 25 62 126 34 55 174 68 89
206 99 115 255 142 145 220 108 116 180 67 67 187 74 71
156 53 52 93 0 0 86 0 0 152 55 58 199 99 90
182 80 87 171 63 71 178 76 86 185 81 100 200 109 125
103 3 21 115 22 34 164 73 82 173 85 88 154 62 76
165 76 83 142 43 62 136 42 53 144 52 62 135 47 62
100 30 41 66 0 7 66 0 11 81 20 23 96 35 46
94 25 35 104 32 32 80 4 3 152 67 75 150 71 66
105 23 24 92 11 6 99 14 13 97 17 14 143 64 56
111 38 32 105 34 30 104 30 18 112 33 30 125 42 27
147 52 48 148 57 47 143 49 44 150 65 55 155 67 58
160 72 65 160 69 63 156 65 57 147 53 49 137 57 42
129 35 37 117 35 19 94 13 17 74 5 0 50 0 0
26 0 0 17 0 0 11 0 0 19 0 0 24 0 0
16 0 0 14 0 0 27 0 0 20 0 0 34 0 0
51 0 0 83 29 13 116 46 38 158 62 53 146 42 37
137 26 27 158 49 40 189 76 66 189 67 70 195 79 81
200 80 88 199 84 96 184 65 78 166 53 86 170 56 87
162 46 99 151 47 99 171 70 128 148 49 114 109 9 85
123 26 106 179 85 171 236 155 239 248 155 252 140 55 146
100 7 82 134 46 124 127 38 110 120 30 111 123 32 106
104 20 83 106 11 88 116 24 98 115 24 93 132 37 113
107 15 96 81 0 66 207 116 205 229 135 224 222 130 220
219 125 222 161 63 157 255 179 255 92 6 91 111 20 105
139 56 136 73 0 62 82 9 74 86 15 71 65 2 46
65 10 47 64 17 45 60 15 27 59 19 42 50 11 21
53 13 21 48 13 24 49 18 24 38 18 21 46 7 26
33 13 14 40 1 20 32 12 13 45 8 26 38 18 19
36 2 19 35 4 8 34 3 19 31 0 4 31 0 16
33 2 6 33 2 18 38 2 10 42 14 27 2 0 0
18 0 0 51 25 27 36 3 10 17 0 0 45 15 14
85 53 53 27 0 0 51 18 14 62 27 22 65 17 12
62 0 0 116 38 44 200 116 128 235 132 142 213 104 112
213 92 100 207 82 88 196 79 80 202 75 80 202 75 73
210 85 88 212 89 89 232 102 111 225 102 105 238 103 113
229 106 106 196 65 70 163 40 47 175 59 53 222 103 97
224 92 102 214 93 93 219 92 101 222 89 97 210 82 96
207 82 93 206 68 83 196 68 75 218 73 93 210 74 82
209 67 89 209 71 97 223 89 122 223 102 130 206 79 116
177 70 94 156 59 109 180 87 138 236 143 198 255 214 255
255 224 255 233 161 239 199 131 216 223 149 243 216 134 233
213 134 241 219 128 248 213 121 239 197 112 217 175 83 190
156 69 172 147 65 164 146 60 169 142 57 155 118 37 134
116 37 119 128 53 126 140 66 139 122 55 121 96 26 79
109 37 88 104 38 75 99 32 59 99 34 58 198 129 238
193 127 233 194 119 234 195 124 233 197 126 235 199 129 244
201 128 233 174 102 209 229 149 255 217 146 241 255 255 255
210 141 215 27 0 18 63 0 26 107 22 56 120 25 47
187 80 100 222 112 121 255 152 160 232 116 126 187 81 77
190 90 83 166 61 55 101 0 0 105 6 5 153 56 49
196 89 91 185 84 84 184 75 82 193 92 103 197 88 114
205 111 134 107 4 36 126 32 57 168 76 94 161 72 87
159 61 73 165 69 80 139 43 62 128 33 48 145 62 71
130 48 62 90 22 27 65 6 19 64 1 23 82 24 32
85 28 46 97 40 41 94 15 29 86 11 7 160 76 84
145 66 61 90 11 11 85 7 1 103 20 18 104 25 22
138 61 53 110 39 33 106 27 22 109 27 20 116 39 35
137 50 37 138 53 44 148 53 47 147 57 42 144 52 40
156 62 51 163 76 61 171 80 67 173 83 65 182 92 83
175 83 70 214 116 108 195 104 102 184 97 83 154 74 65
115 52 39 85 21 2 63 3 0 50 0 0 4 0 0
9 0 0 8 0 0 9 0 0 20 0 0 15 0 0
17 0 0 40 0 0 72 14 8 109 33 31 142 67 61
135 48 33 127 27 22 145 36 34 164 50 49 160 57 49
191 77 70 191 77 80 196 76 87 179 73 86 178 61 86
181 59 97 165 60 99 162 46 89 160 48 105 174 70 124
149 48 109 137 33 102 86 0 63 110 26 103 255 171 253
255 237 255 222 137 215 193 107 184 109 22 104 71 0 57
112 29 104 136 54 119 117 29 108 90 4 80 83 0 70
113 30 107 113 25 101 81 0 84 135 41 129 143 49 138
221 129 219 255 197 255 255 255 255 255 164 255 11 0 11
132 49 141 223 138 223 75 0 76 32 0 30 80 10 71
66 0 53 66 12 57 61 14 48 56 14 50 59 18 35
55 17 41 56 20 36 53 23 33 57 25 42 50 23 27
50 12 32 38 11 15 42 4 24 37 10 14 43 5 25
48 21 25 37 1 20 39 5 13 34 0 18 35 1 9
32 0 16 31 0 5 36 0 19 28 0 6 44 27 25
28 1 8 25 4 8 28 3 10 20 0 0 14 0 0
38 11 20 59 40 44 51 20 25 37 6 9 69 25 28
73 29 38 46 0 0 82 18 17 155 81 86 175 86 88
221 111 113 212 93 95 213 88 92 210 78 83 195 73 74
202 73 77 207 82 75 217 92 85 207 80 82 203 80 76
220 82 90 210 87 89 207 75 85 194 73 66 202 90 86
231 117 110 232 116 121 236 107 110 215 92 98 205 82 86
199 73 76 197 71 74 196 75 76 198 75 76 222 87 99
213 78 97 216 75 85 213 67 90 217 73 99 221 88 111
211 86 113 191 63 91 206 87 137 163 58 109 197 92 139
255 175 238 255 214 255 255 177 255 225 135 228 203 114 219
213 124 240 207 113 236 189 90 209 177 82 201 172 70 196
163 76 184 150 63 165 137 52 154 160 78 176 145 56 153
118 41 128 113 29 108 129 51 126 136 65 127 116 50 103
96 27 79 101 41 83 97 35 68 92 30 52 92 33 51
197 128 239 194 128 236 200 125 242 198 126 240 199 127 243
194 123 234 201 126 236 189 121 220 221 145 250 236 162 251
255 255 255 161 89 161 17 0 1 83 12 48 102 14 42
118 28 35 154 45 65 197 85 101 242 129 141 212 105 110
173 63 61 179 75 65 159 51 53 72 0 0 123 23 25
157 59 55 191 84 85 186 76 80 186 88 102 202 103 118
192 95 127 200 100 129 94 0 35 133 35 61 163 69 97
151 60 74 150 56 75 158 65 85 124 30 48 125 24 47
134 41 57 107 34 40 74 0 17 55 0 5 64 5 22
81 16 37 78 16 34 88 23 34 86 9 14 99 24 20
168 84 92 143 67 61 88 0 1 99 9 7 103 26 22
113 36 32 134 59 50 106 37 31 105 28 23 102 22 14
118 39 36 132 55 37 145 54 48 135 50 39 157 65 51
139 49 36 133 39 28 138 49 35 146 63 43 158 66 62
175 84 74 191 100 92 219 118 110 210 119 115 211 127 113
203 124 112 183 110 103 160 98 88 136 79 58 149 97 85
74 36 39 83 53 64 56 27 33 46 13 13 44 18 12
28 0 0 21 0 0 26 0 0 76 17 6 101 34 24
130 52 41 141 48 42 134 33 36 134 36 27 147 38 37
138 33 31 169 56 54 172 66 59 185 77 79 182 71 80
186 67 94 181 74 98 178 71 97 169 53 97 195 89 132
179 74 118 141 36 96 140 53 106 96 6 64 90 5 78
206 121 193 255 176 255 255 191 255 255 171 248 180 91 171
90 0 79 88 0 78 121 31 114 128 38 117 113 25 102
121 28 113 132 41 117 145 56 138 139 54 134 147 51 138
105 8 98 127 31 127 161 67 153 255 196 255 255 235 255
180 91 181 174 85 171 146 62 148 92 14 97 103 29 104
70 10 81 67 8 67 67 7 60 62 5 55 54 12 41
61 14 52 60 24 47 64 20 45 60 16 42 63 30 43
52 22 30 46 16 35 40 8 17 35 5 24 38 6 15
38 7 26 47 13 23 38 7 26 39 7 16 36 5 24
32 0 9 31 0 19 32 0 9 30 0 17 37 6 17
19 0 0 28 9 14 41 22 27 32 2 10 11 0 0
37 13 13 60 35 42 42 14 17 52 27 33 23 3 4
46 19 23 72 34 31 43 0 0 61 0 4 106 49 51
88 9 12 228 126 131 216 96 104 221 104 115 211 94 89
204 71 77 210 75 77 202 83 77 200 76 71 205 77 84
221 93 95 232 107 114 237 107 116 214 92 87 206 82 81
206 94 90 217 101 96 214 90 93 206 86 87 197 68 82
191 68 76 192 78 81 219 100 104 242 125 131 255 160 168
206 77 83 213 88 85 212 72 91 208 72 80 209 63 94
220 94 111 238 99 123 220 98 121 193 67 107 195 82 120
196 84 134 205 98 157 254 156 228 255 240 255 255 215 255
199 116 222 222 119 241 214 118 241 205 104 229 184 88 206
179 87 201 172 83 186 153 64 175 121 43 137 162 76 168
148 62 156 123 46 131 110 39 108 117 40 104 126 58 116
115 46 104 96 25 80 105 41 78 99 33 72 95 36 56
94 31 49 193 124 229 196 130 232 204 129 240 200 128 238
193 121 233 194 122 231 204 128 236 199 130 227 211 134 233
255 192 255 255 239 255 121 48 117 15 0 0 98 31 66
98 14 36 117 22 38 121 16 28 179 68 78 229 117 117
199 89 100 167 54 48 166 66 62 148 44 50 62 0 0
133 31 35 151 56 58 176 76 81 174 74 85 195 89 107
218 116 132 192 91 120 177 73 117 114 14 57 138 43 94
169 78 94 152 58 85 152 55 69 166 70 90 128 28 48
131 41 49 117 33 51 105 33 44 66 0 16 43 0 0
72 13 41 80 18 45 76 15 43 80 26 45 96 17 25
102 30 23 186 102 110 145 70 64 85 0 0 98 14 10
124 34 34 137 55 54 122 41 36 111 34 27 95 20 15
109 27 20 124 45 42 136 57 40 141 47 42 132 44 32
145 51 46 126 33 26 111 22 12 109 16 10 106 19 8
103 20 8 123 35 19 139 64 54 124 31 22 133 49 41
149 62 60 142 65 64 141 77 61 135 71 66 141 80 63
141 88 83 115 80 82 103 75 77 83 55 52 68 39 41
68 38 34 43 10 9 31 0 0 35 0 0 85 35 25
92 29 15 117 40 40 117 40 24 123 29 23 133 41 37
137 34 35 127 30 20 142 41 32 160 55 49 177 72 76
178 72 85 180 76 93 195 84 109 193 74 109 178 75 101
198 100 130 148 51 86 90 0 39 94 0 45 115 24 83
94 5 65 89 14 79 76 0 67 162 78 159 244 163 237
255 172 255 158 79 151 86 6 81 95 18 90 130 42 118
134 49 122 148 65 143 124 37 126 102 14 94 122 30 122
128 40 130 126 39 126 121 34 117 132 48 140 72 0 62
255 207 255 255 241 255 255 174 255 87 8 91 84 12 99
151 76 154 96 37 116 67 3 71 68 11 78 48 4 57
46 0 49 56 10 46 61 27 60 58 16 47 51 16 38
59 25 44 55 21 29 46 11 27 38 3 14 30 0 11
35 0 9 36 2 20 36 7 14 40 4 23 38 9 16
35 0 18 32 2 10 30 0 13 31 0 8 36 0 18
42 1 16 0 0 0 26 4 16 43 25 34 34 8 24
13 0 0 44 24 36 60 35 45 34 16 21 40 26 27
14 3 0 41 12 8 50 22 19 50 2 9 50 5 0
80 26 19 44 0 0 175 88 91 179 69 76 209 97 95
212 85 92 205 73 83 207 74 72 213 79 76 186 64 61
216 90 85 253 132 125 255 157 156 242 118 116 193 67 68
177 55 53 186 66 67 203 89 83 174 56 57 182 68 67
197 86 83 219 105 99 234 130 130 247 144 147 255 163 150
255 192 187 213 101 92 203 88 93 204 84 87 208 86 90
201 78 96 212 79 100 224 98 111 223 97 118 199 79 116
199 81 124 192 83 132 176 71 119 191 99 163 255 194 255
255 224 255 248 167 255 191 90 201 217 122 241 216 118 240
201 102 216 187 92 199 176 91 195 155 74 174 139 48 145
145 65 159 150 64 145 132 52 131 110 35 108 109 27 97
107 36 86 108 43 94 100 32 72 103 42 77 104 42 74
92 30 48 98 39 49 178 109 216 194 128 232 208 133 250
199 127 231 187 113 223 185 117 225 203 131 231 212 141 241
192 115 222 255 205 255 255 250 255 124 55 117 19 0 0
111 41 78 106 18 42 97 11 19 132 22 40 176 72 73
224 118 128 214 97 97 155 52 56 168 65 67 158 53 51
87 0 0 129 32 33 141 45 48 167 66 68 170 69 80
197 93 111 236 129 160 204 97 142 137 45 78 108 14 64
142 42 88 198 106 143 179 90 112 168 76 99 185 94 108
148 51 76 149 54 81 119 29 55 119 39 56 72 7 35
32 0 0 49 0 23 86 24 59 88 37 67 110 48 75
100 25 35 118 31 27 184 104 111 163 83 77 94 7 10
97 15 10 113 28 26 143 66 63 115 38 31 109 36 28
104 27 23 105 33 21 125 44 42 138 56 40 126 46 36
134 46 36 101 14 0 103 5 1 86 5 0 100 13 0
83 3 0 60 0 0 60 0 0 92 13 9 52 0 0
68 0 0 74 5 0 73 6 2 62 0 0 51 0 0
54 0 0 47 4 0 94 51 53 68 40 44 48 20 19
47 18 20 69 39 35 64 28 28 67 27 27 89 46 37
115 67 52 95 35 32 98 27 15 99 30 17 121 33 31
134 46 32 144 52 55 134 46 36 144 40 37 164 61 61
189 86 86 188 85 101 200 85 97 198 99 124 202 96 114
190 80 113 212 109 137 175 80 104 101 13 42 70 0 27
103 16 67 89 5 59 74 0 53 117 35 103 0 0 0
213 130 216 255 194 255 157 69 152 76 0 69 63 0 66
74 0 68 97 5 93 134 42 126 132 44 132 117 22 113
139 47 133 127 37 126 114 24 112 102 12 100 111 21 105
96 9 102 148 52 146 246 165 253 255 255 255 209 127 215
73 0 85 71 5 86 134 72 155 61 1 77 64 11 76
36 0 47 36 0 43 60 11 57 72 25 67 70 22 56
56 10 47 65 38 51 57 21 39 52 16 35 34 0 18
31 0 13 22 0 10 35 0 20 38 0 23 50 14 34
42 8 27 37 4 21 33 0 18 35 0 18 27 0 15
30 0 10 30 4 21 3 0 0 23 13 20 54 31 47
27 9 27 12 0 3 50 23 39 73 56 60 54 40 45
41 24 21 17 0 2 26 4 7 46 17 13 58 17 17
64 20 21 74 27 26 41 0 0 125 47 51 155 63 63
220 108 117 216 96 103 184 63 59 205 74 83 220 85 89
191 68 63 194 72 70 255 158 155 255 193 197 249 131 127
168 38 41 133 13 11 176 50 49 243 121 120 176 56 60
195 83 80 227 118 119 255 160 153 255 181 181 255 163 158
229 130 132 215 117 105 255 162 162 213 110 104 198 81 85
191 73 80 179 66 69 200 81 100 210 88 104 182 68 79
245 126 161 136 29 60 131 24 59 145 54 100 108 19 73
116 35 97 190 106 186 226 137 232 148 59 165 199 111 208
228 128 243 203 109 215 179 82 190 163 77 183 163 71 171
162 75 176 122 38 126 136 63 144 137 58 132 114 39 109
96 32 84 100 30 81 107 40 88 104 33 78 110 48 79
101 38 67 94 32 56 93 33 48 211 142 249 196 130 236
198 123 230 194 120 232 197 128 234 201 131 237 210 136 235
186 120 212 236 156 255 255 229 255 254 182 255 20 0 16
53 0 33 95 29 52 94 9 27 101 17 22 162 49 66
216 109 107 250 144 147 222 119 118 228 120 123 236 134 129
184 80 85 102 0 3 103 8 10 171 71 76 171 68 81
188 82 101 214 109 140 160 64 97 143 42 88 168 70 120
199 100 150 211 117 169 125 22 61 121 24 51 180 75 101
150 44 75 145 49 71 147 49 83 136 53 81 99 23 53
9 0 0 103 41 79 189 133 175 79 19 55 32 0 14
69 2 43 63 0 0 155 71 66 199 119 126 125 49 42
55 0 0 119 29 28 179 89 90 139 51 51 121 39 35
107 26 22 80 7 1 89 17 5 133 52 50 154 70 54
145 62 53 128 35 24 165 75 64 129 40 38 98 15 5
74 4 0 85 11 10 82 26 13 80 12 0 52 0 0
60 4 0 54 0 0 51 0 0 43 0 0 42 0 0
46 1 1 36 0 0 42 1 0 9 0 0 17 0 0
23 0 0 27 0 0 23 0 0 26 0 0 31 0 0
15 0 0 25 0 0 87 36 20 121 57 47 109 37 30
120 41 38 111 37 24 93 9 12 94 1 0 102 13 8
119 23 24 135 39 45 159 70 75 187 88 101 177 74 97
171 68 92 189 90 105 210 122 136 161 66 88 107 15 46
90 0 32 84 0 42 81 5 53 83 8 57 57 0 32
149 67 149 92 14 97 253 168 255 255 253 255 255 178 255
255 202 255 254 171 255 16 0 19 48 0 50 134 51 141
206 118 205 118 34 120 115 23 112 147 57 145 104 14 102
135 45 133 107 13 101 55 0 46 103 14 107 255 226 255
255 232 255 31 0 39 104 37 120 125 58 141 100 41 114
59 9 72 57 7 76 78 33 81 63 16 68 44 1 45
54 9 51 33 0 23 59 25 53 35 4 26 14 0 7
19 0 11 31 0 23 35 0 26 18 0 8 0 0 0
8 0 1 22 0 15 26 0 19 21 0 14 30 0 21
31 11 31 47 7 34 19 0 9 70 51 78 39 15 46
14 0 11 10 0 6 13 0 11 14 0 5 16 0 3
21 2 9 24 7 3 26 9 11 27 15 11 37 14 1
42 16 10 63 20 13 57 25 22 67 28 25 58 0 0
103 25 19 91 5 5 138 33 38 255 148 154 211 79 81
191 59 64 217 91 86 202 75 75 195 74 68 241 117 117
191 75 75 115 0 0 194 68 68 255 138 137 149 29 29
218 98 92 227 111 112 255 157 156 252 150 141 205 116 112
237 149 142 255 184 172 252 167 155 232 140 140 228 143 135
244 151 150 255 212 207 255 167 180 177 88 88 192 93 104
224 129 144 110 11 32 128 42 67 95 22 48 75 0 26
71 2 38 68 4 45 68 1 59 42 0 39 219 139 214
156 78 167 125 39 125 121 36 132 145 56 148 167 80 174
157 66 172 139 52 153 164 80 170 137 61 145 118 36 111
98 22 86 87 19 78 101 29 82 105 34 86 117 56 97
89 25 61 98 35 58 102 40 58 99 39 48 197 128 236
201 135 242 209 132 245 207 138 244 202 131 235 197 126 230
206 131 234 203 135 228 216 141 229 255 222 255 248 181 255
23 0 19 59 0 35 105 36 62 100 12 27 94 6 11
152 48 60 194 85 89 228 121 128 197 91 91 194 86 84
202 93 103 176 69 71 97 6 7 111 9 17 162 63 77
171 61 81 190 91 111 197 93 120 156 55 96 176 72 121
223 123 183 208 113 167 159 60 109 92 0 35 97 4 38
126 26 51 138 38 61 139 41 79 108 9 45 128 39 80
84 14 46 53 0 36 105 44 83 92 36 84 60 6 48
84 28 75 61 4 32 70 0 5 148 63 57 193 118 123
142 53 50 68 0 0 111 27 24 162 76 76 138 55 53
98 20 15 103 26 20 99 18 16 108 28 20 126 45 42
136 62 46 141 53 44 128 46 34 154 60 58 128 49 43
95 21 10 85 13 6 64 12 0 73 9 0 45 4 0
36 0 0 58 6 0 45 5 0 48 3 7 38 0 0
38 0 2 41 0 0 33 1 0 28 4 0 34 3 0
32 4 5 34 3 3 35 3 5 35 2 0 30 8 0
36 4 0 28 0 0 45 0 0 84 39 31 114 50 47
97 39 26 114 36 34 120 42 35 105 23 20 106 25 20
103 21 18 112 21 15 125 36 35 142 48 57 151 58 71
168 77 87 182 90 102 184 91 108 191 100 116 150 56 82
103 17 36 79 1 30 80 7 38 95 15 50 92 25 66
106 31 90 87 12 85 64 0 66 129 46 121 202 122 201
214 128 215 255 173 255 255 220 255 255 234 255 65 0 67
27 0 28 92 0 85 212 124 208 165 72 159 100 9 95
115 25 113 94 2 91 126 41 121 113 29 121 130 50 133
255 174 255 255 202 255 53 0 69 24 0 46 158 97 181
66 7 81 67 9 88 63 8 72 42 0 59 47 0 50
70 21 72 83 31 81 56 10 61 31 0 37 36 6 39
37 0 36 29 0 32 20 0 22 13 0 15 22 0 23
25 0 29 0 0 2 2 0 5 0 0 0 0 0 0
1 0 1 20 0 28 45 21 52 67 33 76 22 0 26
15 0 32 34 0 43 48 18 51 49 18 43 18 0 22
11 0 8 21 5 15 25 7 21 27 13 7 28 9 5
27 17 13 49 17 15 47 22 16 58 29 24 68 23 21
52 4 1 91 29 30 84 0 10 109 20 15 228 117 121
201 80 82 206 78 73 202 71 68 189 66 60 191 80 68
221 96 98 179 63 57 131 13 9 195 79 74 241 117 116
166 42 41 214 92 86 242 121 124 240 141 134 254 147 153
255 195 183 255 190 182 243 161 158 244 167 164 255 207 198
237 156 151 187 109 105 190 105 110 140 66 63 78 0 2
62 0 0 35 0 0 64 0 4 74 4 16 83 12 38
85 24 48 88 30 64 95 32 71 84 35 67 88 24 78
90 29 85 89 12 75 93 22 98 121 40 124 152 66 160
155 71 162 149 54 164 135 48 147 155 71 159 140 62 147
117 45 115 108 30 95 98 29 88 95 26 80 101 39 86
112 47 90 103 36 73 106 40 66 107 42 63 103 40 52
197 127 237 188 120 230 197 124 237 202 130 238 196 123 228
183 115 217 196 125 223 207 137 230 216 138 237 255 237 255
200 129 204 9 0 0 67 3 35 120 54 71 93 13 9
87 0 0 140 37 35 184 72 81 208 99 98 177 70 70
170 65 74 187 86 83 160 62 71 115 12 22 106 1 11
142 51 61 173 73 88 210 110 126 198 88 127 157 53 94
206 98 159 255 171 231 106 7 69 109 14 59 170 68 114
209 113 147 172 71 104 151 49 89 129 33 73 131 31 75
111 27 78 112 29 76 93 30 85 93 33 87 62 9 65
52 0 46 95 30 82 65 2 42 67 0 0 148 65 58
196 111 121 130 48 42 66 0 0 126 34 31 164 72 71
140 51 54 91 5 0 97 24 17 105 26 23 117 39 30
130 49 46 134 58 42 143 51 44 140 58 41 133 54 51
120 34 33 85 20 9 61 7 0 54 3 0 51 6 0
27 0 0 17 0 0 34 7 0 34 3 0 22 0 0
24 0 0 21 0 0 18 0 0 22 0 0 29 3 3
26 0 0 28 0 0 29 0 0 24 0 0 24 0 0
26 0 0 32 0 0 27 0 0 27 0 0 85 33 17
100 50 36 90 36 20 112 38 31 111 39 33 110 28 25
103 28 21 106 24 21 89 13 3 100 23 29 111 24 28
114 26 39 159 72 86 186 98 113 166 82 103 147 67 75
141 57 73 118 46 65 117 41 59 111 39 69 103 36 73
113 46 73 126 53 100 121 47 114 108 29 108 96 23 97
92 18 97 66 0 59 49 0 46 156 69 164 255 231 255
255 246 255 180 94 187 41 0 48 113 32 122 159 68 161
90 3 97 131 40 124 139 47 131 135 41 131 120 35 127
86 0 91 173 88 176 255 235 255 209 130 216 0 0 2
100 30 108 75 18 100 93 31 108 78 21 94 62 3 75
39 0 56 61 11 81 62 6 73 23 0 35 8 0 24
28 0 59 73 25 89 65 27 92 65 25 90 75 33 99
103 59 126 130 94 157 135 94 159 136 95 160 119 76 142
89 56 117 68 32 94 64 25 88 50 11 74 42 2 63
12 0 44 37 3 59 52 19 78 42 11 58 29 0 42
19 0 29 29 0 25 29 2 27 24 3 18 25 1 12
25 6 12 29 9 5 32 11 16 44 12 16 41 20 16
41 13 11 66 21 29 86 32 31 66 0 0 79 0 2
195 95 98 201 87 86 210 90 93 193 69 67 199 79 79
234 107 109 225 115 118 181 61 66 156 43 44 196 83 84
212 96 99 171 45 47 209 87 92 233 112 109 255 145 140
255 163 151 255 164 169 225 146 143 200 121 120 210 138 130
172 95 98 119 53 47 55 0 0 59 0 0 60 0 0
71 7 15 97 40 47 89 31 41 44 0 2 47 0 8
53 7 18 61 11 27 73 25 36 76 34 46 89 41 68
106 58 93 30 0 14 46 0 35 84 17 77 143 71 143
184 103 190 186 96 189 173 82 188 177 87 193 151 65 161
143 66 146 123 50 121 113 33 105 98 30 84 101 31 84
103 40 85 114 46 90 101 46 79 104 47 70 105 49 67
106 52 61 210 142 246 174 108 214 171 99 198 183 113 213
195 124 232 188 122 211 197 122 219 187 120 209 244 169 255
255 255 255 180 114 182 5 0 0 78 19 48 115 47 63
88 5 5 93 9 0 131 29 32 168 62 63 187 86 87
176 65 67 163 57 63 184 81 84 160 56 59 107 17 28
93 1 9 142 48 60 175 69 90 218 112 143 182 83 127
176 74 119 222 125 192 231 127 192 52 0 12 100 0 63
224 125 166 255 172 207 222 114 150 154 55 91 132 21 72
146 43 94 158 71 121 150 76 136 90 25 83 54 0 61
74 11 72 58 8 57 48 0 40 83 16 57 63 0 0
155 72 65 192 111 119 127 38 36 77 0 0 125 40 35
164 76 74 131 46 48 78 0 0 96 13 11 107 30 26
125 47 38 143 61 58 144 66 51 134 50 38 132 51 38
91 10 1 86 13 15 68 3 0 58 0 0 47 5 0
43 9 0 37 3 0 21 0 0 35 14 6 33 5 6
26 0 0 25 0 0 19 0 0 29 0 3 21 1 8
29 4 2 19 0 0 23 0 0 23 0 0 24 0 0
24 0 0 19 0 0 22 0 0 18 0 0 29 0 0
70 29 16 101 41 38 90 27 21 98 33 32 101 36 22
104 28 27 106 22 22 120 41 39 94 12 9 105 26 22
103 22 26 87 8 12 147 69 70 180 95 104 144 70 76
83 6 19 106 34 42 122 43 64 127 64 81 131 56 83
109 35 65 91 25 53 100 32 67 75 10 65 87 10 79
86 7 71 103 26 95 117 32 112 66 0 60 71 0 64
106 20 113 255 195 255 255 255 255 175 89 178 64 0 69
178 86 175 156 68 158 82 0 81 107 18 104 133 48 148
114 31 120 88 10 96 101 17 104 255 171 255 255 255 255
95 20 107 60 0 86 83 10 93 68 7 95 79 18 96
81 27 98 77 14 95 44 0 62 30 0 47 8 0 25
69 16 97 71 26 106 102 57 135 116 67 146 103 52 132
111 70 145 143 99 175 179 130 208 149 112 186 177 137 212
202 162 237 196 153 229 168 128 205 126 85 162 63 22 99
13 0 51 53 9 91 84 43 122 79 36 107 29 0 51
2 0 22 27 0 37 42 6 49 42 13 48 20 0 17
24 6 23 24 7 10 23 2 11 32 8 7 32 6 10
38 9 16 29 2 0 69 33 29 87 47 53 69 19 21
68 0 0 141 56 50 155 55 55 210 92 90 201 81 85
192 72 75 255 139 131 251 139 139 194 83 78 163 58 52
179 73 66 191 74 73 183 67 65 202 85 84 202 91 82
253 150 153 226 130 134 110 29 22 110 37 28 144 71 80
130 55 55 23 0 0 53 0 0 29 0 0 57 9 3
93 36 48 95 54 54 130 82 86 104 57 62 33 0 4
76 29 47 96 58 67 118 73 82 105 66 73 86 52 57
65 28 43 56 13 26 59 21 41 60 16 45 87 32 78
155 85 146 180 108 186 164 92 188 163 78 179 184 90 206
140 64 151 146 63 146 130 51 128 114 46 118 102 27 92
104 36 86 103 35 94 115 48 88 108 51 82 111 51 73
106 47 64 108 52 59 251 183 255 199 133 231 170 99 190
183 113 200 218 147 238 228 163 251 225 152 242 203 137 222
255 196 255 255 255 255 154 87 150 29 0 20 85 26 55
103 35 51 85 2 2 102 18 6 119 15 13 163 60 53
191 85 81 177 76 77 171 63 70 181 77 77 150 51 64
100 7 11 101 0 15 140 40 63 153 47 64 169 65 91
143 43 79 193 92 137 243 138 216 110 14 85 71 0 29
120 23 77 204 101 152 224 132 178 237 129 171 170 70 115
93 0 43 90 0 49 255 165 228 158 79 141 70 0 67
40 0 50 78 25 84 65 9 56 39 0 31 65 7 35
66 0 0 155 72 65 192 111 119 119 32 29 81 0 0
139 46 45 161 67 69 131 40 40 87 0 0 93 14 10
101 26 21 127 48 39 155 78 75 155 74 60 134 46 36
112 35 16 67 0 0 65 8 0 53 0 0 41 0 0
39 0 0 46 8 0 34 14 0 34 5 0 34 9 5
31 8 5 31 0 0 26 0 0 27 0 0 22 0 0
32 1 0 26 11 0 32 0 0 22 2 0 24 0 0
24 0 0 22 2 0 31 0 0 27 0 0 30 0 0
21 0 0 60 27 8 87 41 27 77 30 13 97 28 23
100 38 29 104 21 28 91 18 19 122 45 47 85 22 17
101 30 37 91 22 21 70 1 5 114 44 47 139 63 75
96 26 35 33 0 0 60 0 5 88 24 34 98 39 50
88 26 37 65 3 25 53 0 11 51 0 13 57 0 35
63 0 46 79 6 62 80 9 64 88 14 75 90 19 89
99 15 95 69 0 66 2 0 7 255 193 255 255 210 255
107 24 110 149 57 156 167 78 164 73 0 73 125 32 121
123 36 135 130 43 145 165 83 181 69 0 84 105 27 117
255 255 255 255 186 255 136 65 148 98 32 118 62 0 77
33 0 57 80 14 101 67 7 93 16 0 56 35 0 63
91 34 128 158 102 203 142 81 195 135 73 181 107 55 160
80 24 129 65 6 114 65 9 115 79 18 128 44 0 98
60 6 114 71 18 123 74 18 127 80 32 134 101 51 156
115 65 170 120 70 167 70 18 124 92 41 129 92 41 144
69 15 101 36 0 77 33 0 59 33 0 52 41 0 52
31 0 43 24 0 27 25 0 27 22 0 20 27 0 12
24 0 7 30 7 13 29 5 6 34 0 6 66 32 30
75 36 37 49 0 0 68 4 0 88 0 0 186 81 80
225 107 101 152 32 34 226 108 111 204 96 94 147 34 37
153 53 47 171 71 64 188 78 85 204 97 95 198 94 100
201 105 102 224 130 132 141 58 58 24 0 0 57 0 0
102 43 45 46 0 0 79 18 20 87 35 30 78 29 40
91 41 42 68 29 34 71 32 41 112 70 83 77 40 49
101 64 76 118 83 90 147 99 113 147 111 121 125 83 97
82 47 53 49 6 17 14 0 0 74 31 46 40 4 24
48 0 49 77 30 79 93 31 110 95 21 103 99 21 134
121 36 139 162 82 178 151 70 161 140 63 149 117 48 121
111 38 96 100 33 88 105 38 89 113 48 87 102 40 83
105 46 73 108 50 72 103 43 60 255 199 255 240 178 255
220 147 237 223 158 234 247 181 255 255 197 255 255 196 255
243 180 255 255 208 255 255 255 255 120 52 120 44 0 34
92 28 65 88 21 41 94 13 15 107 18 17 124 19 14
163 59 55 196 90 90 185 82 74 184 74 84 181 75 75
144 44 53 95 0 15 114 22 27 133 40 52 116 19 41
134 21 53 95 0 42 182 77 136 255 159 234 35 0 2
108 9 80 185 89 143 241 142 193 237 133 173 225 117 163
181 76 130 141 40 96 172 75 138 255 194 255 98 22 93
50 0 59 66 9 73 65 5 60 56 13 58 61 10 49
39 0 9 68 0 0 162 80 74 184 103 111 114 27 24
83 0 0 142 51 49 163 71 72 118 29 29 92 6 2
93 16 11 110 25 25 137 60 50 168 88 86 152 81 62
123 33 24 86 0 0 72 10 2 66 11 0 51 0 0
45 0 0 40 3 0 38 7 0 29 5 0 22 3 0
32 2 0 27 3 0 31 1 1 28 0 0 26 0 0
28 0 0 22 0 0 25 0 0 26 7 0 30 5 0
30 1 4 30 1 4 30 5 0 25 6 0 30 2 0
31 4 0 13 0 0 63 32 7 88 39 36 70 19 13
84 28 14 102 30 20 91 18 17 93 23 18 94 25 24
83 17 11 92 25 27 90 21 20 68 0 2 82 19 18
89 25 22 48 0 0 45 0 0 56 0 1 64 10 11
73 6 15 61 0 20 37 0 0 48 0 7 64 0 16
64 2 38 119 53 95 180 102 144 168 93 152 127 50 101
141 67 130 136 50 123 80 0 79 18 0 18 105 22 107
255 187 255 234 151 239 157 65 160 207 118 214 174 83 165
86 2 94 132 50 154 130 38 151 171 88 190 84 0 103
56 0 79 255 243 255 255 255 255 159 79 178 171 95 193
108 37 129 38 0 73 51 0 81 44 0 84 16 0 48
62 8 104 163 112 211 174 102 224 142 75 195 114 48 174
92 22 138 66 4 128 51 0 98 32 0 98 27 0 78
35 0 100 31 0 83 16 0 78 2 0 51 8 0 73
44 0 96 67 7 130 78 12 134 91 31 146 53 6 119
86 24 129 121 71 180 116 60 155 47 0 85 10 0 48
25 0 45 36 0 63 35 6 46 36 0 36 20 1 23
29 0 21 27 5 13 28 0 14 28 8 13 1 0 0
50 20 17 74 46 45 48 6 0 42 0 0 51 0 0
184 85 79 245 130 129 188 72 74 215 93 93 160 49 45
113 3 0 153 56 53 196 97 96 190 85 81 191 96 93
181 92 92 208 127 122 143 71 64 52 0 0 55 0 0
87 35 29 90 23 27 63 9 13 110 54 65 101 47 52
69 30 28 66 31 34 56 22 24 76 45 53 158 127 130
180 146 157 138 95 112 152 115 128 159 120 136 145 105 116
119 76 83 85 47 50 55 24 34 47 9 17 56 23 37
37 4 19 20 0 17 36 0 38 53 0 60 61 0 80
100 18 126 120 33 146 168 81 185 151 67 163 145 65 150
128 56 128 112 36 111 103 32 91 105 40 94 116 46 95
101 41 76 106 48 70 102 44 64 104 45 59 214 152 222
249 195 251 255 206 255 251 185 253 235 169 237 248 184 252
255 195 255 255 202 255 255 211 255 255 228 255 61 0 58
49 0 36 90 30 58 88 25 44 103 18 25 105 17 13
124 32 33 169 64 55 194 87 85 189 83 76 176 71 77
169 69 71 140 35 45 88 0 2 122 29 40 133 38 56
128 26 51 146 50 77 93 0 39 177 74 127 255 186 255
33 0 1 164 60 128 249 150 207 255 189 234 238 133 184
177 73 118 179 77 125 246 140 205 255 215 255 192 108 182
76 2 79 52 0 70 62 9 75 47 0 61 69 21 69
66 11 48 46 0 9 62 0 0 166 79 73 186 109 118
105 18 15 87 0 3 149 58 57 158 66 68 113 24 25
89 3 1 99 24 21 124 40 42 147 71 61 164 85 85
147 76 57 113 18 10 69 0 0 78 9 2 66 13 0
56 3 0 50 2 0 36 9 0 33 8 0 30 8 0
23 3 0 32 5 1 38 7 0 45 10 13 42 9 9
47 12 15 40 3 0 39 7 0 33 0 0 23 7 0
26 5 0 27 6 0 27 6 0 26 5 0 29 6 0
33 3 0 31 6 0 11 0 0 63 29 3 87 34 30
73 19 7 87 17 19 86 22 18 94 15 25 89 13 22
86 12 6 81 16 12 84 14 8 80 21 7 77 8 7
67 12 9 62 0 0 43 0 0 87 28 32 71 13 20
70 2 14 63 12 23 63 7 11 53 0 9 65 15 24
85 30 46 83 17 45 75 5 40 59 0 37 56 0 34
98 22 85 141 68 133 147 76 139 156 72 150 96 9 93
52 0 59 191 103 190 255 190 255 224 132 227 255 183 255
253 162 253 38 0 42 155 66 182 128 44 165 131 44 153
118 29 146 108 18 125 176 96 201 255 210 255 173 97 197
178 102 197 183 105 208 118 47 146 65 3 102 61 0 94
62 6 111 92 41 145 164 107 210 120 50 181 112 37 173
89 17 159 84 10 141 85 16 156 98 25 154 96 30 172
99 32 161 83 19 163 108 38 175 107 52 195 101 42 175
85 25 168 61 0 131 24 0 109 0 0 51 90 27 157
45 0 118 60 0 120 106 53 169 123 64 173 79 31 125
48 0 84 30 0 58 47 8 63 38 9 47 31 5 38
35 7 25 29 2 14 28 1 12 27 6 14 31 6 12
24 0 0 37 5 10 59 30 27 50 15 8 43 0 0
36 0 0 176 80 78 224 113 105 215 89 90 214 92 92
169 48 57 127 22 21 168 65 69 190 95 90 161 55 54
129 27 29 106 34 20 145 73 73 65 6 0 25 0 0
88 40 35 99 49 49 61 12 17 80 32 29 79 23 27
77 23 32 63 15 17 94 53 59 92 59 68 96 66 70
133 97 110 124 95 106 76 30 49 111 63 87 146 97 114
150 103 118 134 93 99 98 54 67 72 30 34 54 26 27
47 22 33 44 19 36 39 3 37 39 0 46 53 5 68
83 21 106 132 66 167 169 88 196 147 69 160 156 72 164
148 71 158 128 60 133 118 43 119 107 37 99 105 42 92
118 49 102 101 45 84 108 45 80 104 48 62 106 47 59
150 84 148 249 179 253 255 238 255 255 201 255 208 141 206
207 138 206 237 171 236 255 195 255 255 203 255 255 214 255
15 0 22 38 0 30 94 25 62 86 14 46 102 18 24
96 7 17 149 45 36 168 62 58 192 90 91 187 79 80
170 71 73 162 59 60 131 34 38 86 0 2 106 4 25
128 32 46 154 52 80 205 98 135 107 6 53 161 47 106
255 223 255 64 0 42 152 52 122 225 121 188 255 179 227
255 156 202 173 63 123 170 70 122 254 150 218 239 140 217
123 30 106 88 7 80 69 0 81 38 0 55 63 12 73
84 33 81 39 0 17 82 29 45 53 0 0 166 82 84
193 100 109 108 22 27 78 0 0 150 55 59 164 69 76
111 18 25 84 0 0 115 30 26 124 53 42 141 65 60
153 74 65 147 64 54 109 28 5 63 0 0 66 8 0
59 8 0 52 7 0 47 3 0 42 1 0 35 6 0
36 5 0 38 5 0 44 15 10 45 10 7 53 12 8
52 9 6 53 18 10 47 6 3 42 2 0 42 11 0
20 0 0 19 3 0 25 3 0 27 5 0 30 7 0
27 8 0 33 4 0 31 8 0 12 0 0 72 39 19
80 43 26 66 21 14 81 23 11 97 26 23 85 17 12
91 19 13 78 20 23 88 31 18 86 27 25 87 24 21
96 33 25 74 11 10 60 5 4 76 17 19 71 16 22
62 6 6 59 6 12 67 14 19 59 7 8 56 0 11
65 12 16 82 30 38 61 0 9 84 18 49 79 16 43
75 14 44 88 14 62 55 0 29 81 3 74 171 102 162
135 52 134 112 29 112 47 0 47 51 0 53 104 9 105
250 158 251 255 236 255 161 75 170 62 0 92 80 0 115
65 0 95 121 38 139 70 0 85 0 0 0 201 122 224
255 221 255 75 0 100 220 146 242 171 100 199 40 0 85
37 0 80 91 22 142 110 55 163 134 68 186 101 26 174
102 20 162 67 0 128 58 0 122 66 0 139 70 0 143
74 0 142 59 0 129 97 26 163 86 18 150 74 7 143
68 0 136 80 13 150 109 42 176 114 44 184 115 51 191
0 0 70 47 0 123 51 0 112 35 0 100 75 22 137
122 64 174 80 30 133 12 0 49 0 0 30 28 0 48
32 0 55 27 0 35 31 1 34 30 0 15 31 2 19
19 0 8 38 0 16 18 0 0 36 10 10 33 2 0
17 0 0 10 0 0 153 69 58 191 86 87 164 45 47
201 71 80 188 76 73 165 53 56 171 77 74 173 87 86
134 47 37 83 0 0 49 0 0 37 0 0 33 0 0
48 2 0 79 45 46 62 21 30 43 2 1 58 6 17
99 49 55 50 6 10 24 0 0 79 35 45 93 57 67
53 23 25 37 1 14 0 0 0 22 0 11 57 12 29
84 43 58 90 43 62 101 46 62 93 53 60 85 44 55
109 67 75 7 0 0 37 3 23 38 10 39 36 0 38
36 0 53 54 0 80 126 55 151 176 98 203 136 53 160
149 66 169 153 74 161 145 66 146 121 52 119 100 34 95
102 29 92 113 49 96 114 43 83 105 50 75 109 51 76
104 49 63 168 96 174 206 144 221 255 188 255 246 170 255
193 136 201 204 151 208 245 188 246 239 186 250 255 255 255
228 176 245 0 0 13 67 0 64 116 41 90 82 11 48
168 83 105 76 0 0 143 30 56 187 76 82 190 84 83
158 59 61 165 73 72 176 86 76 134 47 55 82 0 5
166 77 92 145 56 72 172 72 95 167 66 99 106 6 57
255 179 239 213 106 197 107 10 103 154 60 133 241 140 214
231 130 209 162 53 136 214 103 185 255 178 255 227 111 198
131 24 108 185 90 174 100 16 98 28 0 31 62 0 56
86 34 80 59 7 42 36 1 29 17 0 4 88 10 6
177 93 84 174 88 81 92 10 5 113 20 18 156 73 61
135 48 31 111 34 16 89 6 0 90 6 0 152 63 61
223 132 131 196 115 97 115 35 26 78 0 0 45 0 0
86 29 9 65 6 0 56 0 0 56 0 0 56 8 0
59 13 0 59 5 2 46 0 0 51 0 0 59 8 0
75 22 19 89 42 33 82 36 31 78 34 26 62 24 11
56 17 7 42 13 0 42 9 4 34 9 0 35 3 0
22 0 0 25 0 0 25 0 0 17 0 0 43 0 0
39 2 0 75 19 20 84 31 32 70 23 15 67 10 0
68 7 2 74 21 9 51 0 0 59 12 1 70 17 16
58 15 12 54 8 3 53 4 3 57 17 4 57 10 9
55 8 10 57 14 12 65 17 14 75 14 24 81 26 29
83 31 35 86 29 35 56 0 0 192 134 131 154 95 93
145 73 88 110 39 52 67 0 19 72 5 34 94 21 59
97 25 77 134 50 128 167 90 170 185 101 189 145 60 163
133 49 141 172 89 185 255 173 255 255 255 255 214 131 223
255 255 255 163 84 178 104 15 116 182 105 210 128 44 152
106 24 139 255 207 255 130 51 153 96 17 130 197 121 224
250 178 255 197 120 245 211 132 253 160 93 216 89 8 140
103 20 171 67 0 139 121 46 169 104 29 157 99 13 141
181 98 223 229 140 255 255 197 255 212 129 248 250 169 255
202 119 223 169 87 184 112 28 153 65 0 99 123 42 158
141 52 184 176 95 229 129 44 187 48 0 106 0 0 58
34 0 88 104 41 164 144 88 202 146 86 212 111 61 180
64 21 123 44 0 108 45 5 88 25 0 42 7 0 32
25 4 28 41 12 33 22 1 10 18 0 0 8 0 0
26 4 0 29 0 0 34 0 0 84 8 11 158 68 69
157 44 44 159 42 50 147 34 37 171 67 66 177 89 100
106 36 37 31 0 0 43 0 0 15 0 0 19 6 0
32 8 1 20 0 0 6 0 0 23 0 0 38 10 17
55 19 33 27 0 6 36 4 16 73 38 40 61 26 30
40 4 9 95 57 63 128 89 93 100 66 67 92 52 79
43 15 25 68 25 33 106 71 72 87 39 41 47 3 4
62 9 22 82 44 42 65 21 34 89 46 68 30 0 25
19 0 24 71 17 98 227 161 253 164 93 196 147 73 186
170 84 192 162 73 185 155 63 162 119 43 125 92 14 90
110 40 99 133 66 124 106 44 86 104 41 86 108 41 76
108 42 66 109 46 64 238 170 253 255 192 255 255 230 255
255 222 255 251 186 255 245 185 251 253 191 255 239 193 255
255 255 255 193 139 213 29 0 38 59 0 59 129 50 113
78 0 31 100 17 45 88 3 10 147 33 54 184 68 84
180 84 88 163 62 63 163 75 69 160 76 71 124 34 43
84 0 8 90 0 21 131 40 68 148 41 78 105 12 50
134 40 85 255 207 255 156 63 147 75 0 68 74 0 61
224 134 208 255 220 255 255 185 255 255 152 242 255 145 237
222 110 198 187 82 166 186 93 173 110 23 94 42 0 37
57 0 52 83 24 65 56 13 52 43 1 34 34 0 18
76 0 0 178 89 74 179 95 96 95 14 5 102 16 5
155 68 56 150 60 49 105 27 13 92 11 0 90 12 0
151 61 51 209 117 107 186 99 91 116 38 30 77 5 0
71 0 0 67 0 0 60 0 0 52 0 0 57 0 0
74 15 4 88 25 14 91 29 25 86 24 18 106 45 36
103 40 29 90 33 30 86 31 23 79 29 19 75 28 15
68 19 18 75 41 25 28 0 0 33 2 0 41 0 0
24 0 0 33 1 0 27 5 0 34 3 0 36 8 0
31 0 0 54 7 3 72 23 18 79 27 23 77 22 22
67 22 15 69 14 6 73 26 14 62 9 2 64 14 18
68 25 18 70 22 15 60 17 14 56 12 5 56 9 11
56 10 5 60 18 17 65 15 16 66 12 13 65 19 13
75 17 24 74 23 24 73 19 23 74 17 18 78 17 22
90 28 31 119 48 50 121 57 61 112 44 57 94 28 48
100 28 64 78 7 54 138 56 125 137 55 140 181 92 193
210 128 213 204 115 213 176 89 174 194 106 197 207 123 203
255 243 255 255 220 255 255 208 255 205 125 215 203 113 221
202 120 226 149 68 178 237 152 255 230 152 255 94 19 126
90 10 116 200 120 228 255 212 255 255 196 255 185 104 239
143 67 205 110 22 173 87 0 148 128 47 175 152 75 183
196 111 246 247 165 255 255 175 255 255 183 255 255 185 255
255 207 255 255 192 255 252 174 255 225 137 239 159 70 185
146 59 171 182 90 206 136 49 185 149 59 203 151 69 203
135 62 192 73 0 126 23 0 85 98 29 163 205 159 255
175 113 251 42 0 122 0 0 40 9 0 69 50 15 89
36 1 51 19 0 27 31 2 22 34 10 22 27 2 0
27 3 11 30 4 0 17 0 0 24 0 0 100 29 29
173 87 91 186 77 81 169 55 56 154 43 51 144 49 45
131 59 64 92 30 29 46 0 5 38 6 9 30 15 9
15 15 10 22 9 14 31 4 8 26 6 6 29 4 10
34 17 22 43 19 32 66 37 50 40 17 30 60 22 32
52 20 32 56 15 24 95 55 68 126 93 86 102 68 76
45 20 34 58 33 54 93 56 61 98 59 61 67 18 21
54 3 9 61 15 21 62 10 25 60 14 23 35 0 7
27 0 22 38 0 49 54 0 76 179 107 212 176 100 211
149 75 184 174 81 203 163 70 178 155 72 170 136 50 130
105 27 100 117 38 106 123 51 106 100 33 85 126 55 98
117 57 88 118 58 80 118 56 82 217 149 222 229 159 237
255 192 255 255 210 255 255 208 255 255 215 255 255 217 255
255 238 255 214 152 233 141 83 159 158 88 175 70 0 77
104 19 82 87 0 52 90 9 39 122 34 54 149 39 64
184 71 83 182 82 87 165 62 63 158 68 65 159 63 70
121 25 38 95 0 11 68 0 0 148 47 68 153 52 85
103 4 47 189 89 144 255 232 255 125 27 110 94 0 88
213 113 199 255 173 252 255 221 255 255 178 255 227 117 198
201 93 163 202 93 167 230 127 202 195 104 176 124 40 111
48 0 46 59 3 53 79 18 68 52 12 33 42 0 36
39 0 16 74 0 1 173 87 73 189 98 103 115 23 19
99 5 1 153 70 58 160 74 63 106 16 7 101 12 3
103 16 5 158 63 59 212 126 117 172 92 78 109 23 10
81 1 0 87 9 0 81 22 16 86 15 7 79 16 4
81 16 4 85 29 24 94 36 27 100 42 31 98 41 27
101 39 38 105 42 37 104 47 43 107 45 43 91 33 30
74 30 18 62 10 8 60 17 8 28 0 0 29 0 0
39 0 0 24 0 0 33 0 0 32 0 0 35 4 0
33 3 0 33 0 0 45 2 0 66 17 12 75 21 18
75 22 21 69 10 7 70 13 5 73 22 11 65 9 6
68 21 8 67 21 17 68 19 13 64 14 11 58 7 1
59 12 12 61 15 10 54 0 5 55 9 6 60 6 15
56 10 13 61 7 14 67 9 18 74 8 19 67 8 18
49 0 0 61 0 7 73 14 15 82 23 35 87 15 39
93 25 52 99 24 66 91 23 63 107 25 86 106 30 90
129 46 128 144 62 145 122 35 121 85 0 85 97 12 96
104 20 99 162 72 160 152 70 159 255 183 255 255 178 255
234 149 253 255 177 255 208 128 238 150 64 178 255 240 255
175 101 205 69 0 91 76 0 111 208 135 245 241 170 255
128 49 175 106 31 158 138 51 205 113 32 176 156 79 193
218 142 255 255 193 255 255 205 255 238 156 255 216 135 255
197 117 235 233 150 255 255 177 255 255 188 255 255 171 255
163 79 200 106 24 143 168 79 207 169 93 208 147 68 191
157 77 198 150 79 196 82 10 134 0 0 61 40 0 100
83 26 158 255 205 255 117 68 188 37 0 109 37 0 90
57 13 84 40 8 61 32 2 37 18 0 18 33 3 14
28 10 10 32 18 20 26 0 0 6 0 0 18 0 0
91 35 31 174 90 80 192 93 97 161 59 53 139 45 44
118 32 31 75 8 12 45 0 0 40 0 0 23 0 0
30 5 16 23 10 10 29 3 13 21 5 5 19 0 8
30 2 15 43 14 32 56 21 33 29 0 11 47 17 34
110 66 83 112 76 94 84 46 57 84 50 62 95 46 63
46 6 23 31 0 17 74 37 52 95 61 77 72 25 39
32 0 0 54 3 11 62 15 22 51 0 11 42 0 13
14 0 0 81 25 74 125 66 133 104 35 123 189 114 214
194 119 232 172 89 211 175 80 197 168 81 190 159 79 175
142 55 149 107 30 116 109 37 99 115 50 104 101 33 92
114 51 86 114 47 81 114 49 84 114 47 72 174 106 179
186 116 194 225 157 231 247 190 255 246 182 255 252 192 255
255 203 255 255 255 255 148 93 175 79 17 99 219 155 245
58 0 56 44 0 35 133 49 107 128 44 84 99 8 35
159 56 79 175 66 85 175 74 75 157 66 74 167 68 73
152 62 65 123 21 43 90 0 21 108 11 33 182 82 124
191 86 124 187 89 131 200 98 147 255 186 255 192 94 174
212 111 202 255 206 255 253 150 241 203 104 178 189 74 157
192 73 152 190 84 166 201 90 167 228 129 193 201 113 180
128 48 107 67 0 52 66 4 57 75 19 52 50 3 37
33 5 25 42 0 17 82 4 1 162 76 64 205 116 120
127 39 34 86 0 0 152 61 54 170 83 70 100 16 6
102 14 3 104 18 5 156 67 61 220 127 122 177 84 75
88 7 0 76 0 0 100 31 15 111 31 26 104 39 36
106 41 33 117 46 40 106 48 33 99 34 33 100 36 32
102 38 30 83 19 16 87 22 15 88 21 23 82 23 20
88 25 21 71 17 11 68 14 11 59 10 2 61 21 19
66 15 15 55 13 9 54 12 2 53 9 12 40 8 5
42 10 8 56 14 15 30 0 0 45 2 0 64 13 9
65 21 15 71 13 4 71 12 11 70 11 4 72 21 10
63 7 4 65 20 6 70 14 15 64 19 11 60 11 8
61 11 5 55 10 9 57 13 7 52 4 6 54 0 0
52 6 10 56 0 3 59 0 9 53 1 8 62 1 10
59 0 5 79 12 21 66 3 8 55 0 5 46 0 0
66 0 10 75 10 32 91 20 54 99 27 73 60 0 35
97 21 84 118 35 103 95 13 86 79 0 78 87 3 80
92 9 86 82 0 75 62 0 62 104 13 113 139 56 149
221 136 234 205 114 220 212 121 228 255 193 255 184 103 207
255 183 255 255 244 255 195 115 222 24 0 50 148 78 188
255 202 255 185 114 226 120 45 166 140 54 201 157 77 217
215 137 255 255 196 255 255 206 255 228 149 255 159 78 203
139 61 178 128 45 164 176 99 212 255 177 255 255 222 255
255 216 255 180 96 222 85 2 120 159 77 188 255 174 255
199 120 244 165 89 204 155 69 196 135 67 175 108 37 159
45 0 112 0 0 19 132 72 205 109 61 193 149 92 208
91 43 149 2 0 35 19 0 41 56 15 68 28 3 33
23 0 3 34 14 18 35 16 14 16 0 0 0 0 0
17 0 0 93 33 29 165 91 82 157 71 68 134 40 40
129 41 40 103 31 21 44 0 0 30 0 0 37 0 0
8 0 0 25 9 13 22 9 12 16 3 11 20 0 13
19 1 4 27 4 16 38 9 26 48 21 45 31 0 19
75 45 60 135 105 123 117 77 101 34 0 9 19 0 1
56 11 27 41 4 26 13 0 5 64 27 52 77 39 53
51 12 21 38 0 4 61 17 25 70 24 39 56 8 20
52 0 16 40 0 21 140 86 130 202 138 208 184 112 204
200 119 230 193 110 229 205 115 233 165 75 198 167 73 189
163 77 178 148 69 160 124 36 123 119 39 120 130 50 115
112 42 93 110 35 88 107 44 83 108 44 78 108 47 74
197 130 208 221 150 224 254 186 255 247 190 249 224 159 229
221 165 220 245 181 255 255 255 255 145 87 173 29 0 41
255 194 255 136 59 139 28 0 13 83 0 59 117 20 73
127 36 71 161 60 92 173 67 76 165 73 87 166 68 74
166 72 83 151 56 75 135 23 53 97 0 31 155 49 90
224 124 160 222 117 158 232 139 181 143 46 104 245 145 215
255 222 255 255 186 255 173 77 161 161 59 146 151 38 122
184 81 153 233 122 197 239 126 190 215 105 174 224 119 185
186 91 148 120 46 93 68 0 39 69 10 47 71 16 50
48 4 22 28 0 18 30 0 2 101 21 24 154 68 54
205 117 121 154 63 57 91 0 0 146 59 48 175 84 75
100 17 4 104 10 3 96 4 0 164 72 65 223 134 128
170 80 70 75 0 0 75 0 0 119 44 26 109 38 23
118 43 42 127 61 53 132 64 54 127 57 46 114 40 36
109 36 27 106 30 30 100 30 33 102 26 25 95 24 25
89 22 20 82 24 21 98 36 30 109 42 46 119 62 55
97 47 51 97 54 51 89 49 45 80 41 36 67 33 23
66 27 19 67 28 20 67 35 24 36 0 0 49 5 7
62 8 6 66 15 12 60 14 3 72 15 12 65 14 1
73 20 8 62 7 0 61 13 14 71 20 16 71 16 13
61 16 11 57 9 2 58 5 8 52 3 0 66 10 16
60 14 12 64 7 14 66 7 15 63 10 15 73 14 16
70 6 17 72 15 19 62 0 15 63 6 15 84 12 32
95 30 39 101 36 53 98 33 54 87 16 45 70 2 41
83 10 46 101 26 80 110 28 90 80 6 66 80 0 62
104 24 90 131 53 116 129 50 122 124 40 125 137 50 149
103 11 115 133 47 155 141 53 163 116 29 147 168 89 192
179 98 199 82 9 111 255 197 255 241 170 255 66 0 86
159 93 187 255 225 255 212 141 241 131 61 177 119 38 171
209 127 255 255 202 255 255 227 255 255 192 255 175 100 197
129 53 159 142 64 179 138 58 162 195 115 225 255 197 255
255 237 255 255 235 255 202 118 247 112 29 141 187 106 223
255 191 255 255 181 255 255 177 255 221 151 255 212 126 255
190 116 235 120 51 173 40 0 113 0 0 51 9 0 85
136 73 203 167 114 229 47 0 90 0 0 24 43 0 71
48 2 52 18 0 8 27 14 12 33 10 16 6 0 0
0 0 0 26 0 0 96 37 37 152 94 74 107 31 22
104 27 20 110 35 26 96 35 30 37 0 0 29 0 0
33 0 0 0 0 0 21 11 5 9 5 3 18 5 4
17 3 6 18 0 10 25 3 15 34 13 35 51 27 43
33 0 21 68 33 63 106 71 101 76 40 64 0 0 0
7 0 0 61 12 44 69 22 54 44 2 35 55 19 50
53 13 38 59 21 32 62 18 31 66 18 33 65 19 41
67 9 26 65 13 43 67 1 39 127 54 114 165 98 168
215 129 234 200 116 233 179 88 215 213 124 255 157 64 180
161 77 182 166 78 186 160 75 167 132 51 134 121 47 119
128 54 126 122 58 114 117 52 101 123 49 103 123 52 96
123 55 90 192 118 204 217 152 231 254 186 253 241 178 251
216 158 220 238 176 249 255 204 255 255 255 255 177 119 204
4 0 18 237 164 255 255 190 255 163 77 155 95 4 67
75 0 38 121 29 75 175 70 91 168 71 81 160 61 79
165 69 88 181 74 92 154 50 74 129 27 56 114 3 49
160 58 100 252 149 198 191 94 143 217 117 165 125 19 91
255 164 237 255 255 255 214 121 206 129 21 111 161 55 140
186 82 159 227 107 196 209 93 164 189 81 139 200 92 154
243 140 193 147 60 115 115 26 77 61 0 34 71 13 47
79 25 50 42 0 19 30 0 11 25 0 0 107 24 29
131 44 40 208 120 122 177 87 81 90 1 0 141 45 37
189 91 84 115 29 19 103 16 6 91 4 0 159 72 65
234 140 135 179 93 82 81 0 0 77 5 0 128 49 36
146 68 62 147 64 60 152 82 69 146 69 69 131 53 51
111 34 29 102 23 22 95 25 12 124 42 40 123 53 52
131 58 64 147 71 74 143 72 73 125 70 62 124 59 62
118 63 57 82 32 26 81 35 37 70 30 26 65 26 20
56 21 12 52 15 6 47 10 1 38 5 0 54 11 13
54 12 1 56 14 6 61 16 10 60 11 1 58 12 3
71 12 10 69 13 8 59 6 6 69 13 7 65 19 13
67 16 10 64 9 7 53 9 0 52 3 5 51 2 0
81 33 39 82 22 27 81 21 34 88 25 33 84 27 33
86 22 33 84 26 32 93 28 41 66 11 13 90 20 35
101 39 55 121 53 66 125 55 73 121 58 75 116 38 69
86 16 39 155 77 118 115 40 83 96 15 68 97 16 71
80 2 65 78 0 59 103 15 85 134 46 119 168 73 173
129 48 140 130 44 142 110 20 125 157 71 181 175 86 191
136 43 159 242 161 255 136 53 154 251 175 255 255 189 255
154 85 173 135 55 158 139 70 169 116 41 152 134 65 168
142 59 182 253 176 255 255 219 255 255 204 255 211 133 227
112 39 122 96 20 124 130 52 156 132 53 158 143 66 166
164 83 191 176 101 220 195 107 243 147 64 176 142 60 176
223 139 255 255 199 255 255 184 255 255 202 255 255 200 255
255 196 255 250 166 255 210 135 255 194 119 255 130 63 211
46 0 127 110 44 178 229 174 255 186 130 228 48 0 85
11 0 37 26 0 45 24 0 11 34 8 17 27 0 17
5 0 0 11 0 0 53 17 12 97 44 36 140 71 66
75 2 0 91 18 9 100 36 24 74 25 14 46 0 0
30 5 0 21 11 7 4 0 0 14 7 6 12 8 6
22 0 17 12 3 5 23 1 15 26 1 21 42 18 41
53 29 52 25 0 27 28 0 36 56 13 49 44 3 49
18 0 15 58 11 55 88 44 89 80 29 71 65 30 67
60 25 56 46 8 36 59 19 35 73 32 51 64 14 38
44 0 17 55 4 35 108 43 73 58 0 32 61 0 54
89 7 91 186 98 211 192 102 223 168 77 211 218 116 249
169 73 196 167 70 189 173 73 186 166 80 176 144 59 147
132 48 123 137 61 132 136 58 121 124 44 111 118 56 102
120 53 105 120 52 100 169 105 183 195 127 211 216 146 218
208 147 215 225 166 238 255 213 255 255 218 255 255 247 255
148 80 154 33 0 46 108 26 114 208 124 208 246 149 219
222 133 197 129 35 99 81 0 30 175 83 108 162 62 91
160 59 85 163 69 90 174 73 101 146 36 75 126 15 61
106 0 44 154 51 97 244 140 194 176 72 128 206 111 168
191 101 160 255 200 255 255 197 255 147 51 134 175 70 161
204 93 177 223 116 194 196 90 153 138 24 91 125 18 74
166 58 110 232 137 177 119 20 70 92 14 50 55 0 17
77 19 45 78 27 43 43 0 15 18 0 0 19 0 0
108 29 33 103 17 13 199 108 111 197 110 101 103 7 0
139 39 35 197 103 91 146 52 45 104 8 1 103 7 0
166 67 60 246 160 149 199 113 101 96 1 0 90 8 0
133 58 46 178 101 87 168 91 82 169 90 77 153 68 66
118 44 34 109 32 19 109 30 25 107 33 29 133 56 59
128 59 50 144 68 69 140 77 68 120 62 61 108 43 34
68 7 2 58 0 0 35 0 0 36 0 0 40 0 0
33 0 0 31 0 0 29 0 0 29 0 0 15 0 0
74 33 23 60 19 12 54 11 5 62 15 8 63 12 12
60 15 3 60 15 6 58 17 3 64 10 5 68 12 12
72 12 11 61 16 8 57 10 9 58 9 7 55 10 4
53 0 0 85 30 25 72 23 14 77 26 27 80 22 23
84 21 26 88 27 29 90 33 32 90 25 33 101 27 44
95 29 36 98 35 45 110 34 54 109 41 57 113 42 60
118 45 66 112 44 60 135 57 89 119 50 78 142 61 99
160 81 122 150 72 123 110 23 86 93 9 68 97 12 89
105 15 108 102 12 115 108 12 121 67 0 85 142 58 169
193 104 216 162 77 180 232 151 248 255 212 255 255 212 255
255 255 255 255 212 255 185 111 202 140 72 164 151 78 180
171 102 201 183 104 219 255 212 255 255 204 255 232 164 255
200 126 214 133 57 144 136 62 158 176 105 201 189 110 197
169 93 186 112 34 135 107 31 139 137 50 169 151 68 190
188 106 218 222 141 248 255 179 255 237 148 255 223 137 255
239 156 255 255 175 255 255 190 255 254 178 255 242 175 255
255 218 255 208 143 255 129 57 193 160 101 226 235 177 255
157 99 197 30 0 66 25 0 53 26 0 12 34 10 18
24 1 18 19 0 0 45 10 10 91 47 48 116 63 51
107 51 33 85 9 4 105 35 25 80 20 19 42 0 0
40 0 0 25 4 7 19 0 0 4 4 5 18 2 8
10 12 9 19 3 7 16 7 16 22 0 22 31 10 28
37 14 49 53 21 65 70 30 81 41 7 51 43 0 53
43 0 53 32 0 41 80 26 88 112 61 124 94 41 103
55 6 59 58 22 67 54 3 43 53 12 39 61 21 50
55 7 32 51 0 20 56 1 41 112 45 80 58 0 42
138 48 120 143 60 146 194 106 215 188 91 217 189 86 228
201 102 243 183 88 202 165 75 188 178 83 188 174 86 189
146 62 150 130 48 136 129 55 128 126 57 121 124 49 113
127 51 111 127 50 106 127 50 112 212 142 229 210 142 221
215 156 230 189 121 198 222 164 241 255 237 255 255 211 255
255 255 255 0 0 0 91 24 107 102 20 97 64 0 53
91 3 78 224 124 195 218 113 171 195 93 141 143 46 87
157 60 83 146 46 69 165 57 88 181 72 113 149 42 80
119 7 60 102 0 50 149 43 103 242 131 188 164 67 133
224 121 186 255 193 255 255 255 255 207 116 190 162 73 154
128 23 102 162 53 130 205 92 167 205 95 158 144 35 87
129 24 70 151 46 90 184 89 126 110 20 47 81 0 28
47 0 6 64 13 30 88 32 52 45 0 9 14 0 0
14 0 0 109 38 43 99 15 6 208 123 118 196 101 106
91 0 0 147 51 41 201 104 102 153 58 48 99 8 0
95 3 0 169 77 69 255 166 160 196 103 100 80 0 0
88 9 0 155 69 53 171 98 84 164 83 74 171 91 78
145 66 59 124 42 32 106 27 25 116 33 24 145 64 58
173 103 92 164 88 87 135 62 63 82 16 9 51 0 0
25 0 0 14 0 0 3 0 0 34 0 0 25 0 0
26 0 0 36 0 0 40 0 0 44 3 0 34 1 0
9 0 0 73 32 24 52 9 7 59 12 3 49 8 0
52 7 1 48 0 0 54 0 0 53 1 0 49 0 0
58 7 5 69 18 14 71 18 12 65 7 14 55 0 2
52 0 1 49 0 0 57 3 9 57 4 8 69 8 12
70 7 14 74 16 19 79 10 17 78 14 19 73 8 11
88 18 27 96 20 32 105 34 49 102 37 41 101 21 49
90 17 35 96 12 33 100 22 39 85 4 30 123 44 69
144 54 92 126 38 90 127 40 92 141 57 112 134 38 107
100 12 78 115 16 114 203 111 214 148 49 161 174 80 186
252 161 255 227 140 244 228 142 245 186 106 210 202 116 211
172 100 197 255 210 255 255 252 255 255 197 255 255 212 255
237 166 255 64 0 92 198 123 217 255 233 255 255 205 255
238 168 250 253 179 255 230 154 249 255 196 255 255 233 255
255 207 255 242 167 254 171 95 188 187 109 216 215 128 249
178 95 211 187 105 223 124 45 148 168 76 198 162 64 182
139 51 159 136 49 156 179 91 202 222 146 255 234 149 255
195 122 255 221 142 255 255 227 255 122 52 189 18 0 79
179 111 221 219 165 255 67 3 104 42 0 71 24 0 16
46 14 24 29 0 15 8 0 0 50 13 14 110 67 73
121 65 55 94 30 31 105 33 25 121 60 57 76 17 9
12 0 0 13 0 0 11 0 0 0 0 0 13 4 6
9 3 11 16 1 9 17 0 15 9 0 17 22 0 31
28 4 43 40 11 55 60 24 79 51 7 77 32 0 59
81 26 97 106 51 131 87 39 112 95 37 113 76 10 97
3 0 26 0 0 0 64 18 68 45 4 43 31 0 28
51 3 39 44 0 30 46 0 30 65 6 43 102 38 85
82 3 65 219 131 208 253 164 255 245 148 255 196 93 225
212 112 246 197 93 228 186 91 216 172 73 189 169 77 183
166 82 182 156 66 162 137 53 131 125 37 125 112 35 110
156 77 145 138 66 131 136 61 133 136 61 123 181 113 202
247 171 255 157 97 174 243 176 255 255 218 255 255 214 255
255 254 255 129 62 137 9 0 16 99 19 96 114 28 111
124 34 98 110 8 76 92 0 44 143 41 97 190 93 132
174 82 119 169 69 102 176 77 115 178 71 114 141 33 77
97 0 37 111 5 58 120 18 76 145 37 102 220 122 195
180 80 139 255 166 230 255 230 255 200 101 168 170 77 160
130 28 110 168 55 143 220 107 184 196 85 154 130 12 73
111 0 48 150 45 80 179 67 104 186 89 113 114 25 47
68 0 8 66 2 16 101 35 53 50 5 5 36 0 1
47 22 20 35 0 4 55 0 0 64 0 0 122 43 44
255 169 166 152 50 53 67 0 0 212 116 112 213 120 110
101 6 0 105 10 2 147 51 43 227 133 128 224 137 122
138 50 38 110 22 11 137 58 44 189 106 91 163 79 70
126 43 31 129 47 35 106 22 7 121 43 34 205 126 122
196 117 114 149 71 67 83 19 13 45 0 0 60 7 0
51 0 0 44 0 0 53 6 0 71 20 0 32 0 0
39 0 0 33 0 0 15 0 0 0 0 0 0 0 0
32 0 0 94 47 37 94 53 43 80 33 26 67 17 14
56 10 6 71 17 12 68 20 13 78 25 22 79 23 20
71 18 22 71 10 22 63 3 12 58 0 7 55 0 2
65 6 12 67 7 18 70 15 11 82 27 39 76 16 14
68 6 10 70 12 13 81 14 18 91 23 29 89 26 30
91 20 24 115 40 51 105 35 45 113 30 48 111 34 42
100 26 47 96 25 37 90 15 27 84 9 35 87 3 28
73 0 17 109 23 63 140 57 96 125 31 90 143 52 110
175 86 148 164 64 148 149 59 151 162 73 180 211 122 217
202 112 221 131 45 152 91 6 111 72 0 95 42 0 60
109 24 116 107 37 125 255 201 255 255 237 255 255 250 255
255 254 255 217 146 255 161 95 184 255 198 255 246 176 252
198 129 210 201 131 212 255 179 255 255 255 255 255 222 255
255 215 255 228 154 241 255 237 255 230 156 243 154 80 176
171 82 208 237 154 255 182 102 215 200 118 244 186 93 221
147 49 185 140 51 173 121 31 146 38 0 63 63 0 85
167 91 195 240 161 255 255 189 255 255 202 255 170 103 218
0 0 39 149 89 197 242 188 255 189 126 237 0 0 24
28 0 30 13 0 1 13 0 2 52 19 35 101 53 67
119 73 70 123 52 59 123 62 56 94 20 23 76 9 0
42 0 0 31 0 0 29 0 12 18 0 14 20 8 21
6 5 19 19 0 24 28 1 41 30 5 48 10 0 36
14 0 36 18 0 55 32 0 68 37 0 76 0 0 5
94 35 131 139 84 188 64 15 110 33 0 68 54 0 100
82 11 114 42 0 79 168 116 191 0 0 0 32 0 38
63 17 74 34 0 37 62 8 60 87 32 78 93 30 84
45 0 21 90 14 68 255 255 255 255 207 255 179 80 201
193 89 219 210 104 244 203 103 237 183 89 218 182 87 199
190 94 214 224 137 241 155 64 168 102 17 104 153 72 157
116 38 115 136 58 133 150 72 142 165 90 161 163 87 160
207 133 224 211 151 235 203 140 216 233 165 246 255 209 255
255 219 255 201 137 209 77 2 82 62 0 66 120 40 109
123 36 111 118 33 92 121 28 79 159 59 116 187 80 123
182 82 127 220 118 152 192 96 136 187 76 115 170 71 107
142 32 80 110 0 56 107 0 53 80 0 44 186 88 156
196 91 162 142 46 121 255 159 230 255 205 255 174 77 149
187 81 163 234 139 211 130 24 97 204 90 167 201 85 142
139 28 82 118 8 48 153 53 84 169 59 88 169 74 88
102 16 31 74 0 8 91 13 33 112 56 63 73 24 34
39 0 0 35 6 7 31 0 0 56 0 0 100 24 21
122 43 42 203 116 112 193 101 101 121 20 12 149 53 49
207 114 104 145 51 43 125 31 23 156 62 54 250 153 148
255 175 160 179 89 82 124 35 18 114 25 11 182 100 81
168 89 77 150 69 51 125 40 34 119 34 22 159 77 61
172 90 80 148 67 58 99 33 24 63 3 0 43 0 0
46 0 0 45 0 0 33 0 0 40 4 0 27 0 0
59 14 0 35 0 0 32 0 0 42 0 0 61 7 0
75 20 9 83 33 26 98 43 43 101 48 47 90 42 39
95 33 32 92 33 31 90 33 31 95 40 37 100 37 34
110 48 47 87 22 37 81 31 38 77 24 30 70 17 23
71 15 22 67 11 20 68 15 13 68 17 19 67 4 10
64 3 10 62 0 3 68 1 5 77 10 16 90 15 23
97 29 34 97 27 34 113 35 43 108 29 42 107 31 49
125 38 61 134 51 67 138 53 76 145 55 81 143 58 90
154 66 94 109 24 59 103 5 52 102 7 56 93 1 55
90 0 63 104 3 76 114 12 93 124 31 127 138 44 140
128 27 135 106 12 114 134 36 150 177 85 198 159 73 170
66 0 82 204 123 214 179 99 180 200 126 207 157 85 172
191 118 214 231 154 255 177 112 196 191 122 218 255 225 255
235 168 226 221 150 225 255 212 255 218 140 240 104 30 130
97 23 121 236 161 255 252 177 255 255 212 255 248 173 255
193 116 213 166 82 195 199 117 235 189 105 232 202 118 234
175 77 222 227 129 255 176 88 204 110 23 139 168 74 181
226 151 255 252 165 255 255 190 255 255 172 255 215 148 255
117 46 167 0 0 32 122 60 164 175 113 215 141 81 193
49 0 78 27 0 30 30 5 15 24 0 15 55 15 35
93 53 62 119 66 70 120 51 59 108 47 48 92 33 26
88 30 36 69 17 25 41 0 19 18 0 9 13 0 24
14 0 27 22 2 44 15 0 33 23 0 52 33 0 60
41 8 76 50 8 91 62 28 110 82 29 137 66 16 117
131 68 191 194 136 254 249 185 255 219 150 255 191 123 242
205 129 253 206 136 255 197 127 240 97 42 122 210 159 230
222 170 240 6 0 17 0 0 3 42 0 35 47 0 50
85 11 75 56 0 37 115 32 104 255 162 252 255 173 255
255 156 255 215 112 248 212 105 241 194 94 220 173 81 207
187 87 215 188 95 209 175 91 197 132 44 147 129 41 142
166 81 164 139 65 149 154 73 153 137 57 130 110 33 117
103 25 107 232 169 254 218 151 233 255 195 255 224 168 249
255 226 255 255 217 255 76 6 90 26 0 28 102 28 102
126 45 124 144 53 115 120 18 86 140 39 97 179 81 123
208 104 150 198 95 133 199 97 140 178 79 119 164 58 106
148 36 85 136 24 85 124 17 66 118 10 82 83 0 54
193 97 173 140 44 120 152 60 134 255 217 255 255 183 250
139 35 108 193 96 171 255 152 229 142 34 107 222 106 161
209 101 159 157 43 85 151 41 65 187 72 102 178 77 88
156 63 75 86 0 6 81 11 12 123 51 57 144 80 89
88 44 43 46 1 0 28 0 0 21 0 0 43 0 0
105 41 34 100 23 23 151 71 67 253 158 157 175 79 68
113 13 11 205 112 102 174 80 72 139 45 37 148 54 46
229 135 129 255 179 169 235 142 134 143 57 44 86 0 0
147 71 47 146 68 52 133 41 24 86 1 0 140 47 43
195 111 101 148 73 65 107 27 22 66 0 0 52 0 0
40 0 0 40 0 0 34 0 0 37 0 0 44 8 0
16 0 0 60 16 0 25 0 0 20 0 0 62 11 1
115 63 57 138 76 79 136 66 72 123 56 50 89 23 19
101 32 26 90 29 30 93 29 29 103 37 38 105 37 37
108 40 39 110 51 56 69 4 16 76 12 34 74 9 27
72 4 23 66 11 25 65 10 24 78 10 31 79 15 37
71 7 17 68 10 20 73 12 26 81 17 29 86 22 36
96 26 41 101 26 45 95 27 41 118 38 55 112 26 49
109 30 44 117 27 61 123 39 67 130 45 81 126 37 72
116 32 76 136 43 81 139 48 95 137 46 89 143 47 109
156 61 129 165 61 130 137 34 115 130 29 114 88 0 89
115 26 122 119 22 120 108 17 126 158 69 175 217 134 239
214 130 234 162 79 171 147 68 162 186 109 189 189 118 196
142 71 147 205 137 215 207 131 222 108 37 137 116 48 141
255 220 255 255 203 255 255 190 255 255 190 255 168 92 192
87 10 118 92 14 126 180 106 202 255 191 255 255 206 255
255 217 255 253 181 255 158 73 189 184 97 228 209 128 251
214 129 255 223 133 255 216 124 253 165 73 197 166 83 196
255 177 255 255 227 255 255 193 255 255 211 255 207 130 241
141 69 171 73 0 105 3 0 48 97 28 136 100 41 139
116 54 171 78 23 107 15 0 24 26 0 12 24 0 10
51 12 30 75 37 40 101 46 53 90 36 32 78 19 18
99 33 38 91 27 42 65 21 41 42 0 28 13 0 21
3 0 17 2 0 31 18 0 57 27 0 71 32 0 77
42 0 89 58 8 108 81 29 147 107 43 169 115 56 178
116 53 193 132 66 200 151 83 226 160 83 229 117 52 182
83 12 154 84 12 146 106 31 171 115 41 172 111 54 149
166 114 193 161 109 187 109 48 123 144 91 169 96 38 102
78 7 80 120 54 125 52 0 50 132 48 124 159 66 154
188 101 202 255 175 255 219 119 238 202 108 231 183 78 206
171 73 214 196 98 224 201 105 241 149 57 179 124 32 148
137 50 153 148 63 156 134 53 136 155 73 154 141 67 138
146 70 150 152 76 154 253 190 255 245 180 255 255 220 255
239 178 255 255 235 255 255 196 255 31 0 45 77 0 84
114 39 111 130 47 128 146 53 122 134 38 101 138 40 87
178 77 121 207 93 144 224 121 153 154 46 95 158 53 96
152 43 91 144 38 85 159 50 105 180 62 134 170 72 140
154 50 125 152 63 143 129 37 117 243 144 225 255 255 255
253 147 223 146 50 121 236 124 207 177 69 138 177 61 115
220 104 156 215 101 151 170 61 102 163 54 78 200 94 104
179 79 90 142 53 57 75 0 0 99 16 19 133 67 71
152 87 97 89 42 37 30 0 0 24 0 0 26 0 0
41 0 0 72 9 0 88 20 13 126 51 40 239 153 152
226 136 123 132 39 33 187 91 82 182 88 80 145 51 43
137 46 37 185 94 87 240 149 138 236 138 126 183 88 70
121 33 17 155 70 55 143 53 36 114 31 19 76 0 0
149 60 48 204 113 107 107 19 7 45 0 0 69 4 0
71 9 0 74 19 4 69 20 0 51 7 0 45 16 0
49 16 0 31 0 0 36 0 0 17 0 0 29 0 0
92 32 30 138 69 75 156 88 81 135 61 63 121 44 47
86 7 11 85 16 18 97 19 29 99 28 30 108 38 38
102 39 38 101 32 30 101 31 31 87 28 51 84 25 44
75 15 31 68 6 22 49 0 9 49 0 9 54 0 7
37 0 0 86 25 42 87 21 41 94 23 43 91 25 43
87 13 31 78 3 23 74 1 18 71 0 13 101 12 36
88 0 28 93 7 36 103 18 50 122 32 71 125 36 78
127 30 82 108 18 62 109 10 65 159 62 126 167 63 128
149 45 118 181 82 147 203 106 188 186 75 162 177 65 158
129 43 126 138 44 136 133 34 140 113 15 117 98 3 109
136 41 145 197 108 207 255 170 255 213 127 217 255 180 255
255 212 255 255 206 255 255 249 255 255 212 255 174 104 208
137 70 161 255 207 255 255 238 255 255 185 255 162 94 172
130 50 157 187 107 215 170 95 196 95 21 123 255 218 255
255 195 255 255 225 255 255 199 255 162 78 191 186 101 225
219 132 255 210 123 255 226 133 255 177 86 218 189 98 211
240 148 255 255 196 255 255 220 255 255 191 255 211 134 232
142 64 177 94 22 126 77 0 115 23 0 65 100 28 127
86 30 128 101 42 139 33 0 59 40 8 39 32 15 11
29 0 22 37 10 8 74 24 28 78 31 27 83 21 31
68 2 6 88 32 43 75 25 46 57 9 40 35 0 34
13 0 26 15 0 39 24 0 53 14 0 57 69 3 116
54 0 118 59 3 119 83 27 148 113 43 171 117 53 188
110 42 185 115 42 188 92 16 167 89 20 166 91 15 167
80 7 154 68 0 126 49 0 113 47 0 107 25 0 94
105 34 139 22 0 56 119 50 150 246 188 255 224 156 239
93 29 114 100 39 116 59 0 68 85 11 84 133 43 129
144 59 158 149 50 150 219 125 236 212 120 238 210 103 222
186 92 219 171 73 199 184 90 228 209 113 238 151 60 183
127 40 156 136 51 157 93 15 104 119 46 127 62 0 66
115 37 120 186 104 190 239 158 240 221 156 233 255 197 255
255 216 255 255 202 255 255 230 255 183 116 196 44 0 54
112 41 129 127 44 124 123 39 112 138 45 115 157 53 116
137 38 97 140 36 88 176 71 117 229 124 162 186 77 132
190 86 132 200 82 136 191 87 145 212 96 163 220 111 181
221 115 196 198 103 175 143 52 130 219 137 217 255 216 255
255 214 255 209 114 186 192 88 161 241 139 214 135 13 87
177 64 116 203 88 126 195 81 120 158 46 73 159 52 72
178 75 80 159 53 54 111 13 17 92 0 0 105 25 30
133 66 69 137 77 78 78 29 34 23 0 0 24 0 0
28 0 0 48 0 0 29 0 0 86 25 20 123 46 43
174 88 83 235 143 131 200 100 96 153 62 53 185 90 82
167 76 67 154 51 46 156 56 54 192 88 84 208 118 106
212 121 102 200 101 91 198 113 89 164 86 58 153 67 47
136 47 37 197 109 90 203 118 102 80 0 0 7 0 0
70 0 0 75 4 0 90 29 28 76 31 15 52 13 6
49 12 0 56 21 12 38 9 0 36 0 0 40 0 0
89 40 33 145 74 78 147 77 73 144 64 68 143 59 66
127 37 39 120 42 40 135 48 46 127 54 53 142 59 71
135 69 67 137 63 68 122 58 61 119 51 55 129 66 84
125 64 94 110 48 72 93 31 53 85 21 51 69 7 34
64 0 25 65 1 28 46 0 6 56 0 20 73 0 32
74 0 26 76 1 38 84 3 41 94 24 58 122 34 78
100 16 45 112 24 64 125 41 77 151 66 105 183 89 148
199 114 166 206 109 171 188 92 158 232 132 209 236 144 211
196 90 172 140 42 114 136 31 116 128 21 111 133 29 118
161 55 149 150 48 139 174 86 170 219 121 222 245 149 245
233 142 253 234 142 247 247 162 255 255 192 255 229 145 235
220 144 233 236 156 237 227 157 235 225 151 243 231 157 241
205 137 242 149 78 180 255 255 255 255 217 255 201 129 213
151 80 165 131 54 160 147 69 181 126 45 156 75 3 103
255 247 255 255 193 255 255 194 255 252 177 255 162 74 192
192 107 234 203 120 247 181 98 227 144 62 173 190 115 214
255 163 255 237 162 255 237 151 255 255 195 255 232 156 255
121 45 143 139 61 170 101 32 141 83 17 126 17 0 59
95 34 133 108 49 129 99 38 132 2 0 25 73 34 57
46 23 25 40 0 15 46 3 15 55 15 11 74 28 29
79 18 20 76 13 24 82 27 42 72 7 41 55 0 42
50 0 61 67 10 97 76 26 117 98 40 137 89 28 136
135 61 183 137 58 185 150 76 203 167 94 219 182 109 239
165 89 231 122 53 190 75 0 133 133 55 205 120 38 175
117 38 177 119 39 175 122 42 187 115 40 171 104 25 168
86 11 137 79 10 127 157 89 199 228 161 255 167 104 204
56 0 91 3 0 22 92 26 116 26 0 38 95 18 99
148 61 153 255 203 255 210 125 225 190 94 209 208 113 236
199 105 216 208 120 230 171 79 210 171 70 203 198 99 229
166 73 197 155 65 182 150 61 164 125 44 142 133 54 145
255 210 255 255 203 255 255 237 255 255 255 255 174 111 184
255 199 255 255 201 255 255 228 255 255 199 255 106 38 121
45 0 55 104 21 113 136 53 137 120 36 117 146 46 117
159 56 122 142 37 90 125 14 72 160 53 100 211 92 147
255 156 198 239 127 176 237 124 185 240 122 180 220 111 178
205 97 165 188 93 167 160 72 144 211 126 210 255 255 255
255 211 255 174 93 176 182 85 156 210 111 183 216 94 177
166 51 113 187 72 118 193 85 116 180 71 104 163 54 75
154 50 60 167 60 65 140 39 36 110 17 14 105 14 9
109 34 32 123 50 57 111 51 48 68 19 16 22 0 0
16 0 0 42 2 0 49 6 0 0 0 0 88 15 6
118 40 34 107 29 18 204 113 108 219 131 121 163 65 58
170 74 66 168 77 68 158 58 56 129 31 21 126 34 15
160 62 52 197 94 80 207 115 103 188 108 84 179 92 72
185 97 86 210 113 96 249 156 143 237 139 129 130 43 32
98 10 0 49 0 0 58 0 0 67 9 0 76 30 13
62 16 12 58 14 4 59 23 16 43 12 0 54 2 0
77 20 20 144 80 80 182 120 123 167 84 86 147 60 68
162 69 70 147 62 64 154 64 68 163 69 74 165 82 87
167 88 86 166 92 101 150 78 80 137 67 68 124 64 68
95 32 63 103 41 75 108 46 74 118 56 82 123 61 93
140 80 105 156 89 126 169 106 139 108 42 73 126 52 93
118 47 82 104 28 68 84 1 49 83 8 51 112 28 71
132 49 98 103 18 58 114 26 64 130 40 93 144 60 104
159 66 129 170 80 140 183 82 161 181 88 163 186 88 160
159 61 149 178 74 155 200 97 193 196 86 184 145 38 134
149 42 135 183 79 169 255 205 255 255 202 255 255 205 255
255 181 255 255 175 255 255 170 255 188 93 193 87 2 101
125 42 130 82 7 93 145 60 154 172 104 185 140 61 155
144 73 158 163 90 203 63 0 91 255 243 255 255 193 255
228 154 244 221 148 245 167 86 193 132 54 164 134 59 158
205 132 234 255 218 255 255 203 255 236 160 255 201 124 223
160 75 200 186 101 235 164 79 204 155 73 193 140 54 159
237 154 255 255 186 255 245 163 252 235 157 255 205 124 219
154 74 182 147 68 178 169 89 207 136 63 184 73 0 117
0 0 31 129 64 164 119 70 147 87 35 122 32 0 44
50 14 37 40 8 8 32 0 3 27 0 0 49 0 0
51 2 0 60 5 9 55 0 4 96 24 55 71 15 45
64 10 71 85 26 99 121 59 150 163 93 208 181 112 241
182 107 237 196 110 242 212 134 255 241 154 255 240 159 255
251 170 255 244 165 255 180 96 237 92 13 149 148 62 196
148 64 200 131 46 182 103 21 161 92 14 137 90 10 139
76 0 124 38 0 95 12 0 66 188 121 239 162 93 211
98 22 128 149 77 179 70 0 99 65 0 88 93 21 110
46 0 59 139 61 151 255 255 255 255 221 255 193 102 214
188 104 210 184 89 192 199 102 218 189 87 214 164 80 201
178 88 215 186 97 216 177 92 200 179 101 207 209 135 217
246 163 253 255 255 255 255 185 255 197 123 212 153 75 171
179 114 174 254 184 250 255 213 255 255 247 255 237 171 248
76 15 79 61 0 79 111 36 118 141 54 146 138 48 124
152 51 123 156 50 115 145 37 91 138 29 77 171 64 120
196 87 128 255 154 195 240 127 163 248 133 182 243 128 173
212 98 168 173 70 142 180 86 161 155 61 140 255 225 255
255 250 255 237 155 244 126 46 123 165 77 145 194 87 167
195 74 148 188 70 140 204 83 123 187 71 102 179 60 91
164 55 73 159 51 56 148 43 39 134 29 27 113 19 13
116 24 21 109 36 31 109 38 40 90 34 37 60 15 15
36 2 0 18 0 0 24 0 0 49 7 0 19 0 0
58 0 0 86 15 4 97 9 12 142 52 44 178 85 78
203 118 105 164 70 62 174 82 75 166 66 52 132 36 29
119 14 4 125 31 20 145 46 31 160 63 53 132 43 25
151 72 45 172 77 56 198 103 88 220 122 115 244 144 138
238 147 142 232 137 128 67 0 0 69 3 0 59 0 0
89 29 19 87 40 38 77 43 28 69 30 26 53 17 7
48 0 0 67 15 14 142 80 78 193 129 129 171 84 88
155 65 76 170 78 80 163 62 74 153 59 66 149 62 67
156 75 82 155 86 81 149 76 87 132 68 68 99 44 44
97 39 40 45 0 9 69 0 44 81 13 49 96 27 59
118 51 86 140 74 113 159 90 134 163 98 135 186 121 165
190 119 164 191 121 172 162 87 133 124 43 91 86 15 54
80 0 53 76 0 40 99 14 57 101 13 56 101 12 59
96 6 70 107 15 83 114 25 90 145 45 130 164 66 150
161 58 154 171 74 166 237 132 224 255 198 255 255 211 255
255 200 255 255 201 255 255 242 255 255 166 253 244 156 236
164 74 167 76 0 82 76 0 88 113 25 139 124 30 136
78 0 94 92 3 105 81 6 93 163 75 168 205 137 226
169 90 188 153 77 172 164 93 204 102 35 133 160 84 166
240 172 240 255 193 255 251 180 255 204 125 232 209 132 234
219 144 241 255 222 255 225 148 222 255 200 255 201 122 220
158 78 188 162 71 204 174 88 215 147 58 187 170 86 195
236 159 243 255 178 255 255 195 255 255 180 255 214 138 216
139 55 150 116 36 145 199 121 232 186 99 232 140 67 193
34 0 89 3 0 61 210 154 247 134 80 168 39 0 68
49 3 58 37 1 13 42 7 2 44 4 8 45 9 6
50 10 4 56 5 6 66 2 7 50 0 0 86 23 56
70 10 49 83 13 77 95 38 118 140 64 174 180 94 228
208 117 255 232 135 255 209 125 242 236 155 255 241 150 255
217 132 255 242 156 255 255 189 255 241 153 255 183 92 214
102 26 143 193 114 232 227 147 255 193 114 229 168 87 215
158 76 202 113 28 158 71 0 113 3 0 64 95 18 145
98 22 145 162 93 209 255 239 255 180 101 208 54 0 87
102 27 135 52 0 56 127 39 139 255 225 255 255 207 255
236 142 255 201 113 221 205 110 220 203 112 220 203 109 234
201 100 231 204 101 234 216 123 241 194 100 217 203 117 222
255 194 255 255 228 255 218 144 229 186 112 196 120 43 142
99 19 123 176 115 172 249 180 244 255 232 255 255 255 255
206 138 219 23 0 37 53 0 61 143 63 155 107 25 110
135 36 125 138 39 121 133 26 103 130 22 81 158 48 106
196 84 144 201 86 140 255 135 197 226 105 167 239 125 174
245 129 198 211 100 168 190 80 158 208 111 187 218 113 203
255 255 255 255 191 255 206 125 205 176 93 178 164 69 140
175 66 138 197 80 161 178 48 116 201 89 128 184 74 90
166 49 76 151 41 54 144 38 45 119 19 14 109 5 0
100 1 0 110 23 21 94 11 5 60 0 0 50 0 0
35 0 0 17 0 0 20 0 0 26 0 0 58 17 5
44 0 0 43 0 0 62 0 0 111 32 25 97 15 12
146 50 37 255 208 200 180 85 79 201 110 96 193 94 88
154 56 46 116 24 5 117 18 11 131 25 17 119 30 7
105 18 0 158 69 51 153 63 39 150 54 42 159 67 46
237 136 127 255 204 196 255 181 177 90 12 0 93 18 14
73 7 0 98 44 38 117 65 61 117 72 69 102 52 44
91 47 38 19 0 0 45 0 0 136 76 73 192 120 127
149 66 73 149 65 66 188 85 102 158 69 67 142 48 53
141 59 55 141 60 62 148 80 83 152 82 89 124 67 66
96 30 30 70 17 18 93 22 55 85 25 59 78 10 40
67 6 37 68 0 37 64 0 38 67 4 38 57 0 32
60 0 26 111 37 88 190 110 164 221 143 195 188 106 165
149 60 123 95 7 71 86 0 56 88 2 59 93 0 56
96 7 66 112 22 87 144 46 125 188 94 178 255 187 255
255 255 255 255 217 255 255 217 255 255 209 255 255 162 255
213 113 211 230 122 224 243 139 241 242 136 237 115 16 98
174 77 167 190 94 186 166 73 170 124 25 130 100 15 115
122 30 130 160 76 180 126 37 133 107 31 117 104 33 114
107 31 116 45 0 71 68 0 85 152 81 186 171 100 205
56 0 65 239 168 255 255 213 255 252 183 255 222 140 252
255 196 255 244 168 255 255 184 255 184 111 191 255 240 255
218 140 247 139 63 178 160 71 200 174 87 225 134 50 172
172 96 222 255 241 255 255 220 255 255 255 255 255 212 255
157 71 159 111 38 135 165 87 202 181 104 220 179 104 232
143 63 196 23 0 73 48 0 92 255 255 255 165 110 185
0 0 3 25 0 30 65 17 30 60 14 9 64 9 20
69 19 26 80 24 19 77 20 16 70 15 18 85 21 40
58 0 25 76 7 60 81 13 88 100 28 123 106 19 139
117 37 173 172 69 229 206 100 255 191 97 215 239 151 255
219 131 245 166 75 188 190 97 213 255 198 255 255 185 255
229 144 253 67 0 93 207 121 232 255 190 255 251 173 255
228 146 255 244 166 255 234 160 255 196 109 228 52 0 116
174 93 232 249 181 255 154 77 191 86 13 128 86 2 113
124 46 155 90 9 115 94 18 111 86 11 108 150 71 159
205 129 233 255 175 255 208 116 233 241 153 255 224 136 239
189 102 208 211 124 238 221 134 243 229 143 255 171 84 185
168 93 192 255 195 255 255 209 255 139 62 148 168 90 176
157 76 183 164 86 185 255 231 255 245 195 255 255 242 255
255 224 255 254 186 255 249 179 255 164 89 177 80 0 88
139 47 144 164 66 164 184 82 175 176 69 160 160 45 138
147 37 130 171 53 143 167 50 143 240 127 216 226 110 200
236 115 213 223 115 198 214 108 182 163 64 134 156 77 144
231 148 214 255 255 255 251 170 255 191 97 183 184 77 169
195 61 151 184 58 138 184 66 128 211 104 157 161 39 66
142 24 42 139 32 55 164 58 72 132 31 45 103 12 16
97 13 15 84 0 0 161 64 69 131 44 41 155 75 66
194 109 112 165 106 89 108 43 35 42 0 0 24 0 0
40 0 0 53 21 15 24 0 0 52 0 0 89 30 16
109 37 24 144 68 54 50 0 0 255 196 192 183 87 85
159 53 60 184 86 78 192 87 86 137 49 28 94 7 0
80 0 0 130 40 30 100 14 0 131 35 24 151 60 45
152 61 46 195 101 87 238 150 129 255 236 218 179 96 81
111 28 13 69 0 0 129 59 53 149 80 69 113 59 46
71 13 2 18 0 0 28 0 0 45 9 0 60 0 0
126 52 52 212 135 131 177 82 87 110 25 15 124 28 30
152 60 58 164 80 76 176 94 95 156 70 66 114 43 41
91 25 15 74 21 7 53 7 1 79 13 22 67 19 26
77 8 28 63 10 38 73 6 30 71 9 38 72 4 32
62 2 33 101 30 61 104 30 75 57 0 28 74 0 59
112 32 97 159 73 147 254 170 241 255 189 255 255 181 255
221 133 213 255 181 255 238 153 232 246 153 240 255 240 255
255 176 255 187 93 184 189 85 197 188 92 193 187 82 189
117 10 115 69 0 71 209 99 207 255 161 255 155 38 155
183 72 175 166 47 153 142 36 131 166 59 158 176 82 164
162 64 156 135 56 129 134 56 130 86 16 99 63 0 62
51 0 68 92 25 105 125 48 146 96 32 122 93 26 123
132 64 165 108 35 145 87 4 120 125 41 169 245 162 255
255 186 255 180 103 227 203 125 255 255 191 255 197 119 244
177 97 232 113 33 170 126 42 171 164 97 228 124 54 174
157 87 226 255 233 255 218 139 247 255 204 255 255 227 255
144 70 160 104 29 136 177 94 213 134 55 170 159 75 196
195 128 241 33 0 77 0 0 0 110 45 128 185 129 189
118 64 114 34 0 32 27 0 17 84 20 29 92 16 26
116 45 55 125 48 58 116 36 36 124 45 42 113 40 45
71 0 13 53 0 19 72 4 65 92 31 114 58 0 104
139 63 177 198 111 239 240 140 255 175 88 208 255 205 255
160 70 176 100 8 125 87 5 113 213 124 243 240 146 255
255 182 255 255 209 255 67 0 91 255 207 255 255 227 255
225 152 255 246 170 255 255 191 255 255 185 255 255 208 255
255 255 255 221 142 255 48 0 92 185 110 220 221 144 255
47 0 90 51 0 86 89 29 132 72 2 99 150 83 167
216 148 238 240 174 255 255 205 255 255 221 255 247 181 255
251 185 255 194 126 207 238 176 238 205 138 214 147 82 157
188 125 199 255 215 255 255 203 255 253 180 255 152 79 183
181 99 211 161 84 197 146 67 186 255 208 255 231 186 251
255 234 255 255 239 255 255 195 255 255 218 255 255 219 255
255 249 255 136 42 143 140 43 139 119 8 118 127 27 122
182 71 176 211 104 194 200 85 185 147 32 128 219 99 208
226 111 216 213 104 203 255 147 240 215 127 202 165 71 141
224 148 212 255 238 255 217 143 218 206 120 193 185 75 172
186 64 161 203 73 152 200 65 148 181 75 130 195 90 134
184 67 87 148 28 46 138 35 49 156 55 71 121 37 41
83 0 0 110 16 17 120 33 33 161 75 64 179 87 81
198 107 109 179 94 88 124 49 46 86 23 9 60 0 0
42 0 0 22 0 0 29 0 0 18 0 0 39 0 0
84 26 11 103 33 25 123 44 39 88 7 0 166 69 68
205 107 109 223 129 122 175 81 78 160 69 59 189 95 79
173 83 58 133 52 25 112 22 8 98 12 3 108 13 0
133 41 26 141 48 36 184 94 67 225 135 112 255 190 171
216 134 115 137 61 42 83 2 0 93 25 18 111 40 32
92 26 13 72 3 0 53 0 0 18 0 0 40 0 0
64 5 4 113 44 43 189 103 107 167 78 72 130 34 36
128 36 33 135 52 48 154 72 64 168 86 83 148 66 59
113 43 37 90 25 21 69 13 6 46 0 0 73 19 22
70 12 21 68 10 32 71 14 26 71 12 43 72 18 40
88 21 48 82 25 41 85 10 46 98 29 65 114 37 89
125 49 106 118 25 95 125 41 119 178 83 157 166 75 164
71 0 70 247 165 244 255 243 255 255 201 255 226 133 229
207 108 200 172 71 173 112 16 110 116 11 113 190 83 185
172 62 165 98 0 95 159 46 150 239 132 234 216 103 215
138 23 120 185 65 168 179 63 151 188 70 163 196 91 173
198 91 175 168 76 143 128 43 113 130 45 114 87 6 76
69 0 74 66 0 78 119 48 134 139 72 155 126 50 145
119 46 135 117 45 143 187 103 223 170 89 220 108 30 155
89 4 132 123 50 172 175 95 225 191 114 247 145 63 206
136 52 205 105 38 171 125 39 180 130 59 189 126 54 177
152 79 208 211 136 255 214 149 255 204 130 220 255 247 255
228 153 245 93 11 116 120 36 146 158 79 195 154 75 193
202 131 245 33 0 74 29 0 60 71 7 96 173 113 183
161 105 166 47 0 31 19 0 8 123 61 101 92 18 22
114 35 37 156 72 90 163 69 88 144 52 58 135 43 46
117 35 43 83 9 18 81 9 60 75 1 62 86 18 121
60 0 91 127 48 175 194 113 236 240 150 255 241 150 255
211 125 224 104 16 113 128 39 147 137 51 160 153 67 172
150 58 173 182 104 206 194 109 221 161 77 189 236 148 255
245 166 255 220 138 237 229 143 240 218 145 242 222 149 230
244 169 253 255 171 255 185 105 213 125 48 154 215 149 253
224 150 255 82 11 122 57 0 97 35 0 70 160 96 186
189 133 216 251 194 255 255 199 255 255 211 255 254 195 255
236 175 250 233 171 239 210 154 204 232 171 230 242 178 247
255 185 255 255 205 255 255 193 255 232 158 251 192 124 218
213 144 250 205 124 232 180 109 219 160 76 197 149 101 163
208 151 218 255 243 255 246 182 255 110 47 124 98 29 110
183 112 202 255 187 255 255 255 255 255 193 255 214 118 218
165 69 155 153 51 146 152 53 135 161 57 142 143 43 125
164 56 149 228 130 220 194 92 179 186 93 172 171 81 160
190 110 181 255 221 255 255 221 255 125 40 117 166 69 154
171 58 148 195 74 165 218 85 173 208 87 154 192 71 133
190 71 118 184 69 96 145 24 47 127 22 42 148 46 57
119 20 32 87 3 1 131 40 41 178 90 88 189 97 93
231 144 138 231 134 132 134 61 46 87 9 6 85 18 6
75 16 0 38 0 0 38 0 0 42 1 3 51 0 0
39 0 0 57 0 0 70 11 5 86 7 4 110 36 24
91 0 0 175 84 85 228 130 134 201 102 97 170 74 66
191 100 79 202 105 89 196 102 83 130 43 25 94 8 0
83 0 0 109 17 0 130 38 23 151 55 44 198 110 96
250 165 144 233 141 128 168 84 71 86 5 0 64 0 0
82 18 10 59 2 0 44 0 0 56 0 0 32 0 0
46 3 0 39 0 0 77 12 12 154 77 80 161 86 73
122 35 36 109 20 17 134 55 49 158 71 65 169 85 85
149 64 58 107 36 30 77 12 6 61 8 0 56 0 0
65 10 16 68 9 24 65 9 19 69 9 34 73 15 38
75 25 39 89 20 51 85 26 46 89 19 45 74 3 37
120 43 87 123 47 106 111 18 84 116 34 105 131 33 117
75 0 62 199 104 188 255 176 255 217 119 208 142 46 126
126 27 115 126 21 117 174 63 161 171 66 162 141 39 130
183 73 168 178 65 164 196 87 187 255 147 239 225 114 211
165 49 143 175 54 150 207 90 168 189 69 151 187 69 145
193 76 151 190 80 145 165 64 132 149 50 116 162 74 134
97 11 72 90 11 79 89 5 73 115 43 120 131 59 134
107 39 121 90 16 100 60 0 76 152 71 192 187 106 228
167 87 207 109 32 149 61 0 107 80 0 125 134 49 187
122 40 166 118 35 168 96 16 150 139 54 191 130 53 179
107 27 153 197 116 249 255 186 255 206 127 248 176 108 192
255 248 255 160 88 183 87 13 115 156 77 181 155 81 193
182 103 216 154 82 193 0 0 0 90 18 118 184 120 208
185 116 193 90 25 91 32 0 23 64 0 61 125 53 98
117 26 42 142 53 64 196 101 116 204 110 126 186 83 93
158 64 78 147 54 63 120 41 56 103 19 70 68 0 57
87 9 107 69 0 108 161 78 194 228 147 255 243 165 255
255 189 255 197 111 225 157 73 185 212 128 244 202 114 215
173 82 184 119 44 143 139 56 161 191 106 219 193 109 228
167 83 203 173 84 198 179 103 204 143 62 168 149 66 166
204 124 207 226 154 252 255 220 255 180 103 229 140 57 172
184 103 218 163 93 199 102 28 136 101 38 134 101 37 126
230 170 247 252 197 255 255 239 255 255 227 255 255 212 255
250 202 255 233 192 244 226 184 232 255 238 255 255 242 255
255 255 255 255 255 255 255 254 255 255 210 255 180 128 192
109 43 120 213 148 230 181 113 208 164 88 191 135 60 164
190 133 198 237 182 255 255 255 255 248 190 255 93 31 112
51 0 58 96 17 108 90 20 110 255 242 255 255 199 255
255 193 255 235 148 232 178 89 176 144 50 131 162 67 151
178 83 167 188 93 184 255 186 255 241 147 233 137 57 132
151 71 143 255 210 255 255 255 255 180 103 175 152 60 141
177 77 164 209 80 179 221 94 183 230 108 188 216 91 163
185 72 127 161 50 97 186 71 93 147 31 43 130 25 38
135 35 51 123 32 43 140 44 47 189 96 94 219 124 125
226 127 125 229 141 140 174 86 83 75 0 0 65 0 0
122 59 48 120 60 45 48 0 0 59 4 4 46 1 0
68 21 17 41 0 0 42 0 0 65 2 0 81 12 16
148 72 75 106 27 32 111 20 14 150 58 55 202 106 96
191 105 87 152 52 48 161 66 43 214 124 98 186 99 91
130 45 27 103 8 0 123 31 22 136 44 27 146 51 37
170 87 69 232 138 122 181 98 82 178 96 81 128 55 38
114 33 24 128 54 53 95 27 20 57 0 0 41 0 0
53 21 0 56 18 0 33 0 0 52 0 0 134 65 65
161 77 79 124 41 38 93 16 10 143 54 48 152 71 72
173 93 84 146 72 68 105 36 33 85 19 15 67 10 9
67 6 7 62 8 16 68 9 21 65 8 23 69 9 26
68 15 31 85 19 47 87 20 44 83 24 49 103 32 63
64 0 30 102 25 71 112 33 91 119 41 112 120 32 101
91 9 83 83 0 70 255 237 255 217 108 195 103 0 80
122 21 111 182 75 164 173 62 157 179 82 160 193 84 171
219 108 201 199 87 175 239 122 207 255 183 255 255 156 243
194 77 158 183 66 157 219 102 183 207 87 152 192 70 130
176 62 128 181 64 122 170 65 122 157 52 107 155 55 110
186 97 145 76 0 45 84 0 47 70 0 46 78 0 64
81 9 77 76 1 71 71 0 81 72 0 85 48 0 83
119 38 152 191 113 221 225 142 255 138 59 177 51 0 95
103 25 149 169 86 220 112 30 162 146 63 195 161 79 206
142 58 191 138 53 190 208 128 254 249 167 255 175 91 213
255 228 255 255 215 255 140 62 160 125 49 146 134 64 166
114 42 147 147 72 179 25 0 61 150 77 184 155 88 182
168 93 179 104 33 114 46 0 39 90 9 76 129 58 121
98 20 69 125 23 44 138 38 45 181 72 89 205 99 110
185 84 91 190 80 95 175 75 96 180 76 116 116 27 77
72 0 55 105 12 115 97 13 131 201 114 234 254 180 255
255 170 255 238 166 255 255 168 255 255 222 255 255 242 255
246 171 255 250 172 255 210 132 216 138 53 159 211 126 241
205 122 236 165 82 195 192 107 225 175 90 199 106 20 125
135 64 143 246 161 255 255 210 255 255 208 255 170 84 198
137 60 165 141 68 175 138 54 163 145 78 179 187 109 204
207 147 223 233 170 237 255 209 255 255 230 255 255 222 255
253 213 255 252 214 255 245 211 255 249 213 255 255 238 255
255 247 255 255 230 255 244 194 248 248 196 255 255 230 255
255 213 255 224 168 243 231 158 249 223 154 249 208 132 234
189 119 212 194 136 204 254 192 255 255 255 255 255 195 255
113 50 134 95 24 109 119 46 131 136 63 153 70 0 90
139 62 147 232 152 247 255 215 255 255 234 255 255 229 255
255 215 255 255 209 255 255 202 255 255 214 255 255 239 255
231 144 224 244 165 249 255 255 255 255 211 255 140 66 135
193 87 174 216 96 182 206 85 183 228 90 180 212 94 164
202 82 142 173 56 112 145 34 67 188 64 94 160 46 61
140 32 49 135 29 36 151 48 56 208 115 119 236 138 141
210 113 119 234 142 140 196 98 91 110 13 4 58 0 0
120 38 37 205 125 117 162 91 86 81 15 3 55 0 2
26 0 0 60 10 6 63 9 14 61 4 8 82 24 27
72 5 17 76 3 14 147 67 73 94 4 14 101 14 10
169 75 74 208 106 105 175 84 65 161 67 51 176 77 63
223 139 120 161 71 68 132 38 21 136 44 33 153 61 42
149 57 42 169 71 58 195 112 92 178 86 73 215 131 116
223 135 125 219 141 135 227 148 137 166 97 91 74 0 0
31 0 0 47 3 0 38 0 0 16 0 0 45 0 0
132 55 60 159 87 83 130 48 42 107 32 27 118 33 34
139 62 52 154 72 71 131 56 53 99 26 35 75 15 16
72 15 9 75 15 20 70 17 15 71 12 34 70 14 24
67 10 26 82 14 39 74 13 32 83 21 36 78 18 38
100 29 53 85 12 46 103 26 73 111 33 89 129 49 115
103 15 90 88 4 84 219 127 211 255 201 255 142 32 118
138 36 119 195 84 172 190 85 175 162 53 135 132 17 104
163 48 127 162 44 123 203 82 164 237 116 196 206 88 154
183 65 135 187 71 141 203 80 147 191 67 133 185 59 106
185 59 105 180 62 109 188 70 117 180 60 112 164 50 99
150 46 81 168 65 99 131 30 78 123 38 70 103 15 63
87 2 59 78 0 62 97 18 93 125 51 122 170 91 177
67 0 98 52 0 93 83 8 122 208 135 240 255 191 255
226 151 255 137 54 177 9 0 53 105 25 154 116 36 163
139 59 189 133 53 173 127 47 171 150 69 188 165 83 212
115 32 156 248 178 255 148 81 174 56 0 83 93 17 116
144 67 173 133 55 162 153 72 177 148 80 174 255 200 255
122 47 137 44 0 53 64 0 56 82 4 71 107 26 93
139 55 121 158 60 121 139 35 58 133 26 40 153 47 65
176 67 85 187 77 90 198 85 104 206 97 113 203 94 132
157 53 119 109 1 91 115 21 128 128 25 147 222 130 255
255 182 255 253 167 255 225 139 240 250 170 255 255 211 255
255 211 255 255 187 255 255 216 255 255 181 255 162 82 185
186 101 215 200 113 239 196 108 237 210 125 239 175 90 198
124 49 134 210 131 225 255 222 255 255 229 255 172 98 192
145 70 174 191 113 215 220 146 255 243 160 255 255 190 255
248 176 251 238 178 253 249 185 253 255 216 255 255 226 255
253 211 246 255 217 255 255 232 255 255 241 255 255 230 255
255 248 255 255 216 255 197 149 203 144 104 149 164 123 173
244 199 250 255 244 255 255 252 255 255 229 255 255 232 255
255 230 255 255 225 255 169 103 175 242 187 255 255 252 255
197 137 225 45 0 53 33 0 50 84 17 103 116 41 136
85 17 107 133 50 144 201 129 214 254 169 255 255 190 255
255 205 255 255 231 255 255 254 255 255 213 255 223 157 229
255 215 255 255 231 255 255 244 255 255 240 255 169 103 175
158 83 150 188 79 167 211 82 179 200 72 165 194 57 148
190 62 141 183 74 125 179 57 102 158 36 76 185 66 88
170 56 73 144 40 56 126 24 32 163 64 77 246 157 151
249 157 158 203 101 98 180 81 74 130 27 28 73 0 0
100 12 3 189 95 91 213 139 137 165 81 79 96 23 22
90 39 28 24 0 0 50 0 0 88 27 38 76 16 23
88 24 42 59 5 7 0 0 0 116 42 48 116 37 39
123 28 30 132 45 32 186 100 86 237 142 137 211 123 106
133 45 28 204 112 107 176 88 77 154 58 51 129 34 20
138 46 37 154 62 43 159 68 53 161 66 50 176 79 67
227 132 124 255 183 175 255 195 180 255 189 182 206 125 121
106 16 11 20 0 0 30 0 0 24 0 0 11 0 0
42 0 0 131 66 55 163 85 85 126 47 42 122 41 37
103 24 15 122 44 42 123 45 47 99 28 29 83 11 15
78 8 17 74 19 12 69 11 15 73 18 36 73 19 27
71 13 33 70 17 37 78 13 33 80 19 38 82 20 35
82 22 42 74 1 25 106 44 76 123 46 86 110 28 90
113 29 99 81 0 72 126 37 123 255 242 255 183 78 166
105 3 82 140 34 121 141 33 113 108 4 81 133 23 101
128 22 92 180 64 141 140 30 100 190 76 136 158 44 108
124 10 70 168 42 107 178 61 107 160 40 96 170 53 102
186 69 102 183 55 95 181 59 95 177 65 98 172 54 90
154 44 80 166 52 90 162 55 90 223 121 157 203 101 139
166 81 114 113 30 71 85 0 55 86 3 70 118 38 101
99 17 93 255 216 255 239 170 255 164 85 189 49 0 75
40 0 79 153 76 182 255 186 255 255 180 255 121 42 166
105 26 146 110 31 151 121 42 164 74 0 119 83 4 120
114 34 157 75 0 111 122 46 152 116 40 135 108 27 138
158 81 188 248 170 255 178 107 206 91 20 118 194 110 204
123 42 140 66 0 72 57 0 54 97 15 87 136 48 110
154 61 119 146 62 122 138 46 95 184 74 103 153 39 47
153 44 58 182 64 85 189 76 82 205 93 102 212 93 119
217 93 132 204 84 163 160 52 139 137 26 147 137 34 158
235 133 255 255 165 255 255 177 255 228 140 233 148 65 175
130 51 154 139 57 143 255 188 255 255 208 255 255 199 255
223 141 239 186 101 217 194 106 235 199 116 232 189 109 221
165 89 187 200 111 203 255 209 255 255 214 255 255 175 255
101 26 118 164 95 179 255 194 255 255 237 255 255 244 255
255 255 255 255 199 255 221 159 224 255 223 255 255 234 255
255 229 255 252 212 246 255 218 254 255 242 255 255 230 255
255 242 255 255 243 255 238 183 255 188 142 201 183 132 193
193 131 201 182 127 187 187 128 194 204 143 225 250 174 255
250 175 255 255 188 255 255 191 255 244 174 249 255 217 255
255 241 255 170 100 183 47 0 59 79 12 95 93 22 114
35 0 48 156 85 176 160 84 170 187 102 187 149 69 161
111 25 103 108 20 104 168 71 147 215 122 201 223 147 224
177 97 169 207 121 205 231 161 237 255 212 255 255 217 255
166 112 184 157 85 161 194 82 169 211 84 171 201 63 160
188 48 134 186 69 130 201 76 135 208 83 133 208 87 121
180 63 84 172 61 80 149 32 53 134 26 40 172 76 76
240 140 144 232 135 137 177 83 82 128 25 28 93 0 0
110 6 0 192 97 95 219 130 131 170 79 72 132 51 44
165 79 77 150 88 76 46 0 0 45 0 0 89 34 37
39 0 0 68 5 27 148 89 112 136 72 83 35 0 0
103 29 33 115 33 34 118 31 27 143 60 48 197 109 90
203 116 103 166 85 69 179 83 73 204 114 101 165 76 66
103 22 0 119 24 12 149 58 49 153 57 40 121 31 14
146 52 39 186 98 90 251 165 154 255 178 166 248 162 163
230 148 145 154 69 68 71 0 0 44 0 0 51 0 0
31 0 0 74 13 10 159 87 82 162 86 85 115 34 29
119 42 34 107 30 28 119 35 36 109 35 35 81 12 13
68 6 9 67 12 14 75 12 24 70 11 11 80 15 36
77 15 34 80 14 37 77 12 38 79 17 40 85 25 47
91 24 48 89 30 54 86 12 37 109 41 77 122 38 97
110 29 88 81 0 70 104 11 98 182 91 174 255 219 255
67 0 47 116 18 88 146 37 120 155 57 133 153 53 123
160 61 123 156 50 114 148 48 102 173 61 120 164 49 105
138 24 69 151 37 75 179 61 101 150 36 80 145 28 59
172 58 89 201 78 114 182 63 89 182 61 99 183 59 96
170 60 94 165 47 74 184 71 98 194 84 108 218 110 140
205 105 126 179 78 114 130 30 75 86 1 52 74 0 46
87 0 64 58 0 44 51 0 62 226 166 247 255 255 255
241 177 255 82 6 112 109 35 134 249 171 255 255 222 255
234 162 255 226 152 255 190 116 228 192 118 230 201 127 239
184 110 224 168 94 211 162 88 199 138 60 171 229 156 255
249 170 255 243 158 255 253 173 255 156 67 175 32 0 47
55 0 65 64 0 70 118 35 126 153 61 134 151 62 127
161 72 131 174 79 129 153 49 112 117 24 75 178 72 86
152 43 59 162 57 72 195 91 98 207 86 102 213 92 106
219 96 124 207 83 122 220 96 179 219 87 186 157 44 159
170 54 181 255 151 255 255 165 255 255 173 255 202 118 216
96 9 122 69 0 103 64 0 66 244 178 245 255 209 255
255 215 255 255 174 255 169 83 200 198 115 233 201 117 238
189 99 200 210 126 218 255 214 255 255 238 255 253 157 255
197 111 218 125 56 132 213 156 228 255 223 255 255 219 255
255 202 255 255 193 255 232 174 240 216 160 217 255 218 255
255 230 255 255 230 255 247 197 245 244 194 239 240 200 243
225 205 238 255 209 255 219 158 246 198 121 221 184 117 205
224 148 245 222 161 238 181 106 191 150 73 167 159 80 168
139 70 165 156 76 170 164 78 180 165 86 172 157 89 167
255 192 255 255 255 255 190 123 212 33 0 44 60 0 80
117 51 132 86 15 102 68 0 76 123 45 130 179 99 182
196 110 192 165 72 154 130 44 124 136 43 118 128 39 105
179 89 154 216 140 208 169 80 154 124 51 121 255 202 255
255 255 255 255 210 255 146 69 143 212 99 189 224 99 188
220 79 170 198 63 144 205 81 146 230 114 165 245 117 157
255 153 188 188 67 94 172 65 74 147 34 51 134 32 47
165 57 67 222 128 125 211 112 110 165 67 64 146 40 32
107 3 1 156 49 48 255 166 157 247 156 148 136 37 39
134 38 45 255 192 184 164 93 82 44 0 0 37 0 0
67 2 20 0 0 0 65 7 33 255 219 243 255 255 255
0 0 0 34 0 0 76 0 0 125 47 33 134 51 45
106 22 8 136 58 45 238 156 147 178 89 79 232 138 133
178 86 82 84 0 0 98 1 0 148 54 44 148 53 36
101 5 0 139 48 37 165 69 50 225 134 129 254 164 156
255 161 154 255 169 166 198 109 107 119 35 26 12 0 0
36 0 0 38 0 0 94 30 18 194 114 114 169 99 98
109 28 19 97 19 19 138 58 60 127 50 53 105 35 40
83 14 10 80 9 19 87 23 32 91 35 36 89 28 41
74 14 25 71 7 32 59 0 20 64 3 30 76 15 38
86 27 49 97 32 54 97 37 51 110 47 79 108 37 81
89 21 68 93 14 87 51 0 38 85 6 89 230 146 225
238 141 228 66 0 45 183 93 165 131 37 108 145 50 108
156 51 124 81 0 42 95 0 50 138 37 87 117 6 52
109 7 42 180 74 106 172 67 92 100 0 27 149 33 55
203 87 110 126 11 34 186 71 93 190 75 98 212 103 125
235 113 138 205 85 110 176 58 85 181 58 84 192 78 105
200 88 109 219 107 127 219 110 140 191 83 112 161 68 115
166 69 119 152 47 108 132 40 107 56 0 51 33 0 37
59 0 61 152 71 153 219 136 226 255 218 255 255 239 255
216 136 243 0 0 10 101 26 128 57 0 89 91 13 121
236 157 255 161 81 190 22 0 53 62 0 87 88 4 114
230 139 245 225 145 249 167 83 190 128 45 154 137 45 155
182 88 191 136 51 144 183 90 181 203 106 190 188 97 171
190 98 162 201 98 154 155 55 101 141 41 98 220 121 156
144 32 52 138 32 44 179 66 77 212 98 110 213 96 106
196 78 93 205 80 101 209 86 130 214 80 151 228 105 201
170 43 163 195 84 209 255 185 255 255 154 255 255 173 255
146 59 151 113 36 146 171 94 198 64 0 71 208 136 210
255 208 255 255 213 255 248 166 255 127 41 160 180 94 213
161 81 195 119 35 126 188 101 207 255 250 255 255 201 255
155 64 183 107 22 135 159 92 169 255 195 255 255 248 255
255 188 255 202 131 216 195 129 205 215 143 214 218 155 225
246 193 243 255 219 255 255 217 255 230 173 223 203 160 207
199 155 209 209 163 212 240 199 255 233 146 247 224 134 248
194 111 217 189 110 206 211 120 229 214 132 226 198 120 215
185 94 197 158 69 162 171 86 183 182 94 186 177 89 185
148 81 162 255 205 255 255 255 255 162 95 187 51 0 65
87 23 100 60 0 76 74 0 83 134 54 137 119 39 121
132 39 120 122 30 112 125 26 101 150 44 117 179 77 148
176 66 139 255 159 227 219 112 186 218 113 188 207 119 197
149 86 154 255 196 255 255 255 255 205 136 218 150 47 130
218 108 196 222 97 177 186 59 144 176 62 117 218 98 150
218 96 141 197 63 96 182 70 86 154 32 52 113 0 20
130 25 32 185 79 79 202 98 104 177 69 75 175 72 71
102 2 0 137 32 25 203 98 91 255 158 155 212 109 114
122 20 13 106 12 8 185 85 93 109 39 26 75 0 0
62 0 0 54 0 0 17 0 0 18 0 0 228 178 190
255 255 255 255 234 238 84 26 26 47 0 0 137 70 59
83 11 5 90 10 0 185 105 95 198 121 108 172 82 75
215 127 114 211 126 115 142 57 42 93 5 0 110 27 13
145 48 33 130 36 20 100 5 0 168 71 55 219 130 126
204 115 108 186 97 93 243 152 150 255 196 199 255 204 203
172 96 104 156 92 90 144 65 70 142 68 64 130 59 58
116 32 24 114 38 39 123 45 39 133 50 46 113 38 48
103 33 33 84 22 31 76 5 19 53 0 5 47 0 0
39 0 2 21 0 0 52 0 13 91 31 56 99 34 61
93 29 62 82 21 46 95 28 63 111 50 79 93 26 69
62 0 34 113 39 95 67 0 54 58 0 51 255 224 255
214 125 209 76 0 72 138 51 119 92 2 62 110 19 76
105 18 79 88 0 46 133 44 95 189 90 134 177 83 124
134 30 70 150 49 73 147 32 65 149 36 56 163 51 68
156 50 67 155 41 55 165 50 59 138 32 53 138 33 47
159 43 69 190 76 102 232 114 137 246 122 153 209 88 111
184 66 79 157 35 52 180 56 77 185 72 95 183 76 103
197 83 117 201 98 139 209 104 159 227 116 173 143 63 128
117 32 93 39 0 23 149 61 124 255 255 255 255 210 255
203 114 199 255 210 255 255 229 255 255 254 255 255 176 255
217 130 224 230 147 252 233 152 243 180 98 192 36 0 46
136 50 156 117 37 136 174 77 182 219 118 224 222 126 231
213 115 216 218 115 225 251 141 242 171 71 155 188 91 172
185 81 149 147 46 101 121 22 69 131 26 64 127 33 58
115 7 41 163 50 73 166 65 78 212 96 109 224 111 119
230 112 119 238 123 137 230 110 138 188 67 104 215 91 162
211 91 171 227 108 212 200 88 206 208 113 226 255 200 255
255 169 255 174 97 184 80 0 107 81 5 112 163 91 170
242 169 255 255 215 255 255 221 255 220 134 245 106 20 141
114 33 138 113 30 138 220 134 220 255 235 255 255 185 255
202 119 210 200 105 241 197 99 226 190 120 204 239 171 251
195 120 216 146 82 164 173 107 184 115 55 132 126 61 128
224 165 235 243 180 243 238 178 241 243 186 243 240 182 235
242 177 246 251 188 255 225 169 239 209 142 223 210 117 232
221 121 240 196 103 216 172 79 186 157 65 177 157 68 178
163 73 180 168 79 185 188 102 202 175 87 185 155 68 166
151 63 165 154 87 166 255 197 255 255 255 255 168 98 190
34 0 45 73 6 91 76 11 89 99 26 104 123 49 124
124 39 109 124 39 113 136 42 117 148 48 115 165 50 120
173 71 136 162 46 108 254 143 204 231 117 179 218 117 187
227 121 198 171 95 166 197 135 209 255 221 255 255 234 255
173 73 157 180 77 162 208 88 171 225 109 179 198 74 137
198 82 134 226 96 140 222 96 129 154 31 56 143 31 41
129 15 28 157 56 68 216 112 117 237 136 134 194 96 89
166 67 59 118 13 6 134 31 28 201 100 96 255 161 154
211 108 100 121 21 23 135 35 38 196 100 97 166 74 76
126 49 38 129 55 60 135 63 73 65 0 11 10 0 0
71 17 33 178 131 139 178 121 134 53 2 0 33 0 0
94 35 19 99 28 16 85 14 0 127 52 42 156 76 57
200 106 105 209 123 110 211 116 114 148 60 52 100 12 3
110 19 5 129 41 23 122 34 16 121 33 23 173 87 69
223 128 118 192 108 95 165 75 65 202 111 104 253 158 153
240 157 151 255 189 190 228 152 149 192 113 111 178 97 100
156 75 68 117 41 34 93 5 8 80 2 3 130 57 61
116 35 39 97 25 30 80 12 23 68 8 19 71 15 22
81 29 42 80 22 41 125 60 78 126 67 95 141 78 104
140 79 107 113 52 80 85 22 56 68 1 31 53 0 29
72 5 43 133 59 110 73 0 63 58 0 47 187 107 182
255 207 255 143 51 141 85 3 78 133 42 102 99 16 62
117 30 82 124 38 87 104 18 61 131 42 85 174 77 113
155 63 95 161 55 86 159 61 74 164 63 78 164 65 71
170 62 77 173 63 75 177 66 73 174 68 72 157 49 66
158 51 66 161 56 69 183 67 81 195 80 100 198 83 96
190 71 93 180 58 76 183 62 72 190 71 90 194 78 89
179 63 86 175 60 94 176 59 98 178 61 105 173 66 112
147 44 94 169 75 132 172 75 133 237 135 195 255 203 255
210 110 171 104 8 83 112 14 91 255 171 255 227 138 220
176 80 168 163 70 155 195 98 194 216 127 209 232 138 224
192 110 190 212 127 211 200 105 198 196 97 195 200 101 198
229 121 217 236 127 232 229 120 217 244 140 233 165 60 146
176 74 140 144 45 102 140 31 85 129 29 64 124 26 56
142 43 64 152 47 62 143 45 59 152 37 52 174 64 68
192 93 94 225 106 118 255 157 152 255 177 202 255 181 212
233 113 164 220 102 175 185 71 167 192 87 186 254 151 255
255 192 255 249 165 255 234 147 249 134 58 166 166 90 200
186 109 214 255 192 255 255 247 255 244 165 255 144 61 172
133 47 163 103 20 131 168 90 192 255 194 255 255 246 255
252 156 255 157 70 173 150 53 195 152 59 198 223 148 239
255 207 255 255 205 255 245 173 255 255 188 255 210 131 227
156 90 169 165 105 171 255 229 255 255 195 255 244 186 246
217 157 226 207 148 220 218 158 239 218 154 231 215 139 232
186 89 202 218 111 240 215 115 237 199 98 217 164 62 180
147 48 162 155 55 168 172 74 174 161 69 173 150 60 155
146 54 151 137 49 135 177 110 189 249 179 255 255 255 255
164 103 188 14 0 34 90 21 95 75 9 77 99 29 103
121 44 111 102 19 93 113 19 75 118 22 82 147 40 96
159 58 115 183 59 114 134 16 77 255 125 183 241 113 175
239 114 184 234 129 196 192 99 177 143 66 141 236 149 233
255 255 255 231 135 223 168 67 152 197 92 164 255 148 220
208 94 149 188 64 119 220 86 131 222 94 123 148 27 54
141 30 43 136 28 45 190 75 83 247 142 143 255 157 159
204 98 100 159 51 51 120 18 15 140 39 27 236 125 118
255 174 169 192 82 85 131 31 21 174 64 64 206 108 101
183 89 85 176 80 82 192 104 101 188 116 115 128 60 65
42 0 0 0 0 0 0 0 0 78 37 27 34 0 0
8 0 0 51 0 0 110 42 33 98 23 13 102 18 16
135 46 36 190 103 106 198 117 110 218 129 116 176 86 78
120 37 19 104 9 0 113 28 5 127 38 21 92 7 0
155 65 55 221 133 121 215 126 119 165 71 66 154 69 62
174 85 85 184 93 95 222 125 126 176 91 88 153 73 68
151 72 65 134 57 53 121 40 35 117 38 36 132 50 50
126 47 47 109 41 43 95 21 32 81 13 22 75 17 30
87 24 41 92 34 61 91 35 52 125 64 88 111 44 70
103 35 70 89 21 53 75 12 47 79 14 60 95 27 72
111 43 91 76 8 59 73 0 56 60 0 52 210 128 204
255 232 255 204 119 200 56 0 47 124 42 111 111 18 70
93 8 50 118 27 74 127 44 82 116 29 63 135 43 78
156 66 86 147 52 74 153 61 77 150 58 76 158 59 70
158 62 68 167 58 68 158 62 62 165 59 57 163 54 60
166 73 83 155 63 75 166 58 74 160 51 72 162 53 66
176 58 68 188 65 83 181 60 72 212 88 96 212 90 95
214 96 103 204 79 94 195 74 92 190 79 100 194 72 110
186 62 99 181 73 111 205 84 125 213 99 141 228 110 162
211 104 153 158 41 101 124 14 78 160 41 117 196 83 153
168 57 126 135 28 104 158 56 125 147 42 110 123 19 93
167 59 134 160 57 128 164 75 147 152 67 136 164 64 145
185 83 158 208 95 188 211 99 183 199 81 165 202 89 171
150 32 102 139 33 97 132 27 76 153 52 86 158 55 77
137 39 49 113 16 23 104 16 10 88 0 0 65 0 0
63 0 0 55 0 0 79 0 0 130 28 27 187 75 75
172 71 74 201 92 131 198 82 134 190 79 149 207 96 186
250 144 237 252 161 255 255 164 255 255 198 255 234 158 255
255 182 255 255 196 255 255 213 255 255 199 255 185 102 208
110 25 140 131 46 161 107 24 134 226 137 255 255 255 255
255 255 255 208 116 229 99 15 117 112 21 167 142 51 202
199 108 223 236 154 255 234 145 255 212 126 245 248 173 255
239 160 255 193 118 210 167 94 177 255 208 255 250 185 255
247 181 253 216 153 218 218 139 215 219 146 225 195 126 202
175 104 195 173 83 195 205 104 225 199 106 223 182 93 204
148 57 161 126 38 140 129 33 132 134 43 144 157 66 149
148 59 143 135 43 120 133 45 122 212 145 230 255 188 255
255 255 255 169 102 191 30 0 33 85 24 99 75 5 74
77 16 77 105 36 90 97 21 79 90 8 57 115 21 72
136 31 86 162 49 98 162 52 100 139 18 60 232 97 151
246 117 168 229 107 170 231 115 185 238 135 209 171 83 154
169 99 174 255 223 255 255 197 255 201 123 198 215 108 192
239 128 204 211 88 156 201 71 129 208 74 127 203 71 115
175 62 72 156 37 49 149 28 41 189 81 93 250 149 152
255 159 152 198 93 88 145 44 37 118 15 4 148 47 41
254 145 141 255 166 159 169 70 62 143 33 34 196 98 98
223 117 113 197 92 97 191 99 89 190 98 102 186 95 96
144 77 78 114 54 56 75 17 18 23 0 0 8 0 0
27 0 0 23 0 0 45 0 0 105 42 25 107 40 29
114 31 29 125 47 37 162 77 71 177 88 89 210 124 121
198 116 105 149 64 58 95 20 4 103 9 0 111 36 12
125 34 19 162 75 52 204 117 108 198 112 94 169 77 69
141 64 49 155 65 55 170 80 75 141 45 47 131 39 39
112 23 25 105 30 25 107 24 22 93 22 14 111 39 34
140 59 60 111 31 42 112 40 38 98 33 45 86 28 36
93 30 47 86 22 39 81 25 50 75 22 41 82 11 36
77 14 40 69 3 33 69 3 40 67 8 41 69 9 48
78 6 54 73 9 57 69 0 57 58 0 56 245 165 236
255 206 255 131 47 123 100 17 87 114 23 97 106 21 93
96 17 48 99 12 37 112 27 62 129 40 75 114 32 54
121 35 58 127 44 63 121 31 48 109 20 29 123 24 37
120 32 32 124 25 32 121 34 31 127 29 27 126 32 32
129 31 26 140 51 55 141 54 58 137 40 53 132 41 38
136 29 38 140 32 38 160 49 52 163 51 54 197 89 85
204 83 84 209 93 96 204 88 96 202 83 99 213 86 106
209 94 119 197 81 102 230 107 139 208 88 117 202 75 115
184 67 97 171 44 89 163 47 88 200 76 127 234 113 167
197 81 132 170 57 115 185 73 133 235 127 188 200 88 152
126 23 74 152 44 99 154 51 101 149 51 110 156 58 108
159 63 122 148 39 102 147 34 94 155 43 111 195 76 141
234 112 179 224 114 171 159 52 96 105 0 29 91 0 11
97 0 14 81 0 0 79 0 0 84 0 0 81 0 0
97 1 0 153 55 49 197 106 95 210 108 98 191 85 74
136 38 27 73 0 0 121 11 36 141 38 63 172 73 133
206 98 162 205 102 194 214 110 206 244 151 242 255 173 255
255 180 255 255 182 255 255 198 255 252 166 255 160 76 183
130 47 161 152 64 188 108 25 141 191 110 212 252 165 255
255 247 255 255 195 255 154 75 175 92 9 126 127 33 175
156 61 206 194 98 228 174 79 197 118 32 155 117 21 138
175 92 204 213 128 236 218 146 239 255 177 255 233 164 247
246 176 249 255 185 254 249 180 253 246 167 254 234 160 242
200 127 214 163 86 175 189 94 214 175 87 206 168 68 186
155 61 174 148 50 163 146 55 154 146 59 153 143 49 137
166 75 160 150 60 136 144 57 128 140 50 117 220 153 238
255 211 255 255 255 255 182 115 196 27 0 40 71 12 76
55 5 55 89 27 80 92 22 73 91 20 61 107 23 62
106 19 64 127 28 58 141 35 70 155 52 83 142 32 68
193 67 109 254 128 167 237 122 176 200 92 154 247 137 213
211 115 197 171 76 159 192 115 193 255 232 255 255 195 255
225 133 210 181 82 147 202 75 140 218 93 145 206 72 125
188 55 95 169 58 70 158 42 57 150 34 52 193 83 84
255 142 151 255 150 149 193 90 86 135 33 30 112 9 4
159 56 41 255 156 150 250 149 139 149 46 43 148 47 38
217 110 106 220 114 116 205 98 101 200 83 90 172 81 76
148 61 49 136 43 47 152 75 65 133 76 66 127 73 65
32 0 0 43 4 0 53 0 0 66 12 0 75 11 10
97 23 21 108 39 29 109 22 22 121 47 33 143 59 55
187 105 97 210 131 117 168 88 76 111 28 15 105 20 3
114 37 21 143 59 40 147 62 41 171 89 81 186 106 88
195 109 101 184 109 94 168 79 78 165 88 82 159 64 66
156 55 62 130 51 42 124 43 37 114 42 38 112 42 31
123 43 41 139 76 66 95 20 26 101 34 37 86 20 33
82 24 39 79 18 32 74 20 39 73 11 43 56 1 30
94 25 51 79 16 32 75 8 43 71 8 39 79 8 52
82 10 62 89 23 75 77 10 60 147 71 143 95 29 94
255 193 255 186 101 176 33 0 22 116 36 107 134 57 117
51 0 17 116 34 57 99 20 40 108 37 51 123 34 59
107 25 45 104 20 35 101 22 29 83 6 14 88 3 8
90 13 8 86 6 13 94 16 16 94 16 11 101 19 17
105 23 21 101 22 19 89 15 10 95 17 25 100 19 14
99 16 19 102 5 15 103 15 17 117 24 24 134 32 35
142 35 34 151 49 46 165 59 56 178 63 65 178 65 75
193 82 92 207 95 106 194 81 98 241 122 139 221 108 125
237 116 138 224 113 136 191 73 96 180 70 102 190 73 112
178 69 104 192 79 119 151 35 73 156 48 84 233 130 162
210 105 141 154 47 76 184 70 105 195 95 125 158 65 95
178 79 122 181 79 114 154 56 93 131 23 66 134 18 59
172 66 99 226 112 140 184 83 108 120 19 40 64 0 0
64 0 0 89 0 0 114 19 6 142 49 34 149 61 48
238 140 138 210 116 107 229 132 114 240 147 129 244 154 129
255 181 157 255 182 160 255 205 191 131 32 27 94 0 0
110 5 48 178 71 118 181 78 157 202 95 184 229 115 219
204 99 210 179 91 219 169 90 223 198 102 230 158 79 201
96 14 141 111 26 142 170 86 215 128 41 160 255 213 255
255 206 255 255 191 255 194 111 209 105 18 127 91 11 132
138 48 191 143 58 198 255 189 255 167 75 197 89 0 125
93 7 125 155 64 183 174 93 199 223 137 244 255 211 255
253 180 255 255 188 255 255 188 255 252 176 251 242 166 251
238 158 247 216 138 237 200 124 219 185 91 213 175 91 204
150 60 175 130 44 158 132 48 150 140 56 153 152 71 157
175 86 164 142 58 125 141 58 124 133 51 103 128 49 96
215 148 236 255 232 255 255 255 255 161 103 170 19 0 32
40 0 34 53 0 56 97 37 92 69 11 54 86 23 57
100 24 59 111 24 54 116 21 54 125 33 57 155 48 71
162 50 76 162 47 73 244 114 149 241 129 184 194 82 133
221 102 182 220 103 184 175 77 163 186 93 176 255 247 255
255 221 255 226 139 215 145 45 121 194 68 136 239 98 159
197 69 126 182 62 96 160 33 52 149 32 38 156 36 46
196 88 94 254 144 154 250 144 145 187 83 83 131 29 18
112 7 0 178 73 63 251 148 145 219 116 107 134 31 28
158 56 49 210 105 104 199 97 87 172 58 68 167 62 67
168 56 54 145 49 47 128 42 33 146 59 48 148 75 64
153 84 73 63 12 2 46 0 0 51 1 0 66 8 3
45 0 0 69 8 5 113 36 37 106 33 27 103 15 18
119 31 26 159 72 66 194 111 98 181 93 84 125 52 36
120 35 15 113 38 24 143 56 36 136 68 42 154 71 51
167 82 70 193 110 100 188 103 90 149 71 53 130 45 35
145 46 52 139 50 52 128 42 37 124 49 40 128 57 50
125 56 47 127 57 58 147 77 80 83 13 12 91 18 19
66 0 7 54 0 4 64 3 21 73 17 41 78 22 53
93 28 56 83 21 32 79 13 40 75 13 33 70 6 38
77 9 57 102 34 86 133 63 118 158 88 153 68 0 57
149 78 150 232 151 230 90 20 93 108 21 88 133 54 117
79 0 52 107 34 80 111 32 51 104 28 30 111 29 46
107 36 42 99 22 37 89 16 17 86 9 13 78 0 4
88 21 19 88 14 22 91 22 15 89 17 15 93 20 20
91 22 21 88 18 17 98 25 23 69 3 3 81 19 15
93 18 26 91 21 16 103 19 23 96 22 18 122 27 24
123 34 32 111 14 15 127 31 35 143 45 45 148 50 49
164 56 60 184 79 79 192 89 84 193 85 91 181 72 75
198 77 87 213 106 116 204 94 104 167 52 73 171 64 78
206 92 114 232 125 141 178 61 91 147 41 67 128 26 40
187 80 102 176 66 86 117 4 30 115 17 30 129 22 38
108 11 27 119 23 39 115 16 35 109 2 23 91 0 3
89 0 0 91 0 0 68 0 0 123 20 24 101 0 0
113 26 20 175 77 70 218 126 110 232 137 128 229 143 116
240 142 121 230 133 119 204 112 102 205 103 89 201 103 78
208 111 84 252 154 120 255 188 161 255 205 174 255 200 183
129 35 32 54 0 0 117 24 63 180 75 139 202 91 177
192 80 183 164 57 167 110 18 145 119 35 169 109 22 151
133 41 174 162 66 194 126 45 164 149 61 190 199 115 240
255 229 255 255 201 255 227 140 251 120 39 152 74 0 112
85 0 124 129 42 180 133 52 190 255 184 255 158 71 186
113 25 149 147 58 173 173 86 200 161 75 180 189 104 199
231 147 236 255 216 255 255 198 255 255 186 255 227 144 222
213 126 220 215 137 238 236 147 248 235 148 255 199 111 228
208 124 236 192 102 219 157 68 173 114 26 137 105 18 111
127 39 128 143 65 137 154 66 128 144 58 110 135 50 100
136 53 92 225 153 233 255 229 255 245 182 252 94 31 98
31 0 38 43 0 52 58 10 59 85 29 76 67 4 53
81 19 52 91 23 54 105 29 53 98 20 40 122 27 46
142 49 61 147 52 65 172 53 80 185 64 94 213 108 151
192 85 145 215 87 163 209 92 177 196 86 180 211 117 204
255 255 255 249 182 255 198 111 192 169 74 141 204 72 148
227 85 148 200 70 125 195 66 107 174 50 57 163 47 47
157 37 44 188 80 80 228 117 121 230 128 118 184 84 79
136 31 27 116 21 6 195 100 87 243 138 124 183 80 73
119 18 14 155 54 45 192 88 87 159 55 48 154 54 61
140 36 33 153 42 39 158 62 51 157 51 45 141 50 40
139 60 42 141 74 57 108 45 34 60 12 0 39 0 0
52 0 0 48 0 0 61 0 0 90 31 21 122 51 43
113 23 21 100 19 10 117 39 27 152 71 59 160 82 68
142 72 50 132 49 31 126 54 36 151 73 48 162 89 64
149 70 54 132 56 40 143 67 55 151 76 60 134 58 46
137 58 46 136 42 48 135 37 37 118 38 35 112 39 31
108 39 35 111 45 30 96 19 23 85 20 13 82 7 10
73 2 10 47 0 1 50 0 3 60 0 23 69 17 37
90 16 53 90 30 59 67 2 19 87 25 37 102 38 64
106 41 72 98 30 75 92 24 71 100 31 84 95 26 92
1 0 0 255 189 255 255 177 255 45 0 41 94 8 76
88 8 74 94 11 66 155 76 119 92 19 33 101 36 39
109 25 45 99 27 39 91 25 32 96 28 27 86 24 17
93 24 25 94 31 22 94 34 24 95 28 21 84 23 15
85 18 10 76 19 14 77 18 10 74 11 2 72 13 15
74 14 4 82 20 17 85 26 11 96 18 18 96 29 18
113 26 29 107 32 20 110 22 19 130 35 34 138 44 45
135 38 44 147 47 49 155 59 62 157 65 67 167 69 70
132 34 30 140 33 39 143 38 44 131 27 35 121 11 27
137 37 50 193 84 104 225 130 143 194 95 109 186 94 105
155 58 72 180 84 92 168 86 85 107 21 27 96 7 8
96 12 11 106 9 19 80 0 0 65 0 0 70 0 0
90 0 0 109 13 3 117 19 20 96 0 0 233 138 124
204 116 102 227 135 107 237 156 122 252 158 137 243 153 130
239 139 114 233 138 113 237 126 118 232 126 104 225 120 100
214 110 88 197 105 59 228 127 92 255 162 122 249 158 107
255 247 208 255 160 139 129 38 39 86 0 16 136 38 97
180 82 163 180 62 173 189 79 201 119 27 172 127 39 189
116 20 162 143 54 194 179 91 227 149 51 190 138 52 173
191 106 229 237 150 255 211 118 250 145 63 186 89 0 135
90 0 128 113 32 171 129 49 192 159 69 203 151 73 193
112 28 141 107 28 150 165 76 199 167 86 196 136 49 166
143 63 158 145 61 162 252 172 255 244 162 246 252 172 250
229 146 237 207 118 213 204 124 226 213 121 239 215 129 247
213 122 237 220 134 249 227 123 247 186 103 212 148 60 164
126 38 132 124 41 123 136 52 132 154 71 141 150 73 131
141 63 110 136 59 103 241 171 255 255 218 255 178 118 191
33 0 34 38 0 43 92 38 97 84 31 80 40 0 24
71 22 56 82 18 48 82 17 41 90 14 34 110 32 45
126 41 55 144 53 61 148 54 61 201 83 108 131 16 41
182 76 120 226 120 167 234 107 189 204 80 167 194 83 170
255 159 249 255 255 255 177 107 193 161 80 152 213 109 189
207 81 154 200 64 125 189 61 125 185 65 106 217 97 112
184 67 77 158 43 57 167 58 60 204 91 91 202 99 94
169 68 59 149 45 35 130 25 17 207 104 91 227 126 120
149 50 36 126 19 16 165 63 63 178 73 69 112 12 7
195 85 90 133 32 34 142 36 35 178 70 67 164 59 45
133 34 19 132 35 29 139 49 35 152 76 67 88 25 15
46 0 0 47 0 0 55 0 0 38 0 0 62 1 0
121 58 52 119 40 33 95 10 9 98 11 8 127 48 37
158 81 69 162 82 74 151 77 61 156 79 57 88 14 0
167 94 74 202 124 103 189 113 97 186 110 98 166 91 75
140 62 50 152 65 58 145 59 53 139 49 50 124 45 39
122 53 47 126 62 47 121 54 44 93 35 22 81 11 14
71 5 8 61 1 12 49 0 0 52 0 9 62 7 27
76 17 37 69 11 51 62 0 21 73 9 29 81 20 31
103 36 57 93 31 64 83 13 58 90 21 73 111 41 96
0 0 0 255 255 255 255 255 255 71 0 63 0 0 0
160 78 140 88 10 59 132 49 99 58 0 15 111 35 42
105 36 27 96 26 27 91 26 25 101 29 27 102 34 37
101 40 33 120 58 49 86 29 22 88 35 25 100 43 36
87 38 36 76 30 17 70 14 6 61 3 4 41 0 0
61 18 12 65 9 0 57 7 0 55 8 0 78 12 13
76 20 13 90 21 13 80 8 7 109 39 41 123 44 40
129 46 50 112 32 25 104 24 23 116 34 26 121 33 32
104 22 12 153 62 58 138 49 40 135 44 44 143 53 53
147 58 52 127 37 40 113 24 25 111 21 27 123 33 28
133 42 43 70 0 0 81 0 0 105 15 9 62 0 0
59 0 0 80 0 0 74 0 0 88 0 0 119 21 8
151 56 49 196 104 85 238 143 131 255 175 150 255 185 168
243 149 127 248 162 130 254 164 141 232 138 113 204 111 89
209 115 97 215 133 102 222 122 103 208 110 85 225 107 96
239 134 112 229 120 100 214 102 69 247 148 104 255 183 141
255 169 128 239 143 99 255 255 248 223 128 115 45 0 0
82 0 33 158 58 129 202 90 185 253 136 249 154 62 200
143 51 195 149 59 203 154 65 200 113 22 158 125 41 167
152 67 189 116 25 155 179 90 213 123 47 162 47 0 89
31 0 73 107 29 153 172 91 223 177 94 227 199 116 247
79 0 102 82 2 105 113 26 129 155 72 175 138 55 157
111 25 114 123 31 130 103 18 102 157 68 149 193 110 194
255 178 255 255 182 255 231 150 255 203 113 222 187 96 220
169 82 202 199 100 219 221 124 240 225 132 244 241 138 250
236 151 248 218 129 229 187 101 190 177 90 165 145 63 129
144 60 122 133 53 94 129 54 94 255 218 255 255 209 255
40 0 59 60 7 65 60 15 62 12 0 10 54 4 28
94 40 59 62 1 22 74 16 23 88 25 32 93 26 38
97 18 27 109 16 35 123 35 37 142 41 51 141 22 38
194 64 87 175 47 89 170 51 104 225 103 174 232 118 195
215 127 204 180 94 177 255 255 255 255 188 248 156 68 129
163 69 123 199 90 147 187 69 130 219 90 163 205 78 150
200 76 133 175 53 95 164 50 88 178 68 87 193 93 97
224 119 113 197 96 82 149 52 30 86 0 0 226 119 117
255 170 168 179 78 76 109 0 0 105 8 0 159 42 44
160 63 53 172 56 56 176 74 70 184 86 76 176 73 68
174 68 66 173 68 67 180 69 65 203 97 88 163 56 61
98 10 9 55 0 0 68 2 0 79 12 14 45 0 0
42 0 0 84 37 25 111 44 44 117 56 39 129 55 53
123 56 49 126 43 27 121 42 30 131 56 34 132 57 42
129 46 35 154 76 63 186 98 88 182 98 83 187 104 94
206 119 107 177 97 86 147 71 61 113 26 21 144 55 54
131 59 48 120 49 36 127 52 60 123 63 61 94 28 30
48 0 0 57 0 4 65 3 9 70 13 25 76 12 24
65 9 25 74 15 30 76 19 25 77 18 35 105 50 66
105 49 76 95 27 62 105 50 84 109 38 89 77 9 62
26 0 28 255 251 255 245 174 248 0 0 0 80 10 70
142 77 125 76 5 48 101 31 63 62 0 13 82 22 34
105 24 28 98 26 21 101 24 31 98 28 25 98 29 19
102 36 26 99 32 23 97 35 36 94 39 29 62 21 8
31 0 0 17 0 0 6 0 0 5 0 0 8 0 0
26 1 0 12 0 0 8 0 0 20 0 0 18 0 0
30 0 0 28 0 0 44 0 0 37 0 0 84 26 25
70 21 14 92 32 24 106 54 38 127 62 57 134 60 54
128 53 53 133 70 56 101 24 22 106 35 20 99 22 20
75 0 0 50 0 0 41 0 0 44 0 0 66 0 0
25 0 0 33 0 0 34 0 0 38 0 0 53 0 0
100 20 0 150 69 32 162 77 46 238 140 112 240 133 106
255 153 127 255 170 139 255 163 145 252 156 134 229 124 112
193 104 80 238 138 137 216 121 112 187 88 78 198 106 103
248 159 141 225 132 124 198 106 92 240 152 131 214 104 98
226 128 119 221 109 101 216 111 101 228 124 103 207 103 76
223 121 93 252 159 134 255 202 174 241 158 136 255 255 255
55 0 0 45 0 0 172 65 121 128 32 81 246 146 210
147 38 153 161 57 182 157 57 170 146 45 174 132 47 168
126 41 172 115 43 172 119 47 160 97 18 139 115 36 153
147 71 175 172 99 194 174 98 194 161 82 170 125 63 154
141 74 162 70 0 68 130 46 114 135 60 126 146 60 121
157 69 127 145 52 108 153 49 117 168 67 135 202 105 190
220 122 213 229 132 242 229 126 246 254 157 255 255 183 255
222 128 233 157 64 165 219 124 247 134 36 159 161 78 183
169 86 189 130 39 147 147 61 151 144 65 147 145 63 134
137 60 121 139 60 116 142 66 106 134 63 96 253 191 255
255 247 255 74 24 94 22 0 36 60 17 59 65 19 50
65 17 42 60 9 19 67 10 18 75 19 18 87 21 26
94 24 33 104 19 29 110 27 35 133 42 51 151 49 59
130 6 21 168 42 68 178 57 85 197 69 120 231 117 177
231 120 187 198 94 179 163 73 154 255 173 250 255 247 255
255 171 232 160 79 129 183 89 147 199 86 151 208 76 160
210 76 154 194 71 142 165 52 112 166 50 88 178 69 92
207 93 99 213 116 101 198 98 79 140 37 20 111 12 0
238 129 121 254 144 145 178 69 75 136 30 31 157 48 52
174 68 64 178 69 64 183 75 70 185 71 68 174 68 64
167 68 60 167 65 58 172 71 62 184 76 71 212 90 99
156 53 56 136 29 26 98 10 10 89 12 11 61 0 0
41 0 0 56 10 6 73 31 26 95 38 24 92 34 23
110 41 34 121 46 37 121 44 37 125 48 35 126 47 39
116 44 23 131 48 37 149 73 59 174 90 77 167 82 65
162 71 66 169 82 70 154 82 67 167 93 81 112 34 26
128 45 44 125 45 42 122 45 46 120 56 49 120 59 63
91 28 31 57 4 2 64 7 18 65 7 10 72 5 13
62 9 19 69 10 15 67 14 25 79 26 31 70 15 30
79 19 40 85 25 54 90 31 59 74 12 57 105 46 87
80 17 76 28 0 24 255 255 255 138 63 135 25 0 19
61 0 50 99 37 74 82 16 51 116 56 76 109 50 58
133 75 70 95 22 22 102 28 22 99 35 21 101 31 26
104 31 20 101 32 17 97 27 26 106 44 29 87 30 29
63 24 17 31 11 0 29 9 10 25 6 0 7 1 0
20 0 0 30 10 14 22 0 0 20 2 0 28 1 0
25 3 0 33 6 5 44 9 7 48 16 13 54 12 5
55 7 0 53 13 0 68 20 5 71 19 4 88 27 12
78 23 3 84 19 6 89 17 4 75 12 0 75 15 0
85 15 2 68 4 0 63 0 0 63 0 0 77 6 0
69 3 0 95 17 0 101 26 0 137 58 27 173 96 64
196 120 77 227 137 101 245 159 122 255 170 123 240 137 98
236 136 98 237 136 96 236 134 99 230 136 103 229 127 97
232 127 111 231 129 120 238 128 125 255 172 166 255 185 188
255 176 165 253 151 151 223 135 114 212 123 110 233 143 130
211 105 96 223 117 106 221 113 106 214 110 96 226 109 95
218 118 91 219 127 91 255 166 132 235 162 125 218 147 123
255 216 222 255 185 197 54 0 0 116 20 57 166 64 104
197 104 152 184 75 166 157 46 160 125 22 132 121 29 137
138 50 170 150 74 190 142 63 180 111 44 157 145 84 183
135 72 161 128 59 147 122 55 142 109 45 117 96 31 109
79 14 88 77 11 79 47 0 36 90 13 70 117 34 88
133 45 103 154 53 92 144 55 92 152 50 102 155 52 105
216 119 194 237 133 229 231 131 238 210 108 225 230 127 251
242 147 255 216 126 226 217 124 229 187 93 200 180 83 203
188 100 205 144 56 159 103 17 116 128 40 130 141 59 141
153 74 139 140 57 120 145 66 115 137 62 110 135 61 99
240 176 252 255 255 255 105 43 119 1 0 12 63 20 72
74 28 71 61 12 39 56 4 20 67 9 24 74 17 22
87 21 30 93 18 34 91 21 28 114 23 38 128 33 45
151 51 60 123 15 27 163 42 61 161 44 82 175 65 108
230 111 165 223 112 184 192 86 165 153 59 139 216 122 210
255 255 255 255 255 255 247 162 223 205 120 176 180 87 146
194 66 148 224 84 173 189 65 119 177 57 99 176 51 87
183 74 96 205 91 103 222 114 109 195 85 81 143 37 18
140 34 29 242 130 121 232 119 123 160 48 44 171 59 63
196 84 88 188 76 74 201 87 89 182 76 74 186 75 75
176 75 69 182 74 73 185 81 78 189 86 80 196 83 91
201 100 95 181 67 74 163 72 63 165 76 79 128 60 56
58 0 0 32 0 0 53 6 0 52 7 0 102 33 37
91 29 13 111 38 31 116 41 30 124 42 30 115 28 20
114 34 21 105 20 8 133 62 35 147 67 47 171 83 73
153 72 56 137 51 42 123 49 33 136 59 46 157 81 70
118 38 28 134 47 46 127 48 41 120 41 38 114 48 40
113 49 52 84 29 26 65 4 5 70 6 19 65 10 16
64 6 16 67 16 19 70 18 18 75 14 29 75 16 24
80 25 30 74 11 30 79 18 46 100 38 72 33 0 4
109 46 92 66 6 56 38 0 27 255 255 255 98 28 94
51 0 47 85 19 71 90 22 68 65 0 21 90 28 38
79 19 24 78 13 19 102 32 25 99 25 26 105 33 27
100 35 27 102 33 28 95 30 28 94 28 21 98 33 24
64 18 11 58 9 1 29 1 0 35 2 0 16 5 0
19 0 0 19 0 0 28 5 1 16 1 0 12 2 0
25 0 0 31 0 0 32 2 0 43 6 5 51 6 6
51 17 4 35 0 0 45 0 0 50 0 0 43 0 0
50 0 0 52 0 0 62 0 0 58 0 0 36 0 0
53 0 0 72 2 0 83 12 0 95 21 0 110 39 18
133 53 32 140 49 18 207 124 93 209 124 95 244 149 122
255 168 133 255 171 141 250 162 112 239 140 102 230 133 87
226 129 87 234 123 85 224 128 83 216 118 75 210 106 77
207 111 76 225 123 100 240 143 118 246 148 128 248 157 143
251 151 137 219 125 100 209 112 104 227 130 109 228 133 119
199 103 82 218 118 86 220 126 87 218 116 85 220 110 83
223 116 75 209 109 66 221 124 80 243 162 109 222 150 99
224 150 116 255 202 180 255 255 255 142 51 70 30 0 0
145 51 79 176 78 123 231 127 200 196 93 182 154 64 148
109 12 104 76 0 87 68 0 75 78 6 107 113 42 132
88 18 109 95 28 109 85 25 107 80 19 87 65 7 75
56 0 62 48 0 67 48 0 49 81 0 55 115 32 85
144 54 103 145 60 103 154 66 110 166 60 110 156 59 112
137 35 99 229 128 200 243 142 227 224 129 234 184 88 202
200 104 216 215 121 232 218 127 233 255 189 255 137 52 158
156 68 173 169 83 189 138 48 150 115 28 125 133 44 132
127 44 124 152 70 133 137 62 117 140 67 110 138 65 105
134 59 92 255 195 255 255 255 255 105 45 120 38 0 50
62 9 64 49 5 45 58 8 35 72 18 35 65 4 20
75 15 21 91 20 33 85 20 21 96 18 32 101 23 25
126 35 41 130 37 45 150 41 54 171 58 82 156 53 69
167 53 89 202 93 147 209 97 149 200 91 164 181 76 161
255 190 255 239 161 236 255 237 255 255 255 255 255 192 255
172 81 143 172 54 141 198 76 146 195 72 131 181 58 109
180 59 106 198 74 111 202 97 105 220 108 121 200 95 89
148 37 34 148 42 33 228 124 116 200 89 90 135 25 22
185 75 80 215 105 110 196 84 82 207 93 94 167 61 56
178 68 62 176 70 76 186 82 71 191 88 89 198 94 93
188 86 82 187 81 76 208 96 98 190 91 97 211 124 122
181 103 91 69 0 0 17 0 0 40 0 0 40 0 0
103 40 33 98 34 27 116 42 35 127 51 47 125 42 40
124 43 26 116 36 25 115 40 20 110 32 20 117 44 18
125 50 34 142 51 36 115 43 28 112 33 17 116 39 24
138 64 47 141 52 57 135 58 50 134 47 50 112 47 45
116 44 46 103 36 38 82 20 20 53 4 3 68 14 14
64 12 20 68 15 20 70 12 18 77 16 27 66 22 19
74 22 27 64 18 20 86 29 41 82 22 42 93 35 57
39 0 14 97 34 80 38 0 29 83 11 79 255 255 255
53 0 46 56 0 45 88 18 70 86 21 59 64 0 23
88 20 37 86 28 31 77 10 8 95 33 32 101 26 26
107 37 26 103 38 31 104 34 31 94 28 21 82 24 15
97 34 22 54 5 0 41 6 0 29 0 0 18 0 0
22 3 0 15 0 0 16 0 0 23 2 4 11 0 0
19 0 0 17 2 0 26 5 0 33 0 1 37 11 0
45 15 1 50 10 5 55 8 0 42 1 0 51 8 0
53 3 0 65 4 0 62 6 0 71 7 0 73 7 0
82 20 0 89 29 0 109 45 8 139 65 33 144 74 43
173 95 60 202 120 83 213 132 95 207 116 84 211 123 83
233 135 96 232 133 97 225 123 78 211 119 68 206 101 59
195 91 42 225 122 77 229 125 80 231 139 88 230 136 88
227 127 87 226 126 81 229 131 104 255 188 159 142 38 21
67 0 0 0 0 0 0 0 0 57 0 0 187 98 71
245 146 132 197 108 76 216 119 74 235 131 85 226 119 82
218 115 70 226 117 75 212 111 63 217 122 68 230 154 90
253 179 131 231 173 123 255 190 169 255 230 222 255 188 202
18 0 0 64 0 0 180 88 120 167 73 134 200 100 174
218 118 180 177 90 159 118 31 107 61 0 62 34 0 36
54 0 65 41 0 43 47 0 49 49 0 54 52 0 47
49 0 45 61 0 47 67 13 64 65 5 61 98 21 68
146 54 96 162 77 124 158 70 107 164 62 104 152 60 94
154 43 90 107 13 59 205 106 175 250 143 232 237 134 239
186 92 195 204 108 218 201 106 224 204 113 219 255 175 255
198 114 217 168 81 189 156 66 174 146 61 156 153 61 166
154 67 153 127 48 124 156 73 141 132 54 114 138 63 113
135 61 94 131 55 94 255 224 255 247 184 252 50 0 66
59 13 71 71 20 74 28 0 23 55 8 36 74 26 39
56 5 18 69 18 21 79 20 29 89 16 22 93 14 28
97 14 20 123 28 36 122 25 36 153 47 61 178 69 80
160 60 80 146 47 73 180 65 102 180 67 127 198 90 164
201 94 171 255 251 255 159 82 163 213 153 230 255 255 255
255 255 255 201 122 193 149 47 136 178 56 144 201 81 152
198 63 119 193 67 126 203 83 122 209 84 117 224 104 119
212 90 100 168 53 51 150 34 39 229 107 111 169 62 54
119 7 5 176 66 61 218 104 101 185 81 75 198 92 85
178 71 72 181 72 67 169 65 71 169 60 58 174 72 76
183 78 81 195 89 92 183 79 81 224 126 131 192 98 98
221 123 129 223 136 131 113 40 43 25 0 0 22 0 0
42 0 0 79 25 20 84 25 19 107 36 33 121 50 44
133 55 45 134 61 50 147 67 54 158 81 59 92 15 0
97 20 1 97 15 6 104 28 13 108 26 17 113 30 18
129 56 43 145 64 58 152 73 68 144 63 64 134 56 49
120 49 47 103 38 33 81 23 21 68 11 5 58 2 4
72 14 19 69 15 16 75 14 17 66 20 16 69 20 28
68 16 12 73 21 26 66 16 13 86 26 43 74 18 39
70 11 33 69 6 42 81 18 62 30 0 23 156 84 144
245 176 234 26 0 14 63 1 48 87 17 61 86 21 53
67 5 16 91 34 37 104 44 35 92 35 24 92 27 19
93 33 26 103 40 36 97 39 39 96 40 27 88 32 24
82 17 12 76 23 7 48 0 0 38 0 0 29 0 0
24 3 0 23 1 0 16 0 0 10 0 0 17 4 0
7 0 0 11 0 0 12 1 0 24 7 0 28 7 3
39 14 2 48 8 3 34 6 0 62 31 6 66 20 4
64 21 0 68 27 1 91 30 7 95 41 23 118 55 38
108 44 14 159 97 59 159 92 42 176 107 67 181 109 64
189 110 68 195 113 68 207 118 77 223 130 87 192 94 48
200 96 57 205 103 55 211 103 54 206 104 61 224 111 61
234 123 78 230 131 84 231 130 73 227 128 75 238 135 79
237 133 79 221 125 77 219 123 70 228 126 90 255 164 120
175 76 47 73 0 0 0 0 0 50 0 0 147 48 14
232 146 109 255 161 138 216 122 82 223 126 77 230 130 70
230 130 71 222 122 70 231 126 71 214 116 56 218 132 58
229 145 73 255 210 141 242 179 123 246 179 137 211 142 112
255 254 250 137 60 56 0 0 0 107 30 39 157 63 92
169 77 111 201 105 150 218 122 169 218 133 183 174 79 137
96 21 78 72 0 48 68 7 55 78 17 64 68 9 48
57 6 35 49 0 23 51 0 29 70 12 47 58 1 31
117 24 66 154 57 91 169 76 111 161 62 98 160 59 92
157 57 83 142 43 77 121 17 57 179 70 128 229 128 203
243 145 236 215 119 226 224 123 237 199 110 214 181 89 198
202 109 215 255 198 255 225 135 235 197 112 206 137 46 143
109 30 114 133 52 135 138 56 128 160 76 143 133 60 115
134 58 100 132 57 96 128 56 87 255 237 255 188 127 192
0 0 0 48 3 58 79 28 82 44 0 39 64 16 44
57 7 21 60 6 20 71 17 21 80 13 25 79 20 21
86 7 23 91 16 17 121 23 34 120 30 38 117 19 30
160 59 70 161 61 79 148 48 69 164 59 98 168 56 107
195 74 138 199 92 164 255 227 255 176 95 166 152 101 172
255 204 255 255 255 255 255 195 255 157 74 155 173 67 149
205 83 159 191 75 135 196 75 136 199 77 129 203 84 132
221 106 137 212 98 125 176 70 81 157 36 40 207 99 101
175 63 67 119 15 8 167 52 55 198 92 90 194 84 84
191 82 77 216 105 109 198 85 97 171 71 76 158 50 51
152 50 47 171 70 69 195 93 92 222 113 112 221 125 128
202 102 101 212 119 120 235 143 138 170 94 96 67 0 0
19 0 0 50 0 0 40 0 0 58 4 0 81 26 17
106 37 33 127 57 46 141 67 58 152 79 64 163 82 71
159 90 68 152 73 55 134 52 37 112 36 16 122 39 30
135 56 41 157 75 65 168 90 82 150 70 67 139 58 63
124 56 51 118 44 44 86 34 33 71 5 7 55 1 7
59 7 3 69 11 18 71 10 15 61 15 13 66 14 14
69 17 15 71 17 18 60 19 8 68 16 14 61 1 12
62 7 31 59 0 24 87 24 63 71 9 58 75 15 65
199 124 187 169 97 159 49 0 41 89 28 64 93 24 64
86 22 42 76 15 26 80 24 17 89 24 22 81 23 4
85 23 22 91 30 26 101 38 35 105 48 43 101 39 31
86 30 20 73 8 2 65 13 0 48 0 0 42 0 0
17 0 0 27 1 0 26 12 1 11 0 1 14 0 0
13 0 0 0 0 0 5 1 0 19 6 0 26 8 0
30 13 8 35 14 1 43 12 4 41 3 0 65 30 13
59 30 5 81 29 16 85 36 10 102 53 30 123 66 40
126 75 51 131 68 43 173 101 57 172 99 55 188 105 66
187 113 67 184 103 58 182 99 53 198 102 55 199 101 53
235 127 80 226 126 69 232 121 74 226 121 71 229 117 69
221 112 68 225 114 63 230 120 64 214 112 51 210 114 49
207 110 51 203 99 47 197 108 49 211 114 69 217 124 72
216 117 77 255 194 153 241 145 112 242 145 97 255 183 148
255 188 151 255 168 124 236 137 96 210 119 72 221 120 58
237 137 65 228 124 73 225 127 60 233 129 68 218 121 50
221 132 57 227 144 76 255 208 137 241 186 120 212 149 110
238 179 142 255 214 195 255 202 195 32 0 0 32 0 0
151 59 66 169 76 95 180 93 116 197 108 135 218 124 167
183 92 136 122 37 77 114 30 70 108 38 71 97 33 61
92 25 53 82 22 46 81 16 46 86 34 47 103 47 64
97 31 57 199 100 132 202 103 136 215 115 140 193 99 125
195 88 107 174 69 100 165 61 87 170 67 97 142 37 94
197 97 168 234 130 220 231 127 232 225 126 239 193 103 213
177 85 194 170 74 183 210 124 220 227 142 237 255 172 255
165 79 170 76 0 79 124 41 121 150 68 146 144 59 132
130 56 101 135 59 105 134 56 96 130 55 87 255 223 255
225 159 236 1 0 17 33 0 52 81 31 82 52 7 47
60 12 40 53 3 17 59 5 19 71 15 20 76 19 26
79 13 17 87 4 23 94 12 16 108 20 28 112 23 27
130 32 48 152 53 73 158 53 74 149 53 69 171 64 96
172 70 102 183 80 131 209 108 179 255 171 250 198 111 185
186 114 182 168 101 175 237 167 243 255 229 255 236 159 245
168 96 165 202 88 167 202 78 163 196 76 150 201 85 149
201 80 142 211 102 142 219 101 136 192 78 108 170 52 72
219 111 123 199 88 83 141 43 44 160 42 43 182 80 78
201 98 94 191 91 95 239 128 134 218 110 114 208 94 101
181 78 80 170 63 70 174 73 77 213 104 111 228 137 138
216 104 110 209 112 112 208 100 107 219 124 123 212 129 139
120 54 47 36 0 0 52 0 0 16 0 0 36 0 0
51 4 0 69 22 12 84 22 15 101 37 26 118 45 40
112 46 30 172 101 92 172 95 86 163 87 86 141 62 53
131 50 46 151 65 59 152 69 69 161 76 69 130 52 60
119 48 47 114 46 38 100 36 37 80 17 13 46 0 0
53 0 0 52 7 0 64 14 18 61 12 9 68 16 24
69 18 22 68 17 21 63 14 18 64 15 11 60 14 20
58 0 18 55 0 25 71 12 44 83 25 63 71 4 60
152 85 141 163 101 156 100 40 102 48 0 32 76 13 57
72 6 37 72 11 30 84 20 33 86 27 20 89 33 20
97 39 27 84 27 22 89 32 25 103 42 37 103 50 43
106 45 35 82 30 20 62 13 0 53 0 0 51 10 0
38 5 0 34 0 0 31 10 0 29 11 8 16 7 7
6 0 0 10 8 0 6 0 0 3 3 0 14 5 0
25 12 2 33 14 11 38 22 3 48 20 10 37 7 0
67 29 13 60 24 5 70 31 4 82 40 14 102 48 28
121 63 40 121 68 47 130 66 41 145 66 24 152 64 28
169 86 48 175 88 52 175 83 36 182 86 43 188 88 41
197 89 43 195 97 44 207 97 49 213 104 57 216 105 53
210 110 55 212 107 54 214 106 58 213 114 60 218 123 62
212 113 54 208 110 54 214 113 62 227 124 76 230 129 76
230 124 81 213 110 67 235 129 83 235 142 92 241 143 94
230 131 86 221 120 72 192 100 45 206 107 58 228 135 77
213 112 45 226 129 65 224 125 66 224 124 64 230 125 61
217 117 54 211 128 59 216 138 66 255 214 140 255 214 151
205 155 96 255 211 159 245 173 149 255 204 181 195 124 104
49 0 0 60 0 0 138 55 48 178 82 91 194 102 108
209 116 137 164 63 98 113 15 44 103 12 48 147 59 84
117 45 64 112 34 52 99 30 47 116 52 58 145 66 82
162 88 104 157 79 96 230 123 150 233 120 141 220 118 143
217 111 127 202 94 117 178 62 82 166 57 80 200 88 130
145 35 77 168 60 128 205 101 186 216 120 218 191 98 195
188 97 209 181 86 197 156 75 179 133 43 147 161 75 165
255 171 255 231 144 230 103 20 107 106 23 98 145 62 135
142 60 119 131 56 116 136 57 100 125 61 92 123 53 90
255 205 255 255 219 255 65 8 80 43 0 60 69 19 70
52 7 47 45 0 25 64 12 26 65 9 25 72 15 20
79 17 26 77 15 18 77 3 10 90 10 15 103 19 26
101 11 17 144 49 62 150 57 80 138 33 54 128 20 39
159 56 84 166 58 94 178 75 125 239 138 198 242 150 212
194 99 177 221 139 212 142 65 139 141 54 129 255 255 255
255 252 255 152 74 150 156 61 138 183 78 153 190 80 161
181 77 151 190 77 140 217 98 159 214 101 154 194 79 115
166 60 87 225 115 133 213 103 119 145 39 46 136 36 36
185 83 86 215 105 110 206 101 102 229 113 130 236 125 131
239 123 134 205 98 100 182 77 82 181 77 78 206 113 111
247 151 150 198 92 95 235 129 130 199 95 103 203 101 102
231 145 144 148 70 74 43 0 0 41 0 0 23 0 0
38 3 0 46 9 0 57 9 0 53 9 2 65 10 3
81 22 9 79 11 4 73 8 1 128 64 50 170 97 94
148 72 75 126 51 48 156 75 82 157 69 75 147 61 69
131 63 59 123 50 57 117 49 55 118 58 58 75 21 21
45 0 0 44 0 0 65 18 20 71 15 15 63 12 18
64 14 12 64 12 17 64 15 18 74 18 15 65 7 12
60 1 13 69 11 35 52 0 26 99 40 78 78 20 60
55 0 43 226 158 217 120 55 121 64 0 54 74 7 54
82 18 58 62 0 23 70 5 23 79 20 22 63 3 1
68 10 0 76 17 3 81 20 17 87 24 20 101 48 41
114 54 52 106 56 43 89 39 26 55 6 0 36 0 0
58 16 0 42 0 0 18 0 0 27 0 0 28 14 2
25 10 13 15 3 0 8 5 9 0 0 0 7 5 0
11 0 0 20 5 3 28 11 1 38 17 11 45 17 2
43 11 0 70 32 14 74 39 16 90 49 17 103 60 31
119 63 44 125 65 43 123 70 49 122 62 32 147 63 34
165 75 29 170 86 48 189 95 57 189 92 56 181 77 35
182 83 34 191 88 41 186 70 23 185 77 28 189 81 37
190 85 29 193 82 31 189 90 35 200 96 45 199 102 43
218 117 56 208 106 48 208 108 52 217 113 63 216 116 67
195 95 47 150 52 0 90 0 0 191 88 46 233 130 75
217 122 74 201 108 55 224 130 75 235 138 83 216 127 63
237 138 74 208 98 43 227 118 59 221 124 61 219 119 61
227 125 60 213 114 48 211 124 52 205 133 61 255 235 164
255 254 182 229 166 112 229 175 125 232 165 122 195 128 95
255 255 255 49 0 0 17 0 0 103 31 14 106 10 3
144 59 61 255 151 163 241 133 153 153 50 70 133 30 56
198 110 131 165 69 89 117 41 45 105 18 34 110 22 31
126 47 55 157 68 79 167 83 88 137 34 53 150 40 63
147 42 64 151 34 55 139 27 48 110 0 17 126 14 32
180 69 93 166 54 104 172 61 118 195 93 169 200 105 193
173 69 177 173 86 192 198 102 217 161 76 186 188 103 195
112 23 119 245 160 247 253 163 255 92 8 99 59 0 53
111 24 101 164 91 148 132 55 112 138 58 108 124 52 95
121 50 81 255 204 255 255 255 255 75 18 88 0 0 0
74 24 73 59 12 53 86 36 64 27 0 0 56 7 13
62 4 14 73 9 21 71 18 18 85 10 19 90 20 19
120 28 29 107 11 19 158 70 88 181 81 103 209 102 128
188 89 101 190 79 108 236 124 150 246 141 194 226 122 174
196 99 160 242 137 205 242 132 207 206 104 185 188 96 163
185 105 174 255 187 254 255 255 255 179 86 172 170 73 164
148 50 136 178 72 155 169 69 146 181 78 143 216 105 165
188 78 132 232 116 157 200 96 126 206 101 118 204 100 111
154 48 59 152 50 62 203 94 119 221 116 131 221 117 133
216 103 115 213 108 126 242 133 145 239 135 141 217 115 114
194 94 98 193 95 101 199 98 101 201 90 99 210 105 108
231 126 129 253 160 164 213 133 128 115 44 41 31 0 0
32 0 0 22 0 0 31 0 0 34 2 0 42 0 0
44 0 0 47 0 0 61 9 1 84 19 19 91 32 27
66 1 0 141 68 75 144 69 80 93 12 26 146 63 76
141 56 66 55 0 0 121 62 65 69 9 16 7 0 0
55 6 8 79 31 33 41 0 0 39 0 0 43 0 0
58 0 7 68 17 26 71 9 26 61 6 15 54 0 12
55 0 11 73 15 28 8 0 0 138 78 122 68 7 45
0 0 0 101 38 98 145 86 145 98 31 94 62 0 54
73 5 57 75 8 54 75 14 44 69 12 28 76 14 20
82 22 16 91 34 27 85 24 19 98 45 36 105 50 46
109 52 39 105 45 35 78 25 15 63 10 3 55 12 0
70 22 0 49 0 0 32 1 0 71 28 5 84 58 39
31 8 6 0 0 0 0 0 0 0 0 0 0 0 0
19 0 0 38 30 23 44 31 23 43 16 12 31 3 3
25 0 0 28 0 0 48 9 0 38 0 0 34 0 0
49 0 0 70 21 0 96 42 14 119 64 38 137 67 45
147 65 29 159 75 43 166 74 42 147 64 23 151 57 24
180 86 41 190 86 43 177 82 34 168 65 18 172 68 18
178 73 23 178 82 31 190 88 41 189 98 47 200 106 58
203 106 56 191 95 43 184 94 26 183 87 31 186 95 38
203 100 51 215 115 67 227 127 78 223 124 72 225 126 75
213 113 63 225 122 68 225 125 65 224 123 62 220 118 55
223 128 60 228 128 66 216 112 55 231 126 67 214 120 61
219 122 59 240 124 71 224 123 65 217 136 69 208 127 66
255 209 133 255 255 202 249 191 124 203 154 97 253 185 134
206 134 91 190 125 80 255 255 255 0 0 0 60 0 0
124 49 24 150 46 46 101 0 8 191 76 96 255 144 168
163 51 75 165 51 80 170 62 82 193 79 97 200 100 108
203 103 113 211 96 111 190 85 94 188 81 100 166 48 74
178 62 87 193 70 96 191 72 92 192 75 96 201 82 102
183 61 81 138 25 51 148 39 81 106 0 51 127 18 88
186 73 166 189 100 199 198 98 207 182 92 206 164 78 184
161 74 165 178 93 179 151 66 165 255 207 255 247 166 245
63 0 59 91 14 88 124 47 106 116 35 91 123 53 97
135 62 110 134 64 98 255 201 255 255 243 255 79 27 94
7 0 14 71 21 81 51 15 46 67 15 43 36 0 4
63 7 19 58 11 8 69 15 20 74 18 22 85 16 21
94 21 24 116 33 33 108 21 26 147 56 75 160 72 92
186 79 91 176 76 95 198 85 110 228 118 148 243 131 172
224 115 167 230 122 181 215 110 179 219 112 185 229 111 179
200 105 181 198 101 171 212 143 210 255 195 255 255 228 255
255 182 255 220 137 219 234 146 227 218 120 198 200 95 174
189 85 151 126 12 76 192 89 131 178 73 110 197 93 121
192 90 117 160 59 86 176 67 83 210 101 133 224 114 143
227 118 135 222 105 121 214 107 125 226 123 134 223 114 126
205 99 105 192 99 105 211 107 105 219 110 115 213 110 112
211 100 105 213 105 108 206 116 121 189 106 102 121 39 44
60 0 0 26 0 0 31 0 0 34 2 0 42 0 0
45 8 2 41 0 5 53 15 10 61 12 13 84 34 42
82 21 35 75 9 26 93 32 45 100 27 52 80 16 31
93 7 40 39 0 0 146 87 99 82 26 46 65 3 18
67 17 28 57 5 12 32 0 0 39 0 0 30 0 0
64 16 14 59 10 16 68 17 25 73 17 29 74 14 27
62 7 22 66 0 18 58 0 12 103 47 87 14 0 0
0 0 0 113 53 102 254 190 255 188 127 185 76 9 76
91 26 88 73 1 49 76 11 49 70 6 30 66 7 28
75 12 14 79 19 20 80 18 22 77 17 7 87 34 29
90 34 23 100 44 37 97 37 31 79 26 20 63 13 0
61 2 0 56 6 0 54 10 0 42 1 0 62 22 5
70 43 30 39 17 10 1 0 0 0 0 0 0 0 0
0 0 0 9 1 0 20 11 10 42 26 23 59 42 36
65 39 37 77 43 39 74 48 35 48 13 4 54 20 0
53 7 0 55 10 0 62 16 0 78 28 0 92 32 18
90 32 0 134 55 29 143 65 31 161 74 50 152 73 33
158 62 29 162 73 35 167 72 27 164 59 18 179 81 42
172 72 21 174 77 23 172 72 25 174 77 23 179 83 32
176 78 31 170 79 22 204 103 48 193 93 40 191 92 42
194 99 50 208 103 57 211 109 58 209 107 56 203 101 50
206 106 58 208 108 59 215 114 63 218 120 64 214 117 59
211 115 52 217 114 53 219 124 60 223 110 53 223 118 71
224 116 57 211 117 59 232 119 60 216 120 60 222 121 68
198 122 64 255 220 146 255 255 199 246 189 122 218 162 97
252 195 129 224 156 105 222 155 97 255 205 159 217 148 117
34 0 0 28 0 0 150 63 51 155 50 57 163 53 63
212 91 117 196 71 100 193 72 85 183 61 83 168 52 68
178 57 69 191 71 92 198 83 100 196 71 93 178 58 70
220 99 126 247 129 151 255 151 176 255 150 163 243 119 143
224 109 128 222 102 113 216 106 130 195 75 107 168 61 107
174 57 126 177 77 161 187 85 181 187 96 197 187 100 202
157 69 178 144 55 150 144 55 141 127 46 134 211 126 215
255 170 255 231 148 223 200 120 187 109 30 90 108 37 96
120 46 99 122 50 90 114 40 82 255 188 255 255 193 255
112 47 128 26 0 33 64 15 70 57 14 60 45 0 22
48 0 24 55 9 14 63 9 11 68 9 17 75 16 23
93 19 28 105 26 31 122 43 40 119 37 41 150 52 75
149 60 84 171 70 86 184 80 104 214 103 124 247 134 159
243 134 173 231 118 159 231 113 168 219 107 156 224 103 163
223 115 174 211 101 162 178 81 152 204 107 179 191 100 174
255 255 255 255 219 255 255 174 255 255 201 255 255 209 255
255 184 255 255 163 235 207 94 158 225 119 177 230 125 171
243 139 181 245 143 177 223 121 153 226 120 159 235 135 173
248 143 181 230 122 146 229 113 124 225 119 134 227 124 138
226 117 130 212 110 116 209 102 114 210 108 113 232 130 137
218 105 118 216 109 118 196 96 104 170 73 78 183 87 92
154 71 67 91 25 15 40 0 0 42 7 0 32 0 0
38 2 0 34 0 4 31 0 0 38 0 7 49 5 20
57 6 20 50 1 26 51 0 20 28 0 0 51 0 28
100 43 71 93 23 57 120 52 83 2 0 0 6 0 0
20 0 0 34 0 14 39 0 10 34 0 0 42 0 9
60 20 23 79 21 36 70 20 24 74 19 37 80 21 40
73 15 33 81 16 47 80 13 36 87 19 57 0 0 0
60 9 54 195 131 189 255 218 255 234 171 228 87 25 83
30 0 18 90 26 80 58 0 42 68 14 44 73 5 38
68 8 17 69 10 26 68 12 9 82 20 21 74 16 7
95 32 27 94 36 20 103 43 30 90 32 21 76 25 13
60 10 0 60 11 0 51 6 0 72 19 0 54 4 0
77 28 15 81 48 33 50 19 11 8 0 0 0 0 0
7 9 5 7 0 0 0 0 0 5 0 0 29 16 16
62 42 40 71 56 52 87 50 51 80 50 40 69 37 24
69 29 12 53 15 0 45 0 0 42 0 0 52 0 0
52 2 0 53 0 0 100 30 0 109 39 9 132 64 29
128 59 26 140 64 35 148 67 31 158 72 38 153 65 22
188 90 49 181 86 41 186 86 41 182 85 36 181 89 31
176 82 30 180 86 33 170 78 22 191 96 35 185 92 33
181 90 31 187 93 42 192 92 42 197 101 56 193 97 50
190 96 51 197 96 43 198 98 48 205 104 51 206 111 51
206 101 43 208 104 54 207 109 45 205 114 48 221 110 61
220 117 67 215 110 52 206 112 47 231 118 65 202 109 44
211 114 55 186 107 48 255 234 155 255 255 191 238 184 109
206 168 87 255 192 132 232 167 105 240 180 109 244 184 126
255 255 251 124 55 15 0 0 0 63 0 0 171 67 62
150 39 46 158 38 56 214 87 106 217 94 125 199 73 87
180 48 75 179 56 66 197 68 94 205 78 98 195 70 87
194 66 91 146 24 48 173 48 69 180 52 77 140 26 49
124 0 13 119 5 21 141 20 32 135 19 35 202 82 112
181 71 112 182 73 134 180 80 149 172 72 157 183 85 183
168 81 181 149 64 158 167 84 178 156 75 154 129 45 131
113 25 117 144 68 143 219 137 220 247 166 235 230 151 211
122 49 108 139 65 115 123 51 94 120 47 93 252 182 255
202 137 214 123 62 137 44 0 61 58 10 62 61 19 62
39 0 15 62 14 36 56 6 13 59 13 11 63 10 17
71 17 13 88 22 21 99 29 35 118 38 42 123 32 33
132 47 63 143 53 68 157 60 80 183 84 98 212 97 123
229 116 142 242 129 163 246 132 171 214 100 145 237 125 169
235 116 173 213 100 150 204 89 148 215 112 178 215 111 180
136 42 113 255 240 255 250 187 255 161 91 161 156 73 152
200 113 193 237 131 211 255 193 255 255 211 255 255 152 209
255 164 219 255 173 224 255 163 206 247 140 189 235 135 172
231 124 176 237 128 163 229 117 143 235 122 134 222 112 135
224 116 131 228 125 141 221 119 126 221 121 134 221 113 127
231 121 128 215 106 115 217 113 119 191 77 88 142 47 50
170 81 82 175 88 86 117 41 37 53 0 0 54 4 11
42 0 0 33 0 0 23 0 4 21 0 0 22 0 13
40 0 21 0 0 0 38 0 19 82 35 71 0 0 0
0 0 0 0 0 0 0 0 0 0 0 0 1 0 0
79 27 70 55 4 44 23 0 4 65 24 45 50 0 32
22 0 0 59 23 29 67 23 29 73 26 31 79 25 42
79 23 36 76 15 44 83 16 46 103 33 65 97 29 63
143 85 129 203 145 208 255 190 239 153 85 145 39 0 31
44 0 36 94 25 83 87 22 70 68 6 46 69 9 48
80 17 45 73 12 28 73 12 18 76 18 20 82 18 22
79 20 16 100 46 27 96 40 29 104 48 38 99 38 25
85 28 15 66 18 0 75 17 0 77 27 0 77 21 0
56 12 0 76 35 15 91 49 35 47 19 10 9 0 0
3 0 0 1 1 0 12 8 3 0 0 0 0 0 0
7 0 0 52 36 39 89 66 68 84 56 50 80 58 58
70 39 31 78 46 34 67 25 17 46 14 0 39 0 0
40 0 0 49 0 0 46 0 0 55 2 0 76 18 0
96 33 0 104 49 17 122 53 25 133 60 27 154 84 45
174 91 50 171 82 51 163 82 40 173 81 33 179 84 42
184 88 43 185 91 41 179 90 35 189 89 40 180 85 32
180 84 17 180 81 34 181 84 30 186 93 41 191 90 48
191 92 47 182 86 42 201 92 50 198 97 45 203 103 56
202 102 53 206 104 52 207 106 46 204 105 51 213 103 53
219 113 62 225 117 59 215 111 50 209 115 52 221 111 54
215 107 55 206 112 58 175 97 31 255 229 165 255 255 185
227 177 95 190 148 76 254 192 111 228 159 90 242 179 109
252 186 122 255 219 163 255 229 190 96 27 0 0 0 0
105 21 0 159 56 61 118 9 17 179 67 79 227 99 110
196 70 95 195 62 74 197 64 80 201 73 82 203 70 92
198 63 81 193 68 89 154 24 41 152 29 59 137 10 31
115 0 9 116 0 5 134 9 23 126 8 18 123 2 15
142 31 56 151 34 69 170 64 112 189 78 153 175 83 161
164 71 159 162 68 170 157 70 179 149 69 144 150 65 153
184 98 190 140 57 142 84 4 79 108 30 102 153 70 145
234 155 218 150 77 131 149 75 128 131 58 100 122 47 92
255 185 255 147 82 159 112 51 126 60 5 75 55 7 59
69 27 70 36 0 12 75 25 48 61 11 18 59 11 10
65 7 16 70 9 10 80 19 19 94 28 24 113 30 25
103 25 19 128 42 54 132 38 56 157 57 71 161 72 82
189 74 96 196 88 110 220 108 140 238 129 159 229 111 147
240 120 162 237 117 152 210 96 140 217 112 164 233 126 174
225 113 190 136 42 107 255 203 255 255 226 255 199 126 193
160 84 151 179 79 158 162 60 138 218 112 189 221 109 179
254 140 203 243 130 191 227 124 166 220 116 153 216 109 154
203 102 139 202 95 135 202 93 130 227 117 136 234 113 135
226 117 140 228 121 139 229 126 138 233 130 146 229 123 133
235 129 138 206 102 105 206 100 108 211 107 113 188 77 87
130 38 40 164 74 77 180 83 86 130 48 46 71 2 6
76 9 16 34 0 0 34 0 0 24 0 2 11 0 2
24 0 17 11 0 14 0 0 0 194 149 199 255 255 255
255 210 255 200 145 201 191 133 190 163 105 160 204 144 199
255 208 255 243 182 237 108 53 110 16 0 4 32 0 15
36 0 19 28 0 8 81 38 53 58 7 21 75 21 36
88 29 49 84 21 52 72 10 38 78 21 60 126 56 86
123 66 109 242 177 227 154 96 151 104 44 101 52 1 42
38 0 28 86 22 74 114 55 94 58 2 39 78 15 52
78 22 49 88 22 41 88 25 45 79 22 26 79 23 16
87 32 26 90 31 20 101 38 24 103 43 34 98 36 26
90 35 24 83 22 16 73 13 4 70 26 0 85 32 10
79 25 3 72 15 0 83 32 14 96 47 33 56 16 5
7 0 0 0 0 0 0 0 0 3 1 7 0 0 0
0 0 0 16 2 5 64 46 44 93 78 83 101 82 74
106 88 81 49 20 23 71 43 31 67 36 30 62 32 16
61 23 12 54 20 4 63 19 2 76 37 15 40 0 0
46 6 0 62 13 0 66 20 0 83 24 3 102 46 13
129 68 37 150 78 47 145 75 36 146 70 29 154 71 33
158 77 26 163 75 29 159 73 30 167 68 29 152 66 6
168 81 24 172 75 21 172 77 32 175 81 37 172 81 40
179 80 37 181 86 41 173 78 38 196 101 54 194 100 56
207 105 54 209 109 60 212 110 54 206 105 57 209 111 52
216 109 60 219 113 54 225 118 59 216 111 55 210 116 53
222 114 56 208 103 46 207 115 66 173 96 33 255 242 180
255 255 196 226 176 97 196 146 67 255 186 112 230 157 86
242 174 100 255 194 114 211 137 78 255 255 216 255 183 134
41 0 0 19 0 0 92 5 0 136 43 37 150 45 49
185 68 82 186 75 77 206 77 94 208 83 94 198 68 79
190 60 76 184 57 72 167 39 52 240 111 126 233 117 125
254 132 146 255 139 150 255 143 155 255 135 138 226 110 113
222 106 109 140 19 33 121 19 37 128 14 54 173 66 120
205 100 181 181 94 173 156 65 158 157 73 159 159 77 168
131 50 122 176 94 173 154 68 144 108 27 108 113 33 104
100 22 87 143 63 121 161 87 149 146 71 114 115 45 90
108 40 81 255 200 255 110 45 120 90 29 104 63 8 78
54 6 58 66 24 67 49 0 24 71 31 49 59 7 15
63 12 12 54 8 13 59 10 7 85 19 21 92 22 21
103 29 27 99 15 18 127 38 45 122 30 38 131 44 53
159 57 68 158 61 71 165 53 81 193 82 103 220 110 135
247 128 162 210 99 121 207 92 120 229 119 156 234 122 166
219 108 169 208 99 162 173 71 150 255 213 255 255 255 255
251 167 244 180 92 165 171 81 159 141 41 116 203 94 176
235 121 193 229 121 182 217 109 169 201 93 137 191 88 131
208 107 143 214 112 149 216 113 147 237 132 162 218 102 135
218 112 132 221 114 142 229 120 142 236 135 152 244 134 152
229 123 143 236 123 130 192 81 96 205 87 97 195 94 99
180 66 77 135 49 51 164 65 73 166 71 73 139 45 47
93 10 20 73 13 20 44 0 0 36 0 2 26 0 10
9 0 14 20 0 21 23 0 27 0 0 0 214 161 216
255 255 255 255 255 255 255 243 255 255 253 255 255 255 255
255 255 255 255 254 255 172 121 191 66 8 64 36 0 49
10 0 4 30 0 16 66 19 41 43 5 18 57 8 23
64 23 36 83 29 51 69 20 36 67 7 40 82 19 51
113 52 94 170 102 144 57 0 47 43 0 42 94 37 83
136 78 129 98 35 71 62 0 46 73 13 48 65 9 39
83 23 47 87 27 58 99 37 54 91 32 47 86 27 29
90 33 28 92 34 35 95 35 29 96 39 29 100 35 18
102 37 32 85 31 11 76 14 1 73 15 0 80 21 4
88 41 11 82 32 4 76 21 0 84 38 15 98 53 33
50 15 3 10 0 0 0 0 0 0 0 0 3 7 2
0 0 4 2 0 1 0 0 0 36 24 27 51 40 44
59 44 39 70 49 46 19 2 0 45 32 29 71 48 33
82 56 43 78 50 40 77 49 31 86 48 38 105 63 55
47 17 0 44 16 0 41 0 0 40 0 0 54 3 0
69 13 0 78 24 3 92 24 0 141 79 54 140 63 30
144 69 33 149 71 35 155 68 27 149 67 15 150 66 16
146 56 11 165 74 20 163 73 21 172 72 26 175 79 34
170 70 26 173 78 40 177 73 41 169 76 29 198 95 61
194 99 50 204 101 55 205 110 46 207 103 57 207 105 48
208 108 57 216 114 52 215 108 49 222 114 60 212 112 41
202 109 48 230 112 59 207 106 45 212 111 60 170 87 34
255 255 193 255 255 201 231 180 98 200 152 75 255 193 121
238 165 87 240 174 101 247 178 108 247 174 107 243 171 104
255 244 187 229 161 115 3 0 0 12 0 0 159 71 47
138 47 41 138 36 27 165 52 53 195 73 85 207 82 87
197 63 77 170 47 62 173 57 64 168 44 57 203 77 87
229 99 114 255 139 152 255 133 143 232 114 120 222 104 98
211 96 92 219 103 103 206 91 95 145 28 49 94 0 21
131 26 78 202 105 171 209 113 196 166 78 164 145 65 149
174 85 166 139 57 132 156 71 151 114 32 109 103 26 101
154 72 142 158 76 146 158 74 130 158 89 140 143 66 117
130 58 105 125 55 99 255 223 255 96 29 114 63 2 73
70 15 83 49 2 51 63 21 62 55 2 30 58 18 36
63 11 19 58 7 7 57 8 16 64 12 10 91 22 26
101 29 29 113 34 36 114 33 24 125 40 42 114 20 28
121 29 41 156 58 70 153 59 75 145 45 62 160 63 84
182 70 99 210 105 121 196 85 102 211 91 122 223 105 137
208 95 132 185 77 123 201 91 167 206 116 176 157 89 158
255 253 255 237 151 226 186 98 173 204 102 179 150 34 119
204 85 157 213 92 166 255 143 196 242 123 180 203 99 140
194 87 123 221 116 145 228 121 153 220 118 153 238 129 163
207 102 121 227 116 138 230 121 147 224 121 141 233 133 147
238 133 148 232 115 136 212 97 104 187 71 87 196 83 89
178 75 78 149 56 60 156 53 51 154 62 56 149 50 56
145 48 52 97 22 22 78 19 25 44 0 0 24 0 0
20 2 15 17 4 21 27 4 41 0 0 0 47 5 68
255 246 255 255 237 255 247 187 255 247 184 255 240 179 251
255 212 255 255 215 255 109 47 131 32 0 64 48 0 65
99 53 107 65 18 67 52 13 43 64 24 52 0 0 0
71 21 39 59 16 21 74 18 35 75 16 42 76 12 52
77 15 56 90 25 78 112 48 98 49 0 53 57 0 52
71 8 64 65 10 52 45 0 24 57 0 31 92 34 62
91 31 65 84 21 52 85 32 52 101 36 55 98 39 43
89 31 33 83 26 17 93 41 33 93 41 25 122 55 40
117 53 31 110 40 34 97 32 22 79 25 18 82 29 5
92 41 21 111 60 33 91 39 15 83 29 0 99 44 19
105 55 41 66 27 8 16 0 0 8 0 0 1 0 0
0 5 13 0 1 0 0 0 3 0 0 0 0 0 0
0 0 0 0 0 0 5 0 0 0 0 0 27 8 0
65 44 39 87 63 57 103 69 61 92 66 48 84 57 48
99 70 56 79 44 35 67 27 11 35 0 0 36 4 0
62 9 0 56 6 0 63 12 0 50 0 0 119 54 28
113 44 13 121 47 16 135 62 16 150 71 30 157 73 21
158 72 24 155 76 22 156 66 18 162 67 23 169 72 29
165 74 31 163 68 36 160 68 33 173 77 41 175 73 42
185 82 43 184 87 41 200 94 37 200 101 47 201 100 30
199 101 36 199 104 39 209 102 41 208 99 42 214 104 50
208 105 35 200 107 45 224 107 49 205 104 51 207 109 62
169 93 36 255 248 192 255 255 198 220 170 100 191 148 66
253 181 113 233 153 81 240 168 103 228 161 96 255 199 119
207 142 67 255 207 142 255 240 186 141 93 45 36 0 0
80 11 0 116 44 29 121 27 16 142 38 32 166 55 49
180 61 64 174 53 64 172 51 54 168 57 65 175 63 76
162 30 32 184 56 53 187 69 66 170 45 43 147 29 21
152 26 19 155 40 31 164 53 38 207 89 90 173 57 73
122 15 45 108 6 50 178 71 134 201 110 179 170 88 168
141 60 147 124 38 116 149 68 145 172 89 172 126 39 122
91 11 78 148 64 135 160 88 155 160 85 144 147 71 125
149 74 116 143 75 119 146 72 113 255 238 255 74 16 91
58 0 71 68 12 84 44 0 48 67 26 72 57 6 29
45 0 18 69 19 28 59 7 11 54 4 5 67 11 17
86 30 25 102 35 33 104 32 30 101 22 19 123 36 35
94 0 8 99 3 13 137 52 61 162 59 71 128 36 47
121 24 42 143 32 53 149 46 62 196 78 101 221 100 128
190 74 100 144 33 71 152 45 95 184 84 141 179 81 152
203 134 197 255 255 255 234 143 219 150 61 131 171 68 157
125 15 89 197 82 165 224 103 176 255 148 207 223 116 165
183 71 112 178 70 107 214 107 136 199 98 118 177 69 89
161 61 81 251 138 165 233 123 148 228 121 149 227 122 142
234 127 145 250 148 162 237 123 141 215 101 115 202 86 96
201 89 100 158 53 64 149 39 52 155 66 63 170 71 73
152 44 44 151 56 58 102 20 26 72 11 12 32 0 0
36 0 3 21 2 25 20 1 25 28 11 48 0 0 0
133 91 152 255 255 255 255 204 255 220 165 254 255 212 255
247 185 255 255 204 255 138 77 161 47 0 69 86 18 116
86 31 106 85 26 98 24 0 32 29 0 28 74 38 56
69 26 49 66 18 34 54 10 29 61 9 31 65 11 33
82 26 60 77 19 58 58 2 36 34 0 23 105 40 92
53 0 45 37 0 26 52 0 28 54 2 35 85 23 47
84 24 57 48 0 7 94 35 54 100 33 50 110 54 60
113 50 62 101 41 37 91 34 31 85 29 18 73 14 2
146 84 73 125 61 46 122 62 47 116 56 43 103 38 20
100 38 23 109 57 36 136 80 57 89 35 13 88 31 4
107 43 26 114 61 42 67 35 22 22 0 0 11 0 0
0 6 0 0 2 4 0 4 15 0 2 4 0 0 5
0 0 0 0 0 0 0 0 0 8 0 0 0 0 0
9 0 0 62 45 39 74 61 47 73 60 46 80 54 54
73 48 33 62 34 31 88 59 50 51 27 15 25 0 0
31 0 0 57 19 13 59 14 0 47 0 0 47 3 0
48 0 0 75 9 0 100 37 0 134 63 32 155 79 43
167 91 54 171 97 56 177 91 50 143 53 11 159 71 20
165 76 36 174 73 43 169 75 42 168 77 35 172 77 50
184 84 39 173 71 35 181 85 35 194 96 47 194 100 38
198 98 34 194 89 31 199 95 39 196 103 33 205 97 37
209 101 44 203 107 43 205 110 46 219 104 54 210 110 48
204 102 64 157 79 23 255 225 169 255 255 205 204 165 88
178 129 49 252 180 112 223 153 80 220 149 83 223 148 73
220 139 63 255 222 145 230 161 88 255 192 132 255 255 201
85 25 0 0 0 0 110 35 0 128 44 36 142 42 30
150 38 38 162 44 46 166 59 51 174 59 65 177 69 69
181 70 77 174 47 48 181 53 54 175 53 51 165 48 51
174 54 49 182 71 59 178 59 45 154 38 27 140 29 16
196 90 93 187 74 95 124 18 58 132 33 97 166 81 142
168 71 153 138 48 132 140 62 135 144 64 138 158 74 147
126 45 112 94 6 84 95 22 83 134 51 116 146 76 127
131 54 101 139 66 116 152 72 121 146 81 119 255 240 255
112 53 133 1 0 26 81 32 100 76 27 91 24 0 30
69 19 47 54 6 28 52 1 2 60 12 13 61 17 12
70 18 7 83 23 24 113 41 41 145 69 66 187 105 105
88 0 0 140 47 39 157 64 68 156 67 71 161 58 74
166 71 89 185 83 97 180 78 94 188 86 94 227 124 150
255 140 165 218 99 133 193 79 137 224 111 166 246 135 206
209 105 178 255 181 239 255 252 255 242 162 233 147 73 146
151 45 135 159 49 141 224 105 182 246 136 204 230 121 180
252 157 197 230 136 169 169 61 92 132 32 56 182 84 100
224 114 128 187 80 85 201 90 109 232 123 146 253 143 166
255 151 167 255 160 183 221 119 131 175 61 77 178 67 88
160 54 62 180 64 80 183 79 91 170 70 79 159 49 63
126 23 38 139 25 45 140 45 49 114 34 45 89 18 26
101 27 53 6 0 0 55 0 43 44 0 38 45 0 49
0 0 0 255 228 255 255 232 255 255 218 255 219 153 225
251 186 255 255 197 255 228 160 250 202 140 229 255 234 255
155 94 176 100 33 117 61 7 79 53 0 52 79 21 76
66 8 54 57 1 44 39 0 23 61 0 29 72 22 41
74 26 44 73 16 38 68 13 36 74 23 30 73 27 41
61 11 27 72 20 37 67 18 36 69 16 34 61 11 16
59 9 15 66 10 15 58 5 17 83 28 39 78 17 27
75 15 17 72 7 16 66 8 3 78 19 11 112 44 39
119 59 47 126 61 42 138 79 60 127 62 38 95 21 10
104 32 14 107 42 18 106 39 11 142 77 43 99 25 0
90 23 0 129 58 38 106 46 24 44 6 0 24 0 0
0 0 0 0 0 4 0 3 1 0 4 0 0 1 1
0 0 3 3 2 1 0 1 3 0 1 0 0 1 0
0 0 0 0 0 0 23 13 14 127 112 114 121 105 112
77 46 48 84 58 67 152 121 121 84 55 57 56 31 21
59 38 32 82 53 47 48 24 13 58 34 28 80 49 32
74 40 27 48 14 0 40 3 0 44 0 0 71 4 0
87 27 4 103 26 11 129 50 34 174 95 82 170 98 52
170 83 44 161 76 39 153 72 34 152 62 23 149 60 22
165 71 17 163 74 27 186 94 42 173 83 32 176 82 24
179 79 35 181 86 36 201 95 50 203 102 57 210 107 60
198 102 47 213 116 56 189 93 36 191 85 30 210 111 56
190 81 35 188 100 48 225 131 78 255 255 203 220 167 104
213 162 88 220 164 96 217 158 84 222 159 77 235 166 85
243 173 93 244 167 87 233 162 72 240 176 98 254 189 111
255 233 172 233 165 108 73 0 0 63 0 0 87 3 0
100 8 1 149 58 56 176 85 84 158 59 58 150 52 50
159 52 56 150 37 34 178 57 51 181 65 61 189 69 66
169 55 53 141 32 30 123 9 13 131 18 5 142 40 26
120 18 3 137 28 18 117 12 19 97 7 40 168 64 119
195 101 182 181 88 178 156 67 157 135 54 119 142 73 127
138 65 119 100 34 81 72 0 48 88 29 64 133 66 104
137 70 107 116 56 89 120 56 86 117 59 85 118 56 87
255 227 255 156 92 168 29 0 55 55 2 80 70 21 88
43 0 48 60 6 45 56 9 27 59 8 11 57 11 3
70 10 3 65 15 9 82 19 21 97 38 31 121 50 59
141 65 57 136 52 46 136 49 42 136 45 53 153 63 69
188 84 104 201 105 115 217 113 134 202 107 123 216 109 126
232 127 140 238 130 154 212 100 133 209 94 145 219 108 170
231 123 189 199 98 170 193 111 172 255 240 255 255 211 255
236 166 243 195 87 179 103 0 78 144 30 111 211 93 165
231 131 182 242 144 190 236 134 172 181 89 114 168 65 92
175 80 88 202 90 99 201 78 94 178 76 83 202 92 112
213 106 123 217 112 131 239 124 147 210 96 114 177 66 81
174 62 81 182 64 89 174 68 80 172 68 87 160 51 70
140 31 52 128 29 47 130 22 31 142 33 49 107 25 30
101 31 37 91 15 46 25 0 0 33 0 25 39 0 34
0 0 0 14 0 17 255 255 255 255 196 255 248 183 246
234 179 240 223 159 243 201 140 221 232 162 255 255 227 255
246 178 255 106 48 133 80 21 105 94 33 107 59 0 69
48 0 39 52 0 45 60 4 46 53 0 35 61 11 34
71 18 46 73 23 42 68 24 34 68 22 32 64 17 22
76 23 32 59 18 22 59 17 24 67 17 18 63 18 18
62 10 21 66 16 21 73 14 18 64 12 18 75 8 13
73 20 18 87 17 33 80 21 20 86 16 19 88 26 17
109 39 37 116 50 42 127 70 52 143 76 53 121 49 39
98 38 4 112 41 21 116 43 20 106 42 12 134 66 41
105 25 0 86 20 0 132 58 36 113 46 33 54 8 0
13 2 0 0 0 0 0 1 14 0 4 0 0 0 1
0 2 1 0 0 2 0 7 1 0 5 2 0 5 3
0 3 2 14 14 9 0 0 0 22 17 19 102 97 101
134 114 116 115 96 100 111 77 89 126 97 108 113 86 90
55 31 25 43 20 19 74 55 49 93 68 60 96 75 62
97 67 60 56 32 25 60 23 6 45 8 0 36 0 0
60 6 0 77 11 0 85 15 0 97 23 22 109 37 25
148 67 39 142 74 28 158 72 44 163 86 49 166 78 40
161 78 30 159 71 23 158 74 24 161 75 28 155 73 20
164 71 30 162 72 20 171 72 27 177 81 33 187 83 42
183 83 38 187 92 37 197 102 46 185 82 29 182 87 30
202 98 53 188 82 35 198 96 45 212 129 68 255 248 192
243 183 117 219 161 95 212 160 92 222 157 89 230 158 86
226 160 80 241 171 88 243 170 83 246 175 87 241 174 96
227 162 82 253 183 105 255 188 123 157 76 32 65 0 0
75 0 0 92 11 0 129 39 39 157 75 77 150 58 58
139 51 54 176 77 70 186 85 83 171 65 69 175 71 72
178 74 75 169 61 63 147 49 48 138 37 34 134 38 30
142 44 32 128 27 8 147 54 39 117 29 38 116 14 40
150 56 115 192 101 176 182 83 174 157 61 152 132 59 115
142 70 116 145 75 129 110 37 80 69 7 48 102 30 74
132 72 100 142 76 107 114 54 82 120 58 95 124 58 86
123 58 88 255 216 255 231 168 246 78 16 102 23 0 37
72 25 91 57 13 59 51 0 31 65 18 39 55 4 14
56 10 10 72 13 13 66 17 7 78 16 16 93 32 23
111 38 41 125 45 44 159 71 72 135 44 32 114 22 28
133 42 48 189 88 100 219 127 133 239 133 150 234 136 149
227 120 129 213 107 125 204 93 118 205 91 124 221 106 157
225 114 174 216 110 173 179 74 145 178 111 166 255 250 255
255 233 255 255 209 255 255 157 248 164 54 137 169 51 127
199 82 162 226 127 181 239 141 186 245 144 186 223 118 148
185 78 110 178 70 92 180 74 89 180 76 84 187 76 101
193 86 105 204 89 108 205 92 115 204 93 108 192 80 97
173 60 82 162 52 61 197 92 108 187 81 83 176 71 85
163 53 67 155 49 59 133 31 41 140 27 40 144 54 58
99 11 27 115 49 55 97 29 54 59 0 30 28 0 16
18 0 12 0 0 0 202 158 208 255 255 255 229 173 236
238 176 237 227 172 233 204 140 222 231 170 255 255 191 255
255 255 255 167 102 193 108 43 132 81 17 98 92 27 100
81 22 82 75 14 71 58 0 54 87 28 67 59 1 33
69 13 45 73 15 50 76 21 43 71 13 44 68 14 26
68 11 33 64 14 24 63 21 33 62 16 34 69 17 28
58 12 20 63 11 28 62 11 22 69 10 18 67 16 28
64 0 8 69 17 18 88 19 37 75 16 17 80 13 15
77 17 8 106 38 35 109 48 38 150 78 65 131 71 47
117 50 40 106 35 11 118 50 33 131 61 42 123 56 27
126 65 39 90 19 0 103 26 3 144 70 41 120 64 36
52 12 1 21 0 0 0 0 0 0 2 1 0 5 5
0 0 4 0 1 4 4 3 7 0 0 0 0 0 0
0 0 0 0 0 0 5 6 0 0 0 0 1 0 0
87 72 78 143 132 131 164 145 147 143 125 128 149 124 133
30 0 0 41 23 13 81 52 53 106 83 76 90 62 51
83 59 43 101 70 58 112 70 56 92 57 44 62 21 3
47 0 0 52 0 0 62 0 0 52 0 0 58 1 0
66 0 0 97 27 0 99 35 6 136 66 36 163 85 55
166 86 55 169 83 41 158 70 42 152 67 24 150 57 14
152 63 17 152 61 15 147 62 10 162 65 20 155 65 19
163 73 27 165 64 19 179 78 29 178 87 30 167 70 13
173 72 14 187 80 27 179 77 19 198 97 41 224 131 70
255 228 170 230 172 104 215 154 84 216 156 85 224 160 82
226 158 76 233 162 83 237 159 83 245 174 89 241 167 83
242 169 89 222 161 77 234 161 86 255 220 156 255 180 128
128 54 0 35 0 0 64 0 0 72 6 0 112 35 36
101 33 26 115 36 30 147 56 58 189 95 97 151 66 59
158 72 73 154 68 67 145 63 63 131 41 47 117 32 37
123 37 24 129 36 27 123 32 17 132 48 39 123 23 37
103 17 46 151 64 116 187 103 178 172 79 172 143 67 150
139 56 119 147 74 125 139 67 125 111 37 85 70 4 51
101 27 75 134 71 105 141 72 110 110 46 84 117 58 82
120 53 86 119 54 88 253 192 255 255 245 255 127 67 142
0 0 17 72 15 84 67 25 78 43 0 31 67 21 36
58 7 14 63 16 10 58 10 14 65 8 3 78 11 15
83 16 18 106 31 38 101 29 30 151 69 70 125 43 44
116 22 30 123 31 44 154 57 68 190 96 104 219 118 127
232 139 144 213 105 116 189 83 101 179 68 91 203 89 120
224 109 158 216 110 165 217 104 179 189 84 161 166 106 165
255 255 255 255 215 255 226 144 222 253 148 235 236 116 213
245 133 218 254 148 213 229 125 191 236 137 192 251 141 191
235 130 167 200 102 132 184 76 99 180 78 90 188 76 95
201 92 111 202 95 114 199 86 109 189 78 93 189 76 96
176 68 77 170 61 75 165 52 62 198 95 103 190 82 94
174 66 78 165 62 70 145 49 53 145 48 61 149 44 52
165 69 78 85 0 16 118 46 59 92 30 56 93 37 65
39 0 32 0 0 0 19 0 29 255 255 255 250 192 252
225 170 229 251 190 255 201 141 210 223 160 250 255 255 255
255 198 255 202 135 225 33 0 68 109 43 140 100 35 125
64 5 80 83 21 94 96 40 88 54 0 50 68 12 48
62 8 48 72 20 46 77 22 54 74 23 42 68 14 39
63 13 31 63 12 35 63 6 28 75 20 36 60 19 26
62 14 25 64 9 24 68 13 21 62 12 15 69 11 23
71 15 17 74 12 22 82 19 28 86 24 26 74 16 22
66 0 4 75 17 9 101 35 34 107 48 40 152 86 73
135 66 49 120 50 29 110 45 23 132 66 41 144 82 49
124 63 36 125 51 24 89 11 0 102 32 1 155 86 58
125 61 42 58 14 2 19 0 0 0 0 0 0 0 3
0 0 5 1 1 4 1 2 5 0 3 8 0 0 0
2 0 0 3 0 0 0 0 0 0 0 0 0 0 0
0 0 0 5 4 2 46 36 29 53 47 43 35 15 14
1 0 0 0 0 0 39 8 3 118 96 81 125 98 93
69 42 38 78 50 45 117 80 73 116 87 79 123 83 72
70 32 21 46 0 0 53 6 0 48 6 0 44 0 0
45 3 0 43 0 0 52 0 0 74 12 0 104 37 5
124 60 36 148 64 36 150 71 40 150 76 31 162 72 36
148 66 24 155 70 28 149 66 22 154 68 20 153 72 23
159 71 24 160 77 31 150 67 20 169 75 19 177 79 28
165 70 11 167 69 20 183 78 19 169 72 17 204 100 47
233 146 87 255 213 153 230 167 95 219 153 79 218 153 81
230 159 91 230 156 77 233 160 84 239 168 89 234 166 80
233 166 82 232 165 78 255 186 108 229 160 81 254 176 102
255 199 140 229 151 107 56 0 0 54 0 0 36 0 0
64 7 0 67 0 2 67 0 0 94 25 15 122 45 47
100 43 36 107 38 42 105 43 47 106 39 33 103 27 34
105 31 33 113 33 24 109 29 22 110 34 20 128 54 38
107 25 39 103 16 50 141 62 109 189 99 176 167 90 166
145 57 151 134 65 123 142 66 118 137 65 123 107 33 81
71 3 53 96 32 77 132 66 103 136 70 101 108 48 73
114 53 85 118 49 87 117 50 79 236 168 246 255 255 255
166 107 188 0 0 16 64 9 77 70 30 80 42 0 25
73 20 48 57 9 13 63 10 7 64 12 20 61 14 6
69 10 13 77 19 13 93 21 27 95 19 22 143 59 58
139 49 52 140 47 53 127 36 44 125 29 37 142 45 55
191 86 99 219 121 130 215 109 125 195 90 100 192 82 109
213 102 134 226 116 169 223 106 165 228 105 179 215 115 186
143 87 141 255 249 255 241 178 248 156 76 153 183 74 162
176 70 160 247 136 214 255 201 255 221 130 194 230 129 188
231 123 170 239 125 177 221 111 152 203 94 122 197 82 106
204 97 114 185 76 91 181 74 95 186 73 87 178 65 85
166 58 69 173 63 72 174 64 77 186 70 77 163 59 64
167 56 66 154 49 55 147 38 47 140 39 41 140 38 45
147 36 48 152 60 65 96 11 29 100 29 42 95 33 61
104 46 80 44 0 33 0 0 0 147 101 147 255 255 255
194 141 195 229 174 231 246 185 252 199 140 207 239 176 255
255 232 255 174 105 194 72 7 97 67 0 96 97 30 123
125 59 145 62 0 73 21 0 25 60 0 61 79 15 72
80 23 57 69 7 52 78 19 49 77 21 53 73 14 38
71 16 39 61 4 24 62 3 28 61 8 26 67 19 33
65 16 25 68 12 29 64 12 28 62 8 20 62 14 21
70 13 27 63 10 15 77 16 27 75 15 25 72 14 22
70 5 2 76 9 6 86 23 14 122 50 42 136 72 57
149 80 59 128 63 49 118 55 36 131 54 38 145 69 52
159 87 61 141 70 47 114 47 21 87 15 0 116 40 16
168 94 73 132 72 48 52 5 0 25 0 0 0 0 0
0 4 1 2 5 1 7 1 2 1 0 0 2 0 0
8 0 0 0 0 0 1 0 0 3 0 0 0 0 0
0 0 0 0 0 0 0 0 0 0 0 0 0 0 0
0 0 0 0 0 0 0 0 0 51 28 15 127 111 105
125 102 90 100 67 61 126 97 88 152 113 103 101 69 56
120 77 72 59 24 9 40 0 0 47 11 0 53 8 0
52 11 0 52 12 0 44 7 0 40 0 0 53 3 0
66 11 0 70 17 0 99 35 7 113 52 27 150 66 42
154 77 51 145 71 34 154 70 31 150 77 33 153 70 30
149 78 27 158 72 22 154 77 29 151 66 20 176 86 40
172 82 30 170 77 26 175 79 27 173 78 20 174 75 26
207 109 50 243 158 101 255 192 126 232 159 99 213 149 76
220 155 87 236 159 90 226 156 78 237 158 83 242 163 87
225 154 68 248 168 92 232 154 69 247 172 79 247 166 85
219 141 61 244 154 94 255 185 120 158 79 41 98 34 0
48 0 0 53 0 0 52 10 0 47 0 0 56 0 0
62 9 0 43 0 4 37 3 11 53 0 3 52 11 7
66 15 14 80 21 27 87 28 18 82 21 10 108 31 19
122 39 36 108 26 48 93 19 42 147 62 119 186 105 177
166 87 167 136 65 140 135 59 122 144 66 119 134 62 120
106 30 80 72 2 45 97 31 69 132 63 103 124 62 95
116 54 84 119 56 83 118 57 87 118 57 79 211 147 234
255 255 255 194 139 228 19 0 30 54 3 70 67 17 69
44 0 28 64 24 47 55 0 8 61 14 23 60 13 15
67 11 10 71 6 14 79 13 13 94 20 25 96 25 29
106 25 33 119 35 43 137 45 63 123 29 44 99 1 17
106 7 25 153 51 67 179 84 98 218 109 124 199 92 108
204 94 125 228 106 151 218 103 151 200 85 151 210 96 164
193 88 170 224 169 226 255 242 255 200 125 201 134 56 134
181 74 164 160 43 139 186 88 158 255 148 227 239 135 195
221 123 189 231 113 175 231 114 166 230 119 156 217 108 147
208 100 122 219 110 134 164 59 76 169 65 81 177 63 82
181 73 81 175 65 74 185 75 80 202 86 95 208 107 115
147 38 51 160 57 57 147 46 46 143 45 45 144 47 50
139 47 53 147 47 51 158 59 72 105 31 42 98 19 44
101 41 62 98 43 70 16 0 11 0 0 0 254 204 255
255 255 255 255 194 255 216 166 229 221 160 225 226 167 234
227 164 244 169 108 187 96 27 117 89 24 114 103 34 133
64 0 91 174 109 197 183 118 197 56 0 65 75 12 69
117 60 105 74 16 59 73 18 49 78 19 56 75 20 44
75 17 44 67 13 36 63 8 27 62 5 29 60 9 28
73 14 37 64 19 23 63 8 23 60 13 17 64 11 18
67 10 11 67 9 16 76 15 18 66 3 12 67 6 8
70 0 4 81 11 17 91 32 31 119 50 43 139 74 68
165 95 88 133 70 52 125 58 35 131 54 34 137 66 43
146 80 49 164 98 68 144 69 48 109 44 9 93 15 0
126 47 18 184 109 80 136 67 45 53 3 0 19 0 0
0 0 0 5 10 15 0 0 0 2 0 1 5 3 4
0 0 1 6 0 0 9 0 0 0 0 0 2 0 0
0 0 0 4 4 0 8 6 0 0 0 0 0 0 0
0 0 0 7 13 7 33 26 13 0 0 0 54 41 18
147 121 119 146 128 120 92 72 68 116 86 79 137 108 97
111 76 63 115 71 65 68 29 21 59 21 16 87 54 37
75 43 33 78 44 27 84 50 39 77 47 30 48 12 0
55 14 0 46 2 0 45 0 0 54 0 0 80 25 0
120 48 25 131 73 31 140 61 33 127 63 26 138 64 18
140 69 28 142 61 24 138 72 24 144 65 16 130 62 13
170 84 35 160 75 26 170 82 34 178 88 36 172 76 30
167 77 18 211 112 55 253 167 110 255 181 116 227 148 78
215 141 78 217 150 70 232 146 85 230 154 73 222 145 71
226 158 73 211 135 53 255 180 102 225 145 57 208 130 49
236 154 68 240 157 76 215 133 66 207 115 64 243 176 128
155 88 50 73 26 0 70 27 15 64 23 15 50 19 15
45 9 0 33 0 0 5 0 0 13 0 0 8 0 0
24 0 0 43 4 0 64 21 22 83 24 14 73 9 0
98 33 29 117 46 39 99 22 40 98 13 55 146 60 118
179 102 171 166 86 166 136 61 140 139 61 125 138 70 118
134 58 117 94 26 77 69 7 47 99 29 71 124 65 102
120 54 91 114 52 86 116 53 74 116 53 78 116 52 81
204 134 208 255 255 255 214 151 225 42 0 59 45 0 59
54 7 65 52 0 39 61 15 44 60 4 23 57 10 15
64 15 16 58 12 14 74 8 20 69 12 19 95 23 36
106 26 39 79 0 13 102 12 25 117 23 47 116 22 41
112 13 34 117 17 40 153 50 71 155 59 78 201 91 112
192 84 114 209 98 133 221 100 145 202 87 149 204 84 151
215 91 174 187 82 158 255 194 255 255 255 255 199 125 189
144 64 136 212 112 202 187 85 161 176 70 154 185 79 151
227 125 198 228 115 187 236 116 184 230 111 174 222 112 161
214 105 147 205 92 127 219 102 132 171 58 82 173 57 82
182 71 85 185 77 85 175 65 76 187 74 82 192 91 101
200 93 95 155 44 50 163 56 62 159 53 58 153 50 54
156 54 59 153 55 59 151 49 62 150 53 66 114 28 57
104 33 61 104 40 72 92 38 77 1 0 0 75 32 85
255 255 255 255 216 255 255 218 255 225 160 224 217 159 221
249 190 255 204 141 221 167 106 185 174 105 195 169 104 196
70 0 102 99 33 131 219 154 236 227 161 237 121 58 128
116 58 108 103 43 92 33 0 9 78 20 54 78 24 54
76 18 41 71 18 39 64 9 36 63 8 29 66 9 37
63 12 24 72 20 30 65 19 29 64 8 27 61 15 23
57 6 17 66 13 16 65 10 20 73 16 21 67 6 18
61 4 9 75 9 17 92 29 30 124 54 49 145 72 62
145 81 71 154 79 67 133 62 45 116 55 35 134 62 45
144 73 52 151 79 56 158 88 65 154 78 56 108 33 9
98 23 0 137 60 26 189 110 89 136 70 42 45 0 0
15 0 0 0 0 0 18 20 16 0 0 3 6 4 5
3 1 2 2 0 1 0 0 0 0 0 0 1 0 0
2 0 0 0 0 0 17 15 10 0 3 0 0 1 0
0 0 0 0 0 0 0 0 0 0 0 0 0 0 0
4 0 0 104 86 87 147 131 119 105 81 79 84 64 56
116 82 86 138 115 109 102 66 60 72 36 24 89 54 45
115 82 72 109 74 68 103 77 60 109 81 69 101 71 54
68 43 29 74 39 20 60 16 0 42 0 0 47 0 0
62 3 0 82 24 2 84 26 0 135 67 46 116 48 17
119 54 24 128 60 18 131 65 21 132 62 20 128 60 13
134 56 14 146 60 27 142 61 20 157 76 33 174 88 44
164 72 24 160 75 21 201 121 63 255 169 113 245 159 97
218 139 72 207 130 67 213 137 65 231 142 77 217 132 66
216 138 60 221 134 66 215 125 50 235 149 66 232 143 62
198 111 27 228 131 64 250 153 87 206 102 51 175 86 35
229 148 116 147 77 46 89 28 16 68 25 10 57 23 8
49 25 10 37 15 3 25 0 0 9 0 0 3 0 0
8 0 0 22 0 0 41 9 1 68 23 12 73 22 19
73 12 0 98 27 22 112 33 40 103 20 45 95 13 50
146 65 122 187 101 175 167 79 160 132 59 137 141 63 127
137 67 116 131 52 112 91 21 72 70 6 47 98 28 72
126 64 95 118 57 83 109 46 73 112 48 75 112 47 78
112 52 75 203 135 209 255 254 255 203 142 214 65 15 82
57 0 71 38 0 43 58 5 50 57 11 33 51 7 23
62 7 19 65 11 24 64 13 23 69 16 19 81 16 28
88 22 24 107 33 44 84 10 33 96 10 39 117 18 43
126 24 62 141 43 72 147 47 79 158 50 86 143 42 76
180 70 102 189 81 111 206 94 138 213 89 144 211 99 157
231 113 185 254 138 214 251 144 225 223 129 195 255 255 255
255 150 231 111 35 113 188 97 169 183 78 164 177 75 154
186 78 160 210 98 178 230 116 183 250 130 204 240 122 192
213 101 154 205 94 146 197 84 130 205 89 117 151 38 62
159 47 73 175 66 82 182 69 90 156 47 55 163 50 60
166 62 61 160 51 56 157 54 58 153 51 55 137 40 38
144 42 45 141 49 47 146 50 58 132 38 45 122 32 45
104 32 47 126 50 81 109 44 82 112 48 91 0 0 0
164 112 173 255 255 255 255 248 255 229 158 235 219 160 226
239 181 251 238 179 242 179 116 198 249 188 255 255 255 255
174 108 194 102 37 131 247 179 255 236 169 251 64 1 75
30 0 26 79 17 74 67 11 45 86 30 65 76 22 49
78 20 43 83 30 55 76 20 42 66 10 36 63 7 27
64 7 32 69 13 33 62 10 20 56 10 14 62 15 21
64 9 17 65 8 10 66 7 13 72 11 17 64 0 3
88 27 31 65 0 0 69 6 4 112 44 48 155 79 83
163 97 87 145 75 72 117 48 38 127 63 49 116 41 18
130 62 36 145 64 41 140 67 40 164 92 59 154 74 51
107 36 2 99 20 0 129 49 15 195 114 85 135 66 30
39 0 0 15 0 0 0 0 0 17 23 13 0 0 0
6 5 9 6 2 4 4 0 2 1 0 0 0 0 0
0 0 0 2 0 0 0 0 0 1 1 0 0 0 0
0 0 0 12 18 8 12 19 8 0 0 0 0 4 0
0 0 0 0 0 0 59 46 39 184 175 162 184 158 157
126 111 98 141 115 113 194 157 158 115 86 80 58 28 18
57 33 27 118 80 72 100 67 61 92 61 50 105 70 64
80 63 43 100 64 52 80 54 46 65 30 17 45 11 0
30 0 0 42 0 0 73 20 0 66 9 0 171 113 81
127 74 46 121 63 24 127 59 22 129 71 29 144 73 31
140 66 31 132 64 21 112 29 0 134 49 15 156 76 43
169 93 39 154 77 28 153 69 15 204 117 63 255 180 113
233 146 91 223 136 72 208 128 60 221 140 69 230 147 83
229 138 65 216 130 63 215 129 54 222 126 52 205 107 36
244 158 78 232 146 74 226 130 68 233 133 78 190 95 48
222 131 85 190 112 79 146 75 49 91 33 13 46 7 0
23 0 0 30 11 0 37 7 0 0 0 0 36 22 22
13 0 0 11 0 0 24 3 0 57 22 3 69 27 25
80 24 19 61 0 0 94 25 18 120 43 49 86 7 34
68 0 25 140 45 115 184 104 174 176 91 177 129 57 130
146 68 132 142 69 119 123 59 114 97 24 76 67 3 44
94 24 68 126 64 98 127 65 96 104 37 71 109 47 66
108 47 74 108 46 67 195 127 201 255 203 255 255 212 255
20 0 34 8 0 18 73 26 85 54 0 46 63 14 50
54 2 23 53 9 27 65 14 26 59 12 21 55 3 12
67 4 20 75 11 29 87 15 32 98 14 46 90 8 43
88 0 31 107 13 53 145 38 86 183 83 126 214 106 147
219 117 159 238 128 171 219 104 158 231 117 166 255 146 204
255 146 211 229 115 185 221 100 180 205 97 176 184 82 144
255 183 252 255 255 255 255 173 247 131 36 119 135 50 127
206 96 178 198 95 170 211 87 164 241 124 210 241 110 184
225 105 181 233 119 180 200 87 146 188 71 120 230 113 153
180 65 97 183 74 90 154 40 66 144 33 47 153 44 50
161 48 56 150 46 53 159 48 62 146 40 41 159 51 57
154 62 56 147 53 52 141 44 50 125 34 46 120 24 32
113 23 39 151 67 96 57 0 30 110 45 78 32 0 13
23 0 17 255 255 255 255 226 255 241 183 255 236 174 247
245 186 255 229 172 238 221 162 244 255 196 255 255 210 255
235 170 254 214 147 235 255 255 255 161 97 182 16 0 37
22 0 26 52 0 45 52 0 44 68 9 45 86 28 63
64 7 29 65 11 31 63 6 25 63 11 21 64 11 27
63 10 18 63 10 21 56 0 12 85 33 50 76 27 34
67 10 26 60 9 19 67 12 17 66 8 17 76 19 27
73 12 18 32 0 0 120 57 63 157 83 90 124 52 52
110 46 35 113 47 35 117 37 31 100 26 9 137 67 44
146 80 61 146 66 49 179 103 79 189 112 92 152 76 51
150 71 49 117 42 17 106 25 0 165 83 49 190 109 87
145 76 49 47 0 0 14 0 0 23 15 0 29 24 25
23 20 22 0 0 0 0 0 0 0 0 0 0 0 0
9 11 4 10 8 2 0 0 0 3 0 0 0 0 0
0 0 0 0 0 0 0 0 0 0 0 0 0 4 0
0 0 0 23 25 5 0 0 0 0 0 0 8 0 0
146 142 143 227 212 211 175 154 149 119 104 94 0 0 0
84 56 48 135 102 94 110 84 68 116 76 69 112 82 67
89 58 45 52 15 7 79 50 45 81 58 37 68 39 27
57 19 4 58 16 0 46 6 0 17 0 0 3 0 0
27 0 0 71 21 0 130 76 48 135 79 47 115 41 15
91 30 0 122 52 21 157 86 49 157 71 47 113 34 0
126 43 12 150 65 24 151 70 19 183 97 40 222 135 72
231 149 90 237 147 81 221 132 66 206 114 54 188 103 29
189 95 28 197 110 42 216 117 55 231 138 62 182 80 20
216 122 45 226 128 72 192 103 40 180 101 48 234 149 111
250 159 120 216 135 113 73 0 0 70 6 0 39 0 0
59 24 0 55 21 15 29 5 0 20 5 0 57 33 18
14 7 0 34 17 12 21 0 0 13 0 0 35 0 0
49 13 0 67 10 0 101 35 27 124 52 52 53 0 0
123 37 78 174 90 136 174 84 152 161 77 161 137 48 130
165 89 174 119 41 101 136 63 113 128 61 117 92 19 71
67 3 44 108 35 84 124 62 93 93 28 53 103 49 70
102 45 74 105 41 64 105 43 60 191 125 198 255 222 255
255 232 255 62 5 77 33 0 50 68 23 75 54 0 47
56 9 46 54 4 31 56 11 27 64 12 27 63 10 27
70 10 33 77 19 29 94 19 41 105 38 57 76 0 33
102 10 51 132 46 79 164 61 107 187 84 134 206 103 153
228 117 173 234 136 172 234 120 175 243 131 179 248 135 189
247 125 183 204 95 154 191 71 142 194 74 151 214 102 175
187 80 147 197 99 157 255 206 255 255 255 255 255 166 239
156 71 151 176 70 147 210 103 187 194 68 153 224 96 178
209 90 172 207 83 157 222 119 190 202 102 157 197 83 143
229 109 163 183 67 105 182 72 99 162 52 77 158 49 61
156 48 60 165 52 54 156 51 64 155 54 54 143 38 48
145 45 46 152 46 51 146 59 47 138 45 58 133 40 48
129 35 52 125 43 64 84 6 38 113 43 82 124 57 100
35 0 23 144 93 149 255 253 255 255 230 255 250 191 255
255 188 255 248 186 255 253 189 255 255 214 255 255 229 255
255 217 255 255 195 255 255 212 255 184 116 210 117 50 136
56 0 63 71 7 77 77 17 71 77 14 60 74 17 44
74 17 43 67 11 32 72 18 28 67 12 31 68 11 27
69 12 25 64 7 23 69 11 30 65 10 18 75 27 36
68 19 21 66 11 20 59 8 11 65 9 14 69 18 14
73 6 14 71 10 8 81 11 17 114 50 48 122 49 51
96 18 27 99 31 28 128 51 46 134 61 57 135 66 51
138 64 49 145 80 51 140 63 36 170 89 69 177 103 73
162 87 54 145 72 46 121 42 8 98 17 0 152 70 39
203 111 86 151 75 42 53 0 0 11 0 0 13 4 0
26 23 15 17 16 12 0 0 0 0 0 0 0 0 0
0 0 0 0 0 0 15 12 7 0 0 0 1 0 0
2 0 0 3 0 0 0 0 0 2 0 0 0 0 0
0 0 0 0 0 0 0 0 0 0 0 0 0 0 0
0 0 0 4 0 0 0 0 0 0 0 0 0 0 0
0 0 0 85 62 55 157 133 127 133 98 90 95 69 61
134 94 85 126 88 82 94 57 44 67 44 29 92 65 55
72 40 36 43 10 0 27 0 0 48 12 0 62 28 0
53 11 0 47 9 0 70 26 0 106 53 28 130 77 42
139 76 50 134 66 39 126 52 21 108 40 7 140 63 36
116 42 5 133 48 16 154 69 28 152 74 24 179 94 40
215 133 75 238 150 80 214 122 59 217 127 65 222 130 65
225 132 70 222 130 64 211 122 58 206 107 41 189 92 34
249 150 87 210 109 61 217 127 68 249 164 119 245 159 124
200 117 91 134 61 36 80 15 0 95 21 1 68 9 0
50 5 0 58 9 0 46 23 0 26 0 0 22 0 0
24 4 0 17 0 0 27 8 0 22 0 0 27 0 0
44 11 0 66 15 4 71 18 8 95 29 21 95 20 29
83 2 16 143 56 95 160 73 138 158 67 142 164 80 157
144 58 153 152 74 154 126 53 117 143 69 118 126 59 115
92 19 71 67 0 46 102 44 73 122 57 93 104 36 66
106 48 76 104 50 66 114 46 65 107 42 66 193 121 199
255 234 255 255 254 255 94 36 116 50 0 62 72 23 92
55 0 53 51 2 38 56 4 34 57 8 32 54 7 35
55 6 22 59 9 31 70 11 43 89 31 48 90 10 45
137 65 95 157 72 111 184 91 129 192 100 147 188 83 128
175 73 120 181 71 121 177 73 126 178 65 117 193 80 133
202 88 138 197 76 130 186 64 120 188 77 138 214 104 166
238 117 192 231 109 165 163 42 113 201 101 172 255 246 255
255 238 255 193 99 174 154 60 137 237 135 213 205 83 172
220 100 180 201 76 165 204 88 167 234 138 201 231 130 200
187 69 134 201 77 135 204 88 135 194 73 108 173 59 79
159 44 60 156 45 64 154 43 47 146 37 56 142 35 44
137 30 42 135 41 41 138 48 49 146 45 43 135 50 60
137 50 53 141 38 62 128 40 65 110 26 61 155 83 133
63 0 39 0 0 0 247 191 247 255 233 255 255 211 255
255 209 255 255 221 255 255 212 255 255 218 255 255 218 255
227 164 246 152 90 168 118 55 140 156 87 183 111 44 130
69 6 88 52 0 63 80 19 76 82 26 75 81 27 65
73 19 43 63 8 34 62 10 21 63 12 19 65 13 29
67 18 24 68 20 27 67 17 25 69 21 30 67 18 20
73 22 27 66 17 23 65 10 23 62 13 19 62 7 15
63 14 12 78 12 24 63 6 5 104 38 47 112 51 52
104 33 40 81 15 9 103 29 19 127 51 39 141 68 56
147 80 60 162 79 68 155 83 58 140 62 40 180 96 76
194 111 87 167 84 61 155 79 44 112 33 6 109 15 0
165 81 45 209 122 91 150 72 46 52 0 0 15 0 0
28 6 0 19 14 16 39 38 34 33 41 36 0 0 0
3 0 0 0 0 0 0 0 0 11 12 8 2 4 0
0 0 0 1 0 0 0 0 0 0 0 0 9 0 0
0 0 0 1 0 0 0 0 0 4 5 8 10 11 13
3 7 13 0 0 0 0 0 0 0 0 0 0 0 0
0 0 0 0 0 0 96 72 62 160 146 138 124 96 89
90 53 52 108 75 63 130 100 94 139 105 92 87 60 50
96 71 54 73 51 36 26 0 0 18 0 0 63 33 18
92 51 39 86 49 27 45 13 0 53 11 0 67 23 3
96 47 16 134 76 49 142 82 51 123 61 34 94 27 1
130 49 18 124 43 8 139 50 10 137 61 5 160 67 17
190 107 42 220 126 62 223 132 68 207 112 44 214 117 45
198 110 49 206 110 45 211 118 57 217 124 65 222 121 72
220 124 62 234 138 97 195 110 59 206 120 87 206 140 105
151 86 62 71 18 0 36 0 0 24 0 0 66 11 0
57 4 0 55 11 0 49 18 0 51 14 1 40 7 0
29 0 0 27 0 0 7 0 0 33 1 0 23 0 0
30 1 0 58 22 0 66 24 14 68 12 4 81 22 26
66 0 7 107 32 62 183 95 150 178 89 160 146 65 147
167 77 175 141 69 152 132 56 144 130 55 116 140 66 115
130 63 119 96 21 75 71 4 45 102 41 75 127 56 98
95 42 58 108 47 73 106 48 71 104 48 69 106 49 65
194 128 202 255 230 255 255 255 255 90 34 115 48 0 63
72 25 92 64 10 60 55 3 51 66 11 50 60 7 33
50 5 33 52 0 29 55 0 23 65 6 34 81 12 38
70 1 26 134 54 93 123 43 82 141 55 96 146 49 88
147 41 96 143 39 83 156 49 99 155 54 95 173 62 107
170 58 107 165 53 98 165 45 99 186 72 124 227 103 159
229 115 176 214 103 163 231 105 163 236 108 168 140 48 107
190 100 161 255 234 255 255 175 251 137 47 123 172 66 145
210 102 182 216 91 180 190 83 168 204 93 175 255 169 244
255 163 228 188 72 148 171 50 116 211 96 141 193 77 112
174 59 89 158 41 72 153 44 56 156 46 52 144 36 57
143 36 46 138 30 43 134 31 39 135 34 41 134 44 53
139 42 49 126 47 59 133 37 66 119 34 63 109 35 77
106 34 77 0 0 0 68 9 60 255 254 255 255 216 255
230 169 255 252 187 255 255 205 255 255 218 255 255 229 255
255 201 255 187 124 198 119 60 137 125 46 141 182 119 202
80 17 97 73 13 95 65 0 73 75 19 77 76 12 65
64 13 37 73 15 42 65 18 27 59 3 15 58 10 17
66 11 17 63 17 12 71 14 26 67 21 25 74 19 28
74 21 31 67 16 23 64 15 23 69 16 20 67 9 14
67 12 10 74 10 18 76 21 16 79 7 16 101 35 34
111 43 42 103 27 29 102 24 28 127 48 45 130 63 52
141 58 54 140 63 50 163 89 77 164 88 66 149 60 43
176 99 67 189 112 90 173 93 58 151 72 43 113 29 0
109 17 0 168 86 44 223 132 101 163 82 48 52 0 0
22 0 0 31 16 0 11 4 0 73 68 69 86 77 84
0 0 0 0 0 0 4 6 0 0 0 0 4 3 0
5 6 0 0 0 0 0 0 0 6 0 0 4 0 0
1 0 0 4 0 0 6 0 0 0 0 0 7 4 16
0 0 2 0 0 0 0 0 6 0 0 0 0 0 0
12 6 0 27 13 0 0 0 0 50 40 28 130 108 97
143 126 117 124 100 92 99 73 75 102 70 60 116 82 81
147 125 114 83 59 45 44 22 11 39 13 0 46 17 7
82 57 40 99 67 50 83 56 36 68 25 9 55 23 0
39 2 0 58 10 0 97 41 16 112 56 34 133 61 37
123 54 30 117 43 11 124 50 9 130 49 14 134 47 7
162 72 13 202 115 64 226 137 74 223 134 69 208 108 44
197 105 45 193 91 44 186 103 39 194 108 59 205 118 70
205 120 60 216 123 87 180 95 56 167 85 52 133 70 41
90 25 0 19 0 0 5 0 0 34 0 0 26 0 0
76 36 6 74 33 8 76 35 24 74 29 7 54 26 3
58 16 6 43 9 0 49 6 0 17 0 0 33 6 0
47 3 0 45 16 0 69 20 10 64 20 15 76 12 12
67 11 18 57 0 7 139 65 102 212 130 194 185 101 177
149 65 156 167 84 173 153 72 169 127 51 131 136 58 120
145 69 118 128 59 116 89 24 73 71 2 45 104 40 77
118 62 89 94 35 57 110 48 80 107 49 64 109 48 68
104 48 58 211 134 216 255 219 255 255 230 255 68 13 93
30 0 48 76 31 98 72 13 74 67 17 65 59 9 49
56 9 41 55 6 39 56 0 33 60 10 39 74 19 54
87 23 53 85 16 55 108 36 69 100 18 48 102 15 51
119 22 61 131 28 64 141 39 86 156 50 81 156 56 84
162 51 88 168 62 85 167 53 94 178 65 95 209 89 127
232 120 158 242 127 165 226 113 156 188 52 111 245 127 178
182 75 133 155 65 129 255 205 255 255 229 255 185 95 173
99 13 88 194 87 166 177 75 154 166 61 139 176 71 152
255 173 242 255 182 255 175 73 147 185 64 139 206 87 141
189 71 119 170 52 86 159 45 65 154 47 61 159 41 57
147 40 56 141 37 51 138 36 53 132 41 46 131 37 41
127 43 46 135 43 61 127 38 55 119 28 56 110 17 52
135 62 104 27 0 4 0 0 0 225 160 215 255 255 255
255 220 255 250 184 255 255 202 255 255 229 255 255 236 255
255 213 255 211 153 224 164 101 175 136 77 156 140 64 148
158 92 183 67 9 90 65 14 87 73 8 75 60 13 64
60 0 42 46 4 36 66 8 29 42 2 8 57 1 15
48 8 11 65 10 13 55 18 14 75 19 25 62 25 24
72 19 22 74 26 25 59 6 16 63 16 25 66 15 22
70 14 20 62 11 10 67 7 16 79 25 22 84 14 25
93 31 31 100 36 35 100 26 31 116 41 35 133 61 55
139 58 45 140 59 47 150 73 53 169 91 71 163 91 72
151 66 49 182 97 71 184 104 87 169 79 50 152 68 38
97 18 0 106 20 0 179 90 54 237 142 117 168 83 57
59 0 0 26 0 0 40 15 6 9 2 0 112 104 105
110 104 99 0 0 0 0 0 0 16 15 9 0 0 0
0 2 0 0 0 0 6 0 3 1 0 2 7 0 2
4 0 0 9 0 8 3 0 6 7 0 6 0 0 0
17 16 24 0 0 2 0 0 0 0 0 4 0 0 0
9 8 0 0 1 0 0 0 0 0 0 0 0 0 0
55 47 48 128 120 110 168 144 146 150 130 118 121 96 94
90 73 64 179 164 153 52 28 12 13 0 0 66 44 35
96 66 61 99 72 60 98 69 61 79 45 33 59 32 17
64 27 5 58 16 3 47 5 0 58 4 0 82 25 8
106 52 34 139 75 56 113 48 14 120 57 15 119 44 6
131 45 2 162 79 35 216 128 66 227 130 82 222 137 71
202 100 56 201 111 57 191 116 65 200 115 76 189 118 76
171 108 63 151 77 44 125 57 27 168 108 89 88 32 16
25 0 0 6 0 0 8 0 0 32 0 0 47 4 0
0 0 0 125 74 55 91 55 43 89 46 22 70 34 14
62 13 3 48 15 0 60 10 7 52 11 5 36 0 0
53 15 6 48 17 1 61 12 5 77 35 34 81 23 23
70 12 24 68 0 24 82 5 50 169 91 145 221 132 218
188 103 191 159 73 175 167 79 181 161 83 175 129 50 139
129 64 119 138 69 119 132 61 118 94 27 77 71 0 44
104 40 77 120 61 91 96 36 61 108 51 68 107 47 72
103 47 55 105 47 59 208 135 209 255 203 255 255 222 255
61 9 83 22 0 47 71 24 92 82 26 86 66 11 65
56 7 45 56 10 45 60 5 42 71 15 44 79 24 61
99 40 69 113 43 81 108 36 80 139 61 86 124 48 82
127 43 73 132 46 83 151 42 81 151 51 83 148 43 72
141 41 70 119 8 36 147 40 59 167 58 89 185 70 97
192 75 107 204 87 121 198 86 116 201 86 121 180 53 99
203 78 133 201 97 149 180 82 143 212 120 191 255 212 255
255 218 255 248 162 235 179 85 162 191 90 167 169 69 153
141 52 131 234 149 229 253 159 239 158 44 134 178 60 141
211 86 150 190 69 115 165 51 90 160 42 77 157 43 63
151 52 56 151 36 63 144 40 51 141 38 52 132 40 48
135 35 48 126 36 41 135 42 59 122 39 65 115 22 56
96 10 52 125 44 91 10 0 0 92 25 77 255 255 255
255 244 255 255 227 255 255 206 255 255 232 255 255 197 255
243 182 255 176 114 179 110 53 124 98 35 109 101 42 121
83 7 95 35 0 50 68 6 90 59 0 78 66 13 78
62 4 61 41 0 37 51 0 25 53 5 23 33 0 0
49 2 8 50 5 1 55 10 10 64 16 19 62 17 18
67 19 20 61 17 20 56 18 16 59 5 19 65 10 15
76 17 20 65 14 20 70 5 11 73 13 10 80 16 23
87 27 21 113 37 44 101 30 33 98 26 30 107 34 30
139 57 52 126 50 38 142 62 52 174 100 81 166 90 74
173 95 68 161 82 57 181 99 76 192 104 76 162 77 49
143 64 35 102 21 0 113 13 0 184 103 66 243 151 117
173 97 58 55 0 0 36 0 0 46 24 6 16 9 0
116 94 103 101 87 91 13 5 0 0 0 0 6 11 3
0 0 0 0 2 0 0 1 0 0 3 2 1 0 1
6 0 1 3 0 0 6 0 5 7 0 3 4 0 3
0 0 0 8 5 18 0 3 0 0 0 1 0 0 5
4 3 2 1 0 3 0 0 0 0 0 0 0 0 0
0 0 0 0 0 0 0 0 0 62 50 47 138 132 129
178 163 165 197 184 180 120 95 91 12 0 0 2 0 0
110 85 74 126 103 98 112 87 72 98 69 63 76 49 39
44 16 9 77 39 27 67 29 9 61 19 6 49 4 0
60 10 0 94 34 20 106 53 33 116 56 19 110 50 17
117 38 0 133 58 12 192 103 62 222 133 79 215 123 71
214 123 69 198 108 59 195 104 68 179 97 59 170 102 69
165 102 70 146 98 71 133 67 49 119 67 48 152 105 95
52 14 9 0 0 0 18 0 0 17 0 0 13 0 0
55 10 0 68 28 10 131 85 68 97 54 31 78 32 14
58 19 0 48 10 0 47 3 0 61 7 6 54 11 8
60 13 9 68 26 20 70 16 13 63 14 9 78 27 31
83 29 41 81 21 48 52 0 20 156 79 131 196 117 185
206 122 215 187 96 195 164 78 184 162 79 183 162 82 181
136 60 143 129 64 119 141 70 120 135 63 120 93 24 75
65 4 43 105 39 77 120 61 91 98 38 64 103 45 69
104 44 59 101 44 57 102 44 57 191 119 195 255 202 255
255 232 255 91 30 115 30 0 51 80 21 96 78 26 86
61 8 62 58 5 49 62 10 50 58 13 50 68 20 61
85 28 73 97 36 75 102 32 86 94 32 69 98 23 57
106 27 49 119 34 59 132 43 67 149 37 72 147 46 77
157 49 73 159 64 78 140 34 50 152 43 59 162 60 69
183 73 90 180 62 88 167 50 78 151 45 61 138 22 61
214 90 131 166 36 90 190 84 147 198 91 156 156 55 125
228 137 215 255 241 255 255 226 255 223 145 217 233 151 218
216 131 211 189 98 175 255 180 253 255 181 255 140 35 121
169 48 131 207 88 143 197 73 117 172 49 91 163 44 74
157 44 58 147 41 50 147 33 59 139 37 47 143 35 55
129 34 41 129 29 34 125 35 41 133 37 48 125 41 57
121 19 57 104 13 52 38 0 8 68 0 39 255 217 255
255 255 255 255 197 255 220 161 231 169 105 184 188 125 201
96 30 101 96 37 109 67 7 69 55 0 69 82 17 92
98 37 118 109 28 120 93 21 108 58 1 91 65 10 86
70 12 83 58 2 62 38 0 23 50 0 29 61 15 30
35 0 0 47 3 7 45 0 1 51 11 7 57 15 15
59 18 16 58 18 14 55 11 16 55 13 14 61 7 11
61 7 17 75 18 22 64 13 21 67 5 12 68 9 8
86 24 32 89 30 26 113 39 47 104 35 39 98 25 32
112 39 35 133 53 48 120 44 32 143 65 54 198 114 98
160 86 69 183 106 79 173 93 70 191 109 86 191 105 79
152 69 40 149 60 36 105 30 0 107 14 0 195 101 70
254 156 132 181 96 68 62 0 0 30 0 0 45 30 15
33 24 18 82 62 69 61 49 50 2 0 0 0 0 0
6 0 0 0 0 0 0 1 0 0 4 0 0 0 3
0 0 2 2 0 2 0 0 0 2 0 8 1 0 6
2 0 6 4 0 7 0 0 0 0 0 0 0 0 6
0 3 0 0 0 0 0 3 3 0 4 0 0 0 0
23 27 20 2 4 0 0 0 0 0 0 0 0 0 0
28 28 19 108 97 94 173 170 161 22 0 0 0 0 0
37 15 7 148 128 123 144 114 113 116 82 83 112 82 85
99 70 59 66 26 20 72 38 28 76 39 19 69 20 8
69 19 0 67 15 0 76 27 2 70 20 0 91 49 16
83 36 0 101 34 2 150 71 27 210 129 86 224 136 90
197 112 57 193 108 59 196 98 59 177 88 49 143 69 38
131 65 42 127 81 62 141 93 84 128 86 74 167 128 125
49 20 28 30 3 14 11 0 0 19 0 0 7 0 0
15 0 0 84 42 33 164 115 104 106 59 47 83 38 8
57 8 0 59 12 0 60 5 0 44 5 0 57 4 0
65 16 11 74 28 23 82 26 23 66 20 6 72 13 11
87 30 39 100 31 57 111 32 71 60 0 41 246 154 228
225 133 225 200 99 202 173 84 197 180 87 200 158 69 177
160 70 172 133 53 136 141 63 120 142 73 120 133 66 123
91 21 72 71 8 47 104 38 76 118 61 92 100 40 62
97 42 54 102 42 61 98 41 54 99 41 54 167 93 177
255 202 255 255 255 255 109 44 125 41 0 73 76 24 97
76 19 85 42 0 44 67 13 59 61 7 53 63 14 47
69 16 54 82 25 69 79 20 64 73 5 54 61 0 35
90 15 37 97 20 42 114 23 56 113 20 38 104 8 30
115 12 32 127 31 43 146 47 56 146 39 49 118 20 19
138 20 28 188 81 91 226 113 127 218 106 124 189 79 95
173 67 84 181 48 90 181 62 105 237 124 175 244 142 203
189 85 162 192 98 171 229 151 218 186 107 175 255 255 255
255 239 255 255 243 255 255 187 255 255 255 255 255 221 255
111 8 100 180 72 152 216 93 163 188 67 117 162 50 88
153 42 72 138 26 58 149 35 51 144 36 58 135 24 47
135 33 57 134 28 42 124 32 49 126 34 39 119 32 50
124 31 64 123 31 68 103 18 64 0 0 0 67 0 48
255 255 255 255 209 255 135 71 145 104 39 107 58 0 75
80 9 92 55 0 68 71 4 82 71 8 78 77 19 86
61 2 74 33 0 52 47 0 62 79 11 95 118 62 142
89 36 114 74 19 88 42 0 43 10 0 3 35 0 15
60 16 36 49 5 15 32 0 0 51 2 0 53 3 9
60 16 12 64 14 20 57 8 12 52 8 9 40 0 0
57 1 11 60 11 13 71 13 23 65 14 14 68 6 5
72 13 16 83 23 20 105 35 40 91 24 23 97 26 25
100 32 26 120 45 47 143 63 58 115 39 25 129 51 36
200 117 109 169 96 70 193 117 97 191 112 85 196 112 88
199 110 85 165 82 53 150 66 37 122 33 10 97 2 0
194 104 72 255 164 124 167 92 56 56 0 0 37 0 0
54 34 19 48 36 29 20 2 6 0 0 0 0 0 0
0 0 0 0 0 0 8 10 0 0 0 0 8 10 5
0 4 0 1 3 0 7 0 0 6 0 0 2 0 0
1 0 0 5 0 0 2 0 0 7 6 13 4 5 8
0 0 0 0 0 0 6 9 4 2 6 2 5 6 4
4 5 0 0 0 0 0 0 0 18 16 1 34 33 19
0 0 0 0 0 0 0 0 0 0 0 0 0 0 0
0 0 0 70 48 43 186 165 166 120 101 96 96 69 60
135 102 105 114 81 75 71 43 36 68 41 32 50 14 0
41 3 0 54 20 0 72 33 3 75 23 7 45 0 0
79 47 10 79 33 0 93 34 0 164 92 57 241 164 127
235 152 104 195 105 66 190 105 63 173 92 59 168 87 62
147 80 63 125 73 59 129 86 72 128 105 99 146 112 108
221 194 192 0 0 0 7 0 0 9 0 0 6 0 0
25 0 0 72 34 34 130 80 77 133 79 68 119 54 36
75 23 5 47 0 0 57 11 0 70 24 2 61 9 0
62 17 10 91 34 31 76 18 17 79 25 24 66 10 10
66 10 16 94 29 42 111 41 71 89 15 65 0 0 0
255 176 248 229 140 228 164 69 187 172 76 194 192 98 211
150 62 170 147 56 155 130 52 142 143 68 128 140 71 124
132 64 118 94 24 72 67 7 47 103 42 73 127 63 88
91 39 59 95 27 52 90 36 49 95 41 51 97 42 53
194 116 231 255 195 255 255 255 255 150 82 161 25 0 46
82 22 104 54 2 70 92 32 97 60 14 58 65 22 60
60 16 51 62 11 50 56 4 44 64 8 39 63 19 35
73 17 38 75 18 27 76 8 11 93 22 27 100 33 40
110 20 26 108 17 21 123 26 26 147 50 42 141 36 31
143 35 37 147 36 39 160 50 46 194 82 88 220 107 108
221 117 110 224 115 120 205 98 104 172 65 81 168 63 89
189 81 126 208 105 159 250 138 214 219 111 189 105 0 78
174 67 150 164 57 135 164 52 136 255 171 239 255 172 252
255 222 255 255 255 255 128 35 113 142 40 108 194 78 145
177 71 134 134 19 71 183 73 114 139 30 61 125 14 44
139 33 50 125 25 44 113 24 45 85 0 11 107 15 51
156 74 110 138 65 103 86 8 54 38 0 9 66 3 65
255 255 255 255 223 255 248 172 247 255 211 255 191 121 208
150 82 160 144 71 156 84 15 95 91 24 111 72 11 92
66 4 77 58 0 80 68 16 79 72 15 94 54 5 75
70 20 88 78 34 97 78 33 86 57 13 58 73 23 67
91 45 81 70 24 53 47 6 18 23 0 0 42 0 9
50 12 16 52 12 9 50 11 18 51 15 19 60 14 19
68 21 34 62 12 11 67 16 14 79 21 23 73 23 27
73 11 10 70 11 14 76 16 13 73 3 8 119 51 52
96 25 26 110 40 40 137 67 54 140 57 53 133 57 51
158 79 71 193 116 102 160 82 76 172 93 77 174 89 66
222 146 126 173 98 64 112 26 0 159 76 45 105 21 0
137 44 9 194 98 57 249 163 117 215 129 86 88 23 0
28 0 0 49 8 0 60 31 31 92 59 59 187 156 148
117 97 94 0 0 0 0 0 0 9 10 0 30 21 14
0 0 0 18 3 0 12 0 0 19 0 0 23 0 0
28 0 0 23 0 0 30 3 0 29 0 0 20 5 5
20 4 0 15 6 0 13 1 0 9 0 0 2 0 0
6 5 0 0 0 0 0 7 0 0 2 0 0 0 0
0 0 0 0 0 0 5 6 0 2 3 0 0 0 0
0 0 0 0 0 0 59 54 49 157 151 156 220 200 204
155 137 141 81 56 48 73 47 44 106 82 80 76 42 31
50 31 12 65 38 22 72 39 25 49 10 0 40 0 0
64 13 0 42 0 0 74 10 0 88 31 16 158 89 64
222 156 131 206 132 113 151 75 54 122 56 29 174 110 96
107 61 45 77 33 17 163 129 120 204 183 179 166 147 138
91 63 66 0 0 0 11 0 0 0 0 0 12 0 0
4 0 0 67 17 0 151 92 76 133 68 52 170 99 90
78 23 5 89 25 18 61 10 1 59 8 0 59 8 0
52 0 0 58 6 0 73 16 13 86 30 25 90 37 36
63 8 16 69 13 19 88 29 58 20 0 0 75 20 67
255 194 253 255 255 255 215 148 227 185 110 208 153 82 191
126 43 154 154 78 171 168 85 184 127 45 131 151 74 140
140 71 129 130 62 115 101 35 85 77 5 54 96 26 77
125 55 89 120 60 93 112 44 69 106 44 61 104 42 59
98 34 48 200 120 241 255 205 255 255 228 255 148 86 170
53 0 68 64 9 89 71 12 89 70 22 88 61 11 62
65 18 55 64 14 54 60 19 48 63 16 45 61 15 44
70 16 38 67 20 31 68 16 16 75 16 10 86 20 30
100 32 29 104 27 27 105 17 14 126 35 28 139 49 43
156 49 45 147 40 29 151 41 32 168 54 47 191 82 78
207 97 89 198 92 89 209 102 97 167 56 61 160 51 69
189 83 98 201 87 129 196 87 137 238 128 186 255 142 220
196 87 162 214 105 179 207 85 177 167 68 133 194 83 164
178 77 152 224 129 201 255 221 255 255 207 255 144 36 116
198 91 156 205 95 168 157 56 116 168 58 106 149 42 85
171 63 97 161 62 85 172 70 94 120 21 50 131 42 81
180 93 128 141 62 103 85 11 63 85 16 61 7 0 0
252 187 255 255 255 255 255 255 255 255 198 255 247 172 254
180 101 186 142 61 145 111 43 119 125 53 147 120 52 135
110 45 125 82 27 106 72 16 88 66 16 84 77 29 95
85 45 101 85 36 98 87 46 99 79 37 92 54 15 68
61 17 52 77 35 64 67 28 44 40 2 17 31 0 0
43 5 9 51 8 10 54 12 18 52 13 14 51 15 13
57 12 22 59 13 19 63 15 13 67 19 16 76 21 22
73 19 18 75 14 21 71 13 9 83 21 29 79 19 17
121 51 53 102 31 32 107 37 37 131 59 46 128 55 50
124 43 36 146 66 54 174 96 90 163 86 76 173 95 81
176 92 73 210 134 106 169 86 64 120 36 11 158 72 49
115 22 0 123 32 0 186 91 55 244 160 109 203 122 78
83 20 0 35 0 0 60 17 3 63 31 28 70 34 28
158 132 127 214 196 188 73 52 36 0 0 0 0 0 0
13 7 2 9 10 0 7 0 0 14 0 0 22 0 0
29 0 0 27 0 0 25 1 0 37 0 0 26 4 0
24 0 0 20 0 0 19 0 0 15 0 0 11 0 0
4 0 0 0 0 0 0 0 0 7 0 0 0 0 0
0 0 0 0 0 0 0 1 0 5 6 0 0 0 0
0 0 0 11 22 19 0 0 0 0 0 0 62 56 52
153 137 139 173 149 150 141 120 119 146 126 124 64 47 33
78 64 53 85 62 46 67 49 30 55 32 9 56 21 10
68 33 14 92 50 34 90 30 25 67 20 2 53 0 0
78 18 3 136 67 57 159 94 75 147 91 78 150 92 70
106 69 54 146 104 97 199 173 168 196 171 169 65 40 42
0 0 0 0 0 0 0 0 0 15 0 0 9 0 0
27 0 0 49 8 0 111 49 28 142 85 56 140 66 45
148 71 51 81 13 8 71 13 6 60 0 0 61 13 5
73 16 18 75 18 8 71 15 17 69 14 14 101 37 35
77 14 18 105 39 54 85 26 55 43 0 17 89 32 73
216 159 206 255 202 255 255 238 255 198 134 215 171 99 190
168 99 197 159 83 176 151 79 180 160 80 175 129 48 140
132 64 127 141 69 123 132 65 124 100 29 87 71 3 52
94 29 69 122 52 100 109 45 77 111 42 75 109 41 72
101 39 57 97 38 50 219 140 255 255 216 255 255 183 255
159 97 179 74 8 90 44 0 68 88 30 104 68 18 82
64 11 61 62 19 58 64 18 48 57 12 46 63 12 45
60 12 45 58 14 35 69 20 34 62 0 10 68 8 4
73 17 24 99 24 28 96 25 25 100 19 13 123 33 34
139 42 38 159 51 49 147 48 45 141 32 35 158 50 46
178 65 73 190 80 82 192 74 88 190 84 84 156 42 50
166 60 74 186 79 102 174 68 98 151 40 82 172 67 117
204 94 156 167 60 125 219 104 176 205 104 162 210 101 173
178 78 143 138 39 100 149 55 128 245 149 226 255 255 255
225 123 197 131 31 101 154 55 115 215 109 176 199 98 150
124 25 79 141 44 85 150 46 92 97 0 41 89 0 35
129 41 80 158 79 121 110 32 79 53 0 21 76 0 54
66 0 43 251 176 255 255 212 255 255 203 255 169 98 185
120 52 130 106 39 125 86 18 102 61 0 82 132 59 138
106 50 126 105 43 121 76 19 84 54 0 67 49 0 64
68 18 80 82 33 97 93 41 98 84 42 90 78 35 84
55 16 49 61 12 51 67 29 47 63 17 39 33 0 0
39 0 4 43 3 9 53 10 12 56 17 18 58 7 20
57 10 17 58 11 29 58 16 26 75 15 21 79 21 26
82 21 30 72 16 24 68 10 17 73 10 17 84 23 24
90 29 25 126 57 57 108 37 36 113 45 39 131 54 55
120 43 41 111 45 29 130 52 39 158 78 70 167 92 76
169 91 83 170 87 72 207 126 104 158 77 60 112 28 0
157 72 45 112 22 0 112 21 0 177 85 48 253 156 111
208 125 87 96 25 0 40 0 0 62 13 10 79 46 44
37 8 4 120 98 93 255 242 235 98 79 64 0 0 0
7 6 0 6 7 0 8 0 0 10 0 0 14 0 0
24 0 3 19 0 0 32 0 0 30 3 0 33 5 0
36 6 3 26 0 0 29 0 0 34 0 0 21 0 0
25 0 0 16 0 0 18 0 0 10 2 0 3 0 0
4 4 0 0 0 0 2 0 0 0 1 0 0 2 0
0 0 0 0 0 0 31 34 25 0 0 0 0 0 0
0 0 0 13 0 0 56 39 34 128 109 102 194 171 163
127 111 104 146 129 119 133 114 101 81 64 47 64 40 23
80 48 41 96 61 48 98 57 40 108 74 61 54 9 0
72 20 7 131 87 66 133 76 56 76 22 0 88 42 16
139 88 74 219 176 169 164 128 116 197 175 168 151 123 124
0 0 0 0 0 0 0 0 0 26 15 0 2 0 0
14 0 0 36 0 0 106 63 42 157 96 76 158 98 75
136 66 47 124 57 40 71 1 0 67 9 0 58 0 0
67 13 0 96 37 25 89 39 27 87 33 32 71 20 9
81 24 25 55 0 11 121 59 80 80 24 48 0 0 0
176 109 160 255 255 255 255 234 255 255 198 255 182 116 193
147 69 170 168 100 183 163 80 179 151 75 172 156 71 171
145 60 152 130 58 117 132 65 116 127 60 111 99 29 85
69 3 52 94 24 72 118 51 98 106 38 69 105 48 75
105 42 64 106 46 71 105 43 65 232 153 255 255 205 255
198 124 213 148 86 168 88 22 104 33 0 58 101 43 117
68 16 81 57 14 61 65 18 61 61 13 45 57 10 45
59 6 39 59 7 43 61 9 34 55 12 25 54 5 6
57 0 7 75 11 18 76 23 19 98 24 22 99 24 27
116 28 22 137 43 46 142 52 48 140 33 28 138 33 37
141 34 37 163 48 51 176 65 65 179 70 75 177 65 70
179 66 68 176 74 78 186 72 93 156 50 72 123 8 54
140 31 71 166 51 105 132 28 81 191 79 139 193 85 143
217 114 170 198 89 144 163 66 135 152 49 114 177 83 156
255 207 255 255 239 255 120 25 99 109 5 84 179 82 152
178 84 145 121 23 86 142 47 98 96 2 48 75 0 33
156 64 116 135 43 90 103 13 64 102 29 85 62 0 48
61 0 31 127 58 119 96 27 104 117 57 146 176 105 184
113 47 121 64 0 82 92 22 106 95 22 111 86 23 102
83 17 98 90 20 102 72 19 85 63 4 73 47 2 53
43 0 50 58 4 67 78 31 74 54 17 63 66 21 69
52 10 46 38 0 39 49 3 32 54 13 36 43 0 15
18 0 0 51 10 20 45 6 14 51 11 12 50 14 14
59 13 22 57 15 18 58 13 28 56 17 20 75 18 28
75 21 22 76 17 24 68 14 19 69 6 16 75 14 23
88 29 31 93 28 31 122 49 52 110 42 44 117 44 51
122 47 40 123 47 39 106 32 30 135 56 48 142 69 54
180 94 93 169 94 79 171 89 69 201 121 95 146 65 43
112 28 5 167 83 61 114 16 0 117 27 0 176 86 49
251 160 115 223 136 90 108 35 7 39 0 0 59 15 6
72 35 31 81 47 45 130 97 96 207 185 182 61 45 29
0 0 0 4 0 0 12 1 0 0 0 0 18 2 2
21 3 0 16 0 3 29 3 0 33 0 3 39 9 5
33 7 2 36 6 0 57 14 13 59 7 20 41 11 13
51 15 15 42 8 17 48 11 16 28 11 17 41 26 25
13 0 0 7 3 0 9 1 0 5 0 0 2 5 0
1 0 0 2 0 0 0 0 0 0 0 0 0 0 0
10 0 0 14 0 0 0 0 0 0 0 0 19 0 0
42 31 24 181 172 160 158 145 134 111 100 94 58 46 33
60 42 37 113 95 80 132 106 98 96 68 54 126 92 83
112 80 68 167 126 118 195 158 138 139 101 83 123 76 55
172 130 109 250 212 197 184 155 142 43 20 11 19 0 0
23 3 0 0 0 0 2 0 0 13 10 0 14 0 0
23 0 0 42 7 0 51 2 0 143 85 65 182 122 95
153 82 56 142 65 49 113 50 31 54 0 0 78 6 0
74 16 0 86 28 20 97 40 30 103 41 43 83 38 27
90 27 32 73 9 23 60 0 14 111 44 77 67 3 48
49 0 28 251 176 246 255 255 255 255 210 255 255 210 255
204 139 232 180 107 187 174 101 197 150 75 169 153 75 168
155 79 176 139 63 149 125 55 129 138 72 119 129 58 123
98 31 81 76 4 61 96 27 72 117 50 89 107 34 81
108 45 80 107 46 76 108 42 73 106 39 67 225 146 252
255 190 255 176 102 189 122 60 144 79 13 96 37 0 57
101 43 118 64 12 79 57 11 52 59 16 46 57 11 47
54 14 46 52 3 43 46 5 28 55 6 25 56 11 26
56 9 12 55 9 8 56 12 10 85 19 27 90 27 26
89 21 23 114 33 29 127 43 39 128 34 37 119 25 19
121 23 25 138 28 35 148 42 48 163 57 60 164 53 66
159 56 56 179 75 78 177 68 65 172 61 81 146 43 57
141 27 59 163 57 89 189 78 119 175 61 102 157 45 79
140 33 79 159 50 93 148 42 95 162 61 118 174 71 139
170 76 139 255 178 248 255 224 255 194 108 191 170 80 154
109 19 93 101 9 85 142 55 122 193 100 175 95 10 79
219 125 191 225 137 205 159 79 149 106 31 93 122 45 105
75 9 67 50 0 36 120 44 105 51 0 63 56 0 90
166 98 188 147 80 169 77 11 96 100 34 122 94 25 106
94 34 113 73 13 91 64 10 79 67 8 77 63 17 74
78 21 85 82 33 82 75 27 71 71 31 79 36 0 29
43 4 34 41 0 34 30 0 19 42 0 16 47 9 27
47 4 18 22 0 0 55 7 14 49 10 8 63 12 19
60 14 17 59 8 20 57 8 15 61 16 27 72 19 35
70 18 27 74 15 22 75 18 24 66 13 20 64 4 16
70 11 14 86 25 37 96 34 46 114 44 46 106 31 38
116 45 43 125 48 47 118 42 42 114 41 31 140 62 58
146 72 63 185 101 91 171 92 84 180 94 85 199 120 98
134 52 33 113 27 0 175 86 62 114 32 5 116 26 0
189 90 53 255 165 119 239 148 112 123 50 12 48 0 0
64 7 0 55 23 19 131 102 90 158 127 130 106 89 84
11 0 0 0 0 0 0 0 0 4 0 0 19 13 8
19 0 3 20 1 0 26 0 9 31 6 0 37 7 11
50 6 10 45 17 10 49 7 9 66 15 23 64 16 16
67 13 18 52 16 11 58 14 19 52 21 15 52 20 24
53 30 29 25 0 0 24 6 1 29 11 10 20 5 5
15 0 0 4 0 0 3 0 0 1 0 0 9 0 0
14 6 0 33 15 12 32 11 12 20 0 0 0 0 0
0 0 0 0 0 0 0 0 0 0 0 0 0 0 0
0 0 0 40 34 21 156 141 134 206 192 188 212 198 189
149 132 128 232 221 214 227 207 193 88 66 48 32 6 0
160 132 117 234 209 200 235 201 189 0 0 0 0 0 0
0 0 0 0 0 0 0 0 0 22 5 5 2 0 0
0 0 0 26 0 0 50 7 0 82 35 8 163 100 77
196 121 95 150 73 46 129 48 26 101 27 0 53 0 0
90 24 6 107 38 20 108 44 34 102 34 27 88 33 26
91 33 27 87 34 29 91 20 42 99 31 62 80 13 51
57 0 39 143 71 138 255 215 255 255 255 255 255 173 255
255 248 255 255 209 255 255 190 255 210 141 221 151 75 166
151 79 164 161 88 179 135 65 144 133 63 134 141 66 148
135 64 132 110 39 98 76 11 79 99 34 85 123 59 104
110 48 89 103 41 71 106 38 72 98 41 71 98 43 64
195 121 225 254 174 255 208 137 225 125 63 137 62 0 81
49 0 70 92 33 111 74 21 91 44 0 42 58 12 48
55 6 47 50 5 32 53 6 33 53 4 36 49 3 30
52 12 15 54 20 17 47 4 7 61 8 18 61 20 11
84 24 21 82 19 24 91 20 16 112 31 29 109 20 18
109 20 16 105 13 17 119 25 22 137 31 38 155 46 50
156 52 53 158 45 58 161 57 49 156 48 49 146 37 46
135 21 36 141 37 55 182 72 103 189 79 106 157 59 82
198 83 112 155 48 87 139 30 68 122 17 66 152 55 103
171 69 133 161 57 122 178 74 147 255 255 255 255 253 255
255 255 255 255 202 255 255 206 255 255 181 255 255 207 255
255 247 255 213 135 208 141 62 131 108 27 89 124 49 119
90 19 87 64 0 52 83 9 69 85 25 76 53 0 80
47 0 71 159 96 175 157 97 176 74 13 96 66 5 84
61 0 86 43 0 51 73 13 86 61 5 64 52 2 66
68 24 72 84 33 81 88 43 86 64 27 62 60 20 50
36 0 29 41 2 24 36 0 26 36 1 17 56 14 31
56 15 26 54 10 24 43 7 10 54 10 19 48 13 10
60 14 17 54 13 12 55 9 17 58 14 17 59 18 27
70 23 31 65 11 25 73 20 31 76 15 36 68 13 22
78 11 26 71 12 19 98 25 41 95 32 42 104 28 38
106 44 46 119 44 48 114 47 50 126 49 41 128 56 47
153 67 69 159 85 80 179 100 98 172 93 79 183 95 80
196 114 100 123 41 16 101 21 1 183 102 80 119 32 7
116 21 0 184 88 48 255 170 127 251 159 112 131 54 24
52 0 0 56 8 2 82 37 30 84 50 51 72 53 38
0 0 0 0 0 0 0 0 0 8 2 0 16 6 0
0 0 0 14 1 3 24 0 3 27 5 2 40 4 6
48 9 15 50 14 6 53 14 17 63 20 12 62 7 12
64 3 15 61 8 14 58 11 13 61 8 20 54 9 18
48 16 14 55 15 25 43 10 16 46 18 20 40 18 24
32 6 12 20 4 7 16 0 0 16 0 0 21 0 0
6 0 0 13 0 0 6 0 0 1 0 0 6 0 0
16 0 0 16 0 0 0 0 0 0 0 0 0 0 0
0 0 0 0 0 0 0 0 0 15 15 4 75 70 57
87 73 80 74 68 63 139 127 132 109 87 85 0 0 0
0 0 0 72 54 40 90 68 55 0 0 0 0 0 0
0 0 0 0 0 0 42 30 33 7 0 1 0 0 0
9 0 1 14 0 0 17 0 0 74 20 0 139 75 53
195 126 97 190 110 77 145 58 31 104 30 0 87 10 0
79 11 0 105 37 24 122 56 42 117 49 41 93 27 17
83 25 27 83 28 21 90 37 42 83 20 46 105 30 75
66 0 43 76 6 74 204 131 202 255 198 255 255 181 255
229 158 247 255 196 255 255 207 255 255 223 255 237 167 252
161 89 163 158 82 171 172 97 183 144 68 160 141 68 151
147 77 147 145 72 147 118 46 118 84 18 78 109 43 109
129 62 116 120 54 101 110 45 90 115 50 81 102 48 77
104 45 78 161 79 187 252 177 255 255 222 255 151 89 165
50 0 69 62 6 85 72 17 83 89 38 98 38 0 33
50 11 37 46 3 33 46 8 37 46 0 33 49 5 26
51 10 25 48 5 15 55 15 16 45 4 5 47 8 7
62 12 14 59 16 16 70 10 6 70 7 5 81 12 11
94 22 17 94 12 2 102 13 20 115 23 18 133 31 40
133 36 40 134 43 47 141 37 41 130 27 21 138 38 38
121 19 20 110 7 20 138 33 55 169 62 85 168 61 85
125 24 49 201 90 123 184 80 100 161 62 90 129 23 58
137 37 81 149 48 104 134 30 87 104 15 80 224 138 224
201 109 212 194 101 199 238 149 231 255 252 255 203 117 209
110 29 117 230 146 230 155 71 155 45 0 45 44 0 44
85 17 80 55 0 49 46 0 37 79 18 73 65 3 61
90 30 102 32 0 55 117 47 122 136 83 150 69 13 92
56 0 66 65 14 81 53 0 65 61 15 70 53 7 62
51 2 59 57 10 57 63 15 56 51 11 46 44 1 33
26 0 11 51 9 40 39 2 17 38 0 12 40 2 21
61 17 36 57 23 26 58 16 24 54 10 21 61 13 15
59 14 20 63 12 22 60 14 20 61 5 22 62 9 21
69 18 32 72 22 31 72 9 31 82 17 40 86 30 38
79 30 40 82 12 35 81 25 41 98 29 43 103 41 53
105 32 40 110 41 52 127 54 53 118 50 56 126 42 44
135 62 57 151 81 72 170 94 86 173 93 85 176 92 88
168 94 80 189 109 90 100 30 6 96 13 0 187 100 74
112 30 4 114 17 0 175 82 43 255 165 117 251 167 126
138 63 26 60 0 0 67 10 0 99 52 47 37 2 0
51 24 19 45 20 20 0 0 0 4 0 0 26 19 6
11 2 0 3 0 0 25 5 2 19 3 6 33 0 4
41 7 4 52 9 19 56 11 12 60 18 22 73 21 17
59 8 13 64 17 17 65 13 15 64 11 14 57 16 17
60 13 15 54 15 12 54 11 19 60 24 23 67 21 22
59 24 29 53 17 19 46 3 7 31 0 1 35 0 0
40 0 5 0 0 0 7 0 0 31 12 9 25 3 1
17 0 0 24 0 0 11 0 0 9 0 0 15 1 0
7 9 0 5 0 0 0 0 0 0 0 0 0 0 0
0 0 0 0 0 0 0 0 0 0 0 0 0 0 0
0 0 0 6 0 0 2 0 0 0 0 0 0 0 0
11 1 0 0 0 0 3 0 0 6 0 8 4 0 0
0 0 0 9 0 6 19 0 0 54 0 0 112 46 12
196 119 99 206 120 95 177 85 53 139 51 18 101 22 0
108 29 10 102 24 0 120 54 30 133 56 46 110 40 30
94 23 19 95 32 27 89 33 35 93 34 44 87 7 59
78 2 57 110 30 100 177 101 175 237 154 240 233 163 248
224 146 245 201 130 222 175 101 191 217 140 233 255 205 255
255 188 255 189 116 198 170 98 178 176 105 181 152 76 167
148 72 164 159 87 170 154 79 170 125 54 131 102 26 110
122 46 113 139 74 133 127 60 111 118 52 99 121 58 97
121 52 92 116 51 83 133 53 160 255 181 255 255 255 255
152 93 178 50 0 69 81 25 104 52 0 62 108 60 123
25 0 25 52 8 37 56 8 46 56 9 34 54 9 39
53 12 36 56 7 30 56 17 25 58 19 18 36 3 1
42 0 2 49 9 4 59 9 5 48 5 0 59 0 0
68 0 0 99 32 24 97 18 21 107 26 28 117 37 31
128 39 45 135 43 48 133 35 46 130 46 46 116 16 15
126 31 26 116 21 20 108 13 26 147 47 57 189 88 110
181 82 97 165 61 83 112 10 34 163 60 88 146 50 79
95 0 36 96 4 48 127 23 72 152 55 109 134 37 108
209 121 214 163 86 182 63 0 68 132 43 147 255 255 255
193 107 198 21 0 33 102 25 117 152 77 161 94 24 100
61 0 62 51 0 57 50 0 46 58 0 56 72 10 62
47 0 38 97 44 104 16 0 18 64 12 75 115 58 121
57 0 59 44 0 59 85 31 88 71 23 79 82 31 87
78 31 76 82 33 76 57 19 52 49 9 42 38 0 24
36 0 23 23 0 9 53 13 24 42 2 19 29 0 13
38 8 19 50 8 21 62 18 31 52 8 14 42 2 8
59 9 22 54 10 21 62 17 27 58 17 26 59 8 17
62 15 25 59 15 19 70 19 36 78 20 36 74 14 42
71 17 34 85 17 43 86 23 39 81 21 34 102 30 49
112 53 63 108 30 50 116 50 60 132 54 62 126 58 60
127 56 53 138 56 60 162 92 86 185 101 98 171 89 89
169 95 78 173 85 79 181 110 89 106 21 12 87 16 0
180 99 83 115 26 0 99 9 0 176 79 41 255 168 125
255 159 118 145 69 26 56 0 0 70 7 0 83 34 26
77 39 35 155 137 129 255 255 255 105 89 82 0 0 0
0 0 0 0 0 0 50 39 34 11 0 0 26 0 4
37 7 8 44 4 8 50 11 8 61 17 18 68 16 12
67 17 16 70 14 24 68 12 20 68 22 25 69 20 24
72 19 22 68 19 25 78 22 29 68 27 24 70 18 31
67 24 30 69 19 23 53 10 23 34 0 0 25 0 0
28 0 0 46 0 0 52 16 18 59 36 31 53 22 21
33 9 7 42 10 18 39 29 21 31 8 11 0 0 0
19 8 7 0 0 0 0 0 0 11 18 8 30 28 29
0 0 0 0 0 0 0 0 0 19 24 35 0 0 3
0 0 0 0 0 0 26 7 0 0 0 0 0 0 0
59 42 31 0 1 0 31 29 29 0 0 0 9 0 4
27 10 18 7 0 0 55 29 32 46 18 12 57 0 0
107 29 0 234 155 121 219 127 96 138 41 16 123 24 0
106 15 0 130 53 22 98 18 1 120 53 31 136 61 49
110 35 22 102 33 38 102 32 40 95 37 32 72 17 34
107 32 83 36 0 31 135 60 134 255 194 255 255 181 255
241 160 254 248 162 255 175 100 196 159 84 172 198 129 222
255 220 255 255 226 255 199 126 218 142 69 146 141 68 152
136 65 141 119 45 133 137 62 153 144 74 156 116 43 124
95 25 96 111 41 115 132 60 119 109 43 105 114 50 102
123 55 110 125 61 103 123 61 99 151 71 178 251 172 255
255 255 255 255 179 255 19 0 42 38 0 61 96 47 116
48 0 59 55 6 50 41 2 36 33 0 18 24 0 12
32 0 26 35 2 16 54 6 22 47 16 19 30 1 0
52 6 9 42 11 3 51 5 14 51 9 7 61 8 7
59 10 5 50 0 0 75 13 19 75 12 8 85 18 18
92 26 18 101 26 31 110 27 32 111 29 35 107 29 33
126 36 30 115 32 24 121 28 29 128 38 48 134 42 56
143 49 69 146 55 74 163 68 97 153 57 80 120 31 54
115 16 37 120 30 59 116 25 65 106 10 64 109 24 69
84 0 51 226 138 229 184 90 197 148 62 158 113 24 122
238 155 249 255 255 255 130 46 141 70 0 81 143 73 153
120 43 125 86 24 98 76 9 74 78 19 77 57 5 60
52 0 39 39 0 34 66 10 60 61 16 61 46 0 45
28 0 29 48 0 47 60 17 58 65 16 62 65 28 71
53 7 51 52 13 55 46 9 36 48 3 46 42 0 27
33 4 23 26 0 16 30 0 11 62 16 39 26 0 1
34 0 7 56 12 24 65 21 37 50 10 17 56 8 26
66 31 32 58 13 20 77 27 38 43 0 0 57 7 15
56 2 10 38 0 2 82 30 42 78 25 40 49 0 22
96 35 61 128 62 88 102 43 71 93 25 53 105 51 67
107 32 57 78 16 29 99 23 43 116 51 57 126 49 57
115 43 52 122 43 49 138 70 67 158 78 81 144 77 70
161 77 76 172 96 86 180 100 93 178 104 91 91 11 0
83 9 0 183 99 84 123 37 15 110 27 0 160 67 34
255 158 103 255 177 126 156 77 35 81 1 0 94 24 13
116 58 46 95 57 58 110 87 83 169 138 134 255 255 255
0 0 0 0 0 0 41 26 21 22 3 5 15 2 0
28 0 8 30 1 2 41 5 9 55 9 12 64 19 22
72 20 19 77 24 27 73 24 23 73 24 23 73 22 22
73 22 22 73 23 21 68 17 24 68 18 20 69 17 18
76 18 27 74 25 27 80 25 28 74 27 33 83 35 37
88 39 42 67 8 18 21 0 0 61 17 18 42 6 6
36 1 0 17 0 0 21 0 0 35 1 8 42 15 22
66 44 45 1 0 0 11 0 0 0 0 0 0 0 0
0 0 0 0 3 5 0 7 3 0 5 8 0 0 0
6 8 22 3 3 14 0 0 0 0 0 0 0 0 0
0 0 0 5 5 0 0 0 0 7 0 15 9 3 7
0 0 0 13 0 0 39 8 7 32 4 17 9 0 0
140 63 35 255 169 135 188 102 65 110 10 0 200 102 63
200 98 74 117 34 4 162 81 54 132 60 38 138 61 49
71 0 0 123 42 47 80 2 11 92 29 40 110 49 62
116 53 79 0 0 0 136 59 138 255 241 255 255 216 255
196 110 213 217 136 230 200 113 222 188 109 211 201 116 215
201 126 221 215 140 244 255 214 255 255 240 255 246 173 255
190 117 199 115 46 127 184 107 196 148 73 157 119 45 125
95 17 105 76 0 76 96 26 99 151 81 149 182 112 172
149 77 137 142 73 131 105 33 89 109 40 90 155 75 184
254 179 255 255 255 255 216 145 245 29 0 44 50 0 65
91 38 110 66 19 82 38 0 44 46 10 36 33 0 23
34 0 18 39 0 24 47 4 29 46 8 16 53 14 25
39 2 2 43 8 6 43 9 12 49 12 8 50 8 14
47 13 11 58 13 9 51 3 0 67 20 16 65 14 9
79 17 21 88 22 17 101 31 36 97 31 24 110 27 40
100 31 29 127 45 45 108 33 26 111 29 38 115 34 39
134 39 64 135 50 65 142 52 78 144 53 74 152 58 78
125 45 67 111 23 45 110 27 56 111 23 66 108 24 69
124 33 78 91 11 64 210 118 219 203 108 217 130 44 140
56 0 65 130 47 141 255 242 255 213 128 221 79 2 92
92 20 107 93 27 109 78 7 81 76 21 82 84 19 83
69 24 67 66 11 64 71 13 67 44 6 29 47 6 34
43 1 30 42 0 36 44 0 30 43 0 43 42 0 44
52 8 42 44 14 41 45 9 42 43 3 40 35 9 22
39 3 27 32 3 24 38 0 22 26 0 14 46 13 19
37 0 19 39 0 4 47 7 19 57 15 26 57 18 28
53 11 23 69 16 35 48 0 13 79 35 48 63 9 26
60 13 27 66 13 30 69 21 31 99 46 68 76 15 41
61 0 21 99 46 72 127 60 94 102 39 62 89 27 52
92 23 57 109 40 68 97 31 53 102 29 48 111 40 53
125 54 68 113 41 51 120 43 44 138 63 71 155 76 81
157 77 82 159 87 85 160 87 84 175 91 79 168 96 86
81 14 0 86 10 0 181 103 81 123 41 14 105 23 0
158 66 30 244 154 103 255 175 129 169 83 47 80 2 0
82 16 0 108 49 39 77 36 34 108 83 77 194 160 161
255 255 255 24 2 0 0 0 0 5 0 0 7 0 0
18 0 1 15 4 0 35 2 9 42 6 0 51 10 13
66 10 16 73 22 22 82 22 29 76 19 25 77 20 26
74 20 25 72 19 24 74 17 22 78 23 23 77 18 30
78 20 29 67 10 16 78 17 28 73 20 26 73 17 20
79 16 33 79 17 31 66 0 17 29 0 0 56 6 9
44 4 6 41 2 4 43 0 2 36 4 9 40 9 3
46 16 19 44 17 23 29 8 11 20 1 11 10 0 0
0 0 0 0 0 0 1 5 11 0 6 5 0 0 3
0 0 19 0 0 0 9 12 19 19 13 18 0 0 0
7 3 0 21 17 11 0 0 0 3 0 9 4 7 9
0 0 0 0 0 0 29 3 3 35 0 0 37 4 3
31 0 0 194 121 88 232 145 93 200 99 66 150 49 14
190 83 51 163 69 41 113 22 0 152 62 47 160 87 56
134 62 47 91 13 4 124 45 43 84 14 23 106 26 45
89 35 54 85 18 58 25 0 19 200 115 207 255 215 255
254 173 255 223 145 239 216 135 234 195 116 222 196 115 218
184 101 209 176 96 201 195 114 199 255 188 255 255 209 255
255 217 255 255 255 255 255 255 255 255 247 255 255 220 255
255 230 255 254 182 255 157 87 163 190 116 196 214 141 218
144 77 144 132 58 129 143 76 137 119 49 112 114 48 101
160 80 190 255 191 255 255 255 255 189 120 216 36 0 53
62 4 79 90 35 112 84 40 91 35 0 31 47 6 39
41 0 28 29 0 23 30 0 26 47 5 26 43 11 7
50 13 15 33 2 1 41 7 1 42 8 8 45 8 4
42 11 8 51 8 2 49 7 9 48 11 4 56 12 10
62 9 2 62 16 12 70 19 13 79 17 22 85 32 26
90 20 27 79 19 21 109 35 31 97 33 32 97 26 32
103 28 41 107 35 47 125 37 70 124 38 62 109 36 57
133 57 79 119 40 60 105 27 42 102 25 57 103 22 58
99 16 56 108 27 71 92 3 57 210 130 213 173 86 183
125 39 131 96 3 106 92 9 102 255 195 255 255 235 255
120 41 127 51 0 56 75 0 85 66 0 68 72 12 73
74 18 77 61 8 55 55 1 50 56 10 44 44 0 30
40 6 21 35 0 24 27 0 12 29 0 17 20 0 20
25 0 22 28 0 28 31 0 23 33 0 22 31 0 15
27 0 23 36 0 24 27 1 9 33 1 15 28 2 10
38 0 18 39 2 9 42 0 19 35 0 13 45 0 16
56 14 38 61 18 40 67 21 39 48 0 22 54 11 30
49 0 19 66 10 34 75 15 41 60 4 29 81 20 39
51 0 21 78 20 52 116 44 89 134 73 99 110 51 82
85 20 59 89 26 46 105 31 66 104 41 62 98 20 39
108 39 53 117 46 60 118 45 59 121 42 48 132 56 59
147 77 73 151 79 75 142 68 64 155 86 80 147 72 66
154 84 63 77 2 0 79 14 0 178 101 84 128 58 36
96 7 0 147 67 27 236 141 93 255 179 124 191 107 71
96 22 0 87 13 0 92 29 20 106 69 57 101 74 76
195 153 156 255 255 255 6 0 0 0 0 0 0 0 0
16 0 0 23 3 4 16 0 0 35 0 10 40 2 0
51 10 13 70 19 26 83 20 26 92 34 31 72 17 18
71 21 20 83 20 21 81 22 22 84 24 23 84 26 22
81 19 25 87 26 29 73 12 13 84 18 30 79 22 25
80 17 21 78 26 31 85 30 34 69 12 17 51 0 0
44 0 2 54 7 0 54 8 12 56 16 12 64 12 15
54 15 22 52 9 13 53 12 17 66 33 40 55 26 33
33 0 7 5 0 0 0 0 0 7 0 3 3 12 5
0 0 4 0 0 8 0 0 9 0 0 5 0 0 0
34 21 20 93 89 78 34 27 17 0 0 0 27 28 23
12 0 0 0 0 0 11 0 0 42 14 0 20 0 0
49 8 0 92 33 18 255 198 161 224 128 91 187 82 43
169 69 39 191 83 51 151 47 18 117 22 1 149 67 43
188 115 102 115 42 27 101 16 13 119 48 54 92 19 31
103 28 62 81 12 42 64 3 51 40 0 45 255 214 255
255 211 255 219 143 233 247 157 248 200 111 219 178 90 199
192 105 206 198 108 211 162 85 187 189 104 205 253 177 255
222 137 231 189 120 198 240 167 255 228 161 238 255 182 255
255 228 255 255 250 255 255 255 255 255 255 255 251 170 254
150 72 144 142 75 143 120 39 109 138 70 136 134 63 124
117 42 111 161 84 190 255 188 255 255 246 255 170 106 178
38 0 57 64 5 82 82 31 98 90 42 98 33 0 32
34 5 26 32 0 21 32 0 15 35 0 18 37 4 27
39 6 9 38 10 11 39 0 0 35 4 11 32 4 0
38 10 6 39 9 7 35 11 6 45 11 12 36 7 0
53 8 11 49 13 6 55 11 9 67 20 11 73 16 13
73 17 17 79 25 19 77 17 16 90 31 31 93 23 28
90 24 36 102 25 44 106 32 50 105 29 50 110 34 60
103 34 50 116 44 65 106 32 53 98 25 45 93 15 43
85 16 44 92 22 61 103 25 65 97 19 75 106 23 104
108 21 120 116 32 116 161 79 164 96 8 101 255 167 255
255 255 255 110 27 130 55 0 56 87 15 93 80 12 86
83 24 89 74 16 67 52 2 56 38 0 42 41 0 28
46 8 34 46 10 19 41 0 22 29 0 19 33 0 24
32 0 17 31 0 29 27 1 21 20 0 18 22 0 15
22 0 19 32 0 17 29 0 16 30 0 10 33 6 13
34 1 10 31 0 3 41 3 15 44 0 19 32 0 4
41 0 18 58 21 36 77 21 51 60 14 33 64 15 41
48 0 25 47 0 22 74 23 53 75 19 50 41 0 19
52 0 24 76 15 44 98 29 65 113 50 81 123 62 96
111 46 77 92 22 61 92 26 64 102 30 58 95 33 54
102 26 56 109 42 55 116 39 62 111 42 48 113 43 54
126 47 48 141 64 73 149 76 78 141 63 68 150 76 66
135 57 47 128 60 49 66 0 0 74 13 0 173 100 77
139 59 38 81 4 0 141 53 14 227 130 83 255 176 127
212 128 88 122 42 6 83 21 0 86 22 8 119 71 70
129 99 88 186 151 155 207 177 169 1 0 0 5 0 0
2 0 0 15 0 0 11 0 0 14 0 0 28 0 0
39 6 2 51 5 13 72 24 16 86 22 31 91 36 37
71 13 6 80 17 15 79 14 23 80 20 25 90 18 27
91 22 28 91 23 34 89 21 30 96 25 35 90 35 35
94 28 43 83 26 33 92 28 38 93 32 42 80 15 27
58 2 9 40 0 0 53 0 0 58 8 16 72 25 27
77 25 33 71 15 21 62 17 16 60 10 15 90 39 53
85 41 46 64 30 39 25 0 0 0 0 0 8 0 0
5 0 0 0 0 0 0 2 14 0 1 14 0 0 0
0 0 0 127 116 114 184 175 169 6 0 0 0 0 0
20 19 4 6 3 0 0 0 0 23 3 0 45 12 0
13 0 0 66 16 0 179 119 92 255 200 160 199 97 59
170 71 33 205 103 70 201 94 70 161 58 33 139 47 25
165 77 57 189 107 92 94 14 10 97 27 24 121 42 50
94 13 46 103 29 70 73 4 46 50 0 30 106 32 115
255 251 255 255 187 255 227 151 239 255 187 255 191 105 208
185 103 202 190 104 220 190 105 218 169 80 191 217 129 236
255 201 255 217 136 227 133 54 149 145 64 149 103 24 119
154 72 166 187 107 206 170 89 194 212 132 232 255 233 255
255 218 255 161 77 158 109 37 111 116 38 108 144 71 134
145 66 140 119 53 115 157 76 182 251 174 255 255 233 255
160 95 167 34 0 53 66 6 83 76 27 96 70 29 88
28 0 20 38 3 31 35 0 23 26 0 17 32 0 24
33 3 14 32 3 5 34 9 7 33 0 0 29 1 0
33 2 5 36 1 5 31 6 7 38 13 5 35 3 5
32 4 0 52 18 19 46 17 8 51 10 12 55 12 7
64 17 14 70 21 21 76 19 22 70 21 21 75 17 17
72 25 23 87 28 34 88 34 48 101 32 53 101 29 54
100 32 48 110 39 63 95 26 39 95 33 47 84 22 29
82 17 28 82 14 39 82 17 44 97 24 53 94 27 72
60 0 53 123 40 117 136 49 138 130 48 129 26 0 29
201 120 220 255 255 255 47 0 61 70 0 87 97 22 106
101 30 118 107 46 116 109 47 115 80 31 82 55 4 55
43 0 49 40 6 20 37 9 26 38 0 28 31 0 18
30 0 23 27 0 25 36 5 28 38 12 35 29 0 27
32 2 25 24 0 23 29 0 14 28 4 14 28 3 19
27 2 17 25 0 8 33 0 8 41 3 17 45 0 20
29 0 10 38 0 14 54 12 36 79 29 52 73 25 57
67 20 53 70 15 55 70 16 52 77 18 55 81 14 61
81 18 62 96 31 75 118 59 105 96 27 68 104 40 82
107 34 83 93 30 67 97 25 63 92 29 66 96 26 55
77 11 39 113 34 70 101 30 44 111 36 63 113 43 48
115 41 57 110 41 49 133 55 58 150 75 73 130 66 59
144 72 73 115 46 37 115 48 41 68 3 0 77 10 0
159 95 79 129 67 33 88 3 0 129 47 4 204 114 65
255 181 126 240 160 111 143 65 27 96 17 0 80 22 1
102 60 61 141 104 100 147 109 112 95 69 59 0 0 0
31 7 0 26 7 0 0 0 0 19 5 0 15 0 0
24 0 0 30 6 0 48 7 11 61 17 14 78 25 30
95 39 42 69 6 6 77 20 14 86 19 19 83 21 18
88 22 22 91 27 24 92 28 31 88 26 26 116 54 54
111 45 44 113 42 51 106 39 40 104 41 52 102 46 50
85 23 29 71 16 21 48 0 0 58 0 2 72 6 10
82 30 27 91 33 41 76 21 26 81 17 21 77 9 21
91 37 36 114 47 60 106 47 63 59 15 20 11 0 0
0 0 0 4 0 0 11 3 0 7 4 11 13 10 16
0 0 0 0 0 0 179 159 147 224 208 199 16 0 0
0 0 0 5 0 0 13 0 0 24 7 0 52 19 0
40 0 0 16 0 0 105 43 3 255 181 149 237 146 106
171 71 24 183 77 46 235 133 99 226 126 92 178 82 56
172 85 67 194 103 96 166 84 73 85 4 1 110 33 42
109 42 55 93 19 52 95 16 59 83 14 74 35 0 21
227 144 235 255 243 255 245 169 253 253 173 255 255 201 255
190 106 208 205 116 224 192 101 221 184 94 210 166 75 189
202 112 218 255 183 255 221 134 228 143 66 155 168 88 180
155 78 167 173 85 188 137 51 144 147 60 158 134 49 146
182 93 183 255 255 255 255 240 255 59 0 64 128 38 118
135 59 139 141 65 136 136 63 126 148 68 175 236 158 255
255 228 255 168 103 175 28 0 47 64 4 81 83 33 102
60 17 76 32 0 25 38 1 31 28 0 18 32 0 14
32 0 14 36 1 21 32 0 5 31 0 2 25 0 0
29 1 0 33 3 0 25 3 2 29 3 3 29 2 7
28 11 0 30 0 0 53 21 23 42 16 13 45 15 14
49 10 9 56 13 16 62 13 6 66 19 18 69 18 12
58 16 14 65 16 19 86 27 41 87 30 43 98 33 50
90 36 46 95 32 52 102 40 54 71 10 21 83 28 26
82 21 31 68 10 25 73 15 34 86 19 46 88 28 59
83 5 45 122 49 112 126 47 132 104 34 98 97 16 103
18 0 24 150 62 155 255 255 255 204 124 219 45 0 56
93 21 117 93 27 103 115 53 126 118 60 122 93 40 100
60 6 72 53 5 55 37 0 29 33 6 19 28 0 23
29 0 21 24 0 27 23 0 24 34 0 32 26 3 24
32 5 34 29 10 28 40 5 33 33 7 21 32 1 19
33 2 13 25 3 7 28 1 4 40 0 11 40 2 12
45 0 12 31 0 14 40 0 11 57 17 42 77 23 55
81 34 73 62 0 43 75 24 60 91 25 76 39 0 23
69 4 54 133 72 119 131 68 116 113 52 96 92 26 68
90 27 69 83 14 62 81 14 58 94 25 64 94 27 65
97 23 60 68 4 29 117 39 67 101 31 51 113 38 59
114 44 58 114 40 52 112 41 46 129 52 57 149 67 77
138 63 71 143 78 66 113 40 38 107 44 28 71 2 0
73 10 0 156 95 72 122 55 35 82 9 0 122 37 0
190 94 48 255 175 125 255 177 136 162 88 40 94 26 0
96 28 9 111 66 58 115 83 79 31 0 0 0 0 0
0 0 0 0 0 0 6 0 0 18 1 0 11 0 0
16 0 0 17 0 0 28 0 0 46 2 6 61 11 10
70 24 27 83 27 20 81 13 18 86 19 17 91 21 27
89 24 27 102 27 32 104 34 35 108 40 48 99 22 33
134 58 66 125 60 60 126 52 64 115 51 56 116 56 65
124 58 67 99 40 50 90 26 40 66 5 7 69 7 12
75 13 18 97 33 36 103 37 51 84 24 34 90 25 34
103 34 43 105 25 44 112 50 57 125 67 70 102 51 58
49 7 8 8 0 0 4 0 0 13 0 0 10 1 11
0 0 0 17 0 0 56 34 24 177 154 144 190 167 152
46 24 11 25 2 0 0 0 0 24 0 0 56 21 5
59 18 0 38 0 0 77 8 0 172 97 64 255 193 146
197 91 59 177 77 36 208 103 70 240 142 111 222 124 96
206 107 83 198 105 93 200 112 99 148 68 63 98 20 21
123 41 61 110 37 51 85 4 44 71 0 52 135 63 125
89 8 91 255 207 255 255 186 255 222 145 221 246 175 255
255 174 255 181 98 197 178 86 206 154 68 179 199 113 228
165 78 197 165 80 179 209 124 220 193 103 204 139 54 146
162 76 180 161 76 170 149 57 162 159 75 169 188 101 200
144 64 162 129 46 135 255 182 255 255 253 255 255 192 255
102 24 103 126 42 118 115 27 104 121 46 122 140 58 169
222 149 243 255 236 255 181 118 187 23 0 41 61 4 78
88 40 105 49 9 65 32 0 22 37 0 28 27 0 17
30 0 13 26 0 17 32 4 14 30 0 1 32 0 0
28 0 0 20 0 0 25 0 0 25 2 0 27 2 0
27 2 0 29 3 6 17 0 0 45 29 20 40 13 5
46 9 10 49 9 2 47 10 4 54 7 13 65 7 2
65 11 15 59 8 14 70 22 23 77 27 33 81 34 42
87 27 44 87 20 42 82 17 28 93 27 39 62 0 0
77 21 22 80 16 23 68 7 7 72 12 30 91 22 54
96 29 59 83 15 64 107 36 101 63 0 61 50 0 58
91 16 85 86 0 95 121 46 136 255 255 255 255 255 255
146 62 162 153 76 167 118 43 132 101 30 110 95 39 104
80 35 88 61 14 66 55 8 50 31 7 25 42 16 25
40 2 31 30 0 19 25 0 27 24 0 22 19 1 29
20 6 24 29 12 28 25 10 22 29 10 29 21 9 14
30 10 12 26 8 11 29 10 10 30 6 6 42 11 6
31 0 0 36 0 7 41 5 9 42 0 21 44 11 29
77 28 50 80 40 67 117 62 97 71 21 59 70 14 54
46 0 41 92 28 81 151 92 142 114 47 106 78 20 68
86 17 61 83 22 55 82 13 58 80 14 50 89 21 63
90 24 66 95 22 62 84 20 50 122 42 75 104 35 58
112 36 54 119 50 59 117 42 53 107 36 39 130 48 49
138 71 70 144 75 71 150 81 81 114 45 33 105 43 29
72 12 0 70 12 0 155 89 65 107 39 16 96 16 0
112 38 0 174 85 33 253 173 109 255 191 145 173 103 59
99 22 2 98 39 23 93 60 54 86 54 54 21 0 0
5 0 0 20 0 0 0 0 0 0 0 0 32 18 5
9 0 0 13 0 0 22 0 0 23 0 0 41 0 0
56 11 6 71 17 23 72 14 8 97 29 34 92 28 26
94 26 27 99 38 36 106 38 41 117 43 49 115 47 49
114 46 43 135 63 73 132 59 65 132 58 72 132 62 71
136 68 74 142 69 79 120 58 61 113 46 51 93 33 37
84 22 27 85 23 28 104 44 48 109 43 48 103 27 35
109 38 43 133 56 63 111 39 52 125 43 60 135 68 72
136 75 87 91 51 52 32 5 0 2 0 0 11 0 0
15 0 0 0 0 0 34 9 11 121 90 85 204 175 162
159 120 109 50 15 6 55 20 6 20 0 0 18 0 0
62 18 0 51 7 0 62 1 0 163 88 58 241 158 122
236 146 107 177 77 36 206 98 64 224 132 90 211 109 72
178 76 51 178 82 59 186 92 77 169 76 71 130 48 45
102 20 18 122 53 50 99 31 47 84 6 41 89 16 70
224 145 228 232 148 232 250 174 255 222 150 230 223 141 225
225 152 234 246 154 248 199 116 213 160 71 186 165 69 191
196 104 221 188 92 216 149 56 170 180 92 205 198 110 220
155 75 173 151 63 180 160 79 185 136 51 147 168 78 169
153 63 160 131 48 134 122 36 123 112 24 114 212 124 205
255 255 255 196 104 186 152 75 152 105 25 104 126 43 123
132 53 153 220 146 241 255 231 255 155 88 163 0 0 18
67 2 77 93 46 119 46 0 53 30 0 30 29 0 26
26 0 14 31 0 16 30 0 19 33 0 8 28 0 0
20 0 0 24 0 0 25 0 0 31 0 0 20 5 0
21 3 0 28 13 6 20 8 0 17 0 0 53 28 33
42 18 10 39 13 9 39 7 3 45 4 8 54 5 0
49 0 0 46 0 0 39 0 1 47 5 13 62 19 23
82 28 38 75 20 42 72 16 22 72 10 27 75 20 25
47 0 0 74 13 16 75 26 23 64 10 14 74 12 28
97 36 56 107 45 74 101 39 72 66 7 52 99 29 94
79 5 74 52 0 47 75 0 82 39 0 47 234 149 246
208 117 226 255 255 255 238 159 255 94 21 113 56 0 81
55 0 70 52 0 54 63 3 80 77 36 85 32 0 34
52 16 39 36 9 43 43 7 45 28 0 28 12 0 24
30 0 29 21 0 30 15 0 18 12 0 16 8 0 0
19 0 16 27 0 12 27 7 13 25 0 3 18 0 7
55 8 12 29 0 1 25 0 0 29 0 3 46 0 17
44 0 30 58 9 51 38 0 27 241 184 235 78 20 73
45 0 39 59 0 54 124 59 116 153 92 149 80 12 74
75 5 62 54 0 37 69 5 45 72 5 41 76 12 56
74 0 51 74 8 43 89 14 51 87 22 46 107 36 68
103 23 56 111 40 53 127 50 69 117 47 54 104 29 34
116 44 56 140 59 69 153 83 86 157 98 93 108 41 34
100 41 29 74 11 0 84 21 4 160 100 80 92 23 0
97 23 0 114 35 0 173 93 33 255 178 134 255 195 138
161 81 50 83 11 0 116 51 33 49 0 0 98 61 64
147 104 103 255 255 255 255 255 255 0 0 0 0 0 0
1 0 0 13 4 0 14 0 0 11 0 0 31 0 0
36 0 0 55 14 11 65 20 23 67 9 11 116 52 52
102 34 32 103 35 37 112 44 40 109 38 45 117 53 54
130 56 60 130 52 57 129 54 65 134 59 68 140 63 71
134 66 67 141 64 82 154 79 80 126 57 70 116 43 55
94 28 36 87 19 28 89 18 28 115 42 53 113 44 53
100 27 39 114 32 47 156 80 91 134 42 57 124 44 52
133 60 80 166 98 98 110 58 67 33 0 0 8 0 0
14 0 0 5 0 0 25 3 15 20 0 0 118 83 83
253 212 201 150 110 101 15 0 0 68 33 25 50 4 0
19 0 0 38 0 0 32 0 0 46 0 0 207 129 94
255 211 170 202 104 59 160 56 15 218 113 77 247 146 113
190 90 64 128 30 7 150 58 35 162 74 65 128 41 33
110 27 29 102 16 28 116 42 54 90 13 46 73 5 48
61 0 44 255 174 247 255 255 255 199 130 208 211 136 207
231 159 234 215 134 216 249 171 255 252 167 255 164 71 187
203 117 231 182 84 211 192 109 216 132 39 154 142 56 153
197 113 206 159 71 173 147 60 160 143 54 159 183 99 191
113 29 114 125 36 124 173 86 180 138 55 135 100 16 100
173 88 173 255 175 255 255 255 255 174 87 170 107 25 108
149 66 149 171 96 182 177 98 195 255 255 255 255 255 255
93 26 114 35 0 60 109 49 129 46 0 68 40 0 45
40 0 34 36 0 22 28 0 10 26 4 7 25 6 1
29 4 4 24 9 0 18 0 0 6 0 0 5 0 0
20 0 0 21 6 4 21 0 0 20 0 0 44 19 15
23 0 0 33 3 5 34 3 10 37 7 1 46 0 3
46 10 12 66 30 32 63 30 31 99 57 55 95 58 62
109 62 67 94 47 50 81 28 38 68 19 26 69 16 26
70 19 33 80 29 35 72 21 28 62 10 24 66 14 21
65 18 29 59 13 19 57 4 15 54 12 23 59 0 16
46 0 12 96 43 81 69 0 57 0 0 0 227 158 239
186 111 204 19 0 47 44 0 65 255 248 255 255 255 255
120 41 133 47 0 74 96 24 111 76 6 95 42 0 53
132 89 142 27 0 47 62 10 64 19 0 25 39 0 51
95 40 98 16 0 16 36 0 39 48 5 51 76 23 71
78 33 75 44 0 41 33 0 18 39 0 26 54 8 52
62 15 45 20 0 0 44 0 20 65 1 37 72 14 57
67 5 60 42 0 35 79 20 81 218 144 227 65 0 78
27 0 36 47 0 60 151 81 155 181 103 187 92 17 101
53 0 53 65 0 69 115 45 100 87 22 80 83 13 73
86 16 65 90 26 71 88 22 69 99 33 72 126 49 87
116 51 83 115 46 76 95 29 55 98 21 43 96 28 46
124 51 60 131 56 74 135 65 78 145 78 91 121 59 58
132 62 68 114 59 44 80 29 10 54 0 0 86 20 7
175 101 92 100 22 7 111 30 0 151 62 17 219 141 86
255 190 141 249 163 109 161 81 38 85 3 0 86 11 8
112 43 50 113 57 46 133 86 78 255 255 255 255 255 255
0 0 0 0 0 0 29 0 0 20 0 0 12 0 0
7 0 0 12 0 0 28 0 0 48 14 11 68 17 17
76 22 17 98 32 37 101 42 41 110 43 47 144 65 71
142 56 63 124 42 49 134 47 57 135 50 57 135 50 57
142 57 64 150 63 69 160 72 88 155 75 75 154 71 82
164 79 88 152 70 78 129 40 50 97 19 26 103 31 34
126 49 54 126 53 56 126 52 57 135 51 60 118 37 43
121 37 42 144 53 71 130 58 60 172 100 114 144 84 78
28 0 0 11 0 0 21 0 0 76 46 48 0 0 0
86 41 44 255 233 232 201 153 155 80 25 27 65 14 6
31 0 0 99 34 0 69 14 0 65 0 0 164 88 45
255 178 138 232 154 101 169 79 27 224 119 83 239 143 97
193 91 67 133 37 13 133 45 27 157 62 54 142 58 52
162 69 74 93 5 31 78 0 26 89 8 60 131 49 112
0 0 0 215 144 204 255 255 255 255 197 236 252 193 245
255 190 255 255 200 255 255 199 255 245 168 255 230 134 252
248 164 255 255 192 255 240 150 252 197 120 211 172 85 177
157 73 149 154 69 154 160 79 152 156 76 153 155 72 147
164 82 147 149 72 146 146 63 135 126 48 117 122 43 117
125 46 117 143 65 140 94 11 99 255 227 255 255 255 255
168 86 171 63 0 66 136 60 144 178 101 191 255 246 255
255 216 255 79 2 101 49 0 75 112 49 131 51 0 69
40 0 44 45 0 46 30 0 21 28 0 6 26 5 7
31 4 2 24 10 0 18 2 0 22 3 7 10 0 0
11 0 0 23 0 8 31 2 1 20 0 0 26 0 2
40 5 16 34 3 1 36 2 5 47 9 12 37 5 9
35 0 6 35 5 11 53 12 12 46 10 8 90 48 57
80 41 45 92 52 55 84 50 49 77 36 45 69 27 36
73 21 31 86 35 43 64 14 24 67 18 25 59 5 25
61 6 24 61 15 24 69 18 28 55 23 23 68 25 21
36 0 2 74 17 32 60 0 29 47 0 37 75 5 67
233 165 246 212 138 227 65 0 88 101 18 121 107 36 131
247 170 255 255 255 255 255 255 255 186 102 203 52 0 75
78 1 101 37 0 54 50 5 63 80 31 99 52 0 63
20 0 34 17 0 27 32 0 33 87 31 88 32 0 39
64 17 69 67 11 65 66 12 61 94 41 96 85 39 86
71 11 66 82 31 84 89 24 64 76 11 51 64 6 55
71 14 59 83 12 80 65 0 66 111 33 118 198 131 215
105 28 116 133 56 152 211 135 222 255 199 255 227 148 239
129 50 128 132 53 143 221 141 222 171 97 165 165 101 154
162 91 149 159 87 139 158 90 138 146 82 119 154 87 121
177 115 149 94 23 58 106 38 68 108 34 68 104 39 62
117 41 65 122 48 64 135 64 71 125 57 74 145 80 91
124 64 69 123 64 67 112 52 42 82 21 12 67 4 0
99 29 19 145 82 73 112 35 9 110 22 1 144 63 26
217 131 87 255 190 140 240 161 105 166 72 32 79 4 0
157 76 64 109 35 29 123 57 55 139 89 86 230 190 183
255 255 255 105 69 72 0 0 0 13 0 0 16 1 0
17 0 0 12 1 0 24 0 0 36 6 0 50 12 13
60 12 7 76 24 27 89 29 27 96 37 35 108 34 40
133 52 60 133 53 59 135 41 54 144 55 64 138 50 59
138 50 59 138 50 59 151 63 72 163 74 81 164 76 87
163 71 79 155 69 75 157 66 81 131 51 60 113 34 41
108 24 35 112 40 47 120 48 55 129 47 57 127 51 57
131 49 59 135 55 64 146 63 71 148 57 68 159 83 87
157 78 88 90 17 18 43 0 0 25 0 0 15 0 0
105 61 65 255 232 238 234 179 187 118 70 61 101 52 57
65 11 0 29 0 0 80 16 0 63 0 0 82 8 0
209 126 82 255 170 123 205 117 66 156 70 21 214 107 68
223 121 83 185 97 68 136 40 17 134 41 26 143 59 50
145 52 50 134 49 64 117 28 50 129 37 90 118 33 107
103 27 100 48 0 43 238 162 222 255 255 255 255 209 246
253 190 244 225 173 224 227 162 234 247 173 255 228 143 247
176 96 205 162 73 185 169 82 197 204 121 225 176 91 179
157 80 151 161 87 151 168 81 154 158 79 146 155 64 143
151 70 138 145 69 134 141 62 118 144 66 130 141 63 132
135 53 131 132 51 123 157 76 158 149 70 143 199 116 199
255 228 255 236 154 242 162 80 167 119 43 135 184 106 205
255 245 255 255 212 255 92 18 115 52 0 80 112 47 134
73 17 92 38 0 53 41 3 44 41 0 31 31 2 17
39 0 21 27 8 5 24 8 7 23 0 2 31 6 12
22 0 0 21 0 0 20 6 0 28 1 2 20 0 0
20 0 0 32 7 0 35 7 6 35 2 9 36 0 0
32 0 0 34 0 0 33 0 0 46 4 6 35 0 0
74 31 38 68 28 32 81 38 42 75 36 39 75 26 30
68 17 21 63 20 29 83 26 38 53 1 11 56 4 14
53 2 9 50 2 6 54 4 17 57 7 18 61 10 20
61 8 18 33 0 0 93 32 64 41 0 11 46 0 37
102 29 92 253 182 255 255 181 255 16 0 36 50 0 72
66 0 83 122 43 141 177 103 190 234 155 249 255 233 255
210 135 231 0 0 3 22 0 37 16 0 36 0 0 19
53 2 66 90 36 108 71 20 89 67 13 86 13 0 28
115 62 126 53 9 62 65 7 71 55 0 57 13 0 20
48 0 54 83 27 89 26 0 30 110 43 103 76 6 73
55 0 46 65 0 68 67 0 76 53 0 66 62 0 72
74 6 90 229 151 241 255 230 255 255 230 255 188 117 193
143 71 148 205 137 205 228 158 238 221 151 219 51 0 36
79 14 60 73 7 56 68 7 51 67 0 36 58 0 28
64 0 31 61 0 29 112 39 67 104 38 61 109 42 67
115 52 66 123 57 70 126 61 75 129 61 74 132 61 68
133 71 85 121 65 61 113 51 55 108 48 35 82 27 16
63 9 0 90 33 14 141 72 59 127 41 31 103 28 0
115 31 0 193 108 61 255 185 135 255 186 135 185 100 49
108 36 0 87 14 2 101 29 23 145 82 77 126 82 71
192 143 146 255 255 255 175 147 152 0 0 0 15 0 0
22 2 0 22 3 0 23 3 0 31 0 0 35 5 0
44 5 5 54 4 0 70 16 18 83 23 21 92 23 26
103 33 37 127 52 58 140 53 63 138 49 58 159 65 76
141 50 60 141 50 60 145 54 64 155 64 74 174 80 91
172 95 100 179 85 96 170 78 86 178 86 99 169 80 94
148 60 72 106 26 35 107 31 37 133 55 62 140 60 69
125 35 47 141 50 64 160 71 84 151 55 71 130 52 60
149 65 76 182 110 115 159 84 92 60 0 0 53 9 10
16 0 0 175 133 135 255 241 234 144 96 91 62 11 11
102 49 44 79 19 0 33 0 0 66 9 0 57 0 0
142 71 38 255 193 158 252 167 125 165 76 29 169 76 29
219 124 84 229 129 92 187 88 69 138 41 17 134 35 26
149 59 55 150 60 54 151 67 75 112 20 51 171 84 128
137 51 114 72 0 65 113 36 105 255 221 255 255 255 255
255 216 255 255 201 252 216 155 214 202 130 209 218 150 235
218 140 248 172 85 198 142 50 163 138 51 166 173 88 192
159 75 174 153 69 158 164 81 165 163 85 157 149 70 147
139 58 127 150 66 145 123 45 113 137 57 128 137 57 134
145 66 136 135 53 132 129 48 121 143 62 146 145 65 141
151 67 155 255 209 255 255 235 255 255 232 255 128 49 139
186 111 212 255 236 255 255 222 255 116 45 148 48 0 78
88 25 113 111 56 133 30 0 43 48 8 62 40 1 33
35 6 22 36 8 22 34 4 16 32 2 17 17 2 0
34 14 17 26 9 4 20 5 2 29 1 2 23 2 2
20 0 0 31 0 0 27 0 0 43 5 14 32 6 0
38 0 0 27 0 0 31 0 0 28 0 0 37 0 0
27 0 0 47 4 11 44 4 8 54 10 14 53 10 14
47 10 12 47 0 2 48 2 13 49 8 15 51 3 12
47 1 9 39 0 3 51 0 4 56 3 19 57 4 18
55 7 18 54 2 15 59 8 18 88 30 50 60 0 29
75 16 53 53 0 51 205 136 210 255 237 255 8 0 23
126 50 141 114 43 136 74 0 87 0 0 11 24 0 49
229 157 242 255 242 255 210 142 233 208 157 228 154 103 176
11 0 34 15 0 42 35 0 54 38 0 53 103 45 123
88 29 103 49 0 60 54 0 63 67 9 82 72 22 83
85 21 91 98 35 99 73 13 78 1 0 1 45 0 52
34 0 36 54 0 70 111 48 118 165 98 178 174 110 193
184 112 196 216 148 231 107 34 121 114 43 129 81 5 83
52 0 51 79 5 81 125 54 115 105 32 103 47 0 32
78 13 56 74 10 52 69 2 48 78 16 46 80 14 54
74 9 37 80 12 38 87 21 51 102 30 57 102 30 57
114 41 67 122 54 73 135 64 76 131 59 71 132 63 72
130 62 72 125 66 75 120 60 70 107 49 44 101 45 36
89 31 16 65 12 0 84 14 8 128 67 50 141 63 40
102 15 0 101 16 0 164 77 28 255 182 132 255 206 155
210 129 84 147 69 24 49 0 0 115 47 40 153 96 83
120 64 59 185 142 139 255 255 255 123 94 89 0 0 0
44 17 17 20 7 0 32 9 0 26 1 0 26 0 0
29 0 0 45 6 4 60 7 4 59 5 7 76 16 14
84 17 19 93 25 29 137 52 58 141 58 67 145 62 69
168 69 83 156 63 75 146 53 65 145 52 64 155 62 74
177 84 96 187 91 104 178 85 97 167 79 87 184 86 105
193 101 114 170 80 90 116 29 42 110 17 32 134 53 62
151 60 74 118 36 47 148 52 66 161 67 81 143 57 66
145 55 69 132 56 64 166 84 92 187 106 116 111 38 43
59 14 10 72 31 26 144 88 91 98 39 43 69 8 5
65 5 3 77 19 11 79 19 5 82 12 0 60 0 0
97 27 0 207 133 99 255 204 164 218 125 88 161 72 21
205 102 54 217 116 83 218 127 95 179 88 55 126 36 19
132 43 27 148 59 50 157 64 69 162 76 85 99 6 42
173 84 135 126 38 115 50 0 45 176 98 182 255 236 255
255 205 255 255 203 255 255 225 255 242 182 245 200 133 202
199 123 208 216 137 238 200 119 222 166 87 200 172 82 200
148 65 167 151 69 163 153 70 154 164 82 161 152 72 145
136 55 135 137 52 129 147 61 131 116 38 108 133 53 120
136 56 131 133 54 124 123 40 122 117 36 111 136 55 130
150 69 152 105 26 101 142 58 146 178 95 178 250 167 250
128 57 143 185 105 204 255 219 255 255 241 255 186 111 228
65 4 99 63 0 89 119 62 139 38 0 55 55 8 63
51 3 47 34 0 36 42 2 29 33 14 23 30 0 15
24 1 4 36 9 11 36 12 9 33 10 9 28 1 4
21 0 0 31 0 0 24 0 0 24 0 0 38 6 0
30 2 0 33 0 0 32 0 0 31 0 0 30 0 0
38 0 0 33 0 0 33 0 0 35 0 0 38 0 2
37 0 1 34 0 0 36 0 0 35 0 0 33 0 0
60 10 20 48 3 9 46 3 8 47 0 8 50 6 11
53 12 16 60 9 14 52 0 14 81 29 36 73 11 32
53 0 32 97 32 75 49 0 35 108 41 108 255 207 255
155 83 170 5 0 17 75 1 90 133 56 147 139 72 150
68 0 79 34 0 52 178 108 190 255 255 255 255 229 255
255 255 255 255 241 255 255 221 255 154 96 181 0 0 16
31 0 53 38 0 58 34 0 61 119 57 130 87 29 105
59 1 71 76 10 89 2 0 10 13 0 22 172 107 183
163 93 181 146 73 165 165 97 183 210 139 230 220 149 232
176 105 190 119 48 135 95 30 111 63 0 64 63 0 64
70 2 68 88 23 85 97 29 85 87 19 77 66 0 52
48 0 34 80 19 47 72 7 40 75 14 41 85 23 52
94 29 54 87 23 53 91 27 55 100 43 60 86 20 41
90 31 41 105 45 59 116 56 72 130 60 67 126 65 72
124 58 62 119 60 62 122 62 74 115 64 67 97 40 41
91 36 35 91 43 28 68 11 0 81 18 10 116 51 42
144 68 54 98 22 0 83 1 0 138 60 13 242 159 108
255 209 159 236 146 100 166 81 38 133 58 42 129 60 52
145 84 73 123 73 54 171 126 116 254 212 212 177 141 145
0 0 0 31 13 5 39 18 16 31 6 0 12 0 0
18 0 0 28 0 0 48 6 4 58 20 12 54 0 0
75 15 13 77 10 12 91 23 27 134 49 55 139 59 67
156 58 70 165 73 85 170 78 88 162 71 81 155 64 74
164 75 84 165 76 85 176 87 96 169 83 91 175 76 86
182 79 98 196 101 113 177 83 99 131 41 53 118 26 39
141 47 61 155 63 76 129 41 53 162 60 75 159 64 77
150 51 65 165 67 84 145 56 66 144 50 66 186 103 113
182 97 108 38 0 0 51 0 0 167 107 105 77 21 20
49 0 0 89 26 18 90 22 9 69 2 0 83 20 0
75 5 0 178 100 68 255 200 167 248 164 119 174 89 49
179 88 36 218 122 74 195 97 64 195 97 74 155 57 34
108 12 4 116 20 8 131 38 43 138 42 55 151 64 86
101 4 49 154 61 112 113 29 101 71 0 71 231 150 235
255 222 255 219 151 224 243 178 246 255 252 255 255 234 255
226 166 236 174 106 185 187 114 209 214 126 235 183 101 210
164 76 184 160 69 180 162 72 177 157 76 163 157 75 161
146 65 137 131 53 121 126 48 114 150 72 144 119 39 108
131 51 128 133 53 126 114 34 109 103 25 94 111 28 112
131 49 126 146 64 144 135 54 128 97 17 98 90 10 88
132 52 130 132 55 147 166 95 182 255 185 255 255 247 255
255 195 255 129 64 156 64 0 90 89 35 117 46 0 69
60 13 71 48 11 51 49 4 43 38 10 35 37 8 20
41 5 24 22 0 9 36 8 15 40 16 11 30 8 8
31 0 2 24 0 0 30 6 0 34 1 1 19 0 0
42 12 7 26 1 0 35 0 0 31 0 0 43 7 5
38 6 4 43 2 4 38 3 0 38 0 0 39 0 7
43 1 8 42 0 7 43 0 7 43 1 8 43 1 6
38 0 0 52 15 24 47 2 13 40 0 10 51 8 15
54 5 14 61 17 24 64 12 22 59 11 13 76 21 34
58 0 14 43 0 8 88 34 65 78 18 73 50 0 39
184 111 192 255 214 255 18 0 29 67 2 85 76 7 90
93 29 112 74 8 87 8 0 18 60 0 68 219 160 241
47 0 67 152 97 188 253 195 255 255 255 255 255 255 255
255 205 255 232 174 249 255 193 255 79 13 100 25 0 41
22 0 38 87 23 103 96 36 116 113 39 126 213 142 227
255 255 255 255 255 255 255 215 255 219 137 237 159 92 187
113 47 127 84 15 105 70 4 81 50 0 65 89 14 80
111 40 109 107 38 90 76 4 61 62 0 38 59 6 43
83 11 58 83 17 50 82 17 51 74 7 32 76 15 41
84 23 47 88 23 44 80 15 34 78 13 26 83 18 39
89 23 39 89 23 45 98 31 47 111 48 59 108 48 54
121 51 56 120 49 51 112 45 46 112 63 63 110 53 62
93 38 35 86 33 25 94 40 35 67 19 9 67 4 1
101 45 25 139 65 51 109 30 5 88 12 0 126 36 1
214 131 75 255 199 152 246 162 104 196 121 76 148 70 48
91 19 8 161 89 69 162 104 96 121 73 67 199 159 151
255 255 255 255 216 222 0 0 0 58 28 26 39 9 7
24 0 0 16 0 0 26 0 0 48 4 3 68 26 19
53 0 0 71 9 8 78 9 12 88 18 22 118 43 49
136 54 62 153 59 70 160 66 77 198 96 110 181 84 96
179 84 95 173 71 86 168 68 82 171 71 85 172 72 86
174 81 91 178 73 92 193 86 104 185 89 103 159 66 78
139 44 57 139 41 55 150 52 66 146 53 65 174 80 94
168 61 79 171 64 82 182 86 100 166 67 81 137 47 60
179 81 94 227 144 157 40 0 0 0 0 0 255 235 238
247 182 173 88 16 13 89 26 3 131 59 46 62 0 0
104 25 1 103 33 0 242 161 124 255 230 190 213 118 86
164 67 31 198 93 50 203 105 68 190 89 64 183 91 74
139 51 34 101 7 2 114 26 19 131 40 48 137 44 56
147 49 82 110 23 71 137 47 111 132 41 119 135 51 145
255 192 255 255 187 255 212 149 214 234 171 242 255 209 255
255 244 255 255 190 255 169 105 182 174 92 187 194 118 221
180 93 199 143 54 169 175 86 196 166 78 178 150 69 163
150 68 153 140 57 138 129 48 115 131 48 120 143 60 124
127 47 118 138 58 135 131 51 128 108 28 97 95 15 86
105 26 92 128 49 125 136 58 128 174 91 176 158 76 155
146 64 146 130 48 129 139 69 156 165 92 177 213 132 233
255 206 255 255 240 255 224 164 255 105 44 132 75 13 101
53 0 64 60 13 73 59 5 66 45 7 44 43 5 41
43 14 29 40 3 25 29 0 6 39 11 11 40 10 17
38 9 7 29 0 0 27 0 0 36 8 13 39 2 2
23 0 0 46 6 5 37 1 2 36 0 0 39 3 3
49 14 6 52 20 13 57 16 10 49 13 14 44 6 8
53 6 8 44 7 4 46 6 4 47 11 9 46 9 5
47 10 14 46 9 11 47 12 11 44 2 5 40 1 1
48 0 1 60 11 22 57 13 20 66 14 24 64 13 21
71 18 20 35 0 0 77 18 39 77 17 55 97 34 80
58 0 58 125 63 121 205 141 219 250 183 255 130 60 138
23 0 28 49 0 54 102 32 105 76 14 86 69 3 82
115 55 130 121 63 142 27 0 48 26 0 47 96 30 117
214 152 237 255 233 255 255 239 255 255 255 255 255 223 255
160 99 182 188 114 204 255 227 255 255 246 255 255 255 255
255 255 255 241 162 248 47 0 68 76 2 97 87 8 101
107 35 115 109 35 117 109 37 112 106 35 102 100 28 90
77 15 69 33 0 17 38 0 17 87 27 61 103 43 75
53 0 19 61 2 22 105 45 72 67 12 31 64 10 29
79 16 33 83 22 36 83 22 38 73 17 23 70 12 27
69 13 17 92 29 40 84 23 33 87 25 39 91 33 37
94 36 45 102 40 47 106 43 47 109 46 48 111 56 62
108 59 65 78 28 24 80 33 21 95 50 38 68 23 6
66 7 0 101 41 29 120 50 40 116 33 14 98 25 0
113 35 0 185 104 55 255 177 128 251 169 115 240 150 104
106 30 9 73 4 0 143 79 67 177 112 94 126 73 57
148 101 97 255 255 255 255 255 255 0 0 0 60 34 24
51 23 14 33 7 0 21 0 0 31 0 0 45 12 6
57 12 8 57 8 8 76 17 13 74 11 10 87 13 19
118 41 47 132 50 58 152 58 69 148 55 66 208 111 123
194 92 107 194 100 112 191 84 100 173 70 85 167 64 79
178 76 91 196 93 104 184 80 101 175 72 90 195 85 105
199 97 113 173 64 83 124 30 44 131 37 51 162 57 74
182 74 94 165 62 80 179 76 94 176 68 88 181 74 92
167 75 86 156 60 77 228 134 150 88 9 20 75 0 0
255 255 255 255 193 187 108 33 23 116 34 24 116 42 11
80 0 0 114 47 14 172 90 56 255 188 149 255 179 142
186 94 48 174 78 36 213 107 70 188 86 48 193 91 70
184 88 73 138 45 37 114 17 13 114 27 21 135 42 49
131 45 69 141 59 89 118 27 81 124 39 100 158 77 160
205 122 214 255 198 255 234 158 249 234 164 254 223 163 238
201 144 194 255 233 255 255 216 255 200 145 220 204 122 222
196 126 221 164 82 190 163 74 179 170 78 187 155 65 167
147 67 157 150 67 148 137 62 137 127 51 129 122 47 114
129 56 119 131 48 124 142 62 133 133 53 126 104 23 91
95 14 84 104 23 94 130 49 118 139 58 127 111 31 97
126 46 110 141 61 134 115 35 106 157 78 164 166 102 179
163 97 177 212 144 254 255 255 255 255 217 255 112 39 130
60 7 81 34 0 48 65 10 82 53 9 55 42 0 48
50 11 36 41 10 36 36 3 16 26 0 17 29 0 0
43 11 16 38 5 16 17 0 0 22 0 0 38 6 10
37 8 14 9 0 0 41 7 3 30 0 0 38 2 0
53 18 17 53 21 12 51 22 14 52 11 9 55 21 12
41 0 0 44 0 5 36 0 0 43 2 4 39 1 2
46 7 6 40 1 8 39 0 5 48 9 14 37 3 6
43 0 3 36 2 1 50 0 12 52 8 17 61 7 20
54 7 18 59 4 13 27 0 0 145 81 109 63 5 33
53 0 27 113 44 105 175 107 176 130 65 128 208 136 206
141 80 149 110 45 111 93 34 109 85 20 95 71 13 80
88 29 95 85 18 90 212 151 234 55 0 76 66 8 86
49 0 70 79 13 95 106 46 123 38 0 61 51 0 70
233 158 246 255 255 255 255 255 255 188 120 205 146 78 163
122 59 142 82 6 93 86 17 100 115 39 134 92 16 104
102 30 115 112 33 122 83 16 91 83 15 81 94 25 89
96 25 75 78 18 57 110 47 83 95 32 61 48 0 9
51 0 13 88 33 48 79 22 34 15 0 0 73 15 27
60 4 18 74 10 21 92 30 36 98 36 47 84 19 28
81 21 22 85 26 30 99 35 42 88 26 31 83 21 30
80 17 27 88 24 31 99 40 41 107 45 42 114 52 44
106 61 66 105 56 63 79 32 23 71 22 21 103 54 48
71 15 11 55 0 0 98 42 37 112 40 24 118 48 29
113 37 1 119 40 0 198 113 69 255 174 121 245 163 109
235 149 110 147 67 37 109 28 9 120 49 29 156 85 71
202 144 138 112 66 49 255 214 213 106 69 67 34 0 0
67 42 40 45 16 13 27 0 0 38 5 0 44 3 0
49 8 6 42 8 0 61 7 10 74 18 16 71 10 12
92 23 25 133 52 60 140 56 65 155 58 70 148 54 65
219 122 134 206 109 122 208 101 117 179 80 94 166 65 78
161 61 74 178 81 93 222 111 126 187 80 99 178 69 86
190 89 106 230 123 142 179 80 95 108 4 21 114 14 29
172 67 86 173 64 81 164 57 74 177 72 88 155 46 63
178 75 94 190 85 102 140 44 60 187 87 97 168 81 88
209 121 130 255 255 255 128 46 40 109 20 15 157 80 52
67 0 0 87 11 0 126 40 1 192 114 67 255 182 151
226 143 94 157 60 30 191 88 54 225 123 83 204 98 67
171 72 55 167 74 62 131 32 31 92 6 0 105 19 19
116 28 43 112 28 54 119 31 64 125 32 87 101 17 87
145 55 146 218 132 227 255 205 255 223 144 236 255 201 255
203 134 213 184 130 185 255 246 255 255 255 255 255 181 255
217 149 232 178 107 194 138 51 158 160 80 187 153 63 174
140 59 155 129 43 141 137 50 140 129 53 135 111 31 105
86 16 80 80 12 74 108 23 92 126 45 115 122 40 114
86 8 72 67 0 56 86 7 72 115 36 102 125 46 114
148 69 137 122 43 111 124 45 111 135 56 122 160 96 164
138 72 148 169 94 180 255 197 255 243 178 255 255 217 255
255 236 255 97 45 119 79 22 95 56 8 73 40 0 49
64 19 58 46 7 33 31 0 19 42 7 23 62 22 29
36 6 18 46 17 16 49 19 22 44 16 22 39 0 10
30 0 0 42 3 9 68 36 32 32 0 0 44 5 7
29 0 0 16 0 0 48 4 6 81 40 44 86 48 41
63 29 22 66 18 24 63 19 20 54 16 14 47 6 4
43 5 7 45 6 7 45 6 5 53 14 13 41 2 1
36 1 0 48 3 10 46 12 13 69 17 23 68 23 27
71 21 24 63 19 20 80 22 26 73 19 28 56 4 24
86 37 61 112 48 98 102 44 88 76 8 62 58 0 51
82 21 82 75 8 70 76 7 66 70 6 72 62 3 61
61 4 69 74 16 85 90 35 98 65 6 82 95 34 117
99 29 113 92 26 108 68 4 83 60 0 74 75 7 96
52 0 66 16 0 27 189 120 198 196 118 208 47 0 59
21 0 33 81 8 94 84 4 97 50 0 57 85 5 90
89 13 96 73 2 73 57 0 59 80 9 72 105 33 83
90 27 69 68 1 43 61 4 33 67 7 32 63 8 25
75 21 30 71 13 25 69 13 20 62 14 30 81 26 32
79 15 34 76 21 27 69 15 17 68 13 17 64 8 18
71 20 17 71 18 20 67 17 18 64 4 6 72 15 14
80 23 33 88 31 34 83 24 27 81 26 19 88 30 29
77 18 17 104 50 62 101 59 52 88 39 37 78 36 28
83 34 28 78 33 20 81 29 17 62 6 0 152 92 79
97 30 7 105 24 1 97 21 0 116 34 0 225 142 95
255 200 145 240 160 108 205 124 98 144 71 41 115 33 11
115 50 31 156 91 77 255 210 195 162 111 112 0 0 0
34 3 0 64 29 22 81 42 36 82 53 39 26 0 0
0 0 0 32 0 0 55 22 8 75 22 23 77 20 17
79 17 17 66 2 3 84 4 10 122 41 48 152 66 74
126 32 45 212 114 126 176 79 92 215 112 127 225 124 137
179 68 85 168 60 76 188 82 97 177 74 86 199 94 113
198 91 108 176 75 92 178 73 91 202 103 118 183 84 99
156 49 68 150 49 66 171 64 81 168 65 81 182 69 90
175 74 89 169 62 78 163 62 80 186 80 101 184 83 97
165 59 75 255 161 168 199 106 105 167 74 73 135 47 34
63 0 0 79 0 0 145 60 19 196 111 68 255 229 182
255 180 132 153 57 19 185 92 54 208 112 78 170 70 31
212 111 84 165 59 45 180 84 83 113 16 10 85 0 0
121 26 41 124 35 50 113 31 52 127 51 91 28 0 11
146 63 129 255 200 255 255 173 255 207 131 225 226 151 247
211 132 223 239 166 251 245 190 248 242 187 246 255 212 255
255 255 255 255 200 255 218 152 239 207 125 224 112 30 125
122 41 146 154 66 166 159 71 164 165 79 176 160 84 159
175 95 174 188 117 178 212 144 206 153 66 143 150 73 135
143 63 129 146 70 127 151 74 136 141 64 119 127 49 110
114 36 89 127 49 106 127 49 106 126 48 105 122 44 101
110 40 113 184 112 182 192 132 201 255 188 255 255 205 255
216 158 234 185 118 201 127 61 143 60 4 75 78 18 84
65 12 72 70 23 68 52 6 40 34 1 23 53 1 24
44 9 16 37 1 9 47 13 15 46 11 17 42 6 10
35 2 6 35 2 9 49 16 25 73 39 46 24 0 0
42 6 2 35 0 0 31 4 0 42 2 0 56 18 17
61 23 26 67 31 21 53 15 16 61 13 17 52 14 13
51 10 9 47 10 13 45 7 9 48 10 12 52 14 16
36 0 0 42 4 1 43 2 10 57 8 16 64 14 24
69 23 32 77 26 34 67 20 27 87 39 40 86 27 44
81 25 43 78 24 52 87 24 62 86 27 66 87 16 77
58 2 49 119 52 105 78 24 78 67 9 60 70 12 72
70 18 68 83 21 83 87 27 82 106 43 109 83 18 91
85 23 103 90 32 106 87 21 98 90 27 111 87 26 107
91 24 104 83 23 102 70 2 82 113 43 124 222 144 228
173 98 180 26 0 35 62 0 72 150 75 157 95 21 107
86 8 89 87 11 79 92 22 93 92 22 84 87 17 67
75 3 53 77 14 55 102 35 67 65 9 33 75 16 33
72 18 31 74 22 28 72 17 22 75 16 30 66 23 21
71 11 22 71 22 19 73 12 16 77 17 28 75 19 21
73 16 11 77 19 21 75 19 20 71 18 16 77 12 22
80 18 25 98 36 43 100 37 39 101 43 36 98 38 38
99 33 32 77 29 17 106 58 62 107 57 62 91 44 32
77 29 27 86 33 26 76 32 28 72 20 16 69 11 0
136 71 61 101 39 26 112 42 13 104 31 0 120 50 9
214 133 89 255 181 135 253 173 128 190 104 63 139 53 28
129 51 26 144 70 47 149 84 62 165 109 105 128 73 58
0 0 0 0 0 0 0 0 0 22 0 0 87 54 47
76 44 38 27 0 0 37 4 0 24 0 0 61 17 14
67 21 12 71 13 14 65 6 7 85 15 20 122 40 45
151 60 72 126 37 46 222 119 133 194 95 109 213 110 125
213 113 126 187 79 95 169 66 80 183 72 90 181 70 86
192 89 107 196 87 104 180 79 96 189 84 102 195 96 111
170 71 86 149 42 61 151 48 66 172 63 80 170 67 83
179 70 89 181 72 91 172 61 81 174 73 87 184 71 93
186 83 93 181 73 91 245 135 144 222 120 121 152 58 55
128 41 15 91 0 0 90 8 0 128 47 2 240 148 97
255 174 126 239 151 111 172 79 38 192 99 64 217 112 84
184 86 62 173 70 51 163 67 56 171 65 72 118 22 18
88 0 0 130 45 54 119 39 48 96 13 40 124 48 88
160 73 131 188 113 183 255 183 255 240 167 255 219 129 232
226 154 249 235 153 241 255 196 255 173 118 181 227 181 236
255 218 255 255 227 255 230 161 255 215 151 224 253 178 255
244 165 255 170 88 187 185 100 205 171 96 196 178 87 177
171 96 179 182 104 174 174 101 176 179 101 168 198 118 180
189 109 175 180 104 162 178 100 156 175 96 160 177 97 157
174 99 155 180 103 158 134 57 106 143 66 118 137 60 112
137 60 112 130 65 137 255 197 255 253 182 255 255 216 255
255 246 255 209 146 231 128 65 142 115 51 134 56 2 68
87 32 103 96 50 106 80 34 89 45 0 28 43 2 28
57 13 26 35 0 7 36 2 14 40 0 10 43 4 19
44 7 11 35 0 7 48 9 15 59 19 29 96 61 59
22 0 0 39 6 5 45 0 7 44 1 1 35 0 0
37 1 0 48 11 8 64 28 28 55 13 14 55 17 16
58 18 18 56 16 16 56 15 14 56 17 15 50 11 9
51 12 9 41 7 6 45 2 5 43 7 5 58 12 14
68 22 22 74 32 31 81 29 32 74 27 26 90 37 45
84 39 39 86 31 44 72 21 38 74 13 46 62 3 43
64 5 42 48 0 36 133 65 111 72 15 65 53 0 41
63 2 49 84 26 76 79 28 76 82 31 79 85 31 86
57 2 76 64 6 79 67 14 83 81 21 87 81 18 90
78 21 87 74 11 88 76 10 85 58 0 69 36 0 49
133 62 151 223 158 243 160 87 172 64 0 76 55 0 70
87 17 103 84 15 81 76 10 62 70 0 68 82 12 61
83 17 73 85 24 62 81 18 53 74 10 41 72 13 37
75 16 36 76 18 27 79 17 36 71 17 29 74 18 23
77 18 28 70 12 27 71 17 21 74 21 26 72 18 19
70 19 13 75 23 26 72 22 14 75 17 15 67 11 6
79 26 26 84 31 29 98 45 43 107 54 56 105 51 48
98 40 44 92 39 34 83 25 24 106 56 50 97 58 50
83 38 38 69 32 16 82 36 27 76 29 24 76 17 11
68 21 9 111 48 44 100 40 20 116 45 23 107 34 4
98 24 0 177 98 54 245 171 117 255 191 139 228 147 113
166 77 42 127 48 15 136 52 31 100 36 20 101 32 16
76 27 15 31 0 0 87 39 39 163 122 116 41 2 1
0 0 0 39 0 0 40 4 0 22 0 0 19 0 0
51 7 0 54 11 3 69 21 17 66 12 8 84 7 13
99 27 31 136 48 59 119 36 43 200 104 116 194 99 110
212 104 121 209 108 121 212 101 118 200 97 111 191 80 98
202 91 107 189 82 100 189 90 107 190 87 104 198 93 111
202 103 118 180 79 95 152 53 68 148 51 65 170 69 87
177 70 86 186 77 96 185 78 96 177 72 89 174 69 86
189 76 97 181 69 95 203 98 112 221 110 129 192 81 91
123 26 20 107 10 0 96 5 0 130 42 5 168 79 33
255 229 178 232 150 98 201 110 63 187 91 47 200 108 80
225 124 104 191 94 67 109 15 0 165 62 61 147 49 51
106 19 16 91 2 0 145 60 67 118 39 56 66 0 14
151 76 112 190 103 161 193 118 190 255 179 255 238 163 248
222 137 233 212 138 231 208 125 218 211 141 221 179 124 181
202 157 215 253 196 255 255 231 255 225 164 238 173 111 188
232 164 246 255 205 255 183 105 205 193 109 208 163 79 170
148 68 168 158 77 161 162 81 162 159 84 150 148 73 139
155 74 139 151 71 138 144 67 128 143 64 128 144 69 119
144 68 120 141 62 116 139 65 111 142 66 111 142 66 110
144 68 113 137 61 106 255 185 255 255 250 255 255 213 255
255 242 255 255 255 255 255 199 255 162 103 181 71 7 86
36 0 55 88 29 94 106 46 121 83 38 88 42 0 36
45 3 29 65 20 36 37 0 13 40 0 13 39 10 18
51 3 21 31 0 8 44 0 12 41 10 13 60 26 33
89 54 61 44 8 20 32 3 4 38 0 6 44 5 8
41 2 9 28 0 0 40 0 2 57 22 18 53 11 12
55 15 17 57 18 20 57 18 20 55 19 17 54 10 13
51 9 11 42 3 3 60 8 16 55 8 13 54 8 12
56 11 13 68 25 27 66 26 27 80 28 33 74 27 28
63 10 18 67 19 23 71 15 31 65 13 38 63 0 32
60 0 28 73 9 48 53 1 37 134 78 120 72 17 57
47 0 30 59 6 39 75 24 64 78 32 71 59 7 52
50 0 42 50 0 55 55 1 67 60 0 64 65 9 70
71 19 85 76 11 77 66 11 79 62 2 69 70 9 84
47 0 48 63 1 71 166 96 170 240 167 236 156 80 162
67 0 73 69 0 77 64 0 54 83 11 70 85 15 64
68 0 49 70 5 50 89 23 63 82 17 52 62 0 18
73 19 39 74 13 31 75 18 34 72 12 22 71 18 22
67 12 21 69 13 25 67 16 15 77 22 29 73 18 24
71 15 19 76 23 22 74 20 14 71 19 16 80 20 21
65 7 5 100 42 46 95 37 39 109 51 53 116 58 62
112 51 52 102 55 44 102 38 41 88 43 30 97 52 43
98 61 49 82 42 31 68 30 21 82 34 26 78 26 23
67 21 6 76 23 22 85 27 13 107 43 37 121 56 37
99 39 13 95 17 0 129 55 11 219 139 96 255 209 154
255 184 147 183 92 54 122 46 10 121 45 13 105 32 8
84 15 3 116 58 50 120 77 64 210 161 155 255 255 255
250 209 202 0 0 0 0 0 0 8 0 0 48 11 4
23 0 0 38 1 0 49 11 3 69 18 15 70 19 17
77 12 12 93 20 25 125 48 51 132 41 53 158 67 77
179 90 99 195 96 110 199 94 110 229 131 143 228 117 134
205 102 116 237 132 144 168 69 88 191 88 105 194 91 108
204 99 117 202 105 119 191 92 107 167 66 82 144 45 60
174 69 87 170 73 89 194 83 102 188 83 100 187 74 95
181 72 92 183 78 97 183 72 89 218 102 129 224 108 130
185 80 85 139 31 26 92 0 0 95 7 0 175 89 49
247 157 109 255 232 176 199 111 67 174 88 35 198 106 70
190 100 73 207 118 93 194 100 84 111 13 9 145 51 48
117 30 33 104 13 12 103 9 15 163 77 82 116 37 54
50 0 0 161 78 119 255 194 253 229 146 216 255 176 255
227 139 233 197 121 205 209 135 217 200 124 211 213 139 225
220 169 234 182 127 184 218 160 232 255 255 255 255 210 255
173 115 175 181 107 193 182 118 197 187 111 202 176 104 192
157 79 171 144 60 157 140 60 150 137 61 143 133 57 135
128 57 117 130 50 112 126 46 113 121 44 107 123 44 98
121 45 105 122 43 97 120 46 85 117 39 87 129 56 96
128 54 90 123 49 87 124 50 88 255 255 255 255 221 255
246 183 255 255 204 255 255 181 255 255 224 255 255 212 255
97 34 109 22 0 47 67 7 85 94 34 108 87 32 89
48 0 42 45 7 38 74 15 48 37 0 7 43 0 21
43 5 17 49 0 22 41 2 13 39 0 10 40 1 9
53 11 24 69 26 34 74 30 40 47 6 7 24 0 0
35 0 0 45 6 9 38 0 0 32 4 1 51 11 7
50 8 11 49 10 4 55 12 8 59 18 11 52 11 16
56 10 10 51 7 7 38 0 0 63 17 18 53 9 8
50 9 11 61 6 12 67 15 20 69 17 22 65 16 20
65 18 19 48 0 3 57 9 13 63 7 25 59 4 22
54 1 26 60 4 39 67 14 48 71 10 57 120 62 91
67 12 45 51 0 24 64 8 44 83 29 71 78 29 63
58 0 43 25 0 20 42 0 44 44 0 44 53 0 51
66 11 62 68 19 73 72 19 72 73 10 72 58 0 53
89 30 86 59 0 63 62 0 63 58 0 63 113 44 111
188 124 196 182 118 189 117 53 124 52 0 44 86 18 75
93 28 82 89 25 72 72 8 50 54 0 27 65 3 33
103 40 62 60 3 21 69 13 21 70 12 28 66 6 22
69 12 18 71 13 24 67 9 22 64 3 10 76 23 29
71 16 22 76 20 24 74 22 18 72 18 12 77 23 21
74 22 19 55 3 0 111 59 60 101 49 48 105 53 52
106 54 55 107 49 47 92 48 42 105 47 45 101 49 45
92 49 36 100 49 41 88 38 27 75 25 12 80 33 27
73 30 20 66 17 15 72 31 17 75 13 6 100 40 36
121 58 43 102 37 9 88 15 0 105 28 0 176 110 54
255 195 144 255 176 136 193 114 68 145 54 23 138 53 23
139 58 36 105 40 17 136 69 62 184 131 116 159 115 100
255 217 218 255 255 255 255 255 255 25 0 0 0 0 0
90 55 49 0 0 0 34 4 0 48 13 0 66 24 17
67 27 19 74 12 13 88 16 20 113 34 42 132 48 57
130 46 53 171 77 90 195 96 108 196 100 113 231 126 142
230 132 144 220 109 126 249 142 155 170 69 88 190 87 104
197 94 111 203 100 117 209 104 122 204 97 116 178 79 94
150 51 66 174 69 87 178 79 95 195 84 103 194 91 107
184 77 97 190 77 95 188 79 96 177 68 87 217 87 114
222 99 128 222 110 124 159 54 57 89 0 0 114 26 0
223 133 92 255 231 181 250 171 119 177 98 39 170 92 47
204 114 77 181 88 64 194 97 85 188 105 89 130 39 34
119 35 33 110 13 17 107 19 13 98 15 18 170 81 91
119 37 45 50 0 0 159 76 118 255 248 255 255 184 255
255 214 255 255 198 255 255 184 255 249 174 252 208 134 218
196 129 195 221 158 229 165 115 177 184 126 186 255 230 255
255 248 255 255 208 255 216 157 228 148 78 156 177 102 190
180 105 202 183 99 193 172 86 183 156 82 168 156 68 150
154 70 145 157 75 144 140 58 132 138 59 123 137 60 123
136 57 115 141 64 117 137 63 107 133 56 101 133 60 101
108 33 74 115 40 75 112 36 75 107 31 70 255 200 255
195 131 203 173 110 178 194 131 199 140 81 151 237 174 244
255 255 255 206 142 231 49 0 71 53 3 74 71 10 94
98 40 103 55 4 55 52 0 38 65 18 47 56 4 31
47 1 19 53 12 31 53 12 34 48 4 22 37 0 15
37 0 7 43 2 22 47 10 21 80 40 49 49 8 18
27 0 0 32 0 0 44 5 14 52 10 14 44 11 16
39 9 8 50 6 8 51 12 8 52 10 8 49 11 6
58 11 16 56 6 12 50 8 9 52 0 2 67 16 20
61 10 13 57 6 13 55 7 12 58 9 13 59 10 14
57 5 10 50 3 4 61 8 16 60 13 14 67 10 28
65 8 29 62 5 38 63 9 33 68 10 46 66 8 38
87 36 66 59 3 32 49 0 24 58 9 39 81 35 63
67 24 59 53 11 46 44 0 31 46 0 40 43 0 32
45 0 42 54 12 49 73 13 65 73 24 67 70 17 69
62 0 53 81 28 83 93 35 87 52 0 52 42 0 28
71 10 72 93 23 84 119 51 115 209 143 209 130 56 111
77 9 62 53 0 36 96 27 73 110 42 89 71 4 37
62 0 22 92 25 54 59 4 26 66 12 25 67 10 22
69 17 21 64 10 22 67 12 16 63 8 14 61 2 11
80 27 33 75 20 26 74 19 20 72 15 24 77 24 25
75 21 15 73 19 15 61 7 1 115 59 59 102 46 44
102 45 46 107 47 51 93 48 42 96 45 40 97 45 47
104 61 44 89 38 23 98 56 38 85 36 32 72 24 15
79 32 28 73 28 21 66 16 10 76 30 25 67 10 10
99 42 34 115 54 34 111 49 20 107 37 11 93 16 0
145 68 25 221 144 92 255 206 162 235 145 105 163 75 32
122 34 5 119 39 22 106 33 9 115 53 37 184 122 116
134 86 81 68 20 9 225 178 174 255 255 255 243 200 203
0 0 0 29 0 0 40 11 0 25 1 0 39 10 0
49 15 7 76 25 22 74 20 20 79 21 18 109 28 35
115 33 40 135 46 57 172 80 90 194 103 113 200 105 116
207 113 125 224 122 137 213 116 128 229 116 131 176 77 96
188 87 104 198 95 112 207 104 121 201 98 115 209 104 122
189 92 106 150 53 67 173 68 86 175 76 92 201 92 110
201 90 111 199 86 104 191 74 96 182 73 92 185 67 84
204 85 116 222 100 121 247 135 146 193 85 86 112 17 0
161 72 41 255 175 124 255 246 188 184 99 42 182 99 45
183 99 52 181 94 62 166 80 49 181 98 74 185 93 90
142 56 49 118 22 20 106 28 23 101 12 13 104 25 16
167 81 84 115 37 49 65 0 10 163 76 119 241 146 210
205 124 189 255 178 255 255 208 255 255 217 255 255 210 255
208 139 212 172 113 182 195 131 199 189 134 206 176 119 186
197 145 204 255 202 255 255 255 255 255 236 255 161 107 180
140 70 152 172 100 191 168 95 186 162 86 183 154 63 150
145 63 152 138 59 131 147 70 142 129 48 115 132 53 116
129 53 113 129 50 106 129 52 107 129 54 101 122 45 93
124 50 86 113 38 73 113 36 79 111 39 72 108 35 70
169 106 179 151 88 161 131 69 138 150 82 161 118 60 133
175 118 187 255 217 255 255 222 255 115 56 143 76 7 93
56 5 82 113 57 126 81 25 81 52 0 40 58 12 34
62 10 33 45 6 19 59 13 23 62 15 33 56 12 20
46 3 20 42 2 8 47 5 18 45 0 11 74 36 41
59 19 25 44 3 14 34 0 0 37 0 3 60 18 18
56 23 24 54 25 20 55 11 12 48 11 4 56 15 10
48 13 9 55 12 8 55 10 6 59 5 12 66 13 16
59 8 11 59 8 11 54 3 5 61 10 9 59 11 16
63 11 16 50 13 13 51 1 3 77 25 30 65 12 28
63 9 28 63 15 35 74 13 39 72 15 50 65 3 43
61 0 36 68 13 49 62 0 30 64 6 38 75 26 51
78 23 57 59 16 43 50 0 34 45 1 42 45 0 27
42 0 24 36 0 27 47 6 35 62 20 56 81 26 62
71 27 59 65 12 56 73 12 61 89 31 73 53 0 45
72 12 70 123 53 113 31 0 23 15 0 16 170 110 161
173 106 167 103 41 99 59 1 45 74 13 53 100 41 76
99 42 73 75 19 41 53 1 12 82 18 26 80 16 27
75 15 14 77 14 15 79 15 22 74 15 16 79 16 21
69 12 17 75 24 31 74 19 25 72 18 19 77 21 27
75 22 19 73 19 21 78 24 26 67 11 11 88 40 46
83 31 41 96 49 44 100 51 51 96 43 40 97 44 39
96 40 43 95 51 34 96 44 34 97 51 27 86 39 25
73 27 8 80 29 21 72 27 12 66 14 13 77 27 24
66 13 7 97 36 28 99 42 28 111 52 24 125 57 32
88 17 0 116 43 0 170 91 36 255 214 160 255 192 144
201 111 79 115 31 0 125 39 15 120 44 32 114 58 47
152 101 89 174 131 118 87 44 38 82 39 37 255 255 249
255 218 223 0 0 0 0 0 0 63 32 19 24 0 0
22 0 0 45 9 0 61 19 11 77 21 17 74 14 14
95 20 25 108 26 31 125 45 53 150 67 75 196 104 116
205 107 119 191 94 107 210 107 122 223 121 132 215 120 127
192 82 102 198 89 106 197 96 111 198 95 112 197 94 109
210 107 124 199 94 112 160 55 73 167 64 81 176 79 95
202 91 110 200 89 110 200 87 105 188 74 95 191 68 89
181 59 87 208 79 118 208 82 114 241 130 136 202 94 93
148 56 29 215 128 97 255 195 147 255 181 127 153 79 18
200 119 64 175 93 43 155 73 25 169 78 62 188 98 83
156 69 69 117 36 28 114 32 30 123 39 32 101 15 11
111 26 19 155 72 75 123 34 47 97 6 32 141 62 98
183 93 151 136 48 118 174 87 162 194 115 204 234 162 239
255 199 255 243 181 245 242 184 252 217 155 241 240 185 255
217 158 225 180 125 189 178 136 188 255 219 255 255 246 255
241 187 255 133 59 152 174 95 194 165 87 181 152 71 168
149 57 154 138 56 135 139 51 130 139 55 131 143 66 134
141 66 123 139 60 128 141 64 122 138 62 111 136 62 104
128 51 96 127 54 87 113 34 72 120 46 78 119 43 80
110 34 71 131 70 145 180 119 193 130 71 140 165 102 175
185 123 202 161 96 177 226 159 247 255 218 255 155 90 187
53 0 86 49 0 71 131 70 142 90 41 93 36 0 31
46 0 29 51 3 30 33 0 14 57 11 36 69 21 44
68 21 42 49 9 23 42 0 20 43 0 16 45 1 17
68 30 42 67 27 36 55 15 22 28 0 0 33 0 3
67 24 26 72 43 45 81 38 40 47 10 7 53 10 12
43 5 9 45 0 0 48 0 0 48 5 2 65 10 17
68 18 22 56 4 6 50 0 1 50 0 0 55 0 9
59 12 15 68 16 22 53 16 17 54 4 7 80 28 33
62 8 27 51 1 8 54 0 20 70 11 45 80 20 46
76 19 50 59 1 30 95 32 63 69 20 51 80 30 48
89 36 57 66 24 51 44 0 24 37 0 23 36 0 18
50 5 33 34 0 16 34 0 11 42 0 19 71 21 51
78 38 67 76 24 53 61 18 48 75 24 66 32 0 14
70 13 56 106 55 90 65 12 51 89 23 63 117 56 103
56 0 40 161 96 145 182 118 167 142 77 123 37 0 15
19 0 0 75 10 45 97 35 65 80 22 44 75 10 31
76 11 27 74 11 22 71 11 17 80 18 25 84 20 26
80 18 21 77 22 28 81 20 27 73 23 28 76 20 20
75 21 27 73 22 16 77 25 22 75 21 21 71 15 13
64 12 22 87 37 30 98 45 44 98 47 52 93 46 38
86 38 35 87 38 34 81 23 25 94 48 24 97 55 43
79 35 21 64 20 4 69 29 21 70 17 11 53 8 0
68 23 11 72 27 23 98 45 32 96 36 26 122 62 44
152 77 54 86 27 0 97 25 0 172 103 62 255 176 121
255 209 154 230 143 107 141 50 18 167 84 64 171 91 68
125 57 51 134 81 63 170 118 110 200 151 148 163 118 109
225 178 179 123 89 83 0 0 0 37 7 0 33 1 0
30 1 0 16 0 0 32 1 0 65 18 14 72 25 22
82 23 26 92 22 21 89 10 18 110 23 35 146 60 66
216 124 138 210 112 125 172 75 88 205 103 113 239 133 154
214 112 130 179 73 87 181 75 87 184 86 108 196 96 106
192 92 114 210 110 122 202 102 116 149 49 63 163 65 79
184 76 90 190 89 104 200 93 111 185 76 97 182 69 87
177 62 81 186 63 87 209 88 121 199 76 110 224 113 122
199 99 97 147 42 28 242 149 108 255 226 174 208 134 77
156 70 11 235 155 104 192 108 64 127 41 11 171 90 62
208 124 115 139 56 58 88 12 6 121 43 35 135 61 50
94 14 10 102 28 23 151 64 72 107 26 33 96 2 34
127 27 68 208 120 179 135 42 106 144 56 134 177 91 163
242 164 239 255 231 255 255 216 255 255 221 255 255 222 255
255 237 255 255 216 255 239 179 237 169 125 179 213 155 221
255 248 255 255 255 255 146 87 177 178 111 193 170 88 189
157 78 175 154 72 163 164 83 171 166 83 163 169 83 157
131 51 123 145 64 132 144 63 128 142 66 130 140 62 113
133 56 108 126 50 93 133 50 101 100 34 67 112 41 77
104 32 68 101 29 66 132 64 126 139 72 126 140 69 149
131 64 137 136 68 148 144 75 169 178 108 199 255 206 255
248 170 255 99 33 132 56 0 79 110 43 132 102 38 123
61 9 79 70 14 91 80 25 90 77 29 73 65 23 53
46 0 44 45 1 33 49 6 36 59 11 37 55 21 37
58 17 28 29 0 0 50 10 18 66 26 32 68 25 34
42 11 14 28 0 5 36 2 11 55 13 29 88 48 49
83 34 35 79 33 39 81 32 38 76 30 28 72 26 24
65 22 25 61 21 20 61 7 15 63 12 18 66 18 21
67 20 23 66 17 23 66 17 18 65 12 18 65 18 16
32 0 0 63 14 21 102 45 62 116 66 74 100 54 64
80 33 48 55 19 34 54 16 27 33 0 6 53 12 24
63 20 35 65 24 45 70 29 36 57 16 27 39 0 2
16 0 0 33 0 7 39 2 23 52 11 27 46 10 23
40 0 16 44 0 16 72 18 38 103 57 70 47 0 19
75 18 37 75 18 46 66 13 35 74 15 48 60 8 37
60 1 26 34 0 0 55 0 42 103 43 85 206 147 187
189 130 169 49 0 40 25 0 6 92 31 81 104 48 87
78 14 60 87 28 70 104 46 74 95 38 59 63 9 22
62 5 21 78 24 26 58 1 5 70 15 21 70 15 24
83 16 20 71 20 21 76 18 24 77 17 26 74 22 19
74 14 16 99 51 46 70 22 21 85 32 37 108 64 54
125 75 72 106 55 54 94 45 39 96 58 42 87 47 45
85 44 28 77 35 24 75 33 24 73 35 15 80 37 23
87 40 23 84 34 21 58 6 0 65 17 1 93 35 27
111 52 37 98 42 25 107 36 22 110 45 29 52 0 0
222 150 100 255 189 133 255 215 160 174 99 59 99 12 0
152 76 44 183 114 82 128 59 39 133 75 59 140 93 75
204 155 142 158 111 102 43 0 0 21 0 0 23 0 0
8 0 0 0 0 0 38 9 0 44 4 2 39 0 6
67 18 16 59 0 6 68 5 12 114 35 41 148 68 76
110 23 23 130 31 46 182 85 94 221 124 136 214 112 130
214 109 131 248 148 166 206 96 118 223 116 135 209 100 129
185 76 93 188 79 108 202 93 112 198 89 110 208 99 122
144 35 58 186 78 104 206 103 114 199 98 113 202 93 112
205 100 118 185 84 98 156 52 72 182 69 97 217 102 129
205 99 121 163 56 65 255 184 175 255 253 227 221 124 79
174 81 24 218 143 85 160 81 18 147 58 27 167 90 69
167 93 86 176 101 98 141 69 78 83 6 9 114 43 47
84 7 8 113 38 41 138 46 56 110 25 35 147 50 69
187 78 109 137 38 77 127 14 65 185 72 125 216 115 166
230 125 187 246 159 214 255 192 252 255 214 255 255 235 255
255 184 255 255 206 255 248 195 254 200 159 212 186 134 200
214 161 221 255 201 255 255 255 255 255 188 255 255 195 255
165 104 181 139 78 156 182 106 193 131 61 153 92 8 112
99 17 113 136 49 138 134 38 122 121 36 119 137 52 135
149 72 135 157 74 143 125 53 114 114 39 85 118 49 95
114 40 80 113 44 76 113 43 80 143 77 135 148 83 139
141 77 139 133 69 137 150 77 162 147 75 165 184 111 209
224 147 254 255 206 255 255 199 255 104 38 137 9 0 35
104 36 124 104 43 120 50 0 73 112 59 134 43 0 57
57 16 62 58 11 55 60 15 54 64 20 50 55 12 34
47 2 18 29 0 7 47 10 15 53 15 19 60 20 31
54 11 17 30 0 7 28 0 0 42 3 25 45 8 19
74 21 30 65 11 23 65 18 19 64 16 20 65 17 16
65 17 16 66 18 23 68 20 22 56 13 16 57 17 16
63 8 24 59 7 11 64 12 14 63 10 17 70 23 14
67 19 23 83 30 33 89 37 44 90 37 49 83 36 39
60 23 28 50 10 15 35 2 7 31 0 6 46 5 19
53 12 26 60 18 35 66 27 34 70 26 30 48 16 18
43 8 12 32 0 0 36 0 5 39 5 16 49 5 16
48 9 16 46 0 20 49 8 24 65 27 40 89 42 56
63 13 35 63 23 39 74 15 37 71 19 37 76 18 40
71 17 37 75 17 33 68 9 31 62 1 32 36 0 17
117 54 101 221 160 202 208 148 193 128 63 121 56 0 47
1 0 0 66 0 51 51 0 35 76 14 55 98 37 68
87 27 52 89 31 46 83 27 37 63 8 16 73 10 15
74 13 21 70 11 13 82 17 23 75 22 24 80 22 28
83 28 26 73 28 25 87 35 34 76 25 27 79 35 25
107 56 53 105 66 59 97 55 50 89 44 38 88 48 44
97 51 41 79 44 37 73 35 21 66 30 20 77 33 17
71 33 17 70 28 16 74 30 17 67 23 2 77 22 11
84 38 22 112 51 41 106 50 38 104 46 29 107 51 42
88 29 9 187 111 60 250 178 112 255 221 173 211 138 95
126 55 6 119 44 13 160 78 54 152 88 63 149 78 64
163 103 84 189 134 123 114 74 61 0 0 0 0 0 0
18 0 0 79 38 33 42 17 6 0 0 0 0 0 0
56 11 9 81 28 39 66 12 19 85 21 15 71 0 4
144 63 60 136 44 53 158 69 68 190 88 102 198 101 111
218 114 126 223 117 144 222 123 143 227 118 142 226 120 143
215 109 130 203 97 120 210 104 125 220 114 138 211 105 131
210 104 120 147 41 59 187 81 101 201 93 119 200 97 108
198 96 109 200 98 111 187 86 96 163 62 81 167 58 85
204 96 119 209 103 122 179 74 84 238 133 132 255 186 171
220 123 83 199 113 57 213 118 66 166 83 41 138 60 30
145 67 57 156 79 78 154 86 87 136 62 68 80 18 21
109 31 30 116 37 31 115 30 44 112 35 40 127 24 46
153 63 78 188 83 112 186 72 106 165 58 92 185 73 120
209 99 152 220 113 166 206 109 164 168 77 140 217 118 179
255 194 255 255 223 255 255 214 255 235 181 246 186 131 186
174 130 198 223 165 234 244 190 255 248 179 255 255 214 255
255 245 255 255 232 255 255 211 255 247 182 255 253 178 255
255 198 255 255 182 255 187 100 187 183 87 175 130 45 133
103 18 98 103 22 102 105 35 98 118 41 103 120 43 103
100 36 78 103 38 78 103 35 77 102 34 70 129 70 127
137 82 141 139 70 134 132 67 140 136 64 147 143 72 167
164 92 192 188 114 220 255 201 255 255 241 255 246 185 255
112 41 137 61 0 85 69 9 92 66 5 90 55 1 74
75 17 69 66 17 55 64 17 67 68 19 62 65 16 54
56 13 38 45 2 30 28 0 1 54 12 21 57 12 23
55 19 20 50 10 18 36 0 1 36 0 1 28 1 4
43 3 10 55 13 21 55 10 14 52 7 10 58 17 17
57 15 9 63 21 15 63 21 23 55 15 13 89 40 45
79 32 35 69 26 26 69 25 28 69 26 26 83 38 42
84 43 38 103 50 57 108 53 62 103 43 47 79 35 39
64 16 25 40 2 12 33 0 4 35 0 0 20 0 0
40 1 14 42 4 16 52 15 29 59 24 27 59 21 30
47 16 23 44 11 13 32 2 6 37 0 12 39 4 10
48 4 21 48 8 22 49 7 18 50 11 21 65 22 35
80 29 42 79 26 47 72 27 43 78 20 39 68 18 32
70 14 40 69 18 40 76 15 38 73 17 34 67 9 48
72 10 44 70 11 43 94 31 80 148 87 127 194 135 177
158 93 149 87 29 71 131 64 112 83 21 64 72 11 45
84 24 49 79 20 40 76 18 33 77 21 20 75 20 24
64 3 9 68 9 17 71 12 14 77 15 20 76 23 25
85 27 33 85 30 28 89 41 39 76 24 23 74 23 25
81 35 28 98 47 44 103 61 55 97 52 48 95 48 42
94 53 47 94 48 38 87 50 41 74 34 20 69 31 21
73 29 13 70 30 15 70 26 14 71 25 11 75 29 21
80 23 8 79 31 14 105 41 30 111 51 37 110 45 26
114 53 39 107 40 12 109 45 0 205 135 79 255 231 175
255 209 171 188 114 74 120 41 9 131 54 17 161 87 66
175 107 86 163 101 84 132 73 68 62 14 0 10 0 0
49 0 0 168 131 126 255 255 255 195 177 165 38 13 0
0 0 0 31 0 0 64 22 24 71 16 15 73 11 14
45 0 0 129 43 47 147 58 62 172 78 93 172 83 87
185 82 99 203 108 125 225 123 147 225 118 143 242 132 154
227 121 145 209 103 127 200 94 118 211 105 130 218 112 132
208 102 123 198 92 116 159 53 79 190 84 100 202 96 114
209 102 125 207 100 121 208 101 124 194 87 108 177 74 89
162 49 77 190 79 101 208 102 127 194 84 99 222 120 118
234 141 119 202 103 72 213 123 78 196 117 71 146 70 16
125 40 19 136 59 42 141 64 64 131 60 54 118 42 47
81 15 17 103 21 21 116 45 40 121 43 50 98 24 25
126 33 50 161 75 86 198 89 123 201 103 138 216 105 150
188 78 125 166 65 117 197 90 148 198 100 155 175 74 143
201 110 170 255 173 239 255 243 255 255 225 255 250 186 252
182 131 187 188 135 204 232 179 244 234 180 244 187 124 189
205 140 212 242 186 255 255 227 255 255 250 255 245 180 255
228 156 245 255 201 255 255 171 255 255 226 255 255 182 255
208 121 206 153 69 146 135 48 131 119 40 111 122 46 99
127 62 111 114 43 83 119 52 91 111 48 84 115 49 83
124 62 114 134 77 128 133 63 127 123 57 120 138 67 152
142 72 156 158 89 175 181 110 214 190 116 219 188 112 217
255 201 255 251 186 255 100 31 122 62 0 89 107 37 127
57 0 78 93 46 96 75 31 86 71 10 62 54 11 58
50 5 39 54 6 36 49 1 28 43 1 20 49 9 24
52 7 27 59 15 29 50 15 19 36 0 10 33 0 0
42 0 7 39 4 15 61 17 22 55 8 11 58 12 13
55 13 10 58 12 14 57 11 13 55 9 9 49 4 2
82 34 40 70 24 28 69 20 23 67 22 27 73 22 25
76 36 36 88 38 38 93 51 46 84 26 32 70 29 30
60 12 22 46 4 4 34 0 0 27 0 3 38 0 6
44 10 16 36 1 6 44 11 15 47 5 14 50 16 23
49 13 22 48 10 17 41 3 12 36 0 3 34 5 5
40 0 13 55 8 28 50 7 24 48 3 20 47 7 22
64 18 36 59 21 34 86 40 61 75 25 48 71 22 41
73 18 41 70 11 34 69 15 34 75 11 41 75 15 37
73 12 42 88 29 60 87 30 60 76 16 50 45 0 31
32 0 13 133 73 119 255 255 255 169 107 147 121 58 93
78 17 53 82 22 47 81 22 42 69 11 26 74 18 17
66 11 15 74 13 19 68 9 17 73 14 16 82 20 25
78 25 27 83 25 31 86 31 29 87 39 37 68 16 15
73 22 24 76 30 23 94 43 40 96 54 48 99 54 50
97 50 44 89 48 42 98 52 42 82 45 36 76 36 22
70 32 22 74 30 14 71 31 16 72 28 16 64 18 4
86 38 26 69 23 16 83 24 17 90 32 14 103 49 29
109 57 32 114 51 35 109 40 21 80 16 0 150 80 26
255 181 132 255 240 195 255 192 151 168 90 55 122 46 18
144 68 35 112 40 15 99 31 13 61 1 0 77 16 5
144 100 95 194 152 149 218 175 170 220 190 186 255 227 228
177 155 141 40 10 1 0 0 0 51 5 0 78 31 24
70 6 5 65 0 0 92 19 17 137 59 58 175 84 95
159 66 74 160 58 79 203 105 125 235 131 158 228 131 152
237 135 165 223 113 132 206 98 119 205 97 118 214 106 127
220 112 134 205 97 120 193 85 105 178 70 91 193 85 108
203 95 120 210 101 116 219 111 138 214 105 120 203 95 120
188 84 107 168 60 86 190 77 97 200 94 113 212 105 118
216 111 118 208 113 105 190 95 63 215 123 86 181 94 60
141 58 23 120 35 19 139 59 48 143 62 62 113 43 43
109 33 36 81 13 16 101 29 24 122 45 42 114 31 40
104 22 26 123 42 59 134 45 62 154 63 93 199 97 125
210 109 153 203 97 137 176 65 115 165 64 117 192 86 145
184 91 142 205 99 166 200 111 166 255 214 255 255 218 255
255 213 255 224 171 226 228 165 237 255 205 255 237 181 246
180 130 191 148 88 156 133 70 139 164 108 176 255 200 255
228 162 247 130 56 142 143 59 156 176 100 194 134 42 139
180 91 183 249 162 250 255 220 255 255 235 255 255 207 255
206 133 203 179 112 163 111 40 86 124 62 105 120 49 87
114 51 83 99 45 88 118 61 111 114 54 102 106 52 106
128 55 137 133 69 143 148 73 171 176 107 191 123 52 156
133 57 168 144 72 167 174 111 214 171 107 194 113 53 137
81 16 110 107 47 124 95 39 108 83 33 91 77 21 77
61 8 61 66 10 62 51 9 51 53 10 44 57 12 34
52 1 31 55 18 28 55 14 32 55 8 29 52 8 20
44 9 13 50 15 23 60 15 22 67 26 34 69 23 28
57 13 15 61 12 12 42 6 3 40 0 1 37 0 0
36 0 0 31 0 0 27 0 0 47 0 0 34 0 1
53 5 4 38 2 5 49 2 0 49 4 0 49 8 9
49 3 1 39 0 0 35 0 3 32 0 0 45 7 14
42 16 13 48 17 25 39 8 14 35 7 12 51 9 16
35 7 12 38 9 16 31 0 0 31 0 0 22 0 1
38 0 5 38 5 16 47 10 19 44 11 19 44 6 13
48 4 15 57 9 22 53 12 20 89 39 59 74 27 42
79 22 39 66 19 34 65 12 28 66 17 31 67 13 36
66 17 34 87 26 53 76 20 41 61 0 27 90 33 65
114 53 90 73 15 52 72 9 55 140 79 120 164 101 150
99 35 75 77 16 54 96 36 62 99 40 62 87 29 42
72 16 24 55 0 7 85 24 29 83 24 32 80 21 23
84 22 27 75 22 24 81 23 29 83 28 26 79 31 29
71 19 18 73 22 24 77 31 24 84 33 30 87 45 39
99 54 50 97 50 44 91 50 44 93 47 37 84 47 38
75 35 21 67 29 19 75 31 15 70 30 15 69 25 13
70 22 8 83 33 22 79 27 20 76 23 6 81 34 20
104 39 33 113 49 32 105 52 39 95 36 10 98 37 0
101 40 0 170 106 65 255 205 164 255 240 198 244 171 129
152 72 31 117 32 3 114 36 11 96 11 0 55 0 0
84 29 23 175 114 114 196 151 140 132 94 101 58 27 24
159 135 124 171 143 126 100 68 65 9 0 0 28 0 0
70 21 11 72 23 21 75 7 3 65 0 0 118 42 42
151 75 76 150 56 69 146 55 77 194 93 110 238 130 166
241 138 168 249 144 165 225 123 150 207 105 132 207 105 132
220 118 145 217 115 142 205 103 132 198 96 116 194 92 114
188 86 110 188 85 109 207 110 126 216 112 138 216 119 135
201 100 125 199 91 110 199 87 111 193 85 113 192 87 107
217 105 126 221 113 118 209 106 105 206 110 96 191 104 78
178 91 69 137 55 23 132 45 40 156 79 71 145 66 63
114 46 51 103 27 28 82 14 17 108 32 29 105 35 28
94 22 28 115 35 39 129 54 55 106 17 32 108 14 39
153 58 82 180 82 123 209 99 140 201 96 150 177 67 123
160 51 106 111 4 62 113 3 65 129 27 87 240 152 221
255 177 246 255 228 255 255 207 255 255 197 255 255 216 255
245 189 255 206 150 212 210 157 226 137 74 145 132 68 144
235 177 250 255 227 255 195 117 204 107 36 122 170 82 177
158 80 172 163 85 179 161 75 177 167 90 175 168 99 177
165 94 172 159 93 148 176 103 166 101 31 77 107 53 89
103 32 68 83 27 57 91 33 69 106 50 85 102 47 93
98 34 87 116 63 118 134 61 143 134 64 141 146 75 161
132 62 155 148 74 167 125 60 158 115 43 132 136 60 159
94 31 119 51 0 77 44 0 63 95 35 107 81 30 96
90 25 90 83 30 98 82 26 84 71 21 63 67 9 61
45 2 37 53 9 36 60 13 39 62 11 42 53 16 25
52 11 29 54 9 24 61 14 37 62 24 35 72 28 39
70 19 27 68 18 28 59 12 12 50 8 17 42 2 0
41 0 1 36 0 0 25 0 0 33 0 0 36 0 0
38 0 0 36 0 0 40 0 0 33 0 0 24 0 0
46 3 7 38 0 0 35 0 0 31 0 0 40 4 6
35 2 1 38 10 15 30 0 1 43 13 15 38 10 9
34 0 12 32 5 2 32 0 0 28 0 0 26 0 0
17 0 0 32 0 10 43 3 18 50 7 23 48 9 24
46 1 15 41 5 16 49 9 22 54 8 25 84 34 47
67 25 34 66 22 43 69 14 26 70 13 39 65 11 24
70 11 34 74 20 42 14 0 0 93 33 58 112 55 78
81 20 50 72 14 51 73 11 45 70 10 45 58 0 44
155 89 128 83 24 58 70 7 44 83 22 50 75 16 29
76 18 33 83 28 31 69 14 18 92 32 35 87 28 36
83 24 26 87 25 30 79 26 28 79 21 27 74 19 17
71 23 21 69 17 16 76 25 27 74 28 21 80 29 26
77 35 29 96 51 47 96 49 43 85 44 38 89 43 33
77 40 31 72 32 18 66 28 18 77 31 13 73 31 14
77 29 16 65 25 10 79 36 18 81 35 22 71 23 18
74 25 8 96 36 22 108 51 26 107 49 35 88 36 10
113 50 12 86 23 0 102 35 0 197 134 90 255 219 173
255 211 169 203 115 80 130 52 11 128 41 12 118 37 18
99 20 2 116 45 32 136 81 63 154 110 113 149 102 102
127 85 92 127 108 88 120 93 83 117 84 75 65 24 10
0 0 0 27 0 0 83 28 14 75 17 12 58 0 0
91 21 20 131 45 55 141 48 61 137 45 64 169 72 98
220 112 141 255 156 190 227 122 151 218 114 135 202 98 121
212 108 131 211 107 130 208 104 127 199 95 118 197 93 118
216 112 139 193 89 106 188 84 113 201 96 115 220 116 145
221 116 135 209 105 134 199 99 119 220 116 139 211 99 122
196 83 112 208 101 127 205 107 121 219 124 129 225 122 117
161 69 60 165 74 67 141 54 44 143 56 51 156 77 67
142 63 75 117 40 41 103 29 29 72 6 11 113 34 32
92 17 12 100 22 29 114 41 46 125 47 53 93 11 29
94 8 26 106 14 41 200 104 130 184 79 113 176 68 113
202 97 150 227 107 159 144 39 88 120 3 57 169 57 112
161 65 139 208 114 194 255 179 244 255 208 255 255 206 255
255 208 255 246 192 255 240 188 255 238 177 251 148 97 161
125 68 133 170 107 177 255 226 255 255 223 255 149 77 156
167 84 177 132 47 148 133 46 144 110 41 124 100 20 121
103 29 108 112 36 115 111 42 111 119 62 114 119 59 105
113 51 91 99 42 71 81 19 52 100 46 70 127 74 99
113 63 95 112 55 97 134 70 120 138 84 137 138 72 141
135 73 143 148 77 158 155 84 173 181 107 198 155 91 177
119 53 140 148 78 168 135 64 145 40 0 67 79 15 91
85 25 106 89 24 106 88 27 96 94 31 103 82 32 84
73 16 75 69 18 67 60 5 42 56 17 50 62 17 43
62 16 45 55 5 30 52 11 31 57 18 30 60 19 33
65 17 40 58 19 30 58 18 35 55 13 28 54 9 21
50 9 13 49 6 11 50 7 17 61 18 20 55 9 19
49 10 12 49 13 6 46 9 3 39 1 1 41 2 0
40 1 0 48 8 5 40 0 0 30 0 0 34 0 0
28 1 1 28 4 0 27 0 0 20 0 0 41 13 8
28 4 0 31 0 0 21 0 0 26 0 0 21 0 0
29 0 0 26 0 0 36 0 11 34 5 11 48 14 17
46 16 19 40 7 12 46 2 11 50 4 14 48 8 17
65 27 33 64 14 23 69 17 37 63 20 26 67 13 34
64 21 23 63 9 31 64 11 19 108 45 57 52 0 11
34 0 0 61 2 23 72 16 35 45 0 20 64 5 42
106 49 81 146 83 122 95 32 68 81 22 43 74 17 38
55 0 13 66 9 20 88 28 42 89 36 45 93 28 39
88 30 36 87 28 30 88 26 31 76 23 25 79 21 27
76 21 19 73 25 23 74 22 21 81 30 32 74 28 21
69 18 15 76 34 28 91 46 42 96 49 43 80 39 33
83 37 27 77 40 31 68 28 14 66 26 14 68 30 20
73 37 27 76 36 24 80 35 27 75 22 19 80 32 15
85 33 24 80 24 12 80 31 20 100 38 22 106 52 35
95 37 18 100 49 4 91 37 0 87 25 0 117 54 14
200 133 92 255 198 160 246 165 126 229 140 100 106 16 0
114 31 4 117 40 13 128 55 43 120 62 57 150 96 88
153 114 112 138 102 101 138 109 99 110 87 73 100 74 58
58 14 1 3 0 0 30 0 0 82 33 22 64 7 3
73 11 9 76 10 1 102 21 31 127 51 56 146 43 66
145 44 71 193 87 115 255 152 192 211 108 132 202 98 127
201 97 126 207 103 132 202 98 127 190 86 115 190 86 115
194 90 119 230 126 157 196 92 113 176 72 105 194 90 111
217 113 146 220 116 137 215 111 144 208 106 131 228 121 139
226 123 143 203 100 121 207 96 119 195 92 117 231 133 146
245 140 143 142 50 46 158 68 65 144 57 53 147 59 68
137 58 64 125 38 50 107 34 41 105 35 34 89 10 6
90 25 21 86 22 13 107 30 41 117 39 46 116 32 44
121 46 52 140 48 66 101 8 33 209 101 133 177 76 112
166 50 95 202 91 139 255 156 209 231 123 174 177 62 110
209 96 154 155 41 116 159 58 133 193 110 182 255 173 237
255 209 255 255 199 255 247 194 255 255 228 255 236 184 249
138 81 153 133 74 142 102 39 111 214 143 230 255 244 255
170 93 176 124 47 137 140 71 168 150 71 177 153 79 179
159 83 171 151 83 173 149 83 166 137 79 150 136 75 135
132 71 125 125 64 110 104 44 85 89 33 61 124 76 97
145 102 115 146 87 123 119 69 93 143 88 127 164 105 156
153 86 148 141 78 147 162 92 167 160 90 171 160 94 178
153 86 166 205 137 215 255 220 255 252 178 255 165 95 180
2 0 27 77 19 96 86 16 98 81 23 103 90 25 99
95 38 106 90 26 93 91 40 93 35 0 34 62 9 51
70 17 61 63 19 54 53 11 39 51 1 35 58 10 38
59 22 43 44 0 28 48 4 26 45 0 27 44 4 22
46 2 19 55 8 31 59 17 32 59 15 28 71 24 38
65 21 26 53 15 23 34 0 0 22 0 0 23 0 0
37 0 0 41 0 0 55 13 19 34 0 0 29 0 0
22 0 0 30 0 0 31 3 0 21 0 0 12 0 0
30 4 1 29 0 0 23 0 0 19 0 0 20 0 0
18 0 0 28 0 0 27 9 0 28 0 6 36 5 9
49 8 20 48 12 17 38 0 10 34 2 7 49 9 21
53 12 18 68 21 36 64 27 33 66 20 32 73 27 35
78 23 37 68 17 27 72 17 32 63 14 25 39 0 2
77 21 30 96 37 50 70 14 27 54 0 23 80 22 48
92 34 61 48 0 15 120 58 84 101 41 69 114 52 87
103 45 62 75 14 36 84 27 41 98 39 59 82 30 32
86 22 31 82 24 30 80 21 23 81 19 24 77 24 26
81 23 29 82 27 25 76 28 26 74 22 21 81 30 32
75 29 22 68 17 14 71 29 23 88 43 39 96 49 43
83 42 36 93 47 37 74 37 28 65 25 9 64 24 10
68 28 16 73 35 23 85 39 27 83 45 31 62 21 7
89 38 32 84 37 32 69 24 3 79 23 11 97 43 32
103 56 30 104 49 28 81 26 0 110 57 12 95 35 1
82 16 0 169 103 56 255 223 179 255 223 176 243 166 129
213 125 80 131 42 18 91 15 0 103 28 9 92 32 18
131 74 62 145 97 94 99 58 54 43 6 0 103 78 65
65 27 19 0 0 0 44 5 0 102 64 54 86 40 38
44 0 0 81 31 20 61 0 0 85 16 18 149 64 71
147 62 82 125 32 48 190 77 114 255 175 199 219 114 141
210 105 132 214 109 136 220 115 142 210 105 132 191 86 113
199 94 119 223 118 143 244 139 164 192 87 114 174 69 94
194 89 116 213 108 133 214 109 136 218 113 138 215 113 143
217 103 132 245 134 164 214 100 129 192 93 120 184 76 102
228 127 145 255 159 173 121 28 30 155 59 70 155 68 71
151 62 73 130 48 59 103 19 29 106 35 38 111 31 35
78 3 0 81 13 10 96 28 23 116 39 37 102 30 33
108 37 36 195 113 130 204 116 131 89 0 18 169 68 102
219 110 139 202 94 131 184 71 109 233 121 164 224 112 151
170 52 98 179 63 108 198 88 157 137 36 104 161 60 125
252 164 238 255 213 255 255 201 255 255 209 255 255 253 255
255 250 255 117 65 123 159 99 170 99 35 110 177 110 182
255 251 255 164 89 173 143 71 157 121 43 141 136 67 175
133 63 160 130 65 152 138 62 160 134 68 147 129 63 143
115 61 117 160 101 159 135 81 115 111 55 89 92 33 63
120 78 82 117 72 82 137 92 106 160 104 134 153 96 138
151 92 135 152 84 140 143 81 135 144 76 153 124 58 131
133 58 142 183 106 191 255 204 255 255 255 255 255 223 255
255 247 255 100 31 121 64 2 95 62 0 76 78 16 97
50 0 65 42 0 65 82 17 93 88 31 102 119 54 124
67 17 69 38 0 42 32 0 30 59 0 53 62 21 54
51 4 39 24 0 16 83 29 67 72 20 56 75 23 62
83 27 64 76 33 65 73 29 56 60 12 37 44 0 22
77 40 54 46 3 24 30 0 0 58 15 22 80 41 47
79 38 43 56 13 12 35 0 0 41 5 18 44 6 11
35 7 14 32 0 5 15 0 0 12 0 0 25 0 0
37 10 12 19 0 0 27 0 0 24 0 0 22 0 0
28 0 0 25 2 0 23 3 0 26 0 0 44 9 14
38 12 8 49 18 28 47 21 16 49 14 25 44 11 6
47 0 16 42 8 4 37 0 10 40 0 0 57 4 22
54 14 14 63 17 32 57 16 18 58 8 24 57 8 13
70 19 26 64 5 15 59 4 19 60 6 15 69 11 23
65 8 26 68 11 22 60 5 25 94 33 53 87 28 49
97 38 51 98 37 60 104 48 58 93 35 52 94 36 51
102 45 62 87 24 30 97 39 45 98 39 41 100 38 43
86 33 35 84 26 32 71 16 14 54 6 4 71 19 18
73 22 24 78 32 25 76 25 22 76 34 28 95 50 46
87 40 34 62 23 16 65 19 9 68 31 20 76 36 28
81 41 35 75 35 21 71 31 19 64 28 16 71 26 11
68 26 24 68 28 11 76 25 17 83 34 25 83 37 24
89 36 15 84 33 15 83 33 15 102 44 18 93 44 7
104 46 4 97 32 0 72 7 0 98 26 0 222 148 104
255 255 255 217 134 96 220 142 100 145 61 29 87 16 0
108 38 18 146 82 74 138 75 73 115 69 57 100 63 57
73 47 29 39 7 0 66 32 21 98 70 61 82 46 38
58 17 15 81 36 30 64 12 10 73 21 14 93 17 21
99 23 31 127 36 50 151 55 74 180 76 104 175 67 100
255 154 181 228 126 153 216 114 141 213 111 138 221 119 146
219 117 142 214 112 145 199 97 128 199 97 128 215 113 144
177 75 106 165 63 94 227 125 156 237 135 166 206 104 137
224 123 148 249 147 167 201 100 120 202 102 129 196 93 119
193 86 118 244 138 165 224 126 148 141 39 60 172 77 100
134 46 55 123 31 45 130 51 61 126 42 47 93 23 24
98 20 19 104 29 34 87 19 14 87 17 12 117 49 50
144 67 75 90 14 21 34 0 0 114 22 38 255 197 213
112 6 33 183 78 102 210 94 130 170 65 99 142 30 69
150 38 82 172 67 98 172 63 99 189 69 135 219 97 176
204 102 166 212 124 184 255 215 255 255 251 255 255 201 255
223 158 244 255 245 255 255 220 255 245 186 255 177 113 188
189 122 194 255 207 255 235 159 241 103 25 112 112 46 138
115 45 147 110 35 141 118 52 144 101 36 135 79 21 95
90 35 116 142 83 147 62 9 58 79 26 71 74 34 63
68 28 50 114 66 71 118 72 75 124 81 103 127 81 97
141 88 121 143 87 122 141 83 137 142 81 132 146 74 148
124 65 132 158 84 159 228 159 245 255 193 255 237 162 244
223 152 240 255 192 255 255 201 255 169 100 194 108 36 126
111 44 136 95 23 111 78 16 97 103 35 120 108 49 121
102 35 114 86 28 97 61 0 60 41 0 42 39 0 34
33 0 32 33 0 27 23 0 19 25 0 24 35 0 30
55 5 53 70 17 63 77 22 63 68 25 65 66 24 58
71 22 53 85 37 65 54 13 29 46 6 25 56 14 29
73 33 43 65 23 31 44 0 13 30 0 0 40 6 10
39 8 22 37 9 11 22 0 6 18 0 0 10 0 0
20 0 4 27 12 4 27 0 1 26 2 0 27 0 0
24 0 0 22 0 0 25 1 0 27 0 0 22 4 0
37 9 5 41 9 16 48 12 17 48 17 22 48 7 13
36 2 9 42 12 13 53 10 18 45 0 10 49 11 10
50 9 21 68 20 21 65 14 28 64 18 20 64 9 24
60 8 11 68 16 32 67 7 14 64 8 21 68 11 25
65 9 21 73 17 25 73 17 35 70 16 28 87 27 45
87 29 46 90 33 44 96 39 51 89 31 46 91 33 46
92 34 50 96 40 54 89 26 32 85 27 33 87 28 30
87 25 30 77 24 26 75 17 23 75 20 18 68 20 18
74 22 21 82 31 33 75 29 22 76 25 22 76 34 28
89 44 40 85 40 33 73 24 22 68 24 13 65 31 19
70 30 20 73 33 25 75 33 20 73 31 20 72 30 17
65 28 12 76 27 20 73 32 25 70 30 26 76 33 13
84 34 19 86 36 25 80 33 21 85 30 11 95 50 19
96 46 13 104 46 19 101 47 5 103 38 0 126 66 18
193 127 76 244 167 126 255 227 182 240 166 122 167 90 64
123 41 18 107 44 21 138 73 55 129 62 55 104 47 41
71 32 15 51 17 4 18 0 0 31 2 0 94 60 52
94 65 54 68 30 19 36 3 0 76 36 28 74 17 15
72 14 10 104 25 38 120 39 42 142 57 67 184 79 102
184 84 110 225 116 149 214 111 138 216 113 140 218 115 142
206 103 130 203 100 125 204 101 134 208 105 136 207 104 133
218 115 144 184 81 110 178 75 104 217 114 143 222 119 148
207 104 133 220 118 151 227 121 146 211 107 131 220 111 148
205 95 129 192 89 119 221 126 161 230 124 148 202 114 129
94 0 19 119 28 47 107 18 40 111 27 44 115 33 43
87 12 19 77 0 7 103 28 29 77 9 4 98 27 22
118 47 51 128 55 50 80 8 10 55 0 0 102 16 27
183 89 103 134 37 58 204 98 124 204 105 133 216 106 131
235 122 154 143 37 67 108 1 31 211 105 145 153 30 87
157 49 108 162 52 116 160 59 129 192 106 167 255 181 252
255 206 255 236 179 239 255 205 255 208 150 222 237 177 242
219 157 227 205 133 220 255 234 255 255 234 255 217 142 228
109 35 138 118 58 157 92 26 125 67 4 101 67 1 90
54 0 81 58 0 70 55 3 73 67 23 74 69 19 61
60 16 46 52 9 32 104 60 74 102 61 78 120 70 83
123 72 100 132 72 105 136 82 119 143 86 137 141 76 133
143 81 140 181 105 183 213 137 215 201 129 200 161 84 176
150 76 157 156 81 161 181 112 195 168 89 189 66 3 90
42 0 54 66 0 87 73 2 93 61 0 85 71 0 86
53 0 72 96 35 111 83 24 104 77 17 96 64 11 81
59 7 69 68 9 76 78 18 80 90 28 96 70 11 74
83 24 88 88 27 96 83 31 89 74 24 83 69 11 65
70 12 64 70 30 68 55 8 45 61 12 50 64 18 43
73 23 48 61 17 39 38 0 9 30 0 4 27 0 1
51 10 30 38 6 24 36 4 21 29 0 12 23 0 2
14 0 0 22 0 0 27 11 13 20 2 0 20 5 3
25 0 0 20 0 0 24 0 0 27 0 0 17 5 0
25 2 0 42 8 10 36 12 7 43 13 11 37 11 7
40 11 10 45 10 7 44 4 6 43 13 13 41 2 7
51 12 5 56 11 20 53 17 11 64 18 27 59 17 14
58 13 24 58 13 9 64 9 23 67 12 11 69 10 26
63 10 9 69 15 17 70 16 20 73 19 19 78 26 23
69 11 20 74 19 21 82 22 40 83 24 37 86 27 38
83 25 43 90 32 50 90 33 50 88 25 31 87 29 35
83 24 26 82 20 25 75 22 24 82 24 30 86 31 29
84 36 34 80 28 27 83 32 34 82 36 29 80 29 26
76 34 28 85 40 36 82 37 30 68 21 18 68 27 15
75 26 19 69 32 21 70 28 21 68 34 17 68 32 16
67 31 23 61 27 14 74 38 35 78 30 19 77 34 26
84 29 25 74 30 18 77 30 11 75 31 10 66 23 6
102 45 23 100 39 13 98 50 17 101 43 10 84 29 0
98 36 0 132 70 28 127 59 11 255 249 202 255 208 166
255 188 145 198 119 86 133 60 32 96 30 10 80 6 0
64 4 0 50 6 0 26 0 0 15 0 0 48 11 0
98 69 60 102 71 58 62 33 26 29 0 0 78 39 35
65 20 16 60 8 8 77 13 15 103 20 28 118 35 54
162 66 75 185 85 104 168 69 92 197 91 121 231 128 155
232 129 156 207 104 131 194 91 118 197 94 119 213 110 133
209 106 137 223 120 149 197 94 123 191 88 117 215 112 141
209 106 135 197 94 123 224 121 150 197 95 126 220 118 149
227 126 152 210 109 140 205 99 132 204 107 133 219 113 149
255 186 212 58 0 0 95 5 22 104 15 32 111 28 42
106 24 32 92 18 23 105 28 33 83 6 7 110 41 36
88 22 17 85 13 17 96 20 18 117 41 46 139 60 67
123 44 48 127 32 44 62 0 0 149 50 73 170 58 85
186 87 106 255 151 179 228 121 143 141 35 58 138 33 60
140 21 73 144 25 83 150 45 105 135 35 87 135 42 109
217 134 196 255 210 255 255 195 255 236 177 239 166 107 176
194 134 210 212 154 226 168 96 173 234 168 255 255 225 255
204 136 231 70 0 102 121 57 147 101 30 135 78 9 104
64 10 103 81 17 108 67 19 97 62 16 75 55 15 66
58 16 53 50 15 40 49 9 33 106 64 74 109 71 83
106 67 81 119 71 88 124 82 109 146 85 124 147 87 130
141 83 133 202 126 189 225 157 224 228 157 228 171 99 176
129 60 133 135 62 144 159 87 172 164 92 173 188 111 197
137 66 155 119 50 134 122 44 142 100 21 111 83 14 105
91 19 109 78 3 99 113 45 138 103 38 123 107 41 123
98 36 113 98 29 115 84 34 98 89 33 107 90 33 98
99 45 121 86 32 108 73 19 83 61 5 77 53 0 69
44 0 54 47 0 50 63 7 63 22 0 16 28 0 21
52 3 45 52 5 39 30 0 16 12 0 5 26 0 7
55 1 40 39 8 33 37 11 33 37 0 23 23 0 15
15 0 11 24 0 9 21 1 13 24 8 1 23 0 4
22 6 0 26 0 0 21 0 0 24 0 0 27 0 0
17 5 0 27 2 0 35 11 13 36 6 4 39 5 9
40 10 12 41 5 10 35 6 10 41 9 12 40 5 1
44 2 2 42 4 7 49 12 10 55 12 16 63 11 17
63 20 18 57 11 15 62 11 13 65 9 19 66 9 13
65 11 17 71 16 21 69 14 22 73 17 16 72 17 25
77 24 29 61 1 7 69 12 19 76 20 21 78 22 32
81 26 31 79 19 35 79 19 35 83 31 37 86 21 32
84 26 32 90 31 33 98 36 41 93 40 42 103 45 51
102 47 45 109 61 59 79 27 26 88 37 39 83 37 30
85 34 31 75 33 27 80 35 31 74 29 22 68 21 18
75 34 20 78 32 22 75 38 27 79 37 30 74 38 20
71 33 16 72 34 25 68 32 18 79 35 31 73 39 33
77 30 23 75 31 20 70 30 17 76 27 13 75 26 15
56 13 0 97 43 22 88 35 8 97 48 16 97 45 11
90 32 0 80 28 0 101 40 0 89 26 0 183 114 68
235 163 126 255 239 196 255 210 164 191 109 79 101 33 0
62 0 0 49 0 0 37 0 0 39 0 0 44 1 0
61 23 5 88 48 38 72 41 36 53 28 27 59 27 20
63 25 22 57 13 12 60 6 12 70 14 9 85 9 15
108 20 25 144 59 71 190 93 111 129 30 56 195 84 118
251 145 175 255 153 183 224 118 148 195 89 119 196 90 118
217 111 137 202 96 130 219 113 145 211 105 135 200 94 124
212 106 136 204 98 128 202 96 126 225 119 149 200 97 125
230 127 154 228 125 157 214 111 141 222 113 147 201 103 129
203 102 134 255 195 218 175 84 104 80 0 5 82 0 10
159 76 90 118 36 44 92 18 23 117 38 43 95 28 29
55 0 0 109 42 37 127 51 56 101 32 31 100 21 31
122 51 53 153 69 79 151 65 72 130 33 50 119 23 31
126 20 40 126 23 39 158 47 71 209 104 123 205 101 118
131 25 46 144 36 78 170 52 106 187 82 127 175 66 120
159 65 117 214 120 181 255 179 241 255 196 254 255 217 255
183 124 193 161 100 170 196 127 208 157 83 176 219 153 246
255 224 255 236 165 255 82 14 101 134 67 167 124 62 152
113 44 143 99 37 130 80 26 112 69 20 92 55 9 71
61 17 66 57 20 58 52 18 45 53 21 40 113 77 84
119 75 92 116 72 90 127 74 98 129 79 105 142 89 124
155 98 140 153 91 138 195 122 177 144 78 134 138 67 134
165 88 166 169 96 170 157 80 155 180 104 181 211 136 217
230 150 239 230 159 242 243 169 248 220 152 230 191 115 211
157 94 180 126 53 152 82 14 104 99 38 127 96 32 128
97 34 117 86 28 116 81 18 111 72 7 85 53 0 81
34 0 56 70 5 83 54 0 67 49 0 75 51 0 65
68 1 81 68 11 93 72 15 85 58 5 73 117 64 127
93 35 87 61 15 69 50 2 47 40 0 43 38 0 30
46 0 47 79 27 75 35 2 35 39 10 38 34 0 25
28 0 26 18 0 15 20 0 11 21 2 7 20 0 11
24 2 0 22 1 6 26 0 0 21 0 0 24 0 0
25 1 0 27 0 0 26 4 3 35 7 7 30 8 9
31 3 0 32 8 1 35 6 2 40 11 5 41 6 3
42 5 7 45 0 5 45 11 5 48 6 6 50 14 13
54 11 17 50 16 5 59 16 21 52 13 5 67 13 22
70 11 12 67 12 22 71 15 17 69 12 19 75 24 15
76 19 26 77 22 26 63 8 5 71 12 23 80 23 27
79 22 29 73 16 20 73 17 28 75 19 29 68 13 18
87 27 30 88 29 37 102 43 45 121 59 64 118 65 67
122 64 70 114 59 57 121 73 71 78 26 25 88 37 39
84 38 31 84 33 30 79 37 31 74 29 25 76 31 24
74 27 22 89 48 42 86 40 38 81 44 31 82 40 31
82 46 36 77 39 30 76 38 27 71 33 20 75 41 32
74 30 26 72 37 26 73 31 15 73 24 12 65 29 9
68 21 6 68 17 5 78 37 12 76 33 9 92 42 10
100 55 22 102 46 11 86 34 0 95 35 0 108 47 1
61 4 0 138 78 27 239 170 130 255 209 164 255 197 159
227 149 113 141 56 24 91 20 0 37 0 0 50 0 0
36 0 0 48 3 0 49 13 0 43 15 6 46 13 10
45 26 21 38 3 3 45 13 10 59 14 19 68 10 13
60 6 8 75 9 17 134 51 60 184 99 116 115 18 36
185 83 108 244 147 168 255 168 189 238 141 162 202 105 124
196 99 126 204 107 132 188 91 114 212 115 136 208 111 140
204 107 134 203 106 133 196 99 126 200 103 130 214 120 145
214 108 141 235 132 163 224 121 151 212 106 138 221 127 151
203 102 130 201 98 133 245 152 177 255 210 233 133 38 57
68 0 0 121 37 54 133 51 61 76 2 7 85 6 11
121 52 51 76 6 0 108 39 35 108 40 41 70 2 1
76 3 4 122 46 42 146 77 79 115 38 41 219 131 140
145 54 63 169 76 91 188 86 100 125 25 48 114 6 29
148 43 59 159 57 72 170 55 86 189 89 133 176 68 109
177 63 111 194 94 147 179 88 151 206 128 191 255 223 255
255 216 255 235 172 248 172 104 180 173 105 190 181 110 200
219 146 253 255 234 255 255 255 255 143 74 182 145 76 169
102 35 133 82 25 122 92 29 127 73 23 104 59 14 92
68 22 89 35 3 49 44 12 44 41 19 40 42 11 32
122 79 93 116 80 87 118 79 89 121 78 103 129 84 107
142 90 118 148 85 130 154 93 130 142 80 135 128 64 111
123 44 119 140 69 126 162 90 162 176 106 177 170 100 175
172 103 172 122 50 121 160 84 160 199 123 202 213 141 222
217 139 232 206 131 219 151 74 167 95 22 122 39 0 60
57 0 82 65 0 99 79 11 107 99 37 125 112 48 134
105 56 136 117 51 140 106 38 129 104 38 127 113 45 136
118 60 148 124 63 155 127 65 142 117 50 132 105 47 125
91 31 101 50 0 66 19 0 21 24 0 30 54 2 59
74 20 82 75 26 88 95 45 95 31 0 41 39 8 33
38 0 38 24 0 26 26 0 24 21 0 20 25 3 16
21 3 11 24 0 4 22 3 5 26 0 4 21 0 0
23 0 0 24 2 0 25 1 0 26 4 1 38 9 12
26 1 5 32 2 0 27 1 0 36 3 3 29 3 2
44 6 8 33 2 0 37 8 2 42 3 4 45 3 8
49 10 4 52 11 6 51 13 12 60 15 14 60 17 19
61 4 11 69 15 9 70 12 22 71 19 13 77 24 21
71 17 17 75 22 19 76 25 19 71 13 19 78 24 21
81 22 34 81 23 31 76 18 26 75 17 22 77 20 28
66 11 15 96 35 41 96 37 45 113 54 56 132 70 75
129 76 78 127 69 75 115 60 58 109 61 59 82 30 29
84 33 35 83 37 30 92 41 38 79 37 31 76 31 27
75 30 23 80 33 28 102 61 53 94 48 44 88 51 38
90 48 39 83 47 35 78 40 29 78 39 26 71 32 17
72 34 27 70 36 27 74 32 19 65 29 23 72 31 22
73 31 10 79 26 18 77 33 13 69 23 0 75 26 0
77 32 6 97 49 14 106 47 18 93 48 1 102 41 5
114 58 10 71 10 0 84 25 0 110 51 2 199 129 82
255 222 178 255 246 209 245 169 120 182 103 68 73 7 0
59 0 0 30 0 0 22 0 0 23 0 0 33 0 0
25 3 0 19 0 0 19 0 0 36 3 0 48 13 12
64 18 20 66 4 14 72 3 7 105 39 44 153 74 87
124 29 47 174 66 98 222 121 148 249 148 175 242 142 166
218 118 140 204 104 134 204 104 132 192 92 118 208 108 132
217 117 149 211 111 141 207 107 135 199 99 127 202 102 130
210 113 139 217 109 141 228 123 151 215 110 140 215 107 139
222 125 151 212 110 141 205 107 129 214 120 140 255 168 185
253 173 186 138 45 59 26 0 0 74 0 0 107 33 40
92 14 15 79 11 17 146 71 76 95 27 20 48 0 0
40 0 0 93 28 25 161 93 91 165 85 96 119 36 44
155 81 85 191 95 107 207 122 127 230 118 137 208 114 121
180 66 80 152 48 65 149 40 53 195 99 126 206 103 131
164 44 90 149 39 82 184 77 134 158 64 116 194 101 162
255 242 255 255 201 255 255 224 255 243 170 255 175 112 197
170 100 186 164 93 187 218 142 255 255 213 255 255 240 255
223 164 254 143 73 167 91 35 123 96 34 120 92 38 123
77 26 105 62 22 91 43 1 49 42 15 49 48 16 42
37 20 34 107 79 83 115 74 80 116 74 86 119 77 87
121 78 95 134 73 99 130 79 109 128 64 102 159 95 143
178 107 164 183 104 162 147 79 140 160 75 146 187 106 176
187 107 180 140 64 128 190 107 181 170 102 172 169 92 163
180 109 188 191 119 193 189 117 214 203 128 224 202 134 232
237 165 255 214 152 248 191 124 232 150 88 182 103 39 143
71 10 104 66 1 92 60 1 92 64 0 94 77 15 106
83 19 117 75 9 108 61 0 85 47 0 77 54 0 84
57 1 86 6 0 30 19 0 40 52 0 68 93 31 102
103 56 126 101 49 107 83 28 102 87 35 101 35 3 39
39 13 39 36 0 42 23 0 29 22 0 20 23 4 25
24 0 18 16 0 12 25 0 11 22 4 0 28 0 1
20 0 0 28 0 0 29 0 0 24 2 0 26 3 3
39 14 5 25 4 0 28 0 0 25 0 0 30 1 0
35 14 4 44 2 2 33 0 0 37 4 5 43 1 0
47 3 1 44 5 3 53 9 12 54 16 7 63 14 11
59 20 12 63 8 10 71 11 5 69 13 15 77 20 23
74 17 18 76 22 22 75 21 21 71 19 16 71 13 21
75 19 24 82 27 27 84 29 31 81 26 26 84 30 29
83 24 35 72 19 27 115 54 62 105 46 56 116 57 59
127 62 68 118 65 67 111 51 60 94 39 37 87 39 37
86 33 32 81 28 31 81 35 28 92 38 36 81 39 33
75 28 25 85 38 32 94 45 41 104 63 55 102 53 50
93 56 43 89 45 37 82 46 34 79 38 26 66 31 26
62 27 20 67 27 18 68 30 23 73 29 27 71 33 23
80 34 24 75 35 13 81 39 25 82 38 18 72 33 12
58 24 0 72 22 0 82 39 8 93 46 15 102 46 0
109 44 10 116 54 10 116 51 0 95 31 0 81 14 0
104 41 0 187 111 68 255 180 139 255 179 129 250 163 126
176 109 78 132 63 45 79 19 0 55 2 0 34 0 0
34 0 0 28 7 0 2 0 0 25 0 0 16 0 0
34 0 4 53 8 12 66 7 12 73 5 22 97 22 27
93 19 35 160 52 78 153 44 67 179 79 99 208 109 125
225 123 153 228 127 154 217 117 139 206 106 126 202 102 130
210 110 136 219 119 143 215 113 136 203 103 133 202 102 130
200 100 128 204 104 130 199 97 128 211 110 151 208 107 137
206 104 138 215 115 141 214 110 144 208 109 136 206 115 136
195 101 119 255 189 203 238 148 163 99 22 28 77 0 0
109 40 42 115 35 43 73 9 9 116 42 42 94 22 15
81 12 10 61 3 0 66 3 0 91 36 30 141 73 71
176 107 103 125 48 47 171 84 89 192 97 102 178 89 99
206 90 110 228 127 138 227 104 125 175 60 79 184 83 104
183 87 115 152 49 83 138 32 79 168 49 111 139 40 93
171 80 145 226 147 221 255 212 255 255 238 255 255 243 255
226 157 255 173 100 191 137 68 162 137 63 165 165 97 209
255 255 255 255 242 255 255 190 255 163 107 197 100 48 137
92 40 127 67 24 96 24 0 44 63 31 74 61 27 59
53 37 54 51 32 44 117 75 85 112 75 82 117 75 82
119 74 84 124 73 91 120 75 93 126 72 100 122 63 96
139 77 114 126 61 104 141 75 121 151 77 136 136 63 123
123 55 112 155 85 147 217 136 207 179 101 167 157 86 155
165 94 163 193 114 192 173 101 186 155 77 164 198 126 223
255 208 255 255 233 255 255 216 255 251 179 255 175 107 206
92 31 125 49 0 85 41 0 70 59 0 88 25 0 50
49 0 70 66 2 102 68 0 98 38 0 77 31 0 50
55 0 86 92 27 109 95 38 122 157 96 171 246 189 255
255 228 255 249 189 255 139 93 160 59 0 73 19 0 38
32 0 37 27 0 31 21 0 26 17 0 21 17 0 28
32 4 31 25 0 24 16 0 3 28 0 11 27 0 9
20 0 2 25 0 0 25 0 0 25 0 0 25 0 0
25 2 4 41 15 9 24 5 0 21 0 0 17 0 0
30 4 0 37 2 0 29 4 0 36 0 1 39 3 0
35 6 0 42 2 0 46 1 4 48 13 0 57 13 8
53 18 10 70 21 21 63 10 2 70 17 15 77 27 22
74 24 17 75 28 30 82 22 26 80 23 26 76 21 23
66 6 9 72 14 14 78 22 31 82 26 23 83 30 38
87 33 30 92 43 45 93 29 34 141 82 86 142 80 85
147 82 90 134 84 87 123 63 72 99 46 43 83 23 27
58 7 8 71 19 22 60 13 14 76 22 18 81 40 34
85 36 34 65 23 18 76 32 24 99 55 48 108 59 56
93 59 53 92 50 39 84 50 37 83 41 32 70 37 20
58 17 14 50 10 4 57 17 14 57 23 5 60 22 19
71 25 20 71 33 22 87 41 27 86 41 24 94 57 40
72 33 7 62 21 0 59 19 0 82 33 4 101 53 12
101 43 16 106 53 13 110 59 16 108 47 11 128 70 19
107 47 0 55 0 0 52 0 0 145 67 18 255 182 135
255 255 214 255 224 203 211 143 117 133 70 54 72 14 2
18 0 0 9 0 0 31 1 0 34 6 0 2 0 0
9 0 0 14 0 0 54 9 8 83 27 38 77 20 22
74 16 23 50 0 0 180 80 107 136 37 57 140 36 57
182 85 106 236 134 155 245 146 163 225 123 153 208 107 132
211 109 140 210 108 137 218 114 142 218 123 144 204 101 132
191 90 118 196 94 122 192 92 120 186 82 117 204 100 133
219 115 145 210 108 138 201 98 133 212 117 140 223 125 144
199 97 123 237 142 160 164 78 92 255 180 191 255 223 235
99 21 24 0 0 0 89 6 15 150 79 76 115 43 46
87 24 14 56 0 0 34 0 0 40 0 0 65 3 0
87 22 17 121 55 54 145 62 65 107 27 30 228 130 143
255 181 189 177 66 78 148 44 56 216 98 108 194 84 100
147 55 70 157 57 82 157 44 80 153 37 80 132 22 68
129 18 79 143 46 110 116 32 93 255 212 255 255 187 255
255 228 255 243 166 255 169 105 203 136 64 160 99 21 134
126 56 159 143 69 174 255 220 255 255 239 255 183 116 210
96 38 127 80 27 115 76 32 102 47 7 74 61 22 69
55 32 69 55 29 47 52 33 49 102 60 66 105 64 64
107 62 76 100 60 71 103 61 82 107 58 77 103 51 80
91 36 64 131 76 110 138 85 114 160 96 141 157 97 136
151 80 133 156 82 139 161 96 146 179 106 168 166 93 169
170 97 168 186 112 188 200 131 202 191 121 194 177 103 182
198 123 202 229 160 236 250 176 255 224 156 243 198 127 209
178 112 198 172 102 188 182 112 198 214 147 231 239 167 255
240 166 243 252 172 255 201 133 218 133 61 148 128 64 150
218 152 246 255 238 255 255 247 255 255 220 255 255 255 255
255 255 255 255 255 255 169 117 183 22 0 44 59 0 80
30 0 62 132 91 154 78 43 98 56 22 63 50 23 58
44 6 36 18 0 0 5 0 0 25 0 2 12 0 1
16 0 7 16 0 0 19 0 8 18 0 0 23 6 4
25 10 5 32 6 0 27 4 0 36 3 3 38 7 0
40 12 3 38 3 1 38 7 4 35 7 3 41 2 4
43 7 1 43 8 4 40 11 5 47 5 3 44 9 7
50 7 9 46 8 10 42 8 2 66 23 13 53 3 0
49 0 0 61 13 8 69 24 16 62 10 6 65 17 11
66 21 14 58 3 0 73 23 15 90 32 38 92 39 31
94 27 37 84 26 17 81 19 25 85 25 28 74 9 11
43 0 0 36 0 0 40 0 0 61 5 7 73 28 19
87 35 31 74 27 19 134 83 78 104 65 56 92 46 42
73 34 27 80 33 25 84 50 39 97 58 50 102 63 57
82 45 30 96 56 44 95 51 43 88 48 38 74 40 26
65 35 23 69 36 22 69 36 22 85 51 42 80 53 29
84 44 37 77 44 24 74 38 24 71 28 23 62 31 12
73 23 11 73 34 12 71 32 8 70 22 0 57 11 0
57 13 0 79 26 4 89 38 8 108 52 18 95 42 6
100 44 11 116 56 24 114 59 17 111 44 4 85 29 0
84 27 0 50 0 0 232 163 124 254 178 145 255 206 172
232 166 140 125 73 46 49 0 0 22 0 0 32 7 0
48 17 0 25 5 0 19 0 0 8 0 0 30 0 0
55 14 9 66 24 19 46 0 0 134 57 58 149 51 71
181 88 99 162 70 92 152 48 70 197 101 119 245 143 165
218 117 134 214 119 141 221 125 143 220 121 148 200 115 133
220 115 148 222 121 150 208 107 136 173 79 108 194 110 124
193 105 125 196 110 130 205 113 137 217 126 150 216 112 133
208 112 134 208 102 129 240 140 167 186 93 110 199 96 121
255 180 198 255 198 222 184 92 114 78 0 15 66 0 2
116 45 52 93 24 26 23 0 0 109 41 43 74 16 16
16 0 0 131 67 67 114 49 55 171 88 89 135 52 59
134 40 40 160 62 68 201 104 110 189 77 90 136 30 37
126 14 27 125 13 29 150 46 65 180 68 86 177 72 93
160 52 98 140 37 77 138 35 87 92 4 52 86 1 60
251 172 227 255 182 255 156 85 173 169 87 197 185 112 228
154 84 202 131 56 175 139 74 164 85 8 106 255 227 255
255 206 255 88 28 112 128 73 156 123 72 145 50 5 70
43 3 57 60 18 71 61 23 65 55 24 67 105 59 61
109 62 72 104 63 74 111 72 76 112 69 87 109 68 88
112 70 92 108 59 79 136 87 108 140 85 121 151 98 118
156 99 144 153 94 132 148 84 135 164 94 146 165 94 152
178 106 170 168 94 172 184 110 179 197 127 203 195 124 195
181 111 180 204 136 207 243 167 249 227 150 226 219 152 226
210 133 213 187 123 204 183 116 196 190 124 201 205 136 228
228 154 233 219 140 228 228 151 231 227 148 247 221 151 240
230 157 250 235 178 252 228 159 244 186 126 195 210 157 214
246 196 255 255 248 255 255 218 255 131 70 142 47 0 61
72 6 99 61 2 88 108 71 132 58 21 75 34 0 40
30 0 30 24 0 14 27 0 14 25 0 2 26 4 11
24 0 7 16 0 4 19 0 10 17 0 4 24 0 6
22 2 0 23 8 3 31 5 0 29 6 1 33 3 2
33 4 0 34 8 1 35 2 0 37 6 3 36 5 2
31 7 4 41 2 0 40 5 0 40 5 1 40 11 5
50 9 7 49 15 10 51 10 11 52 13 6 60 15 17
49 9 0 51 1 0 63 17 13 72 22 18 66 21 15
66 13 11 61 13 9 94 37 36 91 39 36 107 49 47
106 52 51 96 37 33 83 27 25 83 16 17 72 15 8
83 32 34 85 29 30 84 24 27 87 34 35 85 40 31
91 38 36 88 42 36 77 28 25 94 55 48 92 45 41
85 46 38 90 44 40 84 50 39 96 52 46 98 64 53
107 73 64 86 44 33 92 50 41 89 53 41 84 52 38
78 40 28 70 36 25 67 39 24 71 41 29 76 46 26
71 41 26 74 43 25 66 41 23 76 33 22 73 39 24
77 33 28 72 39 25 79 39 19 75 29 13 75 26 13
63 17 0 70 23 0 73 32 13 83 41 12 94 49 21
96 51 16 106 52 19 103 53 16 96 38 4 82 37 0
91 32 0 93 42 1 101 40 0 113 46 13 153 73 36
184 118 85 185 119 83 142 87 60 97 43 20 64 29 3
75 43 19 19 0 0 22 9 0 18 0 0 21 1 0
33 6 0 50 17 1 60 26 15 62 14 7 86 10 20
125 41 46 173 89 108 172 82 97 158 65 77 187 95 107
233 132 152 234 140 157 206 107 133 217 121 141 222 123 150
211 123 142 205 113 144 204 116 143 212 107 137 192 92 123
187 111 128 190 104 117 188 108 121 200 110 126 196 108 122
206 115 134 211 112 133 213 109 133 217 111 136 233 131 155
203 109 131 178 86 106 223 128 150 255 182 201 214 114 140
94 6 25 104 40 47 35 0 0 84 11 19 105 45 51
93 28 28 32 0 0 97 26 27 127 49 57 154 74 74
122 38 45 118 28 31 150 49 60 172 68 71 167 63 68
162 59 60 171 66 74 122 18 24 145 34 48 155 47 64
165 55 80 156 54 82 161 47 91 148 51 97 136 38 85
129 43 90 255 214 255 255 255 255 213 146 235 158 82 197
141 69 179 119 48 168 122 51 168 142 60 176 88 18 114
226 160 255 255 237 255 255 192 255 155 93 179 51 0 71
111 64 136 62 14 81 69 29 82 65 24 81 54 18 59
78 43 44 77 42 39 81 46 46 79 42 52 91 45 52
93 53 62 96 51 65 80 37 58 118 75 97 122 73 87
138 90 124 146 90 120 142 86 128 139 82 128 136 78 126
134 61 124 159 82 155 146 74 146 163 89 157 183 109 182
191 117 186 181 108 182 198 118 195 236 169 244 171 101 173
185 108 190 181 106 189 181 108 193 196 120 203 207 131 212
208 133 223 218 146 226 185 112 194 186 111 192 186 111 193
209 136 229 225 153 246 207 147 222 203 141 225 184 121 189
239 187 255 255 200 255 255 251 255 218 167 229 81 22 93
49 0 64 85 20 110 109 52 136 89 42 106 54 21 72
27 0 34 23 0 26 31 7 23 36 4 24 29 4 9
16 0 3 26 6 13 26 1 10 24 0 10 20 0 2
24 2 6 23 6 2 31 1 1 29 6 0 27 7 1
33 4 1 33 0 1 34 4 5 35 3 0 37 6 3
36 5 2 34 7 3 39 0 1 39 4 6 38 3 0
39 7 2 47 6 4 46 10 6 52 11 12 54 15 8
58 12 12 43 0 0 50 0 0 59 12 8 72 22 18
64 17 12 69 16 14 61 13 9 90 33 32 94 42 39
109 51 51 114 60 59 107 47 46 97 39 38 91 35 33
94 32 29 91 37 40 96 36 39 101 51 49 111 51 55
97 49 43 97 42 41 92 43 38 92 42 39 78 36 30
85 36 33 95 54 47 108 60 56 109 68 60 105 71 60
107 69 60 113 77 69 72 30 19 93 49 41 90 52 41
85 51 38 84 46 34 76 42 31 74 46 31 78 46 35
83 51 34 76 45 30 79 45 30 65 40 22 78 33 23
73 37 23 79 36 28 80 45 28 82 35 24 75 39 11
68 22 6 61 27 0 70 22 4 71 24 1 78 32 3
84 26 3 90 43 10 93 42 15 102 47 11 107 50 10
94 42 8 94 35 0 93 41 6 112 50 11 64 0 0
87 20 0 117 47 23 128 65 39 120 63 35 92 48 28
83 34 22 81 51 31 17 0 0 31 13 0 28 6 0
28 4 0 32 0 0 44 3 0 57 13 6 74 20 16
47 0 0 90 14 24 135 59 64 140 63 65 137 44 63
176 78 92 212 119 138 240 137 158 190 92 120 223 119 143
230 126 156 219 122 146 212 114 136 213 114 134 212 109 141
203 106 136 199 107 127 189 109 130 191 97 122 190 93 121
193 95 122 197 105 130 206 105 133 212 116 142 190 94 120
215 114 142 206 114 139 192 94 121 219 123 151 255 172 197
249 162 187 247 157 185 133 62 67 2 0 0 99 26 33
127 59 65 118 48 49 64 0 0 63 0 0 117 43 50
149 69 69 118 34 41 115 22 26 126 33 40 146 50 51
168 57 67 182 76 80 211 102 116 146 37 52 145 42 56
142 40 54 163 56 73 172 66 99 163 57 99 158 52 93
134 35 84 161 73 127 255 202 255 255 228 255 198 126 210
154 70 179 157 90 200 148 79 200 163 90 198 101 31 131
95 20 120 109 39 140 185 124 209 255 255 255 255 224 255
95 40 116 68 23 92 75 30 92 75 38 84 57 21 68
48 8 56 68 38 39 64 34 33 65 35 42 62 36 35
72 34 46 69 36 41 72 33 42 60 28 26 96 51 69
94 51 66 103 61 82 124 77 106 136 71 121 123 70 109
115 58 106 101 40 94 133 63 130 130 45 117 137 70 131
165 90 163 174 100 168 175 102 173 189 118 193 225 145 226
160 91 161 167 99 172 167 92 177 178 101 179 178 112 192
184 116 195 169 101 178 154 87 170 177 97 179 159 89 164
178 111 197 213 151 227 209 138 217 175 119 197 194 128 201
203 145 214 255 227 255 255 215 255 255 255 255 198 148 211
71 12 83 70 12 85 94 31 121 126 72 155 40 0 60
51 16 63 50 7 52 46 8 43 49 12 42 35 9 22
29 0 16 11 0 0 44 12 21 22 5 9 27 4 12
27 3 8 20 1 2 22 9 1 33 6 3 26 6 0
37 2 1 31 5 1 33 1 0 34 5 4 35 3 0
37 6 2 36 5 2 35 8 4 36 0 0 36 1 1
40 5 0 39 7 0 47 6 4 45 9 5 50 9 10
54 15 8 51 5 5 44 1 0 52 0 0 61 11 8
72 21 17 64 16 11 68 13 12 61 11 8 88 28 28
85 30 28 100 40 41 98 42 42 105 43 42 100 40 39
108 46 45 97 45 42 105 45 50 108 55 54 119 59 61
106 61 60 99 46 42 86 40 34 87 41 37 95 44 41
75 31 26 88 49 41 105 60 54 115 75 72 115 82 69
109 71 62 98 60 51 95 59 51 73 27 18 80 46 33
86 46 36 81 47 34 81 43 31 73 41 29 85 47 37
82 54 41 81 50 33 79 49 34 67 39 22 78 36 24
67 35 19 72 32 20 77 32 25 75 39 20 91 42 26
83 41 20 72 33 14 68 21 1 60 19 3 67 20 0
73 24 4 68 21 0 74 30 9 87 38 2 101 45 15
99 56 22 106 49 13 99 48 16 108 54 11 103 50 14
112 48 10 101 38 7 89 28 0 86 22 2 82 32 11
78 31 7 61 15 2 51 25 7 28 1 0 35 21 0
33 14 0 30 7 0 33 0 0 33 0 0 55 10 0
61 18 7 65 0 4 66 0 2 87 10 19 96 21 25
121 33 50 156 68 79 193 95 116 190 98 115 191 92 107
213 109 138 228 128 158 221 119 148 207 103 131 199 106 126
205 101 136 204 111 142 191 97 117 196 107 126 190 94 117
189 98 119 190 98 118 190 102 121 201 101 124 203 106 128
195 98 120 188 88 111 196 108 127 226 132 153 207 111 132
175 80 103 210 114 138 255 226 247 219 141 147 37 0 0
44 0 0 133 66 73 123 51 54 103 32 38 68 0 1
82 5 11 134 55 55 128 44 51 146 53 57 150 55 63
153 49 53 151 52 58 178 69 78 197 92 95 198 93 102
163 58 67 152 44 60 176 63 87 180 80 103 171 68 91
156 58 97 142 41 88 145 60 108 191 105 161 228 145 224
221 141 233 238 163 255 241 161 255 187 110 229 141 68 184
123 50 143 129 66 159 73 10 101 47 0 75 199 139 226
255 255 255 215 160 238 50 4 76 87 43 102 89 47 108
74 39 81 58 20 63 85 55 55 85 53 53 81 51 49
78 46 44 71 44 41 69 44 38 76 43 48 68 42 39
74 41 43 78 40 46 96 56 72 100 61 86 115 64 93
115 68 104 110 59 102 99 51 98 138 59 123 140 54 125
143 74 134 167 94 162 180 110 172 187 111 184 197 123 189
218 144 214 197 124 198 201 119 201 194 125 192 199 129 204
216 139 225 212 134 218 195 118 204 172 96 171 221 156 221
201 127 193 191 125 206 205 138 215 204 129 218 179 123 198
221 160 225 255 202 255 255 234 255 255 219 255 255 254 255
218 158 226 102 45 115 101 45 118 100 30 119 109 45 131
35 0 50 55 22 77 60 23 69 54 20 59 39 7 29
25 2 12 29 3 14 27 5 14 41 17 29 38 6 21
26 9 21 25 4 14 33 3 13 31 1 8 29 6 7
25 7 5 35 3 0 31 5 1 33 1 0 34 5 3
35 3 2 37 6 6 36 5 1 35 8 4 36 0 0
36 1 0 38 3 3 42 10 11 47 6 2 50 14 10
54 13 14 60 21 14 49 3 3 46 0 0 39 0 0
51 12 5 68 18 15 59 13 9 64 16 11 59 14 8
87 37 34 79 34 29 87 32 30 85 35 31 76 18 19
74 20 19 84 30 29 91 31 30 122 66 68 108 63 60
109 61 59 99 47 48 91 36 33 83 34 29 84 37 33
92 38 36 88 42 38 94 51 44 116 69 63 114 72 69
113 78 66 99 61 52 82 44 35 64 26 19 76 40 26
80 42 31 83 41 32 83 49 36 81 43 31 70 40 28
81 47 35 86 49 41 78 45 27 74 43 27 81 39 27
70 34 20 67 31 17 69 37 21 72 34 21 66 30 21
87 49 31 75 37 23 66 33 19 74 26 13 65 27 8
61 15 0 59 24 0 61 14 0 70 24 5 75 27 1
82 40 11 97 46 12 93 38 4 91 38 7 86 36 8
87 34 0 114 60 30 106 47 14 106 48 22 121 66 41
122 68 49 106 56 42 67 21 6 39 0 0 39 13 0
43 20 6 44 14 3 37 9 0 26 2 0 28 0 0
40 5 0 53 8 7 71 25 22 70 2 8 47 0 0
66 3 3 91 13 27 112 40 45 141 55 74 161 77 89
174 74 99 201 96 113 220 119 144 210 110 130 197 97 125
198 94 122 198 105 125 208 106 127 190 95 127 191 101 127
202 102 133 199 104 133 205 99 132 198 95 127 192 92 123
184 84 115 212 112 143 195 95 126 192 86 119 182 91 119
192 95 125 202 102 133 206 112 144 210 108 134 255 211 219
121 38 46 0 0 0 148 70 79 121 54 54 157 90 93
106 27 32 22 0 0 96 17 17 124 40 47 172 77 82
180 79 89 151 59 59 136 35 40 138 36 43 133 33 39
204 104 106 158 59 66 146 44 54 153 59 65 184 69 96
174 67 95 156 56 91 150 51 94 147 54 91 122 36 94
172 90 168 255 182 255 255 189 255 214 136 254 153 82 190
120 48 161 143 83 175 133 62 155 133 66 158 93 32 116
82 21 105 229 178 250 255 225 255 93 52 111 95 52 113
101 62 118 94 61 110 92 54 103 82 51 52 68 48 49
75 42 43 63 43 46 73 43 33 72 44 34 75 51 47
77 44 38 81 53 60 85 58 56 93 52 71 103 57 70
103 55 86 110 67 107 117 78 112 132 77 131 163 84 142
161 86 156 176 100 165 180 114 175 185 108 171 183 114 182
204 129 193 218 150 217 203 124 202 196 129 193 199 124 202
209 135 207 231 156 229 236 170 237 236 159 232 242 173 245
181 105 181 158 96 167 151 77 154 166 98 164 190 130 204
229 159 241 255 201 255 255 239 255 255 202 255 255 206 255
255 236 255 251 199 255 154 100 167 112 59 129 94 26 115
77 17 102 53 9 68 76 34 95 74 29 79 41 5 50
18 0 13 24 0 12 47 11 28 56 29 36 40 8 20
41 17 25 40 8 23 23 8 14 28 3 9 31 6 9
25 6 3 29 1 2 34 4 0 31 5 1 33 1 0
34 5 3 35 3 1 37 6 5 36 5 0 34 7 2
38 0 0 37 2 0 39 4 2 41 9 8 51 10 4
52 16 10 56 15 16 62 23 16 52 6 6 50 2 0
47 2 0 55 13 7 70 16 14 64 14 11 64 13 9
68 20 15 62 7 6 66 16 13 78 18 18 71 14 13
71 18 15 77 17 18 95 35 36 93 40 35 111 66 65
105 53 52 103 50 49 88 37 40 83 35 27 76 30 26
88 37 34 80 39 33 104 63 55 92 55 49 102 63 57
107 61 59 96 61 49 88 50 41 72 33 24 54 15 8
92 52 40 89 47 38 88 56 42 84 48 36 82 46 34
85 45 33 78 48 36 87 54 45 72 43 24 72 45 28
79 40 27 74 38 24 72 36 22 68 34 19 73 31 20
68 28 16 79 40 28 77 40 27 74 28 22 66 30 13
64 28 7 70 27 6 60 20 4 60 18 1 71 21 0
67 23 0 78 31 7 80 37 18 90 44 20 95 50 18
95 54 23 104 51 29 101 52 19 107 43 15 103 56 22
113 62 43 118 69 43 102 54 35 62 29 10 34 0 0
46 26 9 51 21 11 43 18 8 39 11 0 36 6 0
38 5 0 45 6 0 44 3 1 67 25 20 66 18 17
69 13 13 65 2 4 61 8 11 63 0 0 105 23 42
153 66 84 151 54 74 169 75 95 207 97 129 199 98 123
193 93 123 198 98 126 206 102 132 206 113 133 204 99 132
198 106 132 204 111 137 206 116 141 210 108 137 204 105 133
193 94 122 183 84 112 213 114 142 199 100 128 191 92 120
194 89 119 202 112 137 211 118 144 206 108 141 173 78 97
255 192 213 200 125 126 15 0 0 132 57 67 132 56 59
180 103 110 151 76 78 9 0 0 75 0 0 128 39 48
183 92 94 187 97 103 168 69 73 136 44 46 132 28 34
122 22 27 152 52 59 143 44 46 130 32 42 138 34 45
155 43 63 156 56 71 166 59 88 154 52 84 156 59 103
115 25 85 203 111 187 255 209 255 228 144 248 108 39 146
92 19 132 128 55 165 123 58 149 107 44 133 160 96 180
151 85 175 56 0 73 184 133 210 255 237 255 50 10 72
91 39 108 102 57 113 90 49 101 85 51 96 51 27 20
44 24 17 52 27 18 50 31 19 66 38 41 70 44 44
85 60 55 85 65 54 96 68 73 96 66 66 90 65 67
88 52 68 77 43 67 100 53 89 126 83 117 145 103 135
160 94 157 176 96 160 180 105 163 166 101 163 159 84 145
155 87 150 174 100 159 187 120 186 171 93 156 164 97 162
164 92 165 171 100 168 192 116 193 199 139 209 221 142 218
225 162 237 138 70 132 174 110 171 198 131 197 215 156 228
246 184 255 255 205 255 255 199 255 234 179 247 215 155 221
221 164 217 255 210 255 255 231 255 204 141 217 108 43 125
93 29 115 69 7 86 77 28 96 80 37 104 72 28 85
43 0 40 19 0 11 33 3 16 46 16 26 57 35 48
42 15 31 39 17 32 36 12 20 34 7 17 37 6 16
29 3 4 33 5 7 31 7 6 33 3 0 31 5 1
33 1 0 34 5 3 35 3 1 37 6 4 36 5 4
32 5 4 44 5 3 41 6 4 43 8 6 45 13 10
54 13 15 55 19 21 59 18 17 65 25 16 58 10 11
52 14 3 49 2 0 62 17 12 65 23 17 58 19 12
59 9 6 69 23 19 41 0 0 55 10 4 71 19 17
75 27 23 71 26 21 89 31 30 93 38 36 103 43 41
94 44 44 88 38 38 85 32 33 83 39 37 88 41 35
98 47 44 97 43 41 86 40 36 106 61 54 91 52 46
99 54 50 90 54 47 90 53 42 86 47 38 80 45 36
65 28 22 109 76 60 98 64 51 101 65 53 94 58 46
90 54 42 87 51 39 90 52 40 100 62 52 75 36 21
85 46 33 88 52 38 85 49 35 85 49 35 76 40 26
73 39 24 65 31 14 73 40 28 66 35 20 76 36 30
71 32 18 66 30 21 66 27 11 65 30 17 69 21 8
66 30 13 65 19 5 70 20 0 72 24 5 82 35 10
93 47 26 105 56 35 106 61 39 97 51 23 88 46 18
81 30 14 75 33 6 71 26 4 67 22 2 51 11 0
40 3 0 67 32 24 44 20 10 39 14 5 34 10 0
40 11 6 38 12 2 45 14 7 39 2 0 56 14 12
60 15 13 50 14 7 65 18 14 70 16 22 49 0 0
79 5 12 125 53 57 119 33 51 155 58 73 172 78 98
199 94 111 200 98 126 213 113 135 220 120 140 223 121 150
218 116 148 215 115 144 219 117 146 211 109 138 210 111 139
204 105 133 203 104 132 194 95 123 203 104 132 198 99 127
210 111 139 229 130 158 223 121 150 200 98 127 201 96 131
224 124 147 214 130 147 245 163 169 121 40 48 77 0 4
107 39 39 153 79 85 198 123 125 69 0 0 60 0 0
108 29 35 150 67 66 163 67 77 158 69 69 163 61 68
145 52 56 136 38 44 113 16 14 129 37 37 146 42 41
116 23 20 123 20 28 145 41 56 168 58 84 158 59 85
131 24 72 90 2 49 215 123 197 255 240 255 236 160 255
107 27 138 82 10 120 101 25 134 118 49 144 124 62 140
139 67 162 121 67 152 72 15 88 186 130 211 255 234 255
69 27 90 87 41 97 94 50 99 72 35 87 78 36 85
38 17 10 45 23 14 39 16 16 46 23 16 67 46 45
86 66 58 99 75 79 128 109 106 95 64 62 110 85 85
105 66 83 67 43 48 65 20 50 89 53 79 135 94 125
164 127 167 135 68 122 156 87 150 154 90 147 146 81 134
129 61 126 129 61 121 136 69 133 141 73 132 172 107 172
155 89 148 141 71 142 139 68 135 140 79 147 160 94 162
157 94 161 115 49 121 232 163 222 255 205 255 255 230 255
255 197 255 239 173 246 248 181 255 222 163 223 175 110 181
183 128 186 205 147 211 255 206 255 255 255 255 211 153 223
68 8 85 83 21 101 81 17 108 70 16 93 87 44 100
90 39 93 50 9 58 37 0 28 38 8 27 47 14 32
36 6 16 64 27 43 51 27 40 48 20 41 37 13 16
30 5 11 34 12 11 29 6 6 25 3 2 32 2 0
31 5 0 34 2 1 36 7 5 36 4 2 38 7 5
35 4 2 29 2 0 46 8 4 41 7 3 43 8 6
45 13 10 53 12 12 54 18 18 58 16 11 56 21 22
67 18 17 45 6 0 53 5 0 64 18 11 65 20 13
51 9 1 61 7 3 65 15 10 50 0 0 71 21 15
82 36 28 95 41 37 85 33 28 74 25 19 73 24 18
79 29 21 82 30 33 78 31 28 84 35 33 96 45 46
107 53 49 100 59 53 103 57 53 88 45 37 113 76 70
107 64 59 89 54 45 84 44 39 76 38 27 82 42 33
78 42 33 74 36 30 113 78 63 107 71 59 107 71 59
106 70 58 101 65 53 96 60 48 92 56 44 101 65 55
74 38 22 88 52 38 87 51 37 96 60 46 88 52 38
84 48 34 75 39 25 68 33 14 62 20 20 70 28 26
69 34 16 67 33 21 73 31 26 70 31 19 67 29 21
66 28 12 79 39 22 60 30 5 56 14 0 41 2 0
47 8 0 54 17 0 70 22 11 65 27 2 106 52 31
98 53 23 90 43 17 92 42 22 74 28 12 64 19 4
51 17 0 50 8 0 70 39 22 50 22 5 37 8 0
30 7 0 43 10 6 45 18 10 42 16 4 32 2 0
64 27 19 35 0 0 23 0 0 61 19 14 103 55 57
77 32 35 68 7 12 113 35 44 107 35 49 141 55 73
192 95 115 200 105 128 222 116 135 230 126 157 234 133 160
230 130 150 221 121 145 218 116 148 204 105 136 207 107 138
208 108 139 203 103 134 205 105 136 207 107 138 197 97 128
217 117 148 220 120 151 206 106 137 212 112 143 228 129 160
232 125 161 194 100 123 188 90 102 255 185 191 211 131 139
8 0 0 94 14 20 141 65 71 255 182 186 129 57 61
0 0 0 79 4 6 114 26 29 133 39 46 145 52 52
161 74 74 154 60 64 130 39 44 100 12 12 165 70 67
166 69 69 127 21 22 96 0 6 133 29 38 166 61 83
169 56 83 155 64 97 88 0 34 183 95 169 255 229 255
251 175 255 164 87 195 153 83 185 119 53 160 142 83 157
147 87 171 108 48 125 133 77 151 94 37 115 161 111 188
255 255 255 205 160 229 24 0 43 102 57 108 97 60 112
80 40 88 45 17 17 21 0 0 58 40 33 88 62 66
70 45 43 107 84 86 135 108 116 82 62 73 114 82 90
69 40 55 63 29 37 87 56 77 94 51 76 72 33 57
100 57 92 125 81 111 196 134 190 161 96 160 157 96 154
124 63 119 83 24 84 90 31 88 143 84 144 172 114 170
124 61 128 135 73 137 132 71 132 150 89 148 151 89 154
94 32 95 151 89 152 255 246 255 255 193 255 240 184 242
231 174 236 208 147 215 160 101 171 140 81 148 156 95 167
173 112 174 207 144 212 187 124 190 221 158 232 254 193 255
242 178 255 177 110 191 89 24 117 20 0 43 107 61 128
69 16 90 47 0 52 46 0 43 50 10 44 57 15 38
47 15 37 48 15 27 32 5 19 27 0 7 31 0 14
37 5 19 35 1 17 25 0 0 30 0 0 48 19 15
32 4 5 30 4 6 30 0 0 28 0 0 34 2 0
33 2 0 39 8 6 38 12 8 42 0 4 45 7 11
45 11 7 47 15 12 61 20 20 60 24 22 70 28 33
69 33 30 67 19 13 65 20 20 56 13 12 53 11 10
66 20 19 68 23 22 69 27 25 55 16 13 71 21 22
75 28 28 83 38 37 96 43 46 94 43 45 87 36 38
76 27 28 72 19 22 90 40 38 59 20 15 57 15 11
80 37 35 110 64 58 104 63 55 94 49 42 89 52 46
41 0 0 62 17 13 72 35 27 88 47 42 101 67 56
111 75 66 111 74 65 103 65 59 118 83 68 113 77 65
112 76 64 101 65 53 88 52 40 81 45 33 84 48 36
97 61 51 81 45 29 86 50 36 95 59 45 91 55 41
92 56 42 87 51 37 78 42 28 77 39 21 72 43 38
73 42 31 75 43 37 73 43 27 74 38 27 64 30 11
55 23 7 51 9 3 75 40 20 66 31 15 70 28 20
68 28 9 60 21 6 54 13 0 53 20 0 40 3 0
75 41 21 66 34 5 81 37 22 82 38 17 78 44 26
84 48 28 81 46 24 87 56 41 41 4 0 52 23 11
52 25 16 55 25 14 45 23 14 48 15 7 43 17 14
42 13 13 33 0 0 59 20 13 76 43 34 60 22 16
35 0 0 40 0 0 64 15 19 67 16 16 128 50 59
115 43 47 129 43 61 159 61 78 191 96 112 236 137 156
250 146 165 251 147 176 221 119 150 243 139 165 241 146 167
208 111 133 191 94 116 206 109 131 215 118 140 212 115 137
217 120 142 212 115 137 219 122 144 233 136 158 238 141 163
232 137 158 224 115 145 215 121 146 208 110 124 250 171 178
222 138 147 64 0 0 79 2 5 80 13 16 121 53 54
229 150 158 71 0 0 65 0 0 42 0 0 83 0 2
127 39 39 140 56 57 145 51 55 154 66 70 118 28 27
118 28 25 111 27 23 133 43 37 161 56 61 162 61 70
149 45 55 127 30 58 184 75 111 123 28 66 137 45 117
234 141 228 255 176 255 168 89 197 112 41 151 157 93 196
140 75 162 149 89 159 138 70 152 139 80 154 155 93 164
85 38 99 125 74 142 255 255 255 241 202 253 97 51 106
35 0 52 96 56 104 68 46 40 68 44 43 113 82 91
112 89 93 90 67 82 115 88 103 142 119 132 121 92 112
94 58 77 77 50 70 73 32 60 67 36 62 67 21 54
46 9 44 65 22 47 59 17 58 157 98 149 174 114 171
221 164 216 198 142 191 103 43 103 55 0 52 91 32 90
127 68 123 129 73 134 153 97 156 158 102 159 87 32 86
84 24 91 255 208 255 255 255 255 197 137 204 187 134 187
219 156 215 232 172 233 217 153 220 182 121 190 162 102 171
171 113 180 164 106 176 200 142 207 193 135 200 210 153 216
249 187 255 255 195 255 185 120 195 86 27 111 44 0 67
99 44 121 74 27 89 57 5 68 48 0 45 52 3 45
50 8 37 56 15 43 52 16 35 43 8 32 34 7 20
33 1 22 41 13 20 36 5 18 29 1 4 27 0 0
43 17 10 29 1 0 34 8 8 35 3 0 28 0 0
35 3 1 34 3 1 38 7 5 36 10 6 43 2 4
39 2 4 47 14 8 44 13 8 54 13 13 56 20 18
61 19 22 59 23 18 65 17 21 60 16 11 55 11 8
60 17 14 66 19 16 69 23 20 63 17 14 54 11 7
68 14 14 75 24 23 87 36 35 91 42 40 89 40 38
78 31 28 84 28 30 78 28 26 78 39 34 65 19 16
68 21 18 83 40 40 101 59 49 93 56 50 83 44 38
89 46 41 79 34 30 78 43 34 83 44 37 98 55 51
97 62 51 101 64 55 108 68 60 101 60 55 117 80 65
107 69 57 98 62 50 86 50 38 80 44 32 80 44 32
84 50 37 96 62 51 90 56 39 91 57 42 94 58 44
90 54 40 86 50 36 81 45 31 78 39 26 71 30 15
74 42 28 76 42 36 72 38 30 72 40 36 74 34 20
71 33 25 63 25 7 59 23 6 63 25 14 64 26 17
56 20 0 54 19 3 56 18 1 50 16 0 55 15 3
48 16 0 58 24 0 58 26 3 57 18 0 63 24 3
58 26 3 59 20 0 48 15 0 52 20 0 43 17 0
46 24 1 45 16 1 44 13 0 44 18 12 40 17 4
42 9 7 37 14 8 47 14 4 46 9 5 50 15 10
58 27 21 71 34 26 66 34 24 68 20 26 43 0 0
84 23 28 93 17 25 114 42 56 153 64 84 166 79 96
179 79 102 212 122 138 255 160 177 235 135 157 245 146 175
238 137 165 217 116 144 200 102 129 202 104 131 204 106 133
196 98 125 216 118 145 212 114 141 208 110 137 208 110 137
217 116 144 215 114 142 206 104 134 206 105 135 173 84 95
240 166 169 193 107 119 41 0 0 60 0 0 76 4 11
123 56 55 189 116 123 115 39 37 106 29 34 82 4 0
84 4 7 102 22 18 113 37 34 127 43 42 148 60 65
116 28 24 119 26 26 121 31 31 126 41 36 147 46 44
144 48 52 145 48 58 141 38 54 141 47 71 127 27 73
132 39 104 188 100 177 198 116 215 170 90 196 140 69 174
150 84 188 143 78 151 141 89 160 122 69 134 122 65 140
129 79 147 108 55 127 123 76 138 181 138 200 255 252 255
142 95 152 47 12 57 73 35 87 44 8 15 100 80 84
162 134 150 126 94 115 47 18 42 40 7 28 80 50 79
84 53 90 102 69 97 85 54 88 78 39 72 68 37 63
75 28 69 66 27 63 67 21 53 44 0 38 57 9 62
123 67 130 217 164 221 198 146 201 72 18 79 15 0 16
74 21 85 157 106 167 144 83 147 131 73 131 80 24 92
83 27 93 194 139 202 255 226 255 209 155 225 56 2 60
150 99 161 192 128 192 222 164 230 197 143 210 170 109 176
156 94 170 160 91 166 149 82 156 187 120 195 198 131 204
198 132 210 235 169 251 255 223 255 228 167 244 104 35 131
54 0 75 94 38 117 81 27 91 64 6 75 49 0 51
54 12 45 52 15 38 57 21 45 55 24 37 38 9 28
41 4 19 29 2 17 38 5 27 37 7 17 29 1 2
29 0 7 40 9 15 33 6 2 31 5 3 32 0 3
33 4 8 34 2 0 34 3 1 38 7 5 36 10 6
43 2 4 41 5 5 44 7 9 45 10 13 53 13 11
52 16 14 54 12 15 52 16 11 63 12 15 60 16 11
60 16 13 62 18 15 66 23 20 68 25 22 61 18 15
46 4 1 67 24 20 65 23 19 77 35 31 79 37 33
81 39 35 75 36 31 86 31 31 75 35 30 84 37 34
61 19 16 65 22 19 84 36 37 102 56 47 89 50 44
88 43 39 69 34 25 94 57 49 91 52 45 102 59 54
99 66 57 102 65 55 107 67 59 98 70 58 100 69 60
111 79 65 92 62 50 84 46 34 68 32 20 69 33 21
79 45 32 95 53 44 98 58 50 100 60 46 98 56 45
88 56 40 89 53 39 86 50 36 81 39 27 66 39 22
68 39 20 80 44 38 74 39 28 79 45 31 74 39 28
72 40 28 68 36 24 63 31 21 61 28 21 61 32 13
58 28 12 53 23 9 53 26 11 56 12 3 44 20 4
58 14 7 54 25 3 34 2 0 39 4 0 41 11 0
42 9 0 43 6 0 33 6 0 39 4 0 26 4 0
48 14 0 41 17 0 45 12 0 41 20 3 38 10 7
39 12 1 38 16 6 38 9 6 54 15 5 45 11 4
50 16 9 56 22 15 66 36 28 61 30 24 51 19 9
33 0 0 69 24 27 52 0 0 82 6 14 118 44 51
136 52 63 133 49 58 187 89 102 222 128 145 255 167 195
251 157 179 251 159 178 227 138 158 216 115 137 210 111 135
210 112 133 208 109 133 206 108 129 203 104 128 205 107 128
211 107 132 199 110 128 190 98 119 183 87 110 183 81 101
132 55 66 217 134 142 171 92 100 36 0 0 60 0 0
60 0 0 89 20 19 144 78 79 156 85 84 124 52 57
101 27 23 88 11 15 89 8 4 86 9 6 99 17 18
113 38 36 104 15 16 116 26 21 119 33 28 128 37 35
132 43 39 145 46 52 135 38 45 140 40 59 112 15 39
119 19 59 112 22 82 112 21 103 136 51 152 161 86 182
168 96 203 151 82 186 156 98 166 156 102 163 132 70 141
116 58 128 125 73 138 108 57 116 96 46 103 74 29 81
250 207 255 209 169 215 156 112 166 111 67 113 23 0 5
99 63 75 138 115 132 88 61 79 18 0 23 12 0 18
51 20 66 52 27 59 96 62 106 94 56 99 95 53 100
77 41 86 87 40 89 88 48 85 79 30 79 39 0 38
68 20 72 112 64 120 204 158 213 197 153 206 105 53 106
32 0 47 81 31 87 134 85 141 148 102 154 91 42 107
111 55 114 255 202 255 255 255 255 194 136 205 66 9 73
86 30 96 143 85 150 179 128 188 205 142 210 175 115 182
147 82 155 144 84 158 158 93 176 158 95 175 199 138 218
217 157 235 200 136 219 225 159 239 255 236 255 253 191 255
123 59 151 69 0 94 96 31 117 84 29 99 67 7 70
59 0 60 57 12 54 62 15 49 62 22 45 68 26 52
44 8 27 38 7 29 37 0 18 37 8 26 40 12 19
31 5 3 33 6 10 41 12 15 34 7 3 33 7 5
35 3 4 30 1 3 33 2 0 34 4 0 38 7 5
37 11 7 43 2 4 43 7 7 43 7 7 41 7 8
46 7 3 48 13 9 52 10 13 44 5 1 54 18 16
62 12 9 65 18 16 72 25 23 72 28 25 66 22 19
60 16 13 51 8 5 73 26 23 71 25 22 77 31 28
78 32 29 77 31 28 77 31 28 79 35 31 80 38 35
83 40 37 73 26 24 72 22 21 85 48 45 96 55 48
93 48 44 82 47 38 71 32 25 107 66 60 102 59 54
99 66 56 101 64 57 101 61 52 106 63 56 97 66 55
103 69 61 110 74 61 93 59 48 80 40 28 72 36 24
74 38 26 87 55 41 94 56 45 91 55 45 100 64 48
97 59 46 95 53 42 89 55 40 83 44 31 78 51 34
82 49 34 79 45 30 83 51 33 81 50 31 81 44 41
78 48 26 77 41 35 69 34 25 73 38 29 69 33 27
71 38 20 70 36 21 68 34 19 59 25 10 59 28 10
56 22 5 59 27 9 57 27 10 39 3 0 35 15 0
48 9 0 39 16 0 39 12 0 39 9 0 38 12 0
32 5 0 39 12 0 40 11 0 33 10 0 40 15 1
39 11 0 43 17 5 44 10 18 38 18 5 43 7 10
49 23 11 52 25 16 44 17 8 32 8 0 31 1 0
50 13 5 53 17 11 100 52 54 58 1 8 52 0 2
96 19 32 129 47 62 139 58 70 156 72 85 161 75 92
244 143 165 222 131 146 233 134 164 221 127 142 221 116 148
208 111 124 210 109 141 213 119 131 193 92 124 200 106 118
207 102 134 202 112 126 204 109 137 191 92 109 172 77 104
155 65 87 148 63 75 194 125 126 131 56 66 41 0 0
73 9 8 68 7 7 57 0 0 87 24 26 130 68 62
112 43 43 102 30 28 103 36 34 114 36 33 101 29 26
84 15 9 66 0 0 110 21 16 108 20 22 114 30 31
131 43 39 143 50 54 134 46 49 130 37 46 129 35 49
110 14 32 98 8 40 100 10 62 123 35 107 152 71 155
165 88 194 155 81 195 147 82 178 157 96 165 163 113 173
137 85 142 102 52 117 111 62 118 103 57 118 92 44 98
64 22 78 89 50 98 246 204 250 244 202 252 122 79 123
61 29 51 88 57 78 86 50 81 58 21 51 57 19 63
79 38 84 80 43 92 71 31 87 36 0 51 81 42 99
109 68 121 83 47 102 56 6 59 49 8 52 59 8 66
54 7 55 79 31 90 74 28 78 95 47 108 100 55 112
60 5 65 26 0 45 46 0 58 57 6 68 61 12 71
52 6 71 176 122 190 255 205 255 169 119 181 90 41 110
99 50 117 101 56 120 146 89 157 166 115 181 163 110 181
130 67 143 121 58 140 127 69 141 151 82 165 156 92 172
247 176 253 236 168 242 231 156 242 222 163 251 255 213 255
255 194 255 152 91 176 79 12 102 96 35 115 83 27 107
68 14 82 62 9 61 61 18 53 69 22 50 59 25 45
67 30 52 44 13 28 38 9 28 31 0 15 43 11 26
47 12 31 37 5 14 36 2 8 41 9 11 35 9 5
34 8 6 36 4 5 33 5 4 37 2 7 33 0 6
40 10 5 32 6 2 46 5 7 40 4 4 42 6 6
41 8 7 47 4 8 44 5 9 49 8 9 39 0 0
58 16 16 55 17 10 64 26 21 64 29 23 72 25 23
65 21 18 63 19 16 52 8 5 67 24 21 65 22 19
72 29 26 69 26 23 73 30 27 76 33 30 80 37 34
90 46 43 93 43 42 74 39 33 76 34 31 87 52 47
99 62 52 91 54 46 86 47 40 79 38 32 101 68 58
98 63 54 99 62 54 103 63 57 89 61 48 86 55 44
92 58 48 98 62 55 102 74 57 88 60 45 79 47 36
88 48 36 95 63 49 101 61 51 101 57 49 96 54 47
96 52 40 93 59 44 93 53 41 87 53 38 93 54 41
87 57 41 91 56 41 96 67 52 83 49 38 87 54 31
83 51 39 81 48 25 78 46 32 79 47 31 78 46 28
83 50 32 63 33 18 69 38 23 62 31 16 57 26 9
53 22 13 52 21 10 50 19 8 59 23 8 50 20 14
46 23 12 49 15 12 45 17 4 43 18 0 45 18 0
47 17 0 47 26 0 34 12 0 36 9 0 42 16 0
40 15 2 39 11 0 45 16 3 34 16 16 42 16 3
43 13 12 50 18 8 53 23 15 47 17 9 35 8 0
37 3 0 46 15 9 64 26 20 74 30 26 64 22 15
61 10 6 75 19 17 100 41 39 135 59 65 136 65 73
125 35 48 163 75 91 163 70 85 182 87 108 193 104 117
196 100 123 189 102 114 198 99 120 209 112 128 202 106 126
200 101 117 189 97 119 184 93 105 186 86 110 177 84 99
178 84 103 159 65 86 190 118 127 181 113 117 92 21 25
38 0 0 75 14 14 85 27 27 48 0 0 62 5 6
82 25 19 77 12 13 77 17 9 106 36 36 126 61 52
130 61 57 99 19 19 51 0 0 104 22 25 106 21 15
119 39 33 131 43 40 129 49 46 132 42 41 132 38 48
132 37 44 125 33 50 87 0 21 100 6 58 181 90 159
211 130 221 158 82 184 127 61 163 141 71 168 124 76 131
147 96 148 140 80 135 97 47 104 92 43 96 102 57 113
105 52 105 85 41 87 33 0 42 218 175 219 212 168 216
65 26 66 57 24 57 89 57 83 76 43 82 37 2 46
23 0 39 4 0 17 12 0 33 24 0 48 46 2 65
93 53 119 145 103 160 113 74 135 54 13 68 36 0 43
69 20 68 113 58 122 0 0 14 14 0 28 60 7 70
106 56 116 133 85 144 170 120 178 173 127 182 148 105 166
155 102 166 188 137 198 178 132 188 90 40 110 47 0 60
89 36 101 125 75 137 74 21 93 157 99 163 147 91 163
118 57 133 80 29 105 106 37 117 111 50 133 146 79 162
159 97 176 255 198 255 219 150 238 221 153 238 222 149 231
222 157 247 255 189 255 195 129 227 99 33 125 89 33 108
103 42 115 83 18 84 64 8 70 69 10 59 68 24 61
68 22 48 68 27 49 57 15 43 42 7 28 33 0 13
37 9 23 46 13 29 40 10 16 35 3 8 43 12 14
36 10 6 35 9 7 39 7 8 30 2 1 36 2 4
34 1 5 35 6 0 35 10 3 43 2 4 38 2 2
40 4 4 37 4 3 49 7 9 45 7 9 49 8 6
43 4 8 63 21 19 62 21 15 67 26 22 66 28 23
70 20 19 68 21 19 65 18 16 63 16 14 72 25 23
71 24 22 69 25 22 71 27 24 65 21 18 73 29 26
86 42 39 96 49 47 87 52 46 82 37 35 81 46 39
96 57 54 101 62 53 91 52 45 88 47 41 80 37 32
98 63 54 96 59 51 100 60 53 97 54 49 83 52 40
82 48 38 88 54 44 96 60 53 99 69 53 95 65 51
96 60 49 98 70 57 108 64 55 105 69 57 101 59 50
94 54 46 96 56 42 95 51 41 95 57 44 95 61 46
100 61 48 100 69 53 99 69 54 107 75 65 87 53 34
86 55 40 84 53 36 83 52 37 80 47 30 85 52 33
80 47 36 92 58 45 60 28 16 63 30 18 59 27 12
54 22 5 53 21 10 47 15 2 53 16 2 37 9 2
52 29 15 51 22 10 52 23 14 44 19 8 48 19 10
48 23 0 47 21 2 50 22 0 44 16 0 46 20 0
46 16 5 46 18 6 45 17 4 47 18 15 37 20 15
47 14 19 42 20 2 41 11 7 39 8 0 52 22 14
67 43 33 76 44 36 59 24 19 50 17 8 23 0 0
62 17 13 75 23 24 68 20 17 77 12 17 94 34 32
119 40 57 108 37 43 121 36 57 130 44 61 160 67 85
187 91 113 196 100 119 187 96 115 198 98 119 207 112 132
213 118 137 195 95 117 159 69 86 146 49 70 143 49 69
156 63 82 164 78 96 173 83 97 204 137 139 146 90 89
47 0 0 33 0 0 53 0 0 83 33 33 67 6 3
72 14 14 62 5 0 55 0 0 60 0 0 78 14 13
119 52 42 135 64 60 109 48 40 81 6 4 88 7 5
110 20 21 121 35 35 131 48 44 129 43 49 127 38 48
119 35 41 116 32 42 144 47 56 82 0 17 105 16 65
204 121 186 239 153 242 172 90 186 123 43 157 131 64 164
99 46 108 135 85 127 117 69 129 88 38 87 76 29 82
96 51 92 97 57 106 92 50 90 61 19 65 136 97 137
119 81 122 60 21 66 40 6 44 81 49 80 85 45 97
58 20 72 37 12 56 16 0 48 20 0 54 47 19 86
249 209 255 220 182 243 215 170 235 163 122 191 112 65 127
62 21 85 47 0 68 16 0 36 96 48 116 118 76 126
180 135 200 222 178 240 246 202 255 255 222 255 255 225 255
218 167 237 255 225 255 255 224 255 171 117 183 89 38 105
134 84 150 144 96 161 121 65 134 138 85 147 138 91 157
125 66 138 85 24 103 75 23 95 127 59 141 129 64 154
144 78 164 166 105 185 255 202 255 170 102 191 185 117 206
191 122 208 162 101 190 252 185 255 250 186 255 109 47 131
96 26 116 102 41 122 87 27 95 67 14 65 73 16 54
63 21 49 65 23 40 66 27 45 57 18 41 35 5 22
35 2 17 45 7 26 45 14 29 45 15 21 36 4 8
40 9 11 39 13 9 38 12 10 37 3 5 35 7 6
36 0 3 34 2 3 36 3 7 36 7 12 41 0 0
42 4 5 41 3 4 43 10 9 48 3 6 48 10 11
50 9 12 43 4 5 68 26 24 62 21 13 66 25 19
65 24 18 62 24 17 58 20 13 60 22 15 66 28 23
62 24 17 60 25 19 68 21 17 62 18 15 67 23 18
75 31 28 86 42 39 101 51 50 90 50 46 77 42 35
83 45 37 93 54 51 97 58 47 92 51 45 77 44 34
75 40 31 97 60 52 95 55 48 95 67 56 89 58 49
83 49 38 79 45 35 89 55 45 93 57 50 96 68 51
98 70 55 110 74 63 100 72 59 109 65 56 99 63 51
102 60 51 98 58 50 96 56 42 103 61 50 103 65 52
104 72 56 111 72 59 103 72 56 96 66 51 100 75 49
89 59 34 98 59 38 96 60 36 90 52 28 83 55 31
82 49 24 88 55 38 95 60 42 69 43 18 78 50 23
67 34 22 65 33 16 59 27 16 58 23 11 46 24 5
52 20 9 63 32 31 52 28 22 52 22 12 41 25 9
46 25 11 44 27 0 48 30 7 47 28 0 46 28 5
49 32 0 45 24 10 46 30 14 53 19 8 48 20 14
51 19 19 40 10 14 58 33 21 46 20 1 46 14 9
62 35 26 88 53 46 96 57 53 78 45 39 77 40 33
36 0 0 47 12 7 56 16 10 59 15 13 73 6 11
70 7 11 80 18 17 90 16 21 118 29 43 126 24 41
149 61 73 188 90 105 190 95 108 180 81 97 182 78 95
198 88 109 200 90 111 173 69 86 139 43 58 113 20 32
113 15 30 119 31 43 148 43 61 158 62 81 158 84 86
93 21 28 32 0 0 57 0 0 30 0 0 73 14 12
70 13 8 78 25 23 72 8 3 70 10 7 53 0 0
61 0 0 86 18 13 117 46 40 111 46 38 93 26 20
91 0 10 99 13 20 109 25 31 116 34 39 116 38 35
119 29 33 119 33 37 118 32 38 131 35 48 101 4 33
100 9 50 153 69 131 198 107 197 178 94 199 140 62 172
126 57 162 111 63 118 128 74 121 119 72 129 104 49 104
90 41 97 99 52 108 94 49 112 81 35 87 91 47 104
77 38 86 95 45 104 111 63 111 70 35 80 70 36 77
37 1 48 87 49 102 212 166 234 245 215 255 255 219 255
255 255 255 169 134 205 161 119 187 152 109 180 191 154 217
255 213 255 255 236 255 242 192 255 181 133 200 255 230 255
255 235 255 255 221 255 162 115 178 52 7 69 61 19 79
104 52 121 86 38 102 108 62 123 63 19 77 120 68 138
172 122 188 113 65 130 71 25 89 111 57 123 150 99 170
155 99 178 108 60 134 52 0 67 75 16 97 150 88 175
140 75 160 137 72 153 176 109 205 255 210 255 141 73 160
166 101 185 169 98 191 135 60 147 255 215 255 255 245 255
89 25 119 53 0 78 94 36 106 89 24 95 67 8 66
54 11 59 69 23 54 72 25 60 61 23 40 62 27 52
52 4 35 30 0 12 41 5 23 49 20 34 48 20 22
39 9 15 37 7 5 45 17 11 45 13 13 35 9 6
36 2 4 28 2 0 32 0 0 32 0 1 35 5 8
32 0 0 33 0 0 38 5 3 46 3 6 42 10 10
53 8 13 60 17 21 45 6 7 73 32 25 71 31 28
72 32 29 66 26 23 57 17 14 56 16 13 66 26 25
77 36 26 64 26 27 63 28 16 69 22 26 62 18 9
61 17 20 65 21 14 92 45 41 107 72 64 97 54 49
89 54 42 95 52 57 112 75 64 112 72 69 95 52 43
81 46 35 74 37 27 98 59 49 94 52 43 94 63 53
92 58 50 80 45 33 82 47 36 87 51 42 92 58 50
98 62 47 102 69 55 105 76 61 110 70 58 92 60 46
94 54 46 97 53 47 100 58 53 96 54 41 103 59 49
110 74 60 118 76 65 113 78 61 100 76 53 95 61 55
93 67 49 96 55 41 96 66 35 85 49 36 83 48 32
81 41 26 76 49 30 85 55 35 90 57 36 88 53 40
79 49 34 76 44 27 69 37 18 66 31 21 63 25 14
53 28 10 57 25 14 61 30 29 52 28 22 54 24 14
44 29 11 44 24 5 50 29 7 52 30 13 59 40 8
53 29 9 51 28 15 51 27 6 49 26 11 46 23 6
43 19 18 50 15 20 38 10 2 60 36 26 56 31 12
67 35 30 66 41 31 85 43 40 82 47 41 82 51 45
114 77 70 57 19 11 29 0 0 22 0 0 67 21 15
93 36 34 67 13 12 61 1 0 66 1 0 118 28 46
118 34 45 154 67 81 187 99 115 187 97 110 153 60 76
147 45 64 156 55 72 182 81 98 158 60 78 142 37 57
116 20 37 93 7 20 99 5 19 108 27 35 138 58 66
108 39 50 53 0 0 20 0 0 80 14 11 12 0 0
52 0 0 64 9 10 60 11 7 70 18 16 73 19 15
74 9 2 57 0 0 73 14 3 105 37 32 99 38 33
95 29 23 78 0 0 107 23 28 118 39 38 124 38 37
114 32 34 108 24 34 113 32 32 120 36 47 112 28 40
106 22 42 91 3 53 100 14 72 143 62 153 171 96 182
168 84 194 107 39 138 119 67 119 128 77 117 115 66 119
93 49 98 94 43 91 106 58 110 96 55 94 58 21 62
115 75 115 83 39 84 114 72 106 118 76 114 38 1 47
55 15 60 120 85 128 190 151 207 178 143 194 114 74 137
76 34 99 81 36 110 38 0 64 31 0 56 15 0 45
53 0 67 104 61 122 164 117 185 195 153 207 219 178 242
163 118 186 101 57 121 50 6 78 64 22 91 95 45 118
89 44 113 87 33 104 92 43 110 88 31 110 113 58 132
115 62 142 96 45 122 85 26 107 80 23 103 86 31 109
79 24 101 131 79 154 110 55 142 112 56 137 92 33 115
89 23 105 126 59 145 176 109 193 198 137 217 171 100 182
130 64 154 137 62 151 163 96 184 162 93 186 172 100 200
186 112 208 178 107 212 185 122 206 100 33 129 53 0 79
79 20 108 86 34 109 66 11 73 37 0 39 69 32 65
48 5 28 34 5 24 35 3 13 45 11 27 42 5 19
37 4 14 35 1 12 52 19 25 15 0 0 19 3 0
28 4 4 38 10 7 41 9 10 40 14 12 46 12 14
44 11 15 40 12 6 44 15 12 40 11 8 37 13 9
48 14 10 46 17 11 46 9 8 47 7 7 60 13 18
51 6 10 52 7 11 60 15 19 63 18 22 65 20 24
65 19 27 53 17 8 85 33 42 66 17 13 58 12 19
65 19 14 80 34 41 91 45 42 93 43 46 83 45 44
54 11 9 61 21 18 60 20 26 52 9 7 57 21 22
68 35 24 79 42 38 74 35 31 105 74 70 105 71 70
112 79 67 98 63 54 82 51 43 81 48 42 94 67 52
115 77 69 111 83 73 117 74 69 117 76 73 107 72 57
106 70 60 97 65 45 104 66 51 98 62 46 121 85 71
107 71 57 100 62 49 101 63 48 108 68 60 113 70 59
115 75 72 117 76 66 88 50 35 94 55 45 102 62 50
105 65 53 107 65 54 100 65 50 95 53 41 77 51 31
97 61 55 110 72 64 101 71 59 91 56 46 83 60 44
88 62 47 91 63 46 75 41 36 74 49 35 78 49 36
71 41 30 68 38 32 65 38 24 62 34 24 63 32 23
60 44 31 53 27 21 59 32 23 53 34 21 53 32 16
52 32 24 49 33 14 50 21 22 44 29 11 53 18 13
69 36 31 75 45 37 57 32 22 63 23 19 79 46 40
110 69 63 107 73 63 161 119 124 93 54 53 38 0 0
19 0 0 46 0 0 52 8 9 57 11 15 58 8 11
39 0 0 63 0 0 74 9 14 97 30 37 123 45 56
138 68 76 139 73 80 142 72 79 138 70 77 124 55 62
96 27 34 98 21 28 121 49 64 137 79 87 104 40 52
78 19 27 0 0 0 4 0 0 33 0 0 46 10 6
58 16 15 40 0 0 53 11 2 94 49 38 78 30 28
66 24 11 64 3 0 56 2 0 52 7 0 69 10 4
70 19 0 96 44 30 64 0 0 73 0 0 76 11 10
95 21 25 111 35 44 116 45 46 108 33 49 105 32 41
110 33 54 97 26 52 117 42 77 72 0 48 108 48 107
221 150 222 180 116 208 141 79 156 169 117 173 152 101 136
153 110 137 159 116 141 149 106 125 106 63 78 80 40 62
76 40 55 95 52 77 84 56 74 83 52 73 86 55 76
90 47 95 69 43 83 90 48 98 102 65 113 90 48 105
50 14 63 41 0 67 23 0 41 137 97 164 100 53 121
93 48 119 98 58 124 127 75 146 115 81 137 99 49 114
73 27 85 70 20 94 79 31 96 89 41 113 94 48 117
93 42 112 70 24 100 67 11 88 53 2 75 112 56 138
106 52 130 114 62 140 98 48 124 87 29 108 76 20 98
86 32 107 84 31 108 92 33 127 106 53 136 150 85 173
183 127 212 197 144 228 207 146 224 206 142 225 229 165 248
144 70 157 114 45 126 114 40 133 146 72 162 153 84 181
184 115 204 220 145 248 203 139 229 227 159 252 113 62 146
62 0 96 91 43 126 102 45 124 54 9 76 46 3 58
53 13 51 59 19 46 39 12 28 39 3 19 44 12 23
50 16 34 38 5 20 47 3 21 57 18 28 18 0 0
30 10 2 31 3 1 27 7 3 39 5 4 37 9 6
42 8 10 42 8 12 33 6 0 39 10 6 37 8 6
36 11 9 45 8 6 44 11 10 52 13 2 45 1 4
63 24 26 56 17 18 58 19 20 58 19 20 59 20 21
59 20 22 60 23 19 64 17 22 73 31 33 59 17 21
54 12 14 58 16 20 69 27 29 81 38 45 82 44 36
91 48 42 62 24 28 73 31 34 71 29 30 74 30 36
71 35 29 77 37 40 84 46 35 73 32 24 102 69 63
95 59 56 97 64 52 91 56 47 80 48 39 81 47 40
91 61 46 97 73 57 105 60 54 103 66 57 106 68 62
109 74 59 104 68 58 102 68 51 109 67 56 105 65 53
128 90 77 118 80 67 112 74 61 108 70 53 105 67 64
105 69 61 102 56 51 91 47 45 108 64 56 105 59 54
105 69 59 104 66 57 101 61 53 103 59 53 93 59 48
94 53 44 90 58 46 96 60 49 93 63 49 84 49 37
70 44 29 81 52 38 74 45 31 69 40 20 65 38 30
67 39 28 67 39 28 61 31 20 59 33 24 57 30 21
59 31 22 65 31 22 48 27 20 55 29 22 49 31 20
48 28 18 47 25 14 51 29 18 46 29 13 44 23 12
58 25 19 65 34 26 70 40 32 59 34 24 68 28 24
77 44 38 104 65 59 88 55 45 177 131 133 128 90 87
100 53 53 58 20 17 35 0 0 22 0 0 36 0 0
54 14 12 74 22 23 70 15 19 81 17 22 83 18 25
90 35 38 117 47 55 127 60 67 142 77 84 134 67 71
121 55 59 99 32 36 87 17 22 101 39 47 103 47 51
75 28 30 43 14 10 15 0 0 10 0 0 23 0 0
47 17 17 38 13 3 35 0 0 45 11 7 79 34 30
79 34 25 67 18 18 53 10 1 57 0 0 59 6 1
68 24 7 78 26 20 95 41 27 71 4 0 74 18 1
86 20 12 96 22 21 101 36 43 107 35 37 106 32 43
95 29 46 111 41 63 97 23 49 93 21 61 52 0 25
90 23 80 173 108 179 165 95 171 145 84 167 148 98 144
145 97 123 136 88 122 141 99 112 135 88 106 101 72 70
95 57 60 90 56 64 95 66 80 97 63 76 100 66 79
104 70 83 74 41 82 71 42 82 67 30 77 58 23 62
48 18 67 36 4 61 45 2 53 48 8 61 46 10 66
52 8 64 57 19 77 88 52 108 116 70 131 115 80 137
92 48 110 64 24 80 76 38 95 100 59 127 114 74 140
96 59 123 82 33 96 68 26 95 82 34 103 85 44 106
83 29 103 84 38 103 93 37 116 87 35 107 74 24 99
72 24 97 85 29 104 67 13 86 157 109 188 159 106 189
204 155 231 247 186 255 255 206 255 255 216 255 255 214 255
255 218 255 241 179 255 216 158 237 211 139 221 226 157 247
213 147 230 194 117 212 183 122 209 202 130 225 255 255 255
169 115 196 52 0 70 95 49 119 119 59 146 52 5 69
56 14 65 58 19 62 57 20 51 52 9 37 40 9 32
44 9 31 52 20 29 42 10 30 44 3 16 55 18 22
20 0 3 31 12 7 33 5 7 29 10 11 43 9 14
35 7 12 42 8 6 41 7 9 39 11 12 39 9 13
38 8 4 37 11 9 49 9 8 48 14 11 51 7 10
47 9 6 62 18 23 55 12 15 57 14 17 58 15 18
58 15 18 65 22 25 58 18 21 63 20 23 70 27 27
62 19 20 55 12 13 59 16 17 71 28 29 78 35 36
82 41 44 82 41 44 64 20 22 65 31 28 68 32 30
68 32 32 72 34 29 73 32 30 73 43 40 67 34 34
92 57 49 82 46 43 79 46 34 83 48 39 76 44 35
84 51 42 88 54 47 88 58 51 92 48 40 94 57 48
97 59 53 104 69 54 103 67 57 105 69 53 113 79 64
113 81 65 133 93 81 123 85 72 115 77 64 109 71 54
111 73 68 103 65 56 101 65 55 85 49 41 117 81 67
111 75 63 114 76 65 111 71 61 107 75 61 103 69 56
99 63 51 98 60 48 90 58 46 98 62 51 94 64 50
84 49 37 77 51 36 79 50 36 79 50 36 73 44 24
65 38 30 70 42 31 62 34 23 63 35 24 58 29 18
63 33 22 59 33 22 65 35 23 50 29 20 56 32 22
54 28 19 58 30 22 52 32 20 50 28 17 46 26 14
43 22 11 60 27 21 70 39 31 67 37 29 54 29 19
64 24 20 78 45 39 103 64 58 100 67 57 101 56 58
132 94 91 170 123 123 155 115 113 123 71 72 72 24 24
37 0 0 4 0 0 69 11 16 57 0 0 42 0 0
41 0 0 50 0 0 62 0 4 78 14 20 90 29 32
96 21 37 88 16 29 81 4 19 83 12 24 89 28 35
91 35 41 67 13 18 37 0 0 23 0 0 20 0 0
32 0 0 50 11 12 41 10 2 38 0 0 48 10 5
80 32 25 86 37 28 69 17 16 58 6 0 46 2 0
58 0 0 69 16 0 76 29 15 87 38 21 71 8 0
79 10 4 81 16 2 80 20 11 94 24 15 105 31 36
97 26 31 99 25 35 108 29 45 83 18 39 84 10 45
40 0 22 70 3 55 136 70 134 157 91 166 162 93 171
149 98 148 144 94 127 137 93 121 138 98 113 136 92 100
113 78 88 109 68 82 111 73 81 106 77 88 109 77 87
112 80 90 117 84 96 34 7 48 54 26 67 64 38 79
54 31 69 66 28 77 79 45 87 79 50 95 80 53 91
27 0 41 29 3 41 44 0 60 63 22 75 84 47 101
92 53 105 76 41 89 66 22 80 69 32 92 81 37 94
73 31 94 38 0 55 10 0 39 32 0 47 38 0 58
36 0 60 81 38 103 81 25 102 76 27 93 81 25 102
80 27 103 80 29 103 94 38 108 96 36 119 79 26 114
80 29 114 90 32 129 93 44 128 117 55 145 122 68 149
146 83 173 137 73 157 248 178 255 241 171 255 255 196 255
255 228 255 255 223 255 225 165 246 209 141 227 235 174 255
255 255 255 236 174 249 43 0 67 58 0 76 117 63 139
61 9 77 70 21 81 91 45 102 52 8 49 48 7 46
45 0 31 45 15 42 44 12 31 37 10 24 42 1 9
51 14 28 26 10 2 30 8 12 29 8 12 41 7 7
37 7 6 40 12 13 41 5 14 41 5 4 38 10 9
39 9 11 38 8 4 40 11 10 36 10 3 45 10 8
44 10 6 44 10 5 49 19 15 50 17 13 51 18 14
52 19 15 52 21 16 51 22 16 58 18 20 57 19 22
61 28 22 51 17 13 47 16 11 50 19 14 62 31 27
71 43 38 78 35 35 78 38 37 60 21 20 64 23 23
70 29 29 68 27 29 70 29 25 81 37 36 69 37 32
69 34 32 86 49 42 71 33 31 70 36 22 71 35 24
76 44 35 85 52 43 83 50 41 85 53 45 66 37 24
89 46 39 93 52 47 97 60 45 98 60 50 103 64 49
107 71 57 110 76 61 111 69 58 106 66 54 108 68 56
109 69 53 116 78 73 117 79 70 113 75 66 110 72 65
121 83 68 115 77 64 118 79 66 112 71 59 104 71 55
101 66 51 102 64 50 106 66 52 85 53 39 100 64 51
95 65 49 84 49 35 73 50 32 81 55 38 81 54 34
74 40 35 69 45 33 68 42 30 69 41 30 62 34 23
64 36 25 62 33 22 60 34 23 66 36 24 49 31 21
55 34 23 53 29 19 57 31 22 49 31 18 52 32 20
54 34 22 43 22 11 68 35 29 71 40 32 72 42 34
56 31 21 63 23 19 78 45 39 104 65 59 109 76 66
75 30 32 104 66 63 136 89 89 135 95 93 151 99 100
146 98 98 111 65 64 80 28 30 46 0 0 65 9 11
65 0 5 57 0 2 62 0 1 62 0 0 61 0 0
61 0 0 75 11 21 73 5 15 75 13 17 85 19 28
86 28 34 82 33 33 56 9 8 24 0 0 26 0 0
20 0 0 27 0 0 40 14 10 43 7 1 34 0 0
46 5 0 71 26 28 85 43 38 67 22 13 54 3 1
48 0 0 51 3 0 58 11 1 79 18 18 83 37 24
76 13 1 74 18 3 71 13 0 77 11 4 88 20 17
84 27 18 96 23 24 88 17 22 91 16 27 90 20 38
81 17 51 81 18 45 101 30 88 129 67 122 152 82 165
170 106 170 145 98 139 139 87 119 132 87 118 138 97 115
134 87 99 118 86 87 120 81 90 129 94 99 112 80 90
118 84 93 122 87 98 121 90 94 51 24 55 72 45 78
73 46 71 57 30 57 42 17 44 42 22 47 40 10 37
19 0 27 53 17 57 40 9 38 32 0 46 37 10 48
48 12 58 52 18 69 43 11 53 17 0 39 44 4 57
50 8 60 56 17 73 53 16 66 69 35 91 93 51 106
78 44 100 57 11 73 85 42 105 79 31 100 71 30 98
78 25 101 73 22 99 78 30 102 82 28 107 78 30 106
62 4 103 75 22 115 86 27 130 97 45 135 109 37 142
110 53 150 116 47 145 102 44 132 126 59 150 156 96 176
190 127 215 221 159 241 240 173 255 199 140 217 201 139 223
251 187 255 255 253 255 255 225 255 71 14 86 25 0 46
103 53 135 63 13 87 57 6 80 98 59 121 50 6 62
45 7 57 42 3 51 49 6 36 51 9 42 41 0 18
38 2 12 39 6 9 37 3 16 30 6 8 44 11 16
37 10 13 40 5 16 37 9 5 41 14 12 41 13 18
38 8 4 39 9 11 38 8 2 41 12 10 41 12 10
47 7 9 42 9 9 40 2 1 49 15 23 45 17 18
46 18 20 45 19 20 51 15 21 51 16 24 50 24 17
53 24 21 54 26 24 47 22 19 53 13 15 53 16 18
65 29 27 74 36 36 66 33 31 68 36 34 57 23 20
61 29 26 64 32 29 66 34 33 69 37 30 66 34 29
75 40 36 71 32 32 76 47 36 65 34 26 62 30 25
64 32 29 80 47 36 87 54 45 85 52 43 80 48 40
67 32 21 73 42 31 81 50 41 81 49 35 84 51 42
82 56 36 98 59 46 101 65 51 96 62 47 96 62 47
97 63 48 100 68 48 114 74 70 122 84 75 124 86 77
121 83 74 115 77 70 118 79 72 105 70 63 108 72 65
105 67 61 101 60 55 89 60 51 96 64 56 90 56 48
101 65 58 95 65 55 87 55 46 84 49 41 91 54 46
80 51 43 81 51 39 71 39 31 73 39 31 68 42 30
62 34 23 64 36 25 63 34 23 60 35 24 64 37 24
58 28 22 63 30 23 57 36 25 54 30 20 57 31 22
58 30 22 53 35 22 51 30 19 65 32 26 75 44 36
74 44 36 59 34 24 63 23 19 77 44 38 101 62 56
102 69 59 105 60 62 113 75 72 105 58 58 77 37 35
114 62 63 164 116 116 164 116 116 139 95 93 92 44 44
106 58 60 110 59 59 111 45 53 105 48 51 98 34 37
97 28 42 84 17 28 104 33 44 95 30 35 98 33 46
101 33 44 90 33 43 58 15 19 28 0 0 2 0 0
36 4 0 20 0 0 28 0 0 42 11 8 45 8 0
33 0 0 44 2 0 71 22 23 86 41 33 75 24 16
50 5 0 46 0 0 47 0 0 55 11 0 69 19 10
70 22 8 70 21 7 69 16 6 67 8 0 69 10 0
74 15 8 87 19 15 83 15 16 89 20 27 61 0 6
82 15 23 106 40 66 145 77 116 166 100 149 157 92 151
158 93 157 161 95 168 142 93 134 138 91 116 133 86 118
132 89 109 135 92 93 115 85 88 119 81 81 133 100 98
109 79 78 116 84 85 120 87 91 125 95 89 48 31 58
59 42 71 53 35 59 25 6 35 8 0 11 26 0 24
22 1 23 10 0 6 15 0 15 18 0 24 27 8 27
42 16 52 53 26 64 58 34 70 51 24 74 48 17 56
64 34 83 73 35 79 84 46 98 122 78 136 173 132 181
196 159 213 191 146 204 195 159 215 75 28 90 88 46 105
70 21 96 60 20 82 74 19 99 74 25 97 69 13 89
54 0 78 77 21 117 81 24 135 111 49 154 119 63 170
137 80 178 135 73 172 143 78 172 128 65 163 139 72 168
161 92 193 159 94 181 137 70 155 142 80 160 153 88 165
190 121 208 228 172 255 255 233 255 255 246 255 151 96 173
83 24 97 116 56 138 68 11 101 52 0 83 85 33 111
65 7 84 52 10 63 46 0 57 48 11 58 46 6 38
39 5 25 39 0 18 41 10 12 39 11 20 32 14 14
42 7 18 39 14 11 42 9 16 41 9 15 40 7 18
41 12 11 37 7 13 39 9 7 39 9 13 37 8 2
41 8 4 36 10 4 47 5 4 33 4 0 47 22 18
37 17 14 43 13 11 48 20 18 47 21 18 47 23 21
53 18 15 43 20 12 58 25 25 49 18 17 42 14 12
48 21 20 66 34 29 65 44 35 68 37 33 64 38 32
52 17 15 65 28 25 65 29 27 71 35 35 73 37 29
73 37 31 76 37 35 67 38 33 78 45 36 70 34 28
71 35 29 72 36 32 84 48 38 89 53 45 82 46 38
85 50 43 67 30 20 79 43 34 82 48 40 80 46 32
81 46 37 77 48 29 91 49 37 85 46 33 105 69 55
94 58 44 94 58 44 100 66 47 111 70 66 116 77 68
115 76 67 111 72 63 114 75 66 109 69 60 106 70 61
102 65 56 97 57 49 102 59 52 92 61 50 95 61 51
93 57 48 103 65 57 96 66 54 86 54 43 86 54 43
91 57 46 80 54 43 82 54 42 70 40 31 73 41 32
67 43 30 67 41 29 63 37 25 63 35 24 65 35 24
69 44 31 56 29 22 62 32 24 54 36 24 57 36 25
59 35 25 60 34 25 55 39 25 53 35 23 62 29 23
76 45 37 76 46 38 64 39 29 71 31 27 79 46 40
99 60 54 95 62 52 102 57 59 139 101 98 148 101 101
95 55 53 97 45 46 136 88 88 139 91 91 94 48 47
145 91 94 129 86 84 123 68 72 121 60 64 116 53 56
114 48 50 110 41 53 115 46 56 96 34 38 99 35 43
104 38 49 95 45 52 77 35 33 47 8 6 31 0 0
19 0 0 25 3 0 17 0 0 23 0 0 39 16 5
40 0 2 22 0 0 47 2 4 60 22 15 85 37 40
62 16 11 46 5 0 46 0 0 51 4 0 54 8 0
59 6 4 59 15 0 69 16 7 57 11 0 66 12 2
64 10 0 77 17 12 76 19 17 80 19 13 72 18 15
61 0 0 73 8 30 100 40 60 184 124 161 222 153 198
187 122 176 177 110 181 167 100 170 147 97 137 146 97 123
136 93 110 141 102 108 135 90 96 115 82 78 118 84 80
129 92 93 101 73 74 116 85 77 113 81 79 119 90 79
31 11 33 34 13 38 31 15 27 24 7 25 18 1 21
24 7 17 33 18 27 36 20 39 35 9 27 32 11 31
40 16 42 50 23 49 57 34 63 57 30 62 50 27 69
49 23 61 39 9 46 37 5 50 42 16 62 79 41 85
100 63 117 112 79 124 129 91 151 165 127 187 76 37 101
92 43 104 72 23 98 68 25 88 83 28 108 93 42 113
81 33 101 57 8 89 104 50 159 91 38 152 92 36 144
97 36 152 103 41 148 115 48 163 136 68 177 125 57 166
173 110 211 188 127 219 175 116 200 125 63 150 127 69 141
191 130 212 254 195 255 255 206 255 255 202 255 255 216 255
255 197 255 212 155 240 144 86 171 79 27 123 70 12 100
72 16 106 70 20 96 54 11 89 48 8 60 59 12 67
58 16 53 47 2 40 45 6 18 42 10 23 42 9 29
43 13 23 37 8 23 37 7 20 41 10 17 40 9 13
40 8 14 40 12 8 42 13 14 37 7 3 39 9 7
39 9 11 38 9 11 37 10 11 42 6 12 38 5 6
38 16 21 37 19 20 43 15 14 42 16 16 42 18 17
40 18 17 53 21 21 34 14 17 64 34 26 52 23 20
44 18 14 49 25 20 68 33 35 63 40 36 69 36 37
58 31 30 63 22 24 66 30 32 64 31 28 71 35 34
70 37 37 74 37 41 70 40 31 68 33 30 87 49 39
73 49 39 71 44 35 76 49 42 76 49 36 81 54 43
79 52 41 85 60 50 68 36 23 74 46 33 84 48 41
83 49 35 80 45 36 81 49 31 79 49 33 85 58 41
95 56 43 92 56 42 90 54 40 95 60 41 99 62 58
103 67 58 107 71 62 100 64 55 107 71 62 108 72 63
103 66 57 99 59 51 94 66 54 93 62 51 95 61 51
103 67 58 90 62 49 101 71 59 98 66 55 87 55 44
85 53 42 94 62 51 92 58 47 89 53 41 70 42 33
73 43 33 73 41 32 71 39 30 69 35 27 62 38 25
65 37 26 69 39 26 57 33 25 62 35 26 64 34 26
65 32 25 57 36 25 59 35 25 58 35 25 64 33 25
54 24 17 74 43 35 80 50 42 70 45 35 72 32 28
82 49 43 98 59 53 84 51 41 111 66 68 156 118 115
160 113 113 85 45 43 71 19 20 118 70 70 132 84 84
86 38 38 130 86 84 119 72 72 115 56 61 99 50 48
96 35 47 103 34 44 99 30 40 106 36 45 88 14 30
86 25 33 81 29 33 85 35 36 61 21 29 39 1 6
25 0 0 33 4 0 24 2 0 16 0 0 30 0 0
41 12 2 32 2 0 24 0 0 40 0 0 64 27 16
69 30 26 63 20 8 56 8 3 49 4 0 45 0 0
50 7 3 58 9 4 52 2 0 59 11 8 57 13 8
57 11 6 64 17 12 74 23 20 83 18 23 75 12 18
68 12 13 70 3 23 62 5 18 83 14 47 185 125 157
239 167 215 195 128 189 193 130 192 179 115 181 155 109 141
157 106 136 150 105 128 146 105 111 143 96 104 120 92 80
113 75 67 124 90 84 103 76 60 110 80 72 115 84 74
114 87 68 18 6 21 18 6 21 19 6 26 19 6 20
17 6 13 18 0 10 18 3 8 14 0 11 38 18 39
33 15 28 27 15 32 30 2 27 28 5 33 31 4 38
36 12 46 37 14 50 48 11 56 52 15 58 75 40 88
80 51 91 66 26 71 30 0 47 41 1 52 63 24 86
125 81 144 84 50 116 67 15 87 76 33 106 100 45 119
94 43 120 92 42 119 71 20 98 178 124 235 128 75 181
117 60 175 113 57 161 114 48 158 111 60 157 131 59 164
96 33 133 132 65 167 195 131 223 201 138 230 121 61 142
112 46 132 201 137 206 255 212 255 255 220 255 255 208 255
252 195 255 255 255 255 255 255 255 175 118 214 66 8 106
72 10 107 67 14 109 69 13 107 61 11 87 52 0 72
42 3 57 54 12 58 49 4 39 40 1 27 51 20 35
33 1 13 36 8 23 39 8 24 41 17 24 41 3 18
41 10 17 40 8 12 40 6 13 39 4 16 41 11 12
36 5 11 38 7 3 38 7 5 40 9 7 35 4 2
31 3 0 47 19 24 40 15 17 40 18 11 39 19 13
44 14 13 48 20 18 47 21 19 43 15 15 58 33 37
44 27 15 53 20 16 60 30 25 78 50 44 82 52 47
73 44 41 60 37 32 52 20 18 54 28 25 71 28 27
64 41 34 88 45 46 71 46 44 82 43 34 63 36 31
78 48 48 77 49 35 84 54 46 82 52 46 84 54 40
80 50 38 86 56 46 91 63 54 72 38 26 78 48 36
88 50 44 86 50 37 84 47 39 85 52 34 94 60 45
100 69 53 80 38 26 80 41 28 84 45 32 96 58 40
115 74 71 123 83 75 119 82 73 113 76 67 121 81 73
115 75 67 107 67 59 107 64 57 98 67 56 102 68 58
109 73 64 111 73 65 87 57 45 100 68 57 102 70 59
89 57 46 87 55 44 88 56 45 93 61 50 93 59 47
71 46 36 80 53 42 71 44 33 69 42 31 65 35 25
71 37 29 67 43 30 73 46 32 60 26 23 58 35 24
59 32 23 66 36 28 57 39 27 59 38 27 57 39 27
65 37 28 54 24 17 73 42 34 77 47 39 65 40 30
69 29 25 77 44 38 99 60 54 89 56 46 70 25 27
135 97 94 149 102 102 78 38 36 72 20 21 147 99 99
169 121 121 76 28 28 116 72 70 122 75 75 126 67 70
108 59 55 113 49 59 93 34 42 97 25 34 90 28 31
100 38 46 87 21 29 83 27 34 80 37 35 60 17 21
10 0 0 0 0 0 10 0 0 37 4 0 14 0 0
18 0 0 41 9 4 35 10 0 17 0 0 41 7 6
76 35 33 80 38 42 59 20 16 57 5 10 44 2 0
49 6 0 47 6 0 49 0 0 36 0 0 55 16 7
50 4 0 65 13 15 78 24 26 83 37 31 80 27 29
74 9 19 62 0 12 86 23 42 67 1 32 63 0 26
181 112 161 228 171 215 202 136 195 202 136 200 206 140 202
173 124 165 167 120 142 159 117 133 160 122 129 148 105 101
118 86 79 113 79 69 118 86 76 96 71 56 105 76 57
112 83 69 120 90 70 22 10 24 35 23 37 39 29 44
37 27 32 22 14 22 17 1 12 10 0 15 7 0 8
37 19 38 17 4 13 12 0 17 15 0 20 27 10 36
40 24 49 37 25 41 40 18 53 57 31 67 58 26 66
48 19 57 43 16 58 51 24 65 71 32 86 87 47 98
98 59 121 22 0 40 67 33 97 80 28 98 52 10 77
102 47 127 185 135 215 166 117 187 76 26 110 96 37 139
141 84 182 115 51 161 70 17 110 79 16 120 69 13 111
111 42 146 192 129 220 232 172 254 134 71 155 138 77 151
182 121 194 208 160 220 255 225 255 255 253 255 255 203 255
227 171 226 218 150 224 228 168 255 211 147 243 186 116 216
204 144 244 170 106 218 33 0 65 112 59 154 64 9 99
76 23 102 105 52 125 68 30 76 51 11 46 60 16 46
44 4 24 47 12 31 44 12 36 45 10 31 38 0 22
37 13 20 37 8 18 41 11 20 38 13 13 43 16 19
42 14 12 44 16 18 40 12 16 42 14 18 40 9 14
44 10 16 36 11 15 38 12 12 26 14 10 37 10 13
40 16 18 38 16 17 43 21 22 44 22 25 37 17 9
54 26 26 46 19 21 46 22 23 39 15 16 37 13 14
42 17 21 49 31 22 59 27 25 70 37 37 68 40 38
75 44 42 66 39 39 64 31 28 58 35 28 68 35 38
69 36 28 87 56 51 82 49 50 80 51 40 85 55 47
81 51 45 83 53 49 79 49 37 79 51 42 68 34 22
79 47 36 82 52 42 87 57 41 86 56 44 85 54 37
85 54 39 86 56 41 86 55 39 91 61 45 88 58 42
83 54 33 77 45 39 81 53 41 98 58 50 121 78 71
82 54 42 91 60 49 94 63 52 92 61 50 92 58 48
89 53 44 80 52 39 77 47 35 106 74 63 100 68 57
96 64 53 87 55 44 88 56 45 98 66 55 89 57 46
83 52 39 57 20 14 69 33 25 69 33 25 70 31 24
67 40 29 65 35 25 64 30 22 62 39 23 58 28 23
67 34 28 61 38 27 62 35 26 64 34 26 63 33 25
63 33 25 61 36 26 51 22 15 68 37 29 88 58 50
98 73 63 103 63 59 88 55 49 85 46 40 70 37 27
126 81 83 133 95 92 132 85 85 82 42 40 145 93 94
143 95 95 59 11 11 132 86 85 115 61 64 58 15 11
92 36 46 99 33 42 91 30 37 101 41 47 91 13 31
93 21 32 72 8 25 101 40 52 89 40 46 43 3 8
23 0 0 26 0 0 23 0 0 12 0 0 19 0 0
26 0 0 25 2 0 20 1 0 35 0 0 35 5 0
39 1 3 14 0 0 51 10 8 48 9 0 49 18 7
53 10 10 54 13 14 48 9 1 59 12 4 52 13 4
39 0 0 51 16 8 56 15 17 44 4 5 47 0 0
69 24 25 87 31 36 81 16 30 69 8 29 53 0 16
50 0 26 126 60 91 231 168 213 194 129 176 200 136 199
170 106 161 138 92 120 156 106 132 155 111 129 146 106 114
145 99 100 124 96 81 121 84 75 106 72 58 124 96 78
120 94 68 111 84 62 107 79 57 28 22 27 32 28 32
39 25 32 31 20 35 20 9 21 10 3 11 23 8 26
25 15 26 43 25 37 27 7 30 22 5 29 30 17 33
53 31 59 52 33 59 45 30 51 28 4 30 38 9 47
38 4 49 37 6 44 38 11 48 44 9 65 53 15 62
65 26 84 66 27 84 99 58 122 83 34 98 117 70 145
93 46 117 42 0 70 94 42 128 154 103 185 104 56 132
82 29 118 136 82 178 140 87 176 99 49 142 113 53 144
117 58 143 147 79 175 186 125 216 249 191 255 210 150 232
230 173 248 251 189 255 255 206 255 255 248 255 255 234 255
223 173 224 195 126 204 182 118 191 194 138 218 188 125 215
147 82 192 169 102 211 164 94 202 88 24 134 63 3 99
73 18 110 98 42 120 89 37 109 55 1 63 44 8 48
60 16 52 58 19 46 42 7 37 43 11 33 40 9 27
43 8 29 37 6 22 38 10 20 40 10 22 43 11 23
41 13 17 41 12 19 42 13 11 39 10 10 45 10 12
32 12 9 36 11 10 35 13 9 32 18 12 31 14 9
41 12 11 44 18 16 43 16 17 43 16 17 42 18 18
42 20 23 54 24 21 52 24 22 45 17 17 49 21 21
52 24 24 52 23 26 58 35 25 50 32 23 63 36 32
67 33 33 69 38 37 69 36 37 65 38 31 65 35 31
68 40 35 68 42 40 78 43 38 78 44 43 78 48 35
84 53 43 86 55 47 81 50 44 81 50 36 81 51 43
77 41 29 79 45 34 86 52 43 87 52 38 82 50 39
78 46 29 82 50 35 83 52 37 87 52 37 85 51 36
85 52 37 82 50 30 80 45 40 82 51 40 101 55 49
96 68 56 93 59 49 94 58 49 98 62 53 96 60 51
95 59 50 100 62 54 95 65 53 95 63 52 95 63 52
98 66 55 97 65 54 90 58 47 90 58 47 96 64 53
87 55 44 85 54 41 61 28 21 72 40 31 70 37 28
71 35 27 60 36 24 66 39 28 64 34 24 68 35 24
61 34 28 63 34 26 64 31 25 59 36 25 59 34 24
63 38 28 63 36 27 61 37 27 62 28 21 70 40 32
82 52 44 80 55 45 86 46 42 78 45 39 86 47 41
77 44 34 109 64 66 123 85 82 130 83 83 84 44 42
123 71 72 122 74 74 71 23 23 122 76 75 117 67 68
77 24 25 102 46 53 97 44 50 93 30 36 103 41 47
92 19 32 88 26 33 79 14 27 85 33 42 80 34 37
45 13 9 22 0 0 16 0 0 15 0 0 13 0 0
22 5 0 17 0 0 30 0 0 21 2 0 33 5 0
31 1 2 35 9 2 29 0 0 57 27 27 50 9 7
52 6 12 51 14 3 52 14 6 47 11 4 51 7 5
50 15 10 36 0 0 48 11 16 55 9 8 50 5 1
61 14 18 78 23 25 82 28 45 67 10 29 80 16 38
69 6 38 57 0 24 105 46 85 226 164 208 192 133 173
199 135 184 177 112 161 150 106 133 161 114 135 151 109 119
149 111 112 143 99 93 125 99 77 120 85 68 108 76 54
118 93 72 116 87 63 116 86 67 113 88 56 20 7 21
38 25 39 58 48 57 61 46 65 52 39 57 23 13 27
9 0 12 0 0 12 0 0 8 16 0 24 32 11 41
34 17 44 26 7 28 23 0 35 24 5 34 38 15 46
22 0 34 32 0 46 31 2 40 28 0 44 29 0 49
45 9 59 60 16 81 47 11 71 132 94 160 5 0 27
63 11 88 133 92 163 67 14 101 86 28 114 224 168 252
255 220 255 252 195 255 255 241 255 255 234 255 255 197 255
250 190 255 253 199 255 255 210 255 255 229 255 255 243 255
255 223 255 255 233 255 255 229 255 255 236 255 255 243 255
238 189 231 139 93 146 150 83 160 145 78 173 174 105 205
187 117 226 168 99 207 173 109 212 150 80 193 85 29 132
67 5 102 84 26 110 88 34 121 98 46 119 70 28 87
58 5 64 45 3 48 55 17 48 40 7 42 49 11 38
41 9 36 40 7 28 36 8 16 37 4 25 40 11 16
42 11 20 41 13 16 41 12 15 42 13 19 41 9 16
35 15 18 37 10 15 39 11 16 38 7 15 33 13 17
38 15 20 33 13 17 33 12 19 39 22 17 37 22 19
49 19 21 41 17 17 46 24 25 43 21 24 48 26 21
42 20 17 47 25 22 48 28 24 54 23 27 55 30 34
63 30 26 61 35 31 65 39 35 64 38 35 61 34 29
59 32 28 64 37 33 68 42 40 61 33 24 67 40 33
73 45 41 81 53 51 79 51 41 81 53 45 76 47 44
70 47 32 72 42 30 79 51 40 80 51 43 77 55 36
78 43 33 76 44 27 74 42 27 77 45 30 77 46 31
75 45 30 82 48 33 75 43 23 70 35 30 73 39 29
75 44 33 84 48 39 94 56 48 85 57 44 87 57 45
94 64 52 93 63 51 99 69 57 101 69 58 110 78 67
82 50 39 99 67 56 98 66 55 93 61 50 93 61 50
97 65 54 88 56 45 73 43 30 70 33 26 71 35 26
71 39 30 69 36 27 70 34 26 69 30 23 64 37 26
67 37 25 64 32 26 59 32 24 66 37 29 65 34 27
63 32 25 68 35 29 62 37 27 59 37 26 65 32 25
72 42 34 79 49 41 76 51 41 80 40 36 77 44 38
93 54 48 89 56 46 100 55 57 111 73 70 112 65 65
88 48 46 118 66 67 103 55 55 64 16 16 120 74 73
108 60 60 75 24 24 93 37 44 95 38 44 94 30 40
103 36 48 82 18 28 83 21 26 85 25 37 88 29 36
64 23 34 29 0 3 15 0 0 8 0 0 5 0 0
0 0 0 29 0 0 16 2 0 21 4 0 26 0 0
36 3 0 33 0 0 38 8 7 34 0 0 55 18 18
43 14 4 51 9 5 49 9 9 46 9 8 48 10 9
49 5 10 51 12 2 39 1 0 48 16 1 52 5 5
51 6 11 64 16 17 78 26 28 80 20 37 68 10 30
80 17 41 78 13 37 50 0 28 83 24 51 204 137 183
194 137 174 192 125 168 161 109 137 148 99 128 159 109 130
153 114 112 147 110 102 145 103 87 123 93 72 122 89 72
117 87 63 110 87 57 112 85 53 111 84 55 114 86 57
3 0 5 25 13 26 53 42 55 64 55 71 55 42 69
42 29 48 29 14 46 25 14 37 12 0 23 19 2 26
19 5 36 23 2 35 17 0 30 14 0 25 22 8 34
32 13 41 35 3 54 40 4 53 38 9 62 38 4 50
43 2 57 47 9 65 64 24 90 71 28 89 96 47 118
45 1 73 46 2 78 80 27 104 125 66 155 213 161 250
255 232 255 255 234 255 255 224 255 255 228 255 255 220 255
255 218 255 255 230 255 255 229 255 255 222 255 255 235 255
255 217 255 255 208 255 230 170 234 203 139 198 212 155 219
239 177 235 177 131 178 93 32 91 151 81 180 144 79 182
167 102 210 196 128 237 186 119 232 178 107 226 153 84 191
107 40 137 89 18 124 66 5 95 54 0 77 77 21 101
102 48 119 70 20 76 43 2 52 65 18 67 47 5 39
46 10 38 47 9 38 41 6 31 38 6 32 41 10 24
40 9 21 44 10 16 41 14 14 41 12 14 42 13 17
41 9 14 38 15 15 33 10 12 39 9 13 30 12 12
35 11 14 38 14 17 36 12 15 38 13 19 38 17 11
40 18 15 38 22 17 45 16 15 46 19 20 44 17 20
44 17 12 50 23 20 48 21 18 51 24 21 54 31 26
50 19 23 54 36 27 60 26 25 64 33 31 62 31 30
58 27 22 63 32 28 59 31 27 67 40 38 55 23 16
62 31 26 72 41 36 77 46 43 79 50 40 79 50 42
74 44 39 66 41 26 75 43 36 78 48 36 85 54 46
79 54 36 87 49 40 76 41 25 81 46 32 85 50 36
74 42 27 81 50 35 81 46 31 74 41 21 76 39 35
71 35 26 85 47 39 79 51 38 90 61 47 89 55 43
92 58 46 91 57 45 96 65 52 96 65 52 98 67 54
107 76 63 81 50 37 94 63 50 96 65 52 95 64 51
94 63 50 95 64 51 83 52 39 71 42 27 66 30 23
73 38 29 65 34 25 70 38 29 69 36 27 69 33 25
58 34 22 60 33 20 67 37 31 67 35 27 61 33 25
65 36 28 68 39 31 65 34 27 64 43 31 67 35 29
68 37 29 72 42 34 76 46 38 74 49 39 82 42 38
78 45 39 98 59 53 104 71 61 117 72 74 102 64 61
95 48 48 101 61 59 127 75 76 98 50 50 75 27 27
114 70 68 106 48 51 67 18 15 95 34 43 88 40 41
86 20 32 100 39 46 78 17 22 85 16 23 88 35 44
76 32 32 50 16 18 31 0 0 5 0 0 1 0 0
10 0 0 6 0 0 26 2 0 19 0 0 26 1 0
18 4 0 29 7 0 31 4 0 36 6 5 28 2 0
50 12 10 45 8 8 46 13 14 41 11 1 56 9 7
40 13 4 54 12 8 49 11 10 54 9 12 50 13 13
49 3 0 50 5 5 69 23 25 76 19 37 71 14 27
69 13 29 63 0 27 87 18 61 84 27 59 87 26 55
179 122 161 187 123 154 169 115 150 160 100 137 150 104 121
156 109 120 152 109 115 148 113 106 147 106 87 128 100 69
123 93 58 125 92 68 103 77 50 110 86 50 105 80 49
104 78 41 14 0 23 19 4 26 18 0 32 20 1 29
23 11 37 50 24 50 74 53 91 98 80 108 96 68 109
58 34 78 14 0 34 22 0 32 39 11 54 54 26 69
40 13 52 22 0 31 28 3 49 39 7 55 43 7 56
33 0 55 36 0 53 41 7 63 59 21 83 79 40 102
42 0 72 160 111 182 112 57 138 44 0 78 215 163 243
255 255 255 219 161 255 87 35 120 126 66 149 90 29 103
111 57 142 188 121 200 229 167 252 223 158 235 201 142 222
207 137 217 171 108 180 175 108 188 138 81 147 127 64 137
170 115 183 211 152 224 174 114 178 113 53 126 131 64 169
121 52 172 139 65 190 153 82 199 168 95 215 167 102 220
168 100 206 170 106 211 105 44 127 109 51 140 65 10 83
35 0 58 58 9 80 73 26 86 57 17 73 80 34 90
48 5 49 43 13 44 47 6 41 42 9 29 40 11 38
39 6 25 37 13 30 35 15 21 43 8 21 41 13 17
42 13 16 43 9 13 38 10 19 38 9 15 32 12 16
29 13 15 37 19 17 35 15 16 33 15 15 35 17 17
38 19 22 34 15 18 37 20 22 39 14 23 39 21 16
34 16 14 39 21 21 42 24 24 40 22 22 46 28 28
44 29 30 49 22 19 54 27 19 54 32 27 52 30 25
57 35 30 53 31 27 49 30 26 63 32 28 63 34 33
49 25 14 54 29 21 61 36 28 67 44 37 74 43 34
71 42 34 69 39 34 63 38 23 74 42 34 76 46 34
79 48 40 85 57 40 77 51 38 79 53 34 81 55 38
84 61 43 79 44 30 79 47 32 80 49 34 78 47 28
76 46 38 83 53 41 86 56 44 97 66 53 92 51 48
83 58 48 84 56 47 87 62 52 93 56 50 91 57 50
90 56 49 92 58 51 79 45 38 95 61 54 97 63 56
89 55 48 95 61 54 95 61 54 84 50 43 64 31 24
70 35 26 73 39 30 71 36 27 70 34 25 64 32 23
69 36 27 67 31 23 70 31 22 62 35 28 69 38 30
63 35 27 66 37 29 67 38 30 69 40 32 72 41 34
68 40 32 67 36 28 76 46 38 83 53 45 78 53 43
85 45 41 89 56 50 110 71 65 111 78 68 132 87 89
95 57 54 84 37 37 109 69 67 137 85 86 105 57 57
95 47 47 112 68 64 100 44 54 66 14 20 81 35 37
88 29 34 83 28 36 96 29 38 81 14 30 75 16 27
94 39 54 64 21 28 40 10 20 13 0 0 4 0 0
11 0 0 7 0 0 9 3 0 18 6 0 17 0 0
22 6 0 21 3 0 32 0 5 34 4 6 38 5 3
35 2 0 38 13 11 43 4 2 40 7 5 41 9 9
45 10 9 42 11 11 48 14 15 38 9 0 58 21 15
61 25 18 54 9 11 48 5 0 70 21 28 68 15 30
63 3 24 87 29 58 50 0 22 95 30 60 130 69 107
114 49 90 171 112 143 174 112 143 162 108 135 154 97 122
153 108 122 155 109 107 154 113 105 151 118 96 151 111 82
132 106 75 131 97 69 128 98 61 119 96 62 117 90 50
116 88 54 112 88 44 23 9 35 21 7 31 23 10 41
18 9 32 26 4 38 35 20 47 52 32 67 67 51 88
92 72 110 76 56 102 71 44 84 39 18 54 16 0 40
10 0 34 19 0 32 38 15 58 26 0 41 27 0 52
32 0 48 26 0 49 25 0 45 35 0 56 54 10 77
71 31 99 48 0 70 74 31 102 61 6 94 191 135 218
255 255 255 244 191 255 55 5 98 86 22 120 85 24 112
56 2 84 111 44 130 188 128 216 208 144 223 181 121 204
156 89 171 138 75 158 98 34 119 132 65 151 130 60 148
142 80 163 214 146 235 220 163 243 162 103 175 126 64 156
85 14 132 101 34 157 112 39 164 132 61 187 148 75 201
144 70 188 146 83 184 158 91 189 191 121 212 242 177 255
170 106 192 27 0 52 18 0 28 48 3 67 61 4 85
51 5 61 50 14 56 59 14 41 45 8 46 43 13 36
41 2 29 43 13 26 37 11 26 37 14 19 43 9 19
41 13 16 44 12 16 33 14 13 42 9 18 29 13 14
31 16 13 32 11 13 39 16 21 33 19 14 36 12 15
39 17 19 35 13 15 40 18 20 38 16 18 39 19 22
28 8 4 41 18 15 41 19 18 43 21 20 48 26 25
42 20 19 47 25 24 40 25 26 46 21 22 52 25 17
56 30 26 54 28 24 50 25 21 47 25 21 59 25 22
64 32 32 51 26 13 54 28 18 57 30 23 63 38 32
65 34 25 66 37 29 64 34 29 60 35 20 70 36 29
71 39 28 79 48 40 81 53 36 81 52 40 81 52 34
83 54 38 84 58 41 85 47 34 84 49 35 84 52 37
81 49 30 80 48 41 85 53 42 95 63 52 108 74 62
83 58 48 91 61 51 88 58 48 83 56 45 89 50 43
84 48 40 85 52 43 75 42 33 93 60 51 92 59 50
92 59 50 89 56 47 87 54 45 91 58 49 82 49 40
67 35 26 66 31 22 69 35 26 72 38 29 70 35 26
65 34 25 63 31 22 68 35 26 62 26 16 68 41 34
65 34 26 64 37 29 66 38 30 68 39 31 68 39 31
69 40 32 74 46 38 63 32 24 74 44 36 86 56 48
90 65 55 96 56 52 87 54 48 105 66 60 102 69 59
128 83 85 94 56 53 81 34 34 118 78 76 130 78 79
106 58 58 112 64 64 114 70 66 90 34 42 65 13 17
82 28 33 81 33 35 84 26 33 91 40 41 75 14 28
74 25 29 83 38 46 54 18 19 21 0 2 17 3 0
17 0 0 3 0 0 7 0 0 12 0 0 20 1 4
18 0 0 23 6 0 22 2 0 29 6 3 26 2 4
36 10 1 33 3 0 39 7 5 30 5 3 47 7 5
43 6 4 47 11 9 47 10 8 46 11 10 47 13 12
54 19 17 72 27 28 54 7 5 48 4 13 72 17 24
59 5 28 69 7 39 112 52 85 64 0 34 96 27 68
173 115 159 160 97 137 167 106 133 155 102 134 167 110 142
156 94 127 156 114 120 156 112 107 153 114 105 152 115 98
152 115 82 141 117 78 136 104 68 127 99 54 143 121 79
142 117 79 136 110 72 128 106 57 24 3 37 35 14 48
50 30 59 49 26 67 39 12 59 23 0 40 20 0 40
4 0 31 33 6 45 60 33 81 87 56 111 70 41 93
23 0 44 2 0 22 21 0 46 47 28 71 38 6 55
43 7 64 48 18 67 38 11 65 35 0 59 44 8 62
71 27 100 83 48 114 72 21 98 28 0 61 114 63 147
255 234 255 255 246 255 101 36 134 23 0 50 173 117 212
119 54 159 140 73 175 197 125 229 207 138 244 149 77 180
125 57 160 137 58 165 110 34 140 124 45 152 138 75 173
145 71 181 177 112 212 242 176 255 220 146 255 136 72 177
118 54 161 92 17 158 113 41 186 127 53 191 144 70 203
152 81 213 130 59 178 133 59 172 137 73 172 255 201 255
255 247 255 233 178 248 97 50 124 68 16 87 59 13 82
42 0 60 38 0 67 56 13 54 56 18 48 44 11 44
44 11 42 44 9 34 41 6 33 37 12 23 37 15 17
43 9 19 41 13 16 44 12 15 35 14 12 42 9 18
29 14 12 33 10 23 28 12 9 37 16 19 26 17 19
35 18 14 31 15 14 35 19 18 33 17 16 33 17 16
35 19 18 28 14 14 33 10 17 38 19 14 38 19 16
41 22 21 46 25 25 37 19 18 41 21 21 48 18 16
48 22 25 50 27 21 48 26 22 50 23 19 48 22 19
50 26 20 51 30 24 62 27 28 60 27 30 54 26 14
57 30 24 55 22 12 59 28 21 63 31 25 62 34 18
63 37 26 66 42 27 74 39 32 79 50 31 74 45 33
71 41 21 74 45 27 72 43 25 82 56 37 77 54 34
84 46 31 83 48 28 77 45 38 82 48 37 86 55 42
95 59 46 80 52 43 86 54 45 82 52 42 82 50 41
78 51 40 74 50 38 81 42 35 73 37 29 96 60 52
96 60 52 95 59 51 82 46 38 88 52 44 93 57 49
85 49 41 73 38 30 67 31 22 72 37 28 68 33 24
72 37 28 70 34 25 70 33 24 62 30 21 66 27 18
66 39 32 68 38 30 70 39 31 72 40 32 67 39 31
74 45 37 75 46 38 74 46 38 60 29 21 79 49 41
91 61 53 94 69 59 99 57 54 84 51 45 88 47 41
77 44 34 105 59 61 89 51 48 88 38 39 117 77 75
115 61 60 85 35 33 121 71 69 118 75 68 89 32 39
65 12 13 82 37 34 82 38 33 81 23 32 88 33 37
79 19 30 92 37 38 64 11 26 39 9 7 8 0 0
7 0 0 4 0 0 7 0 0 2 0 0 6 0 0
22 2 3 17 1 0 23 1 2 22 3 5 30 5 1
28 2 2 37 9 9 37 4 12 33 1 0 36 5 4
32 4 2 34 9 6 36 11 8 40 15 13 37 15 8
44 16 10 49 6 3 66 29 29 55 13 13 42 0 2
67 12 36 57 1 20 76 19 46 143 79 122 108 39 82
97 24 76 194 132 180 189 120 171 166 103 148 159 102 139
182 120 160 149 101 124 159 110 123 164 114 117 155 118 99
157 124 94 161 120 91 143 120 69 144 117 69 133 102 65
149 133 80 148 125 81 141 118 67 139 115 69 9 0 29
23 3 43 35 15 55 34 18 49 35 13 55 22 6 46
26 0 36 25 2 42 15 0 36 19 0 37 40 9 65
65 37 88 84 59 107 63 38 84 25 4 53 0 0 18
70 29 96 60 29 81 53 14 75 36 1 55 28 0 50
25 0 54 43 0 64 52 11 85 3 0 36 169 115 199
255 255 255 255 226 255 66 13 109 48 0 75 146 84 185
115 59 148 84 20 128 158 86 191 255 195 255 207 141 244
63 0 99 67 0 105 157 86 192 149 80 185 139 70 171
169 96 208 137 70 176 191 121 235 255 209 255 227 153 255
124 60 170 134 69 187 132 61 196 151 77 214 119 48 184
107 34 177 127 56 182 99 34 144 114 49 146 187 121 217
255 201 255 255 250 255 255 197 255 157 102 170 127 74 147
35 0 58 0 0 15 75 23 90 41 0 40 49 8 40
56 13 51 43 4 43 41 8 27 40 6 27 35 12 22
37 10 24 43 8 11 42 12 10 45 12 14 34 8 13
39 10 14 38 8 9 27 12 20 26 12 20 35 15 13
24 17 15 34 11 18 32 17 14 36 20 19 36 20 21
37 19 19 41 23 23 26 9 7 26 13 9 37 14 17
42 21 25 47 23 20 40 25 21 47 23 24 38 18 22
40 19 14 42 25 23 56 26 20 53 26 21 48 22 19
46 19 18 52 30 20 54 33 24 67 42 36 59 35 30
51 26 26 44 21 11 51 20 15 53 24 9 63 34 31
56 29 20 73 43 29 71 42 27 79 52 41 74 47 37
70 38 19 62 36 21 65 34 19 60 30 15 92 62 47
84 54 39 81 54 38 69 45 26 75 36 27 64 39 26
86 43 38 79 52 43 94 60 52 83 60 46 92 56 49
83 60 46 83 49 41 83 51 42 75 46 36 65 36 26
103 74 64 98 69 59 93 64 54 81 52 42 80 51 41
91 62 52 82 53 43 67 41 30 67 29 23 72 37 30
70 35 27 67 32 24 71 36 28 69 34 26 70 31 24
59 33 20 71 40 34 71 40 32 72 41 31 74 42 32
76 48 38 76 47 37 78 49 39 85 57 47 52 20 10
79 48 38 99 68 58 108 82 70 98 63 56 83 44 40
61 30 24 58 22 12 80 36 42 81 38 36 74 38 34
125 78 73 92 42 49 68 23 26 130 88 88 136 83 83
86 37 35 62 3 14 83 34 38 89 34 41 75 31 30
95 45 44 73 24 35 102 54 65 63 27 25 33 0 5
0 0 0 0 0 0 10 0 0 2 0 0 0 0 0
0 0 0 22 4 4 21 0 0 20 3 0 20 1 1
28 3 0 27 1 1 39 9 12 34 11 3 32 0 0
33 2 0 34 9 7 46 7 9 46 10 11 49 13 15
52 21 16 51 23 16 26 0 0 66 18 24 44 0 12
53 0 21 59 6 22 59 2 32 86 16 62 108 48 87
125 54 113 62 0 49 200 135 188 199 132 180 152 98 135
160 104 138 190 131 169 152 97 111 154 111 116 153 116 106
168 129 107 164 125 94 156 129 93 155 116 79 151 121 80
145 118 78 168 137 92 153 135 85 147 123 71 134 110 60
11 0 22 21 2 32 31 13 38 28 7 47 21 0 24
21 0 35 39 10 49 41 18 60 81 54 100 27 0 34
24 0 42 55 25 70 93 48 106 122 81 133 91 49 108
9 0 22 10 0 34 9 0 43 49 0 75 61 8 88
48 0 72 74 27 106 156 99 185 199 146 223 189 137 221
255 255 255 255 255 255 92 34 118 28 0 69 103 50 140
59 9 94 12 0 46 209 151 247 195 131 227 93 31 136
35 0 68 131 71 166 147 90 182 100 30 136 111 46 144
126 61 169 99 34 138 195 129 231 172 106 214 132 67 170
222 153 255 206 141 246 86 14 122 154 84 197 77 0 119
123 47 159 170 98 204 114 39 145 162 88 185 255 202 255
255 211 255 255 224 255 119 57 142 114 47 143 241 174 255
255 212 255 252 188 255 147 78 150 0 0 0 98 54 103
53 12 59 41 0 40 48 13 46 42 10 33 42 9 35
45 17 37 37 10 23 45 18 33 38 15 22 40 16 28
39 12 17 43 14 22 35 14 22 44 12 12 35 13 9
43 21 33 39 22 19 40 19 19 35 13 13 37 15 19
33 9 2 32 16 17 27 10 8 33 12 18 38 18 22
38 20 23 40 21 26 44 24 26 33 27 19 39 17 20
36 18 10 49 30 25 39 24 18 45 23 23 43 23 24
42 22 15 47 27 22 44 23 20 39 21 17 47 17 18
48 26 16 53 29 23 56 32 28 56 34 32 57 35 23
50 30 29 50 25 20 73 43 34 61 35 19 61 35 32
61 36 22 71 41 31 63 39 29 72 43 33 65 37 27
70 44 33 70 44 33 69 43 32 69 45 33 69 36 27
58 37 19 72 40 39 72 49 31 67 39 27 60 36 25
67 38 26 60 36 25 73 45 33 76 49 37 82 55 43
81 54 42 81 54 42 78 51 39 77 50 38 79 52 40
78 51 39 74 47 35 75 48 36 93 68 56 53 22 10
65 36 23 63 34 25 61 32 22 59 30 20 58 29 19
57 26 17 52 29 13 62 33 28 57 29 19 61 33 31
57 29 25 60 31 27 62 33 29 60 31 27 49 20 16
89 61 55 83 55 49 85 59 52 85 48 51 71 49 33
76 41 34 72 35 31 82 41 35 65 34 20 94 50 53
118 81 74 111 67 72 87 52 52 82 32 34 70 28 33
83 40 50 105 46 65 74 22 37 66 10 26 79 28 42
78 30 45 89 39 56 78 39 43 38 7 12 0 0 0
20 4 6 29 6 5 24 7 3 15 3 0 8 0 0
9 0 0 4 0 0 22 0 0 20 0 0 26 0 8
23 10 3 34 11 4 31 5 7 34 4 0 32 7 0
33 0 0 33 5 0 40 1 1 38 1 0 40 7 3
36 6 1 45 5 0 35 0 0 68 15 40 67 21 46
86 26 62 33 0 10 79 25 74 46 0 31 0 0 2
255 243 255 90 32 96 155 102 152 184 131 177 198 145 178
174 116 144 162 118 126 171 122 128 180 135 134 143 109 92
148 115 86 145 108 86 153 123 99 161 125 99 161 127 97
144 115 87 139 115 72 113 82 52 123 91 45 132 111 60
154 129 83 23 0 28 32 7 35 41 17 53 35 14 42
31 4 44 22 3 32 34 5 52 48 15 49 25 0 47
67 37 84 86 47 94 52 8 63 16 0 34 33 0 48
139 97 156 255 234 255 158 104 188 210 148 241 255 211 255
255 243 255 255 243 255 255 252 255 255 255 255 255 255 255
255 234 255 163 111 192 43 0 73 40 0 68 117 59 147
78 20 116 17 0 54 64 14 101 255 195 255 144 85 179
111 52 144 129 71 163 137 75 174 114 53 150 107 51 142
146 83 187 93 32 131 93 32 131 139 78 175 145 84 187
100 39 140 84 27 125 108 38 138 124 63 162 95 24 135
175 98 207 255 191 255 255 239 255 255 243 255 255 233 255
255 189 255 232 158 255 142 69 163 166 87 195 172 107 212
175 104 201 216 147 238 255 237 255 255 193 255 119 58 111
52 0 62 51 17 54 56 6 53 53 16 57 42 6 39
41 9 29 41 14 28 31 4 18 42 14 31 40 11 24
42 12 30 39 13 21 36 9 22 42 11 18 36 11 18
29 7 16 42 15 21 37 16 21 34 11 20 37 19 17
32 13 9 37 15 18 29 14 11 31 15 11 34 14 18
32 13 15 36 17 19 41 18 24 32 22 23 35 24 19
38 26 16 29 20 13 43 24 21 48 27 23 43 26 21
41 24 21 46 29 18 43 26 17 43 26 19 41 26 18
47 25 21 48 26 25 44 29 17 46 30 20 47 30 22
49 32 26 50 36 27 51 29 26 58 35 31 63 32 21
61 32 21 66 37 28 64 36 27 67 38 29 64 38 29
66 42 32 67 33 28 69 37 31 75 43 37 70 38 32
64 36 28 64 34 27 66 38 28 70 38 36 68 44 30
66 39 28 67 41 30 67 40 29 66 40 29 70 44 33
73 47 36 70 44 33 81 55 44 79 53 42 76 50 39
75 49 38 73 47 36 76 50 39 74 48 37 76 51 41
62 35 20 64 38 23 61 35 24 65 39 27 63 37 25
62 36 24 59 34 19 59 33 16 68 38 33 64 35 25
62 33 29 67 38 32 63 34 28 67 38 32 66 37 31
57 28 20 85 55 55 80 50 48 87 58 58 88 63 53
84 49 51 75 53 37 77 45 35 78 43 37 81 41 30
93 58 52 105 63 67 100 64 63 94 49 58 77 40 40
87 38 45 85 44 53 97 39 59 69 17 38 73 18 40
81 36 45 93 40 65 85 44 53 65 22 40 31 0 3
10 0 0 14 0 0 12 0 0 13 0 0 4 0 0
3 0 0 11 0 0 0 0 0 25 0 1 24 0 5
20 4 7 33 2 11 34 5 9 29 5 4 37 7 3
28 3 0 39 5 3 31 3 0 37 1 0 41 9 4
46 3 2 48 10 6 51 9 6 40 0 0 70 16 49
70 8 49 69 12 49 48 0 34 80 19 73 44 0 42
98 39 95 255 255 255 121 64 124 147 87 142 155 96 145
169 116 152 174 119 140 182 130 142 185 128 137 156 110 102
161 126 93 160 126 89 156 126 97 159 125 104 162 128 102
153 113 96 131 105 71 135 99 65 81 58 11 103 73 31
106 83 36 140 119 67 31 9 45 33 12 46 42 16 58
38 15 50 29 2 48 36 2 39 33 4 57 38 6 52
38 0 54 68 24 78 91 57 112 41 1 61 10 0 35
114 76 140 255 218 255 255 255 255 255 255 255 255 241 255
251 203 255 205 160 239 175 122 201 175 125 201 158 106 191
141 92 172 104 48 134 43 0 71 40 0 75 79 27 110
68 16 107 2 0 38 56 0 85 212 154 242 255 243 255
137 82 175 115 62 152 143 89 177 92 36 136 58 1 99
69 17 110 70 5 105 26 0 62 117 55 153 126 67 160
94 33 134 73 14 113 66 7 105 89 26 124 80 24 122
135 65 176 202 132 239 184 115 227 129 64 162 170 103 204
188 119 220 138 74 170 113 49 144 122 55 157 143 76 172
162 92 191 135 69 173 171 106 197 255 250 255 255 255 255
255 227 255 15 0 19 65 26 75 59 12 63 56 20 56
43 8 37 40 8 31 38 11 34 22 0 6 45 17 31
41 13 21 37 8 23 41 16 19 39 12 23 38 9 13
35 10 15 28 7 9 41 16 27 36 17 23 33 12 21
34 12 16 36 13 23 33 14 11 32 13 15 33 13 17
30 11 13 36 16 20 34 13 19 38 22 20 42 22 26
44 20 22 33 21 13 27 15 9 47 26 23 38 22 18
41 21 17 44 25 21 41 22 20 45 26 26 44 25 17
44 25 19 41 24 17 43 28 20 45 21 19 46 23 22
49 30 21 45 25 18 47 30 22 52 25 22 54 25 18
46 23 18 51 28 23 53 30 25 56 33 28 52 31 26
65 36 31 67 40 35 52 27 21 64 39 33 67 42 36
69 46 39 67 36 33 63 34 30 62 33 31 65 34 25
59 34 18 64 37 26 60 33 22 60 33 22 63 36 25
62 35 24 66 39 28 62 35 24 81 54 43 71 44 33
74 47 36 72 45 34 69 42 31 72 45 34 68 41 30
74 48 37 61 32 22 66 38 28 68 40 29 65 37 26
63 35 24 61 34 20 64 33 31 56 26 21 65 36 28
67 38 28 66 37 33 64 35 29 69 40 34 67 38 32
67 38 32 64 33 23 72 46 43 72 46 41 86 57 53
82 55 44 85 50 45 75 45 43 88 51 46 75 47 39
82 50 44 90 49 51 97 54 53 89 51 47 80 39 42
71 33 38 72 32 44 81 32 39 87 40 57 67 17 40
70 19 42 93 42 55 90 43 67 80 45 56 43 6 23
0 0 0 11 0 0 14 0 0 6 0 0 4 0 0
11 0 0 6 0 0 15 0 0 8 0 0 29 8 7
23 3 3 35 4 11 30 6 9 31 4 3 29 5 2
33 3 0 25 0 0 37 4 2 34 7 0 39 4 3
43 5 6 47 1 2 47 7 4 45 9 9 40 7 1
76 25 58 50 0 31 62 11 49 55 8 42 63 13 53
30 0 30 196 142 202 255 255 255 155 101 159 170 119 167
159 109 152 171 120 155 180 134 159 186 138 158 181 137 146
144 100 100 179 143 120 164 129 105 157 126 97 155 121 91
148 112 88 141 107 79 112 84 47 99 70 31 84 59 11
94 62 16 95 80 28 122 99 43 31 0 46 34 1 49
36 4 48 29 0 50 35 0 48 24 0 43 36 0 47
23 0 43 61 22 86 69 32 87 25 0 40 7 0 24
147 103 170 255 252 255 251 205 255 124 80 146 69 20 94
70 23 98 40 0 74 18 0 52 45 0 69 87 35 111
86 30 118 48 0 78 0 0 24 70 14 98 118 62 153
40 0 73 0 0 19 124 68 153 229 175 255 203 151 234
149 86 176 93 43 124 93 30 128 87 37 126 49 0 79
62 13 96 90 31 127 40 0 77 46 0 83 134 83 171
93 27 127 51 0 94 115 50 145 98 46 140 82 17 115
0 0 20 237 168 255 186 117 226 99 32 140 18 0 56
67 2 103 109 43 140 118 51 146 146 81 179 148 76 178
113 47 155 161 91 200 198 127 226 183 113 208 203 138 220
220 151 228 255 196 255 23 0 30 63 24 72 62 15 66
56 20 56 48 13 42 43 11 33 39 12 33 31 4 14
43 15 32 41 13 30 39 11 21 38 8 26 37 11 17
37 8 22 34 9 10 29 8 18 37 12 27 32 14 21
34 14 24 34 13 18 35 14 23 31 7 12 28 13 19
29 11 11 29 9 13 35 19 15 33 16 18 39 21 17
36 18 18 39 17 13 29 19 15 23 13 9 44 23 20
37 20 16 40 19 15 42 22 18 39 20 16 42 23 21
41 22 12 41 22 14 39 20 14 41 24 17 43 18 15
46 22 20 42 24 13 46 27 18 44 25 16 40 26 19
43 21 10 49 20 15 51 24 18 52 25 19 58 31 25
58 33 27 69 38 31 64 35 28 55 26 19 67 38 31
76 47 40 77 50 42 78 45 41 72 41 36 65 34 29
67 34 34 58 35 26 58 33 17 57 32 18 59 34 20
57 32 18 58 33 19 63 38 24 63 38 24 66 41 27
65 40 26 67 42 28 63 38 24 66 41 27 61 36 22
64 39 25 65 41 27 64 34 21 66 37 24 67 38 25
63 34 21 66 37 24 63 35 19 64 32 28 62 31 24
71 40 31 67 36 25 67 36 33 67 36 31 66 35 30
66 35 30 67 35 28 62 36 35 61 33 32 71 42 40
71 35 39 79 50 45 73 47 44 78 43 34 71 45 44
81 41 43 86 50 47 76 44 44 76 34 31 75 30 34
78 36 42 76 36 46 77 32 37 67 27 39 80 29 50
73 26 48 82 29 53 78 39 54 81 36 51 60 21 35
27 0 11 1 0 0 12 0 3 15 0 0 13 2 5
16 2 4 18 6 10 21 11 5 26 8 15 28 16 19
24 1 9 25 3 15 31 4 6 30 6 12 32 6 10
32 8 9 31 2 0 23 0 0 40 3 5 35 4 5
40 5 2 39 10 3 42 12 14 54 11 15 50 13 7
47 6 11 69 16 48 53 0 32 63 10 48 58 1 45
47 0 40 35 0 27 255 198 255 255 234 255 158 100 155
187 132 189 192 138 186 203 148 189 186 136 165 182 132 151
176 124 142 146 98 105 171 131 113 152 120 84 136 100 86
130 96 68 129 98 64 117 80 43 98 69 32 81 51 10
110 85 33 105 81 30 111 79 26 110 93 39 54 17 69
50 13 65 49 13 62 49 9 70 53 15 68 52 12 74
53 7 75 51 13 78 33 0 44 73 31 98 8 0 35
73 28 96 255 255 255 255 243 255 101 47 128 44 0 64
39 0 73 39 0 69 44 0 70 54 8 78 83 34 119
131 84 163 117 71 147 47 4 77 98 42 128 122 69 149
71 21 103 12 0 41 82 32 113 243 190 255 226 176 255
56 4 87 33 0 58 64 12 96 74 17 98 35 0 64
42 0 70 60 11 89 81 22 113 53 0 82 73 19 104
133 81 163 98 37 132 82 33 118 71 10 102 0 0 30
42 0 79 106 53 147 255 199 255 169 98 206 109 41 148
105 36 138 109 44 136 104 40 136 127 63 160 165 104 192
156 80 192 115 56 161 177 108 217 221 152 255 160 92 197
123 62 147 133 68 153 175 110 180 41 0 47 50 16 52
55 6 53 54 17 59 43 7 39 43 11 34 46 19 42
36 9 19 41 13 30 42 14 31 41 13 23 35 6 21
36 10 16 36 7 19 35 10 11 22 4 11 35 11 21
30 8 25 30 6 24 30 11 16 29 8 21 34 13 20
34 10 15 36 16 12 26 6 12 29 12 14 34 16 14
34 16 8 33 13 13 35 20 7 35 16 7 29 11 0
40 21 20 36 18 14 34 17 13 36 20 16 38 18 14
40 21 17 39 20 18 38 19 19 39 20 12 42 23 17
40 23 16 37 22 14 40 16 14 43 21 18 42 19 18
39 24 14 50 24 13 42 21 12 46 25 16 48 27 18
54 33 24 54 35 25 59 34 28 60 37 30 57 34 27
65 42 35 77 54 47 80 59 52 87 58 50 72 47 39
68 43 35 70 47 40 66 33 23 67 36 31 62 31 26
60 29 24 61 30 25 64 33 28 65 34 29 62 31 26
66 35 30 66 35 30 61 30 25 63 32 27 63 32 27
65 34 29 60 29 24 62 27 24 64 40 32 59 33 26
60 34 27 61 35 28 62 36 29 58 32 25 59 34 24
56 31 19 65 40 36 62 37 31 63 38 30 63 38 30
63 38 30 64 39 31 64 40 29 72 40 39 53 19 19
47 32 22 59 30 27 62 35 33 64 38 37 67 40 33
75 41 42 65 41 35 70 36 32 68 29 32 55 27 29
69 23 39 71 32 40 72 35 43 74 33 36 80 34 49
70 24 51 83 36 61 80 40 61 70 25 43 46 7 28
30 0 14 13 0 5 19 0 5 13 0 7 9 0 3
9 0 4 13 4 10 24 11 19 22 16 12 29 12 24
27 20 15 32 2 12 32 3 11 35 10 12 34 13 15
37 6 16 30 9 9 36 3 14 27 2 0 40 6 14
35 7 8 45 7 17 44 12 14 48 6 21 47 11 21
50 17 22 47 10 16 60 16 48 61 10 51 61 10 54
43 0 34 28 0 27 108 55 111 255 255 255 250 199 255
164 113 174 178 125 175 183 131 187 183 137 170 170 123 147
162 115 140 162 115 140 148 98 110 154 115 103 135 98 76
110 76 52 104 70 40 106 73 45 118 85 39 103 78 40
97 67 20 111 81 33 97 75 25 104 78 23 117 88 36
40 0 62 33 0 55 32 0 53 33 0 57 54 2 67
54 6 75 51 8 79 48 0 68 18 0 53 14 0 35
142 88 167 255 245 255 255 217 255 97 41 124 31 0 56
87 27 108 91 48 126 79 29 99 66 16 97 66 16 95
84 36 109 114 61 147 112 60 143 64 12 95 76 27 105
54 9 93 28 0 53 130 88 168 254 192 255 162 119 202
66 4 93 52 5 86 56 12 83 87 40 117 66 20 97
52 5 82 49 5 77 29 0 64 19 0 49 32 0 73
117 60 147 115 61 147 76 24 106 56 2 88 60 8 92
86 32 117 166 116 193 255 227 255 167 102 203 86 26 125
71 12 107 100 41 138 70 12 111 42 0 78 74 12 108
99 37 139 112 56 155 149 80 185 192 122 236 172 106 209
119 57 156 156 85 183 171 102 182 130 73 143 31 0 40
41 2 48 43 0 42 44 9 42 42 10 35 45 11 39
47 19 37 41 14 30 41 13 29 38 9 20 37 8 23
39 9 27 34 8 14 36 7 19 27 5 5 34 1 13
29 8 17 25 5 21 30 10 21 29 7 24 28 9 12
32 11 24 30 9 18 31 6 17 29 17 11 26 10 5
33 15 7 34 14 16 35 20 7 32 15 8 31 15 5
25 10 0 37 18 15 33 15 9 32 14 8 35 18 12
36 15 9 39 19 13 37 18 14 33 14 12 42 23 13
38 19 11 37 18 10 41 24 15 44 19 16 43 20 16
42 21 16 40 20 18 47 19 17 47 21 10 52 26 17
50 24 15 53 27 18 54 30 20 61 32 25 54 27 19
61 34 26 68 41 33 74 47 39 80 53 45 72 49 41
81 50 41 71 42 33 71 44 36 67 34 34 67 36 25
63 32 23 64 33 24 61 30 21 60 29 20 64 33 24
63 32 23 58 27 18 59 28 19 60 29 20 60 29 20
60 29 20 59 28 19 61 28 20 56 33 20 59 32 21
62 33 22 61 32 21 61 32 21 61 32 21 62 33 22
62 33 22 59 30 17 68 39 34 66 37 30 61 32 25
63 34 27 65 36 29 60 31 24 63 32 23 59 39 34
44 23 16 45 17 27 53 21 14 57 27 22 59 31 26
61 36 31 61 32 26 62 27 33 65 28 24 57 24 27
61 21 32 57 27 32 70 28 32 74 37 46 75 31 47
71 26 45 75 33 51 81 38 56 73 23 47 44 8 28
25 0 6 14 0 0 9 0 2 32 12 31 0 0 0
6 0 5 10 0 9 8 0 0 14 4 7 21 0 9
13 6 9 24 4 13 28 5 11 34 9 16 30 9 7
33 5 9 34 10 12 33 10 12 36 10 7 34 2 13
39 4 9 36 6 18 45 7 14 43 11 23 53 9 33
53 12 32 53 17 30 56 16 28 66 16 57 74 15 64
58 6 48 43 0 34 40 0 37 205 148 202 255 255 255
255 231 255 200 145 203 189 132 193 169 115 163 158 103 145
153 98 140 162 113 135 168 116 139 141 101 114 152 117 106
134 98 69 106 74 58 104 73 44 117 85 52 130 97 53
124 101 52 118 90 47 118 91 42 111 79 31 108 86 36
115 91 42 76 31 101 71 26 96 67 23 90 72 24 105
90 44 120 100 56 128 94 48 125 90 32 111 119 67 142
92 39 110 241 185 255 255 252 255 104 53 128 6 0 34
65 6 91 83 27 116 56 10 80 46 3 73 58 13 88
63 19 90 59 15 84 65 22 97 57 14 87 24 0 54
78 36 104 1 0 38 28 0 59 196 153 234 225 176 249
56 17 87 23 0 51 95 51 120 56 7 85 59 13 79
48 1 69 62 15 83 74 28 93 49 0 76 55 6 79
92 46 118 156 104 179 57 8 79 15 0 35 34 0 63
143 94 170 255 208 255 223 175 244 136 93 175 37 0 67
48 0 79 69 13 109 92 36 128 74 23 109 81 18 116
110 46 144 126 65 165 92 34 134 121 54 165 175 112 223
157 99 201 132 72 177 191 123 219 167 103 181 60 0 79
38 0 38 26 0 18 30 0 22 37 0 31 33 0 27
37 6 23 40 15 28 35 6 16 43 13 29 39 14 17
39 13 19 35 9 15 32 5 14 35 6 18 26 5 2
31 1 12 28 8 21 29 6 11 32 5 22 30 2 17
31 9 26 28 8 16 33 12 17 32 10 17 28 7 7
34 10 11 30 13 9 34 19 6 29 13 3 28 13 0
28 8 10 21 2 0 38 20 22 33 15 15 33 15 15
30 12 12 34 17 17 31 15 17 33 13 7 32 13 9
47 28 26 42 23 21 42 23 21 41 22 22 41 24 15
36 21 13 41 18 14 41 19 16 35 19 9 39 22 16
39 22 16 41 24 18 40 23 17 43 29 22 52 25 22
47 23 19 46 25 20 55 34 29 64 43 38 65 44 39
60 41 35 59 32 31 58 33 33 56 35 24 68 39 31
62 37 31 59 34 28 55 30 24 55 30 24 56 31 25
54 29 23 59 34 28 54 29 23 55 30 24 55 30 24
55 30 24 53 28 22 58 33 27 57 32 26 62 33 28
56 25 20 48 25 21 54 31 26 54 29 25 52 29 24
53 28 24 52 29 24 50 25 21 58 35 28 56 31 25
58 35 28 55 30 24 51 28 21 55 30 24 55 32 23
55 28 25 54 26 25 43 24 14 46 20 24 45 23 24
62 32 33 60 35 32 63 31 30 61 36 35 47 19 27
60 22 31 64 27 29 63 26 36 68 23 41 64 22 33
67 28 42 67 30 47 77 35 54 82 33 64 44 15 25
25 0 6 22 0 13 13 0 8 10 0 0 29 7 22
7 1 12 12 1 3 9 0 3 13 5 14 9 4 1
11 1 5 20 0 1 16 0 6 34 7 8 29 1 7
30 7 13 43 7 17 40 9 13 37 8 19 41 5 15
40 12 22 39 3 22 38 8 21 47 4 32 45 6 24
49 13 35 49 15 32 54 15 40 57 14 43 62 17 52
58 13 53 56 9 53 57 13 59 46 0 44 251 204 252
255 238 255 255 205 255 236 186 245 216 170 223 198 148 201
179 136 175 154 111 147 156 113 141 172 130 153 170 123 145
172 134 127 154 117 109 141 104 80 140 97 87 152 119 89
164 130 91 154 120 81 154 120 69 127 103 48 125 98 47
125 96 44 125 96 44 226 178 254 232 184 255 254 206 255
255 231 255 255 253 255 255 255 255 255 255 255 255 255 255
255 204 255 255 255 255 255 225 255 84 33 116 22 0 49
65 8 92 80 21 108 51 0 74 78 34 104 52 7 73
61 15 80 66 16 93 50 1 74 41 0 66 60 11 84
52 3 74 66 17 99 0 0 0 103 57 126 255 220 255
124 76 149 17 0 42 89 38 117 9 0 43 67 24 84
30 0 54 28 0 55 36 0 62 47 10 73 73 37 97
110 75 132 160 121 190 63 25 86 0 0 9 82 41 112
185 144 213 173 132 201 153 112 179 49 11 85 0 0 0
19 0 51 80 23 112 83 32 109 46 0 79 40 0 75
60 7 90 84 33 131 66 8 104 223 170 255 134 72 171
136 73 187 169 102 206 156 92 192 159 103 188 126 65 156
46 0 49 45 0 41 19 0 10 20 0 2 30 0 20
33 0 15 37 7 16 49 25 31 39 12 23 57 31 41
49 22 33 46 19 28 39 12 21 35 9 15 30 3 9
27 1 11 25 0 6 24 4 7 23 1 12 25 0 18
29 2 19 22 3 16 27 9 14 25 4 19 32 10 15
30 11 9 30 8 8 29 14 7 33 20 4 35 15 15
33 14 11 26 8 0 19 1 1 42 22 18 36 16 12
32 14 10 36 18 14 32 14 12 29 12 12 37 16 8
27 7 1 50 32 25 44 26 19 43 24 20 43 24 22
44 25 15 38 21 12 43 18 13 44 20 18 33 13 4
34 13 6 38 17 10 36 15 8 40 19 12 42 21 14
43 25 17 39 24 15 46 17 13 54 28 23 62 36 31
65 39 34 63 37 32 51 27 21 50 28 21 46 17 18
68 47 36 70 39 30 61 32 23 56 27 18 48 19 10
50 21 12 50 21 12 54 25 16 58 29 20 58 29 20
58 29 20 56 27 18 60 31 22 57 28 19 59 28 19
50 29 20 53 26 19 53 33 21 57 26 20 52 32 20
62 31 25 56 36 24 62 31 25 54 34 22 71 40 34
64 44 32 64 33 27 61 41 29 63 32 26 54 34 22
60 29 21 55 36 30 55 35 25 51 28 23 47 19 21
44 20 19 65 37 30 70 40 46 64 35 32 68 37 43
47 11 16 54 29 33 76 33 48 71 37 51 67 24 45
59 20 34 58 14 36 58 15 31 107 60 85 82 47 64
42 0 22 7 0 0 29 0 16 27 0 16 8 0 4
4 0 4 19 12 17 12 8 15 16 3 17 7 0 2
21 2 13 22 3 1 23 5 17 22 3 7 20 0 3
34 0 11 37 6 16 35 9 13 40 6 21 39 9 24
37 6 21 39 3 24 35 3 22 28 1 21 33 0 17
41 4 32 50 13 45 44 10 34 47 8 40 59 16 42
46 0 50 36 0 35 50 0 51 67 16 63 31 0 32
255 215 255 208 155 217 213 162 218 255 245 255 255 230 255
255 226 255 225 175 226 159 110 147 139 91 122 159 112 148
190 141 169 180 141 144 172 135 118 162 125 119 169 131 113
182 153 121 189 160 124 168 134 96 167 133 90 107 84 35
116 90 44 112 86 48 124 98 58 255 217 255 210 156 238
144 90 170 130 76 158 138 87 168 150 99 180 145 94 173
138 84 164 163 114 192 247 200 255 144 87 167 10 0 34
53 0 78 77 24 102 37 0 63 78 21 99 43 3 70
60 24 87 59 21 83 72 30 102 12 0 38 76 36 109
54 14 85 4 0 34 0 0 1 227 185 255 255 255 255
113 69 141 9 0 32 44 4 72 59 20 79 62 14 82
37 2 55 56 19 64 68 25 87 79 37 96 80 38 97
78 36 94 64 22 78 61 22 84 3 0 19 137 95 160
155 113 176 83 41 102 37 0 56 20 0 38 37 0 56
61 23 87 72 33 105 67 22 96 59 4 89 54 2 89
66 17 101 94 52 126 151 94 187 216 158 253 60 7 104
92 34 137 95 42 142 89 27 129 85 26 109 119 61 142
114 61 131 70 8 73 24 0 9 47 9 25 49 0 31
31 0 17 27 0 3 24 0 0 12 0 0 14 0 0
18 0 0 18 0 0 24 0 8 34 9 12 34 4 20
37 6 19 32 9 19 34 5 9 26 7 9 32 9 11
34 13 19 38 18 19 37 9 29 43 18 24 39 20 32
38 16 18 25 7 7 28 8 1 28 5 8 28 8 0
24 7 7 26 8 6 28 11 5 31 12 14 17 5 7
20 8 10 30 10 12 28 10 14 35 17 13 35 17 15
35 18 18 37 22 21 37 14 17 34 12 17 39 21 14
38 19 15 36 17 15 42 23 21 39 22 21 37 20 10
50 30 22 43 23 17 45 25 19 41 23 16 37 19 12
33 15 8 34 16 9 32 15 8 38 19 11 31 13 5
30 13 5 29 12 4 38 21 13 47 30 22 52 38 29
69 44 38 45 16 15 47 24 21 55 32 29 58 35 32
63 40 37 64 41 38 59 36 33 64 41 38 44 21 18
48 25 22 47 24 21 51 28 25 52 29 26 56 33 30
54 31 28 70 41 40 42 17 13 40 29 21 54 24 22
36 25 17 50 20 18 38 27 19 46 16 14 35 24 16
45 15 13 31 20 12 44 14 12 36 25 17 49 19 17
36 25 17 47 20 17 41 15 10 62 40 32 43 20 15
63 35 37 59 36 30 47 14 18 49 22 27 63 30 35
31 3 8 76 43 52 67 40 51 67 23 43 52 16 30
63 18 39 75 33 59 80 39 61 78 35 57 53 15 39
43 5 28 27 0 18 19 0 1 16 0 3 13 0 11
13 0 14 1 0 0 49 45 50 43 25 32 49 33 38
42 33 40 40 14 31 29 9 13 25 0 16 9 0 0
52 12 27 29 0 11 22 0 2 28 2 16 45 12 24
49 14 31 45 16 41 53 7 33 7 0 2 54 12 51
80 34 70 61 17 56 37 0 34 73 26 76 88 47 98
41 0 42 96 48 92 88 36 89 71 21 72 79 29 78
136 86 143 159 110 160 180 127 189 147 94 156 185 137 186
181 131 180 236 185 236 255 231 255 194 146 189 161 114 147
241 196 222 255 219 245 173 133 141 180 138 143 161 119 117
166 130 121 184 145 122 188 150 120 172 139 108 157 126 93
159 123 91 148 112 70 130 94 62 105 69 35 102 48 130
70 15 87 40 0 70 46 0 65 60 5 81 58 3 79
61 3 80 29 0 59 80 22 101 155 100 178 114 61 140
39 0 65 72 17 97 87 32 112 62 3 86 62 19 99
52 3 61 61 20 80 40 0 59 82 39 108 89 47 110
65 19 92 3 0 28 34 0 59 207 160 230 194 156 227
104 58 124 9 0 32 72 23 92 61 23 80 25 0 44
76 35 95 36 6 54 42 13 63 45 15 64 52 22 71
52 22 70 52 23 73 49 20 69 50 23 69 28 0 43
108 74 130 122 89 140 65 32 91 40 7 64 55 22 79
63 33 86 60 18 78 63 20 81 52 14 86 53 10 83
70 30 98 88 48 123 106 56 137 103 53 137 109 52 132
70 16 107 76 18 114 81 26 124 82 23 117 83 35 117
105 46 116 82 19 87 28 0 25 47 3 23 40 4 22
42 0 9 30 0 5 29 0 2 30 0 4 22 0 2
25 0 0 28 0 3 31 4 9 34 9 12 29 0 10
28 1 12 25 0 9 32 5 18 40 15 21 31 7 25
32 12 14 33 7 25 29 4 19 32 8 20 28 0 19
26 11 13 23 5 8 28 5 10 28 10 8 28 9 7
29 7 10 25 11 10 26 11 9 26 7 12 29 6 10
23 10 7 25 11 11 35 13 13 33 13 15 30 12 6
36 18 14 37 19 15 32 16 11 43 19 20 40 17 20
38 21 11 36 18 11 41 23 16 38 20 13 42 24 17
41 20 21 39 26 17 43 26 15 39 24 13 40 17 11
43 22 15 40 19 12 37 16 9 37 16 9 40 20 13
39 20 13 42 20 12 38 17 9 43 22 14 43 22 14
50 29 21 42 29 18 53 32 23 55 27 22 59 33 27
58 32 26 62 36 30 57 31 25 60 34 28 56 30 24
58 32 26 58 32 26 58 32 26 56 30 24 61 35 29
59 33 27 60 32 27 63 42 33 38 25 14 45 24 16
45 27 18 49 28 20 42 24 15 46 25 17 46 28 19
43 22 14 41 23 15 48 27 20 45 27 19 45 24 17
42 24 16 49 28 21 45 27 19 37 23 14 61 37 28
43 21 16 56 30 30 55 35 34 50 18 25 57 32 28
66 30 46 59 31 40 28 0 14 59 16 39 69 27 50
63 26 51 69 23 49 73 30 62 60 19 46 59 13 46
35 0 19 37 0 19 27 0 13 25 0 17 25 0 23
24 2 16 28 6 19 21 10 24 19 6 23 28 5 17
28 4 23 27 6 12 32 5 15 33 9 19 35 2 13
21 0 2 57 29 40 45 3 19 40 2 13 43 1 18
48 10 36 57 16 39 57 18 48 46 9 40 70 27 65
49 10 44 40 0 50 40 1 45 64 20 76 56 14 61
21 0 34 39 0 41 77 27 90 52 0 61 47 0 48
82 33 85 139 89 142 181 131 184 196 147 197 194 145 197
198 148 205 172 122 173 174 123 174 246 197 243 254 206 243
205 160 194 199 150 191 206 158 190 170 129 151 186 144 146
184 143 151 171 129 133 159 125 107 158 117 106 154 125 100
152 117 91 169 139 105 157 126 99 141 110 81 130 99 70
83 34 112 69 26 94 59 9 89 65 21 93 73 28 102
63 18 92 59 13 87 58 12 92 37 0 57 81 33 107
79 31 95 55 4 74 72 30 95 86 42 108 60 16 84
52 1 64 43 2 70 51 14 71 38 0 66 12 0 33
0 0 10 0 0 0 0 0 2 126 84 152 255 255 255
99 64 122 0 0 17 19 0 44 63 22 79 50 20 67
39 0 57 36 0 46 48 20 59 41 16 53 41 15 52
42 14 52 39 14 48 35 3 52 30 1 44 22 0 38
25 0 30 105 69 120 109 76 120 46 12 64 23 0 38
60 26 74 64 32 78 49 23 63 42 9 68 56 13 71
63 21 86 85 48 112 96 55 123 93 49 123 63 27 94
44 1 71 59 11 97 72 16 103 67 14 100 70 15 102
96 38 109 78 29 86 45 0 43 29 0 9 54 7 24
41 11 2 44 2 12 32 4 9 33 4 4 27 0 0
27 3 2 26 0 1 17 0 0 26 0 4 30 2 16
25 0 15 23 0 12 24 0 15 32 5 30 42 9 37
38 19 28 41 17 26 39 16 24 33 10 20 31 8 18
27 4 14 29 2 20 30 0 19 29 12 19 30 9 16
30 8 11 30 7 15 31 11 7 31 11 7 32 6 16
31 11 19 20 10 9 29 13 12 22 8 8 27 15 15
35 15 17 33 15 17 36 18 20 32 14 18 37 21 16
34 20 16 37 14 17 41 20 22 38 17 19 37 16 18
40 18 23 40 19 15 44 25 13 35 24 18 32 21 15
40 21 14 33 18 11 37 22 15 33 18 11 35 20 13
36 21 14 30 17 9 35 15 11 34 16 11 29 11 6
33 15 10 35 19 13 32 9 7 59 28 28 52 26 24
49 26 23 58 32 30 54 31 28 52 26 24 53 30 27
49 23 21 58 35 32 58 32 30 56 33 30 60 34 32
53 30 27 57 31 29 55 32 29 68 37 37 35 12 10
42 26 20 38 20 15 40 22 17 42 24 19 38 20 15
39 21 16 40 22 18 40 22 14 39 21 14 38 20 13
42 24 17 40 22 15 38 20 13 41 24 17 35 18 8
65 37 38 43 20 10 52 21 15 46 13 23 33 6 3
36 8 18 58 30 44 62 25 46 53 10 40 54 18 39
52 9 46 49 14 47 68 22 58 74 33 62 67 16 61
47 0 35 28 0 26 39 2 29 37 0 36 34 0 18
28 0 23 19 0 22 22 2 27 22 0 16 18 0 11
11 0 9 24 0 15 29 0 19 33 0 24 38 1 26
41 14 36 42 4 29 69 26 55 54 16 42 53 17 41
51 11 40 56 19 56 62 19 55 65 27 69 62 21 66
94 44 94 68 20 71 47 0 53 68 18 78 82 33 87
45 0 51 49 0 62 138 92 155 48 3 51 49 0 54
63 11 68 126 73 135 177 128 178 185 135 190 185 135 192
189 139 188 193 143 192 182 132 187 141 89 142 202 153 197
255 243 255 255 208 244 183 138 176 116 65 104 144 102 118
159 116 139 166 125 139 137 98 101 88 44 53 70 30 26
80 39 28 91 53 47 165 125 116 141 101 85 135 95 81
131 91 77 73 28 97 65 19 90 66 21 93 72 26 90
73 27 93 66 18 87 69 18 90 54 16 76 98 58 124
78 38 101 68 25 95 61 22 79 52 15 76 64 26 87
61 20 82 34 0 59 78 43 97 74 36 84 107 70 123
74 32 96 57 15 83 124 83 144 180 137 199 255 255 255
117 82 140 10 0 36 15 0 39 95 57 107 56 17 68
34 0 48 58 18 65 36 10 55 48 19 55 40 22 48
45 15 57 35 16 50 37 7 47 30 12 41 30 3 45
29 4 43 0 0 11 64 44 78 82 53 94 35 13 48
36 3 53 45 24 66 49 18 61 34 9 55 51 14 64
57 29 70 71 41 97 72 39 98 62 21 84 54 11 72
48 7 74 48 6 75 72 24 101 76 26 103 60 20 94
83 35 101 108 61 114 82 30 82 43 0 26 51 7 33
52 15 16 47 16 11 43 4 9 34 4 0 29 0 0
32 5 0 24 1 0 32 0 6 15 0 0 22 0 6
26 0 19 33 2 24 41 13 38 43 8 46 37 11 37
32 0 34 38 20 32 36 14 34 37 12 36 35 10 26
35 9 30 39 12 36 35 13 23 42 17 34 27 9 18
31 9 24 32 13 19 32 12 23 32 11 16 32 11 18
33 10 20 32 15 16 30 5 6 22 9 6 27 11 10
26 12 11 35 13 13 35 15 15 30 12 12 33 15 17
38 20 14 35 19 14 38 14 15 35 13 13 38 18 17
36 16 15 41 19 21 38 20 14 30 20 18 36 19 11
38 21 15 32 19 13 40 19 12 35 16 9 38 19 12
34 15 8 32 13 6 35 18 10 32 9 5 30 9 4
31 10 5 35 14 9 32 11 6 30 15 7 48 26 20
42 25 17 54 21 18 42 28 19 54 21 18 44 30 21
55 22 19 35 21 12 69 36 33 46 32 23 62 29 26
45 31 22 57 24 21 41 27 18 55 22 19 52 33 26
30 15 5 39 19 11 41 21 13 37 17 9 39 19 11
36 16 8 37 16 11 37 16 12 38 17 9 37 16 9
36 15 9 38 17 11 41 20 14 38 17 11 40 20 14
31 13 2 71 47 40 43 20 19 35 4 5 40 14 15
41 13 23 54 24 39 63 24 42 59 28 53 80 43 73
72 25 66 55 19 49 61 13 58 75 29 79 68 25 69
43 0 43 0 0 0 48 0 38 39 0 33 47 4 38
35 0 40 26 0 18 20 0 18 24 2 26 46 12 45
24 0 25 30 0 29 32 0 23 34 0 23 41 0 28
43 6 35 59 7 41 54 9 41 68 20 51 67 21 48
66 16 55 68 22 59 74 21 64 69 29 66 76 20 72
70 29 72 71 16 81 92 51 105 73 22 75 90 44 105
40 0 50 14 0 31 141 97 155 222 170 234 14 0 28
64 17 76 96 48 104 141 91 149 166 120 171 162 115 161
148 100 153 139 91 135 163 115 172 196 147 195 167 123 167
165 118 163 234 190 230 255 228 255 224 176 218 95 47 82
151 106 136 167 124 147 164 118 146 136 92 115 98 58 70
75 31 43 93 52 59 103 64 57 110 72 72 106 68 67
110 71 74 107 68 71 42 1 64 40 0 63 38 0 58
46 3 68 37 0 61 28 0 48 37 0 60 48 8 61
110 69 128 58 15 66 42 8 61 42 4 51 34 0 46
54 11 64 61 33 81 41 15 62 87 40 96 68 28 79
92 52 111 122 83 133 227 191 246 255 232 255 188 152 210
189 151 210 0 0 16 43 14 66 39 5 60 48 16 64
54 26 71 23 0 36 30 0 38 84 60 98 32 6 34
29 20 36 43 10 47 26 13 41 36 4 38 18 5 30
28 0 37 32 6 41 4 0 13 30 10 38 43 13 55
37 20 53 48 19 54 29 12 39 35 9 49 57 28 69
39 18 58 55 25 73 55 33 78 50 16 61 36 8 57
35 3 58 48 9 66 60 20 84 57 17 80 67 19 84
64 19 89 82 28 93 100 52 96 58 12 51 29 0 7
61 20 20 52 9 21 46 14 8 49 9 12 34 3 7
32 3 0 30 0 4 24 3 0 31 0 16 12 0 0
17 0 8 28 0 22 48 17 47 66 32 79 66 34 73
44 14 68 32 0 48 25 0 19 31 0 23 22 0 27
27 0 26 30 7 22 34 10 31 38 13 34 49 23 50
27 0 21 33 7 22 29 9 18 30 8 21 30 8 20
30 6 25 31 10 18 30 13 20 28 6 13 23 10 9
29 13 15 25 9 12 26 12 11 27 15 15 33 13 13
28 10 10 34 16 18 31 13 17 34 18 13 31 17 13
39 17 17 36 16 15 36 14 16 34 15 7 36 22 19
28 19 7 32 21 12 28 19 9 29 14 8 26 13 6
28 15 8 31 18 11 24 11 4 20 9 2 28 11 3
28 13 5 32 17 9 34 19 11 35 22 13 44 21 15
39 22 21 39 24 20 44 20 21 42 29 24 47 23 24
40 27 22 40 16 17 31 18 13 47 23 24 41 28 23
41 17 18 39 26 21 42 18 19 34 21 16 41 17 18
33 18 14 37 16 14 33 17 15 35 18 16 32 15 13
34 17 15 31 13 14 32 18 7 33 18 10 28 13 6
34 19 13 31 16 6 33 18 9 33 18 9 35 20 11
36 23 12 28 15 7 63 31 33 45 12 14 41 6 16
59 28 29 76 46 66 66 26 46 49 18 43 64 18 61
0 0 0 29 0 31 68 20 76 78 28 80 74 22 80
65 17 71 52 0 64 33 0 47 36 0 33 46 0 41
37 0 43 30 0 40 30 0 36 37 7 47 62 21 67
79 42 91 50 16 53 57 16 63 60 10 49 57 6 50
52 7 49 59 9 53 55 9 50 64 18 61 47 1 42
58 13 49 76 28 81 80 28 80 75 24 78 69 26 77
70 14 76 64 19 73 77 22 81 97 49 114 47 0 54
74 26 86 0 0 2 35 0 51 247 195 255 115 69 124
97 47 112 150 91 150 174 116 173 166 112 168 158 102 157
156 98 155 160 107 153 153 99 144 116 62 112 169 115 161
179 124 177 173 117 165 165 112 155 242 187 228 255 234 255
211 166 203 124 84 115 145 100 131 130 84 112 110 68 94
100 54 85 92 51 66 95 51 77 87 48 58 103 54 78
99 51 70 105 62 68 112 68 77 67 26 88 57 15 80
62 24 75 56 20 77 59 18 77 53 18 67 67 27 82
74 46 93 70 38 86 43 8 62 37 3 46 40 9 60
34 7 44 50 22 62 68 37 78 51 25 61 70 31 78
70 29 84 13 0 21 52 8 61 214 181 232 129 89 150
0 0 11 0 0 13 37 8 64 53 16 73 53 18 66
34 1 49 29 0 32 49 15 56 50 22 61 27 0 30
26 1 25 20 8 32 19 0 25 22 1 27 19 1 25
23 2 30 21 3 27 22 4 28 19 5 25 27 0 33
17 0 22 25 0 27 35 10 46 24 0 32 25 0 30
70 48 83 48 20 61 37 10 50 34 0 46 36 11 57
53 16 68 53 27 71 49 15 72 38 4 50 59 23 79
58 22 83 70 20 75 73 33 86 80 38 68 55 8 31
40 0 2 61 19 22 53 14 12 47 14 17 49 8 4
35 10 0 35 5 3 28 0 0 24 0 8 28 0 8
17 0 12 24 0 18 40 9 45 70 39 81 89 57 105
89 53 106 57 23 82 45 14 69 11 0 20 27 0 21
18 0 31 17 0 23 21 0 28 28 2 30 33 5 31
34 11 26 32 8 29 34 7 31 31 10 26 32 8 31
32 7 26 32 12 21 33 7 27 33 18 17 27 5 10
24 11 9 24 8 9 29 13 15 27 11 9 22 8 7
35 13 13 30 10 10 34 16 16 31 13 15 34 16 10
32 16 11 33 9 10 37 15 15 36 14 14 35 16 18
30 16 11 31 20 7 28 15 5 31 20 9 32 13 6
30 13 5 27 10 2 29 12 4 26 11 2 22 9 0
30 9 0 30 11 2 34 15 6 36 17 8 44 25 16
42 27 14 36 14 13 38 18 14 40 22 17 38 18 14
39 21 16 39 19 15 34 16 11 34 14 10 32 14 9
33 13 9 33 15 10 35 15 11 29 11 6 32 12 8
31 13 8 32 11 7 34 18 12 34 16 10 36 18 14
32 14 10 35 17 13 31 12 11 32 17 4 33 17 7
30 13 6 29 12 6 32 15 6 32 15 7 37 20 12
37 20 12 38 23 13 34 20 9 42 12 19 45 17 20
46 15 21 61 29 46 68 32 43 29 0 22 12 0 1
0 0 0 51 12 58 77 25 83 109 57 112 82 30 98
39 0 55 29 0 51 58 8 74 101 45 112 52 0 59
58 14 65 44 0 58 44 0 52 37 2 55 47 9 63
72 21 82 76 41 85 90 34 94 83 35 80 75 27 78
74 18 74 75 19 75 69 14 60 71 15 74 75 18 64
49 0 52 71 15 69 84 29 86 92 40 98 83 23 84
65 21 79 80 21 86 74 24 85 77 27 95 48 0 59
11 0 34 65 11 74 21 0 33 126 80 141 255 251 255
23 0 41 173 116 173 185 131 197 188 133 197 149 97 151
122 68 127 131 81 123 145 93 139 149 97 147 127 75 124
129 77 129 164 112 154 189 136 185 143 93 133 172 121 168
255 222 255 255 234 255 190 137 177 188 144 182 159 113 149
148 100 142 140 96 130 134 88 122 117 72 104 97 56 81
125 80 102 120 75 94 121 75 99 121 75 100 47 13 63
40 3 54 42 1 58 39 15 57 45 0 55 35 4 54
40 4 61 56 23 72 62 30 69 46 20 68 48 24 60
48 22 64 44 17 57 47 18 60 54 27 65 43 21 58
61 27 73 89 50 98 8 0 24 52 16 72 191 153 205
38 0 54 0 0 10 86 52 110 56 18 80 25 0 44
43 13 62 56 25 72 11 0 24 52 22 65 79 41 75
0 0 3 28 11 32 18 14 35 27 5 32 21 2 28
17 1 22 22 6 36 25 9 37 25 9 37 23 9 33
27 7 37 13 0 24 16 1 25 30 10 45 18 0 31
20 1 33 40 24 51 43 14 50 32 10 43 30 4 42
33 8 45 51 23 67 67 30 80 51 16 72 39 0 54
62 20 81 58 21 77 80 30 87 78 35 90 62 17 48
47 10 32 59 17 7 66 24 19 56 11 13 49 14 20
52 10 18 39 6 11 33 2 8 35 2 6 22 0 6
24 0 8 22 0 15 39 8 38 64 33 75 87 51 107
95 62 121 87 47 117 69 39 101 76 40 116 37 8 52
47 18 56 41 13 42 37 2 36 25 4 32 26 0 30
28 4 33 31 5 31 36 9 41 36 7 35 33 9 32
34 13 33 34 11 29 34 9 28 35 13 20 36 16 27
26 6 3 24 12 5 26 11 7 25 9 8 24 9 6
29 13 14 25 11 7 21 9 6 36 14 11 31 11 10
33 16 16 32 12 15 34 19 10 31 17 11 36 11 9
33 14 12 31 16 7 32 19 12 28 16 9 27 12 6
28 18 10 26 16 8 23 13 5 24 16 7 29 11 7
25 9 4 24 11 6 24 10 5 26 13 8 25 12 7
29 16 11 27 17 11 36 13 9 37 17 12 31 14 8
39 19 14 32 15 9 35 15 10 28 11 5 31 11 6
27 10 4 29 9 4 27 10 4 27 7 2 30 13 7
30 10 5 28 11 5 26 6 0 41 20 23 38 17 20
32 14 6 35 17 13 30 12 6 33 15 11 33 14 13
34 14 16 31 16 3 33 14 8 35 16 6 34 14 7
39 19 12 37 20 12 37 22 12 40 26 15 34 9 8
55 20 23 51 19 29 47 21 28 36 2 23 16 0 11
42 6 31 49 8 57 255 220 255 223 177 237 209 159 228
149 100 168 86 28 105 52 3 79 65 0 89 69 19 98
83 34 105 81 30 91 69 20 86 56 18 72 60 15 73
57 18 76 61 22 81 61 11 67 89 40 97 85 29 91
90 31 100 95 35 90 93 25 89 92 29 86 85 27 87
88 24 83 67 17 75 86 30 89 93 41 92 95 35 98
83 25 88 77 23 90 95 31 109 93 39 109 119 63 132
42 0 53 121 60 134 168 122 191 126 74 138 243 189 255
255 241 255 104 54 114 163 102 181 164 111 176 166 110 176
151 99 159 134 79 131 123 72 120 123 71 122 121 68 113
159 106 153 153 100 147 150 97 146 186 129 184 157 107 149
158 104 154 221 164 207 215 170 211 255 230 255 255 215 255
252 204 252 246 197 248 238 193 232 232 188 233 232 178 226
236 188 225 184 134 172 184 139 168 174 128 163 153 107 137
63 21 70 40 12 59 46 15 65 60 23 77 63 31 78
46 19 62 54 22 61 60 38 81 35 7 54 47 25 59
41 16 58 29 2 35 27 0 35 37 18 45 46 18 56
44 23 62 42 8 45 47 13 57 0 0 11 108 67 117
242 202 249 35 4 61 26 0 48 50 17 63 26 0 46
58 28 78 34 0 42 7 0 25 43 16 48 36 2 37
34 5 44 105 82 99 28 12 39 30 20 35 26 16 33
20 13 27 29 7 36 27 8 32 31 12 34 45 26 46
0 0 9 34 19 44 37 12 42 22 0 26 41 19 52
40 18 49 16 0 25 1 0 7 32 13 32 37 16 52
49 21 58 55 23 69 37 16 52 35 11 53 52 25 66
78 37 87 45 9 56 39 0 57 75 29 70 71 32 71
33 0 13 33 0 0 65 21 17 42 7 0 60 28 29
55 19 21 51 10 12 41 10 6 38 8 2 29 6 4
31 0 14 18 0 10 9 0 4 40 7 50 85 57 99
104 74 131 112 65 133 83 50 122 85 47 129 105 71 134
77 43 102 71 40 80 56 19 75 34 12 48 23 0 33
33 1 31 27 6 34 36 10 40 33 9 38 32 4 32
27 5 28 26 0 22 28 5 26 31 7 24 35 7 24
37 21 28 24 1 9 20 8 10 26 8 16 27 14 6
27 8 19 25 11 6 23 8 7 19 4 3 34 21 22
29 17 10 36 8 8 27 18 12 36 10 13 34 17 9
39 17 20 44 20 18 30 16 10 25 21 15 40 16 17
24 20 14 33 12 12 28 10 9 31 13 12 24 6 5
33 17 15 27 12 10 28 10 7 20 6 4 18 1 0
21 5 2 22 6 3 21 5 2 33 20 16 26 16 11
42 16 16 28 21 15 45 19 19 25 18 12 39 13 13
20 13 7 25 0 0 19 12 6 29 3 3 19 12 6
33 7 7 24 17 11 35 9 9 20 10 5 37 24 18
32 22 15 36 13 14 36 15 6 36 18 20 32 14 6
34 13 8 34 13 10 33 8 11 25 13 4 29 13 10
37 26 13 34 25 14 44 21 15 41 23 14 37 26 9
53 17 28 67 33 44 66 36 46 33 4 22 0 0 0
0 0 0 134 84 132 255 220 255 255 255 255 255 244 255
255 223 255 227 173 241 172 124 205 112 51 128 55 0 83
44 0 70 41 0 58 56 3 79 54 9 71 68 18 86
82 32 100 88 37 106 79 30 94 73 27 91 89 26 101
94 29 103 95 36 98 102 35 106 100 36 108 95 36 94
97 29 105 91 34 95 93 28 93 99 52 109 120 53 127
89 41 101 78 22 96 70 13 84 55 0 68 30 0 42
116 54 129 12 0 30 255 218 255 255 255 255 237 190 251
255 255 255 255 243 255 212 167 227 202 146 212 210 155 217
223 173 234 255 206 255 255 205 255 210 157 210 171 114 165
182 130 172 141 88 133 183 129 176 150 93 143 146 105 142
207 146 196 205 160 197 208 160 202 184 131 173 169 128 165
199 150 200 223 175 222 243 195 242 242 193 243 255 210 255
255 235 255 255 255 255 255 255 255 255 240 255 244 199 229
194 149 182 43 9 68 47 14 63 51 13 65 41 11 60
44 15 52 50 22 54 56 21 57 50 26 54 42 11 37
39 16 42 44 16 44 40 22 47 41 16 39 30 16 46
41 13 48 29 12 39 41 9 66 40 7 50 111 81 126
115 81 120 14 0 25 22 0 26 53 19 61 32 4 41
41 7 34 33 8 32 34 12 38 39 18 39 35 12 32
32 19 34 33 22 37 28 12 25 37 20 33 37 17 33
42 22 38 40 20 36 36 19 32 34 17 28 30 14 32
28 12 28 26 10 24 23 7 21 23 9 22 20 6 18
18 4 19 14 0 14 20 7 16 18 0 16 20 10 40
20 12 38 31 16 50 29 15 46 34 3 41 34 9 45
39 12 41 49 13 41 59 25 56 61 30 50 63 18 39
52 13 28 50 13 22 42 13 8 50 8 3 53 21 11
40 4 1 40 18 9 46 16 7 24 5 0 16 0 0
15 0 0 19 5 9 5 0 0 56 23 64 57 29 78
73 27 100 57 16 87 65 19 97 84 43 119 89 47 125
78 34 114 72 32 104 86 43 121 92 54 121 91 47 113
87 42 102 51 21 66 28 0 42 13 0 15 42 16 42
48 22 52 50 29 53 59 33 58 51 33 47 40 20 39
30 9 32 25 5 29 30 7 23 37 14 24 21 3 21
21 6 15 21 0 20 25 9 20 33 16 29 39 22 35
17 0 15 17 8 13 29 9 23 25 16 24 29 11 26
25 8 12 22 4 21 23 8 18 20 11 9 14 8 5
20 9 7 18 11 10 18 8 6 19 10 8 19 12 9
18 11 8 23 16 13 20 16 12 32 11 13 20 19 14
32 14 15 29 14 14 26 13 13 21 8 8 36 23 23
26 15 14 32 12 16 23 14 12 26 6 10 20 11 9
28 8 12 25 16 14 31 11 15 24 15 13 32 12 16
29 20 18 36 16 20 27 18 16 36 16 20 30 19 18
30 15 15 25 14 13 34 17 23 26 19 8 36 15 22
32 11 8 29 20 19 36 24 14 38 22 20 32 23 9
37 23 15 29 14 9 29 18 8 32 19 9 32 26 11
36 26 16 42 5 18 63 21 42 0 0 0 0 0 0
144 96 143 228 179 237 198 144 214 182 132 205 215 154 227
182 124 195 188 135 201 231 176 241 255 237 255 255 255 255
255 220 255 219 162 228 0 0 0 32 0 47 30 0 46
39 0 55 62 0 78 83 21 99 89 27 106 92 33 114
86 22 91 77 16 90 75 15 88 81 22 97 103 45 119
106 46 114 96 38 114 75 14 84 107 48 119 78 17 91
80 16 87 73 12 84 36 0 46 29 0 35 131 67 140
252 200 255 203 148 206 255 213 255 255 213 255 233 179 240
192 135 191 157 96 157 206 149 207 255 241 255 240 184 236
231 176 225 244 187 238 237 182 229 211 162 201 226 172 219
231 189 226 242 196 231 129 82 123 154 111 145 161 114 153
152 113 141 139 89 127 136 95 122 149 104 135 166 122 148
152 104 148 143 97 136 136 90 128 131 85 123 142 96 134
151 107 144 163 111 156 163 118 156 163 116 148 194 150 185
238 181 223 250 196 237 43 7 62 41 7 54 44 17 66
42 15 51 48 16 57 51 19 51 45 23 44 53 28 52
30 12 27 43 19 41 30 10 32 37 11 33 29 15 40
34 16 39 30 13 42 40 13 52 39 11 53 34 1 56
75 52 89 102 66 111 53 24 59 38 7 41 49 15 46
29 6 33 35 12 31 36 15 32 33 13 25 29 16 29
30 15 24 30 16 22 28 22 21 30 24 25 35 17 32
36 21 33 30 15 27 32 17 29 34 19 31 29 15 24
31 12 32 35 17 34 25 7 24 27 9 26 27 9 26
27 9 26 26 9 22 27 10 21 26 9 29 24 7 18
28 12 48 32 18 47 38 16 45 39 24 48 42 13 45
35 14 38 51 15 54 50 16 40 61 27 49 58 25 42
64 24 36 57 21 20 44 13 15 39 11 4 54 14 3
60 21 20 44 19 7 42 20 7 39 10 0 29 9 0
17 5 0 14 1 0 27 6 13 6 0 0 105 76 113
90 48 102 89 46 116 75 35 108 62 20 91 68 27 100
70 29 99 60 17 87 82 38 122 79 35 112 78 30 110
82 37 110 66 27 93 59 15 72 44 11 58 47 13 60
0 0 10 17 0 14 16 0 21 28 5 26 24 1 30
34 10 39 38 13 45 34 11 39 37 17 38 34 9 34
25 13 25 24 8 25 29 11 27 25 6 24 24 5 25
31 10 33 21 10 18 26 11 26 26 11 22 29 12 25
28 13 25 26 11 25 27 9 24 17 8 19 23 10 10
21 13 8 23 14 12 19 9 7 21 12 10 21 14 11
21 4 6 18 3 4 28 15 15 25 12 12 23 13 12
25 12 12 23 13 12 21 13 12 31 13 12 27 11 10
30 16 17 30 16 17 25 13 13 29 15 16 26 14 14
26 12 13 22 10 10 23 9 10 26 14 14 25 11 12
28 16 16 25 11 12 26 14 14 29 15 16 31 19 19
28 12 13 36 32 33 44 30 31 45 27 26 38 23 25
45 25 25 41 20 25 36 24 18 42 25 27 24 15 5
29 13 12 18 14 0 19 15 4 29 13 3 24 13 4
28 20 5 30 12 4 51 10 22 15 0 0 94 48 79
199 148 190 216 164 218 226 166 228 214 156 232 190 129 204
143 87 161 135 83 150 145 76 149 153 104 172 217 148 213
255 209 255 251 198 255 200 151 212 235 167 252 205 141 220
147 83 162 85 21 100 41 0 56 19 0 34 9 0 24
4 0 19 14 0 36 30 0 41 45 0 69 58 2 69
57 0 81 57 1 70 59 0 83 65 10 81 45 0 60
40 0 48 36 0 47 50 0 63 92 33 102 172 114 182
255 207 255 255 255 255 248 189 252 253 202 254 227 171 233
201 147 204 179 121 175 148 103 157 137 89 140 139 83 137
146 90 130 131 77 118 143 86 134 153 98 137 136 88 129
146 93 132 150 106 147 141 94 132 159 111 144 161 115 140
156 111 144 154 111 137 142 99 128 142 94 119 140 102 124
145 108 126 159 109 143 156 109 145 157 110 144 157 110 144
153 108 139 143 100 130 141 90 124 138 88 123 124 76 112
134 88 124 157 104 139 155 104 139 39 4 64 43 6 62
45 9 63 53 17 68 49 19 59 45 14 52 39 15 45
43 13 44 26 2 35 29 5 28 28 7 33 32 6 31
21 7 33 30 10 40 34 16 37 31 15 49 31 1 50
37 9 46 70 46 89 75 43 84 37 11 45 33 7 40
42 15 45 20 0 24 42 12 43 34 8 35 32 8 30
22 4 27 31 10 29 29 12 27 29 19 26 32 22 31
31 9 20 30 11 21 33 17 26 31 15 24 29 13 22
34 18 25 32 17 31 34 19 29 27 12 22 33 18 28
30 15 25 33 19 26 36 17 39 33 15 34 37 20 32
35 16 34 31 21 41 33 24 48 44 27 51 39 23 49
41 17 45 42 20 42 46 17 47 51 20 44 62 31 47
57 29 47 64 19 32 48 18 16 54 7 10 48 6 8
57 18 5 54 20 7 65 36 32 41 17 7 34 3 0
28 9 0 21 5 0 19 0 0 33 13 24 28 2 19
142 110 148 114 78 119 106 68 119 85 38 101 76 35 100
81 35 107 84 37 107 79 42 105 77 38 106 81 39 106
79 47 104 74 38 95 76 42 96 72 30 87 62 34 73
83 53 96 0 0 10 22 0 31 16 0 26 11 0 16
15 0 20 19 0 26 20 0 31 21 1 20 36 16 37
32 11 20 35 11 27 39 12 29 29 14 27 25 7 23
24 6 14 18 0 10 27 7 20 29 7 22 25 11 19
29 13 23 29 13 23 27 11 21 29 10 23 21 10 17
26 12 18 23 16 13 19 10 10 23 14 14 18 9 9
20 11 11 20 13 12 17 12 10 26 12 15 23 11 13
23 11 13 23 11 13 23 11 13 23 11 13 21 11 13
18 10 16 29 14 9 27 13 13 24 10 10 26 12 12
24 10 10 23 9 9 21 7 7 21 7 7 24 10 10
23 9 9 21 7 7 24 10 10 25 11 11 27 13 13
24 10 10 29 15 15 27 11 11 21 9 8 26 8 11
22 8 11 32 12 11 32 11 14 20 11 4 31 14 14
12 3 0 22 6 1 11 7 0 11 7 0 19 3 0
20 9 0 21 16 0 15 2 0 66 31 45 16 0 0
142 96 126 255 227 255 222 176 229 160 108 165 163 109 182
151 85 158 166 106 185 133 69 155 123 60 139 131 70 151
164 101 182 217 155 238 242 179 255 191 128 208 255 247 255
255 207 255 229 168 247 183 122 201 143 82 161 121 60 139
113 54 132 108 51 128 145 77 161 150 89 163 140 73 158
105 44 118 62 0 79 44 0 55 62 0 79 62 0 76
124 63 142 144 82 155 184 122 199 221 155 228 255 209 255
255 251 255 255 230 255 240 181 250 215 159 211 195 142 199
169 111 165 153 107 155 161 109 155 158 112 160 141 97 143
114 69 110 146 97 133 133 78 106 128 84 115 127 80 105
122 73 104 132 77 106 131 88 117 126 80 102 160 112 144
157 109 135 153 113 129 148 102 124 133 91 115 121 83 101
119 78 99 122 82 101 113 71 91 119 79 102 128 88 109
126 88 106 134 86 117 135 91 118 128 86 112 132 92 117
109 59 87 126 78 105 128 84 109 129 83 109 52 20 73
52 19 81 59 26 73 58 25 68 50 22 65 47 11 57
31 11 41 33 5 42 28 1 27 29 8 28 32 6 32
27 5 29 34 5 39 27 13 39 34 14 41 35 17 37
22 3 37 37 17 61 63 35 68 52 28 66 21 0 31
34 8 38 48 21 56 18 0 22 34 8 33 28 6 25
31 6 27 26 10 25 23 11 20 29 10 18 23 13 22
28 15 26 23 13 23 21 12 22 32 10 24 32 13 26
34 15 28 34 15 28 38 19 28 37 18 36 33 14 30
36 17 33 36 20 35 37 21 36 38 23 35 40 26 35
41 22 44 45 27 42 42 24 44 41 28 47 43 26 47
45 22 44 50 26 50 49 20 47 58 20 42 54 19 41
69 34 55 63 23 38 56 17 25 46 12 16 49 8 6
51 15 2 60 19 14 59 24 14 70 41 28 37 13 3
25 0 0 36 10 0 34 6 0 12 0 0 35 17 24
68 39 52 95 66 89 86 50 86 78 39 87 80 38 83
79 37 93 87 47 103 102 62 113 115 74 128 73 31 83
78 41 93 79 39 94 79 38 97 85 46 99 81 50 93
91 51 108 93 62 100 70 40 82 64 41 79 58 35 66
47 19 49 27 7 42 16 0 22 13 0 22 4 0 11
29 13 20 31 9 25 30 8 26 33 8 27 24 9 24
26 8 26 24 6 16 18 0 12 31 12 26 25 4 20
29 16 24 27 12 22 29 13 23 29 13 23 25 6 19
19 7 12 19 11 10 22 8 14 24 10 16 20 6 12
23 9 15 19 5 11 19 7 12 16 5 10 25 11 15
22 9 13 22 9 13 22 9 13 21 10 13 21 10 13
21 10 15 19 11 5 25 5 15 23 12 6 20 8 5
23 11 8 21 9 6 19 7 4 17 5 2 17 5 2
21 9 6 19 7 4 18 6 3 20 8 5 21 9 6
23 11 8 21 9 6 30 18 15 4 0 0 8 0 0
7 0 0 10 0 0 18 0 0 21 5 6 23 1 0
14 5 0 17 0 0 15 6 0 14 0 0 13 0 0
16 6 0 14 4 0 21 5 0 25 2 0 36 0 4
26 0 3 73 30 50 168 120 150 214 160 203 159 100 166
119 59 117 115 50 127 230 166 240 177 119 198 158 87 175
138 79 157 140 71 153 164 103 178 178 115 201 161 96 173
170 113 189 182 122 201 203 144 221 223 164 241 228 169 246
242 185 255 255 193 255 255 218 255 255 202 255 230 168 246
163 102 178 106 46 121 86 18 104 118 60 140 195 127 213
229 169 242 255 209 255 255 214 255 255 224 255 255 218 255
255 216 255 255 205 255 182 126 189 87 37 89 153 96 157
142 99 146 147 98 149 148 102 148 157 114 161 157 107 151
138 98 147 124 81 118 184 128 157 163 115 143 155 104 127
155 104 133 151 97 119 143 104 125 159 113 134 162 114 141
143 97 114 142 102 115 148 102 114 143 107 116 137 98 112
132 89 96 120 77 86 129 86 93 86 45 57 96 50 71
98 53 71 106 61 77 114 73 93 134 87 106 149 104 122
158 113 128 149 106 128 152 111 129 163 112 138 152 112 131
79 38 102 83 39 96 68 34 90 67 31 82 53 22 74
47 16 56 37 3 42 25 4 31 37 7 38 29 6 37
33 10 30 28 7 33 32 9 33 39 10 36 33 16 36
43 22 51 30 13 37 39 21 53 57 38 62 38 20 47
18 5 29 41 12 40 44 23 42 25 2 18 36 10 32
26 10 31 20 6 20 29 7 21 19 5 21 28 6 18
21 11 22 27 12 22 22 5 15 21 16 22 26 12 21
26 14 24 26 14 22 32 22 31 27 17 23 31 21 30
29 19 27 30 23 30 40 21 31 39 23 33 40 24 33
41 25 33 44 29 43 40 28 40 41 25 38 47 20 35
45 27 38 46 25 39 53 22 42 50 26 34 56 25 45
52 22 34 63 34 38 60 26 31 53 15 16 50 19 19
53 14 0 53 19 3 60 23 2 58 21 10 70 41 32
35 13 2 28 0 0 33 9 7 28 6 0 27 2 0
47 20 28 87 63 73 40 11 30 45 11 35 53 14 45
60 29 59 72 29 67 82 42 80 82 44 84 99 56 106
70 30 75 76 35 84 79 39 84 80 40 81 85 43 94
84 44 94 95 52 103 91 53 107 116 70 120 108 76 117
102 63 115 88 59 104 72 37 72 60 26 55 30 4 40
32 2 37 19 0 10 22 6 9 25 6 15 29 8 17
26 10 20 24 6 16 25 7 19 24 5 19 26 11 17
28 12 20 31 13 23 31 12 22 29 14 24 24 8 18
28 9 20 22 10 23 19 8 12 17 13 15 19 13 16
15 9 12 18 12 15 13 9 11 19 6 13 15 4 10
24 14 20 21 11 17 21 11 17 20 12 17 24 8 17
23 9 17 23 9 17 22 10 26 22 6 3 27 8 14
23 5 11 21 3 9 19 1 7 23 5 11 19 1 7
20 2 8 18 0 6 23 5 11 20 2 8 22 4 10
23 5 11 26 8 14 24 6 12 21 3 9 34 16 22
20 8 14 27 2 4 19 0 3 26 3 3 25 3 5
23 1 5 12 0 0 19 10 3 16 0 0 16 2 0
14 0 0 16 3 0 27 7 0 20 12 0 27 8 0
35 0 0 61 13 25 18 0 0 35 0 19 165 117 154
213 161 213 205 145 210 237 180 243 213 149 225 177 115 197
169 94 179 147 87 169 140 64 157 141 79 163 172 109 203
183 116 205 130 67 149 155 94 168 173 108 193 186 122 205
193 129 210 195 133 211 212 142 234 243 176 255 136 71 158
152 87 174 153 89 173 164 103 184 203 127 221 209 151 237
222 147 236 197 135 222 226 159 252 198 141 222 178 112 192
153 100 178 150 93 170 145 89 162 144 81 156 137 86 148
134 73 133 135 89 141 150 95 142 148 105 152 145 96 133
136 95 126 133 87 131 138 92 130 124 80 90 126 84 89
124 81 94 123 80 95 129 86 95 142 95 110 147 104 107
151 109 120 143 101 110 144 106 110 146 106 105 147 105 111
148 103 100 128 96 95 122 87 87 130 95 95 79 45 41
92 60 60 90 58 56 88 56 50 93 65 63 116 70 83
124 83 89 132 91 98 138 100 111 136 97 104 135 91 106
125 83 97 96 58 117 96 55 119 76 46 105 71 38 86
60 26 69 43 16 59 38 5 50 37 2 37 37 13 45
38 7 40 36 11 44 39 14 37 32 10 36 40 13 43
36 21 47 42 19 44 33 16 45 32 22 51 41 23 43
34 19 43 35 9 42 33 17 38 36 18 38 23 4 26
30 9 35 25 9 27 32 9 25 20 5 12 28 6 19
16 7 15 24 7 21 21 14 14 21 12 25 21 8 11
23 12 26 24 13 15 24 15 28 29 12 17 30 15 29
32 17 28 34 21 31 30 20 28 34 15 30 35 18 28
37 21 35 39 22 32 35 21 33 36 23 29 42 20 32
42 20 33 40 13 29 37 19 34 50 21 31 56 25 39
58 25 36 50 19 28 67 30 36 55 19 18 52 22 17
46 15 6 58 17 12 59 24 5 62 23 2 60 28 6
49 24 16 39 7 1 28 1 0 31 8 4 35 8 1
29 7 10 44 17 20 79 55 57 61 28 45 52 29 41
60 22 50 69 38 62 78 40 64 70 35 61 61 22 54
61 29 61 67 27 58 70 33 63 70 28 68 70 30 72
74 33 77 79 41 92 84 43 91 81 46 88 94 54 100
88 57 104 97 63 105 100 63 103 95 60 97 87 57 87
81 44 85 84 56 83 14 0 9 32 12 20 31 8 22
31 6 20 22 5 19 25 6 20 28 9 23 31 11 27
28 11 19 32 14 24 29 11 21 31 12 22 30 15 25
26 10 20 24 5 16 19 7 16 18 7 15 18 5 16
18 7 17 20 9 19 15 4 14 18 8 18 17 4 13
14 2 11 23 13 21 20 10 18 20 10 18 19 11 18
23 7 18 22 8 18 22 8 20 19 8 13 25 9 16
21 4 5 24 8 11 22 6 9 20 4 7 17 1 4
20 4 7 20 4 7 20 4 7 17 1 4 21 5 8
22 6 9 24 8 11 20 4 7 25 9 12 18 2 5
41 31 32 34 11 18 23 7 4 23 3 4 21 3 6
20 4 1 12 0 0 0 0 0 29 6 3 15 9 4
26 3 0 21 0 0 24 10 0 27 6 1 29 16 4
27 9 1 45 2 4 80 38 45 71 25 40 29 0 13
45 0 27 123 65 108 218 159 214 255 231 255 193 121 195
171 102 180 147 83 162 145 77 159 131 58 148 129 64 150
157 81 171 176 106 191 159 97 173 168 111 187 190 125 204
189 126 202 180 117 202 153 90 173 132 72 150 104 41 127
187 117 200 155 88 168 148 76 169 160 90 180 181 111 195
183 116 198 164 90 185 138 64 155 118 54 146 120 56 138
119 67 141 136 78 155 129 68 146 116 56 131 111 59 128
137 81 145 109 63 119 114 63 119 102 59 104 111 65 105
130 81 124 143 100 139 148 107 142 154 114 150 124 79 91
136 98 93 132 92 98 134 94 102 142 102 104 140 97 104
135 88 93 138 97 94 149 107 104 134 104 93 137 103 101
140 103 94 136 97 95 127 95 81 115 81 70 116 83 72
97 63 48 105 67 63 115 78 69 116 79 78 121 85 76
117 86 79 119 83 80 112 81 79 119 72 80 107 80 76
116 67 82 103 71 76 100 62 121 91 53 114 87 43 102
62 30 88 52 20 70 54 19 68 39 11 50 51 20 56
31 10 45 38 9 36 32 10 38 37 14 34 33 11 40
36 16 33 40 13 37 32 19 38 40 19 41 22 16 33
33 10 37 35 20 32 33 19 34 30 15 32 24 7 23
23 8 15 36 17 30 23 18 20 29 6 19 21 12 20
19 5 18 23 14 17 19 10 17 24 11 12 28 13 25
22 17 14 20 13 21 23 16 14 25 20 27 26 13 14
27 18 25 23 16 20 30 14 23 26 15 20 32 11 29
30 18 18 28 9 27 30 21 20 33 16 31 37 13 24
33 16 17 29 10 17 36 10 17 40 14 24 55 22 27
58 28 36 53 21 25 56 19 25 55 23 29 62 15 18
56 14 14 63 24 14 65 31 14 66 30 16 60 21 2
58 28 8 33 0 0 35 10 0 33 8 0 28 8 2
32 7 0 32 9 5 51 23 21 46 31 32 75 45 46
57 32 35 58 28 35 69 36 49 69 41 56 58 30 41
45 18 34 56 17 38 66 25 53 57 20 45 64 28 54
64 23 56 66 26 59 63 27 57 66 25 60 57 24 68
57 19 60 56 25 64 63 29 64 71 36 78 81 46 78
71 47 80 76 47 79 87 61 87 38 15 28 40 30 33
35 21 29 26 12 20 28 12 20 29 13 21 30 14 22
42 24 32 19 5 15 27 12 22 31 16 26 26 11 21
26 10 20 29 10 21 25 6 17 22 9 17 17 8 19
12 14 20 17 4 15 16 6 16 19 9 19 14 4 14
15 6 16 13 6 15 21 6 19 18 5 17 18 5 17
18 5 17 17 6 17 17 6 17 16 6 18 17 5 19
25 9 12 27 10 11 22 6 9 20 4 7 24 8 11
22 6 9 18 2 5 20 4 7 18 2 5 23 7 10
19 3 6 22 6 9 23 7 10 26 10 13 22 6 9
25 12 14 31 10 14 24 1 7 15 0 4 18 0 0
26 5 6 30 12 16 34 0 4 23 0 5 13 0 0
19 3 0 21 1 0 22 2 0 24 7 0 28 3 0
25 12 6 42 12 9 21 0 0 52 7 10 118 73 80
101 62 71 31 0 2 16 0 0 83 25 62 129 68 130
170 107 160 128 57 122 123 59 122 140 75 155 135 56 129
108 48 124 134 55 135 131 67 141 139 68 148 142 85 158
175 102 180 191 121 197 200 130 209 182 114 190 159 91 165
131 66 145 170 100 181 159 91 167 160 93 176 170 108 183
180 102 192 157 95 177 144 62 153 115 51 132 142 80 160
126 78 155 130 74 159 137 79 165 128 75 147 108 57 127
99 43 115 102 45 106 119 72 132 112 63 111 108 52 109
99 56 99 102 53 99 111 65 105 116 65 111 100 58 90
151 109 118 157 117 116 152 110 108 151 109 113 161 116 113
131 100 97 108 76 72 114 86 79 111 80 71 116 79 70
114 78 67 106 84 64 112 87 72 116 87 68 111 82 65
97 73 54 112 75 59 115 83 70 117 88 68 124 93 80
125 92 82 124 90 82 118 89 82 121 86 87 108 68 71
112 81 71 112 75 84 113 77 83 87 51 109 95 59 119
80 42 100 65 27 80 58 15 69 39 6 62 46 10 55
47 16 58 28 0 34 29 5 35 33 2 35 32 7 40
30 4 30 29 11 32 31 11 27 38 8 30 38 29 44
25 7 22 18 4 22 38 22 40 49 32 53 21 2 20
13 0 6 14 7 12 42 28 39 25 18 24 28 12 26
16 7 10 22 9 18 18 12 11 30 13 22 24 15 12
29 19 26 29 16 15 33 24 31 31 21 19 28 20 27
23 19 14 29 17 24 24 15 19 31 22 24 26 21 20
32 17 27 24 10 11 24 14 22 28 9 13 20 9 20
29 9 15 46 17 23 27 0 0 29 0 7 29 4 1
38 9 15 49 22 23 59 21 31 54 22 26 58 12 9
58 23 24 56 23 11 62 25 15 69 34 21 65 29 15
61 22 1 62 33 6 19 0 0 41 8 5 40 12 10
34 4 1 24 0 4 38 13 9 35 20 21 50 27 26
33 16 16 13 0 0 12 0 0 35 18 17 49 23 23
40 22 24 42 16 23 44 26 33 61 33 43 64 28 40
65 36 50 68 41 54 66 34 61 70 36 64 57 32 64
58 28 54 55 30 64 56 27 63 56 29 53 55 26 53
53 27 60 60 35 59 66 37 61 70 42 62 90 75 83
77 59 70 54 35 48 36 17 30 26 7 20 29 10 23
33 13 26 41 24 37 27 8 21 29 10 23 33 14 27
36 17 30 30 8 22 19 13 22 27 2 17 15 0 9
16 6 16 11 11 14 22 7 15 21 9 16 16 4 11
18 6 13 19 7 14 10 0 6 25 9 19 21 7 16
20 6 15 20 6 15 20 6 15 19 5 14 17 6 15
17 5 16 29 13 14 30 12 11 31 14 15 27 10 11
24 7 8 20 3 4 23 6 7 17 0 1 22 5 6
19 2 3 23 6 7 18 1 2 20 3 4 20 3 4
23 6 7 20 10 8 24 0 3 3 0 0 0 0 0
0 0 0 9 0 0 26 0 2 43 20 25 90 59 63
0 0 0 14 0 0 19 0 0 19 5 0 20 0 0
24 9 0 38 14 8 23 0 0 107 69 67 25 0 0
19 0 0 97 55 59 105 59 80 37 0 18 26 0 3
57 0 35 105 44 91 67 2 60 119 45 105 181 113 164
174 104 168 148 76 136 146 77 134 160 85 154 129 65 122
129 64 131 132 69 133 152 89 153 171 110 171 196 128 196
202 136 200 212 150 218 183 109 177 185 115 189 169 101 168
142 66 146 115 45 116 111 34 118 136 59 138 156 89 167
122 59 144 112 58 136 100 39 110 95 30 110 100 51 116
118 63 133 119 65 120 109 60 121 88 28 84 100 53 109
119 70 115 119 69 113 95 52 90 82 34 72 90 38 87
88 40 76 96 60 63 117 90 75 115 84 83 125 94 85
146 114 113 127 89 89 91 54 49 81 54 36 94 61 50
88 64 46 92 70 46 112 82 58 127 95 78 124 102 73
119 96 72 109 77 58 130 105 75 118 92 72 117 76 66
91 69 45 99 60 47 86 62 50 108 66 56 97 75 62
103 65 59 92 67 65 110 69 68 111 85 78 118 76 137
66 22 89 56 15 72 65 32 84 59 19 69 51 22 71
59 26 74 57 30 66 74 38 86 54 34 66 43 14 41
26 4 32 34 13 37 33 7 32 38 10 32 33 11 34
27 10 30 31 14 22 34 10 38 28 9 22 21 3 23
28 11 23 26 19 25 28 11 22 13 2 13 15 12 12
28 13 23 28 23 22 28 15 21 16 18 14 22 4 11
9 13 0 18 15 20 10 17 3 11 0 6 6 4 0
11 0 5 16 8 1 24 11 16 26 18 19 20 0 5
23 8 9 34 14 27 38 26 22 34 20 31 38 16 16
24 11 17 13 0 0 16 0 0 32 4 3 45 16 23
61 31 35 71 31 42 67 29 31 61 30 34 73 29 34
49 12 15 51 7 4 48 7 4 58 19 7 69 37 21
74 38 20 62 24 8 48 16 3 30 0 0 25 0 0
35 4 2 36 3 2 45 13 14 42 19 17 47 27 22
52 33 31 33 16 2 36 26 15 43 26 19 29 22 6
29 12 4 21 12 6 30 12 13 17 3 0 34 18 25
28 16 21 22 10 19 22 5 18 24 9 14 20 4 15
20 6 21 24 9 20 22 6 25 25 6 23 18 10 26
15 4 21 17 5 24 18 3 16 7 3 20 9 0 2
24 1 16 24 10 11 30 17 21 41 26 30 38 25 29
42 27 31 39 22 26 32 22 27 27 17 21 30 18 23
29 19 23 24 12 17 27 13 19 25 18 20 31 15 20
32 23 30 10 0 5 9 2 18 9 3 16 9 3 16
10 4 17 10 4 17 10 4 17 8 4 17 15 5 17
11 3 15 15 7 19 14 6 18 13 5 17 16 10 21
18 5 22 23 10 22 12 0 1 10 0 1 9 0 2
15 1 8 13 0 6 19 5 12 18 4 11 17 3 10
28 14 21 24 10 17 21 7 14 23 9 16 16 2 9
17 3 10 14 2 8 19 3 12 0 0 0 25 3 13
101 70 85 149 119 123 174 148 157 178 149 151 130 99 107
98 75 75 0 0 0 25 8 0 24 2 3 24 4 0
32 2 0 30 5 5 24 0 1 19 0 0 42 9 0
65 19 15 64 29 23 53 13 16 68 16 28 77 32 37
89 28 59 81 25 53 47 0 11 61 1 32 70 3 36
73 6 50 99 34 72 113 48 88 106 41 81 89 22 57
127 65 111 109 44 93 103 38 85 107 45 91 118 59 100
139 69 122 139 73 118 138 68 126 125 56 105 129 58 119
139 71 127 154 81 141 163 92 148 159 89 152 153 84 140
161 87 153 98 34 97 102 35 101 85 31 93 100 38 102
104 48 107 104 42 100 96 37 91 81 26 85 105 59 99
121 64 105 125 79 126 118 65 108 93 45 88 74 32 67
75 32 65 76 37 71 75 38 41 78 51 47 93 62 67
85 52 55 63 33 27 53 30 24 73 44 41 91 65 51
47 23 9 60 33 18 63 31 17 64 50 25 72 53 26
90 68 45 110 93 58 116 106 67 129 95 81 117 94 67
113 81 63 106 85 69 102 71 52 95 71 56 94 61 54
84 60 45 118 86 79 111 85 78 111 77 79 110 83 79
126 86 151 84 49 101 65 26 87 75 32 87 66 31 88
71 28 82 63 30 86 53 17 61 55 25 67 54 20 59
31 10 39 34 4 37 34 5 30 35 15 37 34 9 31
37 12 30 37 15 35 26 14 26 30 16 32 31 11 22
27 14 25 28 9 18 25 13 22 24 15 16 12 7 10
18 9 8 24 14 19 29 13 15 20 18 20 23 20 12
16 15 10 21 21 15 0 0 0 3 0 0 15 3 4
17 8 5 26 11 15 19 15 9 27 12 12 13 3 0
44 29 29 25 15 11 22 1 9 9 0 0 13 0 1
10 0 0 18 0 9 25 8 6 62 26 31 53 25 28
71 30 41 71 38 38 69 37 39 70 27 27 53 14 17
51 11 8 59 20 19 51 11 10 50 14 7 60 19 14
67 27 20 64 32 16 51 16 3 55 16 0 37 3 0
45 12 7 42 0 2 35 8 5 40 12 12 40 19 16
40 18 20 46 32 20 29 19 6 38 20 14 28 20 3
23 21 0 29 20 13 28 19 4 22 19 3 21 13 14
31 24 24 28 17 24 30 20 20 31 22 30 26 17 23
30 20 22 27 21 31 25 18 26 21 12 18 25 13 23
17 17 22 22 19 25 17 14 20 22 17 26 19 12 15
14 15 23 23 13 16 22 9 20 34 12 22 16 7 17
31 9 19 22 11 21 21 6 17 19 12 18 26 7 17
19 12 16 23 4 14 22 13 18 27 14 21 21 15 18
29 15 20 31 17 28 9 9 13 18 6 24 18 7 22
18 7 22 17 8 22 17 8 22 17 8 22 13 6 20
27 12 26 22 9 23 24 14 27 22 12 25 21 11 24
24 16 28 26 10 28 26 15 28 11 1 7 29 9 13
25 7 13 23 5 11 28 10 16 25 7 13 24 6 12
36 18 24 0 0 0 6 0 0 18 0 6 29 11 17
46 28 34 58 40 46 63 47 52 63 46 53 104 80 85
105 83 89 111 83 93 106 80 92 116 74 84 92 68 78
59 30 34 36 8 18 11 0 0 18 0 4 24 5 0
24 5 5 33 3 9 27 2 0 31 3 6 24 0 0
48 15 7 47 15 8 59 24 16 67 28 26 66 23 20
69 26 33 81 29 35 80 25 44 82 28 48 87 26 48
82 22 52 94 29 52 99 35 63 91 27 45 86 22 44
74 8 27 76 21 47 71 14 43 77 23 49 101 34 62
122 60 96 136 69 102 129 64 104 110 47 80 166 101 142
158 88 128 153 88 124 165 89 135 162 89 132 171 100 138
173 93 144 179 105 141 179 113 169 172 111 155 170 101 158
159 103 149 160 92 137 137 75 121 103 45 90 91 39 74
77 30 61 79 31 67 74 33 57 77 33 65 89 46 72
95 51 86 99 52 81 92 48 74 76 48 51 87 57 61
96 63 74 100 72 74 95 62 67 82 53 48 78 49 41
78 59 41 51 33 16 58 36 20 59 35 18 50 28 8
59 40 13 62 41 17 68 46 16 67 53 19 77 51 32
76 45 22 79 52 35 78 49 27 84 58 42 94 68 45
97 66 52 99 76 61 109 78 66 101 76 66 105 72 72
102 76 68 169 127 187 112 67 121 72 35 87 74 33 89
66 33 87 78 38 88 68 39 88 53 20 66 59 32 75
49 16 61 48 13 48 29 7 42 35 11 40 36 6 29
38 15 34 33 12 28 38 11 35 32 12 28 38 11 22
29 12 26 27 13 27 30 8 20 25 13 23 25 14 18
13 6 14 23 11 17 17 15 15 17 17 8 21 17 13
17 14 10 15 14 13 22 16 3 18 3 10 17 14 2
24 14 17 18 16 3 20 6 10 13 1 0 6 0 0
0 0 0 20 0 1 13 0 0 14 0 0 26 0 0
35 3 12 50 28 26 71 41 46 71 40 44 80 44 49
77 36 50 64 36 32 67 23 31 59 21 29 65 21 27
62 21 30 74 29 32 56 11 15 62 21 18 62 17 15
58 23 10 55 14 11 53 14 4 44 7 0 41 0 0
46 15 0 40 11 8 47 9 10 37 7 4 42 7 13
37 8 11 33 13 4 38 21 14 26 10 1 22 20 9
21 19 0 29 21 1 17 18 9 15 18 0 22 12 2
21 13 0 19 21 14 20 16 16 16 13 10 17 14 9
19 16 13 15 12 9 17 13 8 22 16 12 7 8 0
12 11 11 15 11 8 10 6 3 16 10 7 1 5 0
3 9 11 13 8 14 10 0 0 12 0 3 9 0 0
7 0 0 13 0 2 5 0 0 9 0 0 6 0 0
12 0 7 10 4 7 17 2 10 15 7 11 19 6 12
11 13 14 24 9 13 18 14 24 23 12 24 18 18 21
19 17 20 18 18 21 22 14 20 21 15 21 21 15 20
18 12 18 26 22 27 21 20 25 27 14 22 30 20 28
28 18 25 26 16 24 28 21 28 33 23 29 27 9 19
24 15 15 28 19 22 28 18 21 24 15 18 30 20 23
27 18 21 26 16 19 23 14 17 26 16 19 33 24 27
44 34 37 50 41 44 61 51 54 67 61 63 71 57 59
97 73 88 83 58 73 66 34 43 38 11 23 24 0 0
22 0 3 13 0 0 0 0 0 29 0 0 24 0 5
24 0 5 20 2 0 25 5 3 20 4 5 30 3 1
18 0 0 43 13 12 40 14 5 47 18 14 56 28 20
62 24 17 65 21 25 72 24 27 70 20 17 97 47 49
80 30 39 86 29 35 80 20 32 76 22 21 71 16 24
61 8 5 50 0 0 63 0 4 53 0 2 52 0 1
70 5 16 94 35 41 121 54 62 117 52 67 106 44 53
111 53 64 119 49 63 118 53 63 121 52 73 122 56 71
118 55 67 132 55 79 107 43 56 143 69 104 140 66 91
149 73 109 167 91 116 165 108 129 168 102 128 148 86 113
137 88 106 109 50 77 100 57 75 96 46 67 75 38 58
86 42 56 91 50 63 95 64 79 109 72 84 81 55 65
83 58 57 87 60 65 89 60 63 90 62 60 85 66 60
82 58 59 94 71 60 74 44 38 71 56 32 59 37 16
43 31 5 36 19 0 34 22 0 34 24 0 36 18 0
52 19 0 50 27 10 50 27 6 65 43 19 75 49 35
85 57 39 99 69 57 94 80 67 98 66 54 87 68 58
101 66 53 86 66 58 213 171 228 140 96 156 76 40 96
57 18 75 55 12 69 67 32 89 82 39 91 52 19 72
66 30 82 51 23 62 42 14 51 39 3 35 34 8 40
38 11 37 33 13 37 36 11 35 35 13 33 35 8 26
35 13 34 29 12 24 29 12 27 20 13 20 27 12 23
24 13 19 18 11 11 18 5 6 11 14 4 15 13 6
10 9 8 17 8 0 12 7 1 13 3 0 24 19 16
24 13 0 19 7 5 24 0 1 21 7 3 24 4 6
34 19 16 48 21 22 16 0 0 36 14 20 63 32 37
79 45 54 82 56 61 80 51 57 81 43 51 67 39 44
60 12 28 60 16 18 58 14 23 62 20 21 63 22 27
69 28 25 73 33 33 82 42 41 49 8 12 60 23 19
67 26 20 64 19 21 51 14 2 46 4 0 39 4 0
44 5 0 40 6 5 42 4 0 42 6 9 35 6 0
38 5 1 32 7 13 30 10 1 35 16 6 14 11 0
20 19 0 13 13 0 14 9 0 9 13 0 13 12 3
12 7 2 13 9 7 10 8 2 12 10 8 8 6 4
10 8 8 11 9 1 7 5 0 9 7 0 12 7 1
0 8 0 0 4 0 0 5 1 2 7 1 0 3 0
4 5 0 5 2 4 0 1 0 2 0 1 3 0 0
7 0 0 4 0 1 4 0 0 3 0 0 7 0 0
0 0 0 10 0 5 0 0 5 9 0 0 3 1 4
8 2 6 8 3 8 14 7 11 5 2 2 19 16 24
17 12 18 17 12 22 16 13 17 20 9 22 19 10 17
19 10 22 16 7 14 24 17 28 19 14 20 26 10 24
22 8 17 27 14 27 24 10 19 28 15 28 21 12 24
32 20 26 28 17 18 31 16 18 24 14 17 35 20 22
25 15 18 36 21 23 17 7 10 73 58 60 58 48 51
59 44 46 47 37 40 53 38 40 41 31 34 42 28 30
37 32 29 32 15 26 36 11 22 18 0 0 7 0 0
17 0 0 27 0 2 19 0 10 29 1 7 15 0 0
20 0 0 18 3 1 21 5 7 25 2 0 20 0 2
23 6 0 22 0 0 38 13 6 44 15 3 48 16 13
48 22 8 58 18 15 56 23 11 58 20 13 61 15 6
90 41 41 79 30 27 80 30 29 91 31 35 94 41 35
97 44 33 99 38 37 100 49 37 111 51 49 87 33 28
70 8 7 73 17 13 98 35 35 120 61 59 134 78 71
144 75 80 123 58 59 135 70 70 137 76 75 153 82 79
146 73 84 141 70 78 130 60 59 107 31 42 167 97 108
157 83 103 159 84 100 157 84 100 168 98 112 173 112 125
178 112 122 161 103 114 163 103 110 169 113 129 157 114 122
123 87 94 92 49 58 62 28 34 83 38 47 87 58 62
98 70 76 89 63 70 90 62 72 85 54 62 89 59 60
91 72 66 116 90 91 138 113 101 112 96 79 111 87 78
99 77 59 77 65 43 68 53 28 64 48 19 61 44 18
68 49 20 72 55 34 79 49 28 82 54 35 84 57 35
87 53 44 85 66 49 88 66 46 97 72 61 86 62 49
87 70 49 86 62 55 87 64 54 242 203 254 165 126 177
95 53 105 46 9 58 34 0 51 56 23 75 74 34 93
49 20 72 67 36 78 58 21 69 45 14 58 42 10 44
34 9 45 38 13 44 39 10 33 43 17 35 33 13 31
35 8 24 37 13 30 29 12 22 29 12 27 22 12 20
28 11 23 23 12 18 20 13 15 20 9 14 20 10 8
16 5 7 11 7 0 15 3 0 8 0 0 7 8 0
2 0 0 6 0 0 14 0 0 25 8 4 51 26 22
78 50 49 103 74 70 124 92 91 83 51 49 97 54 63
92 58 60 82 50 49 82 38 42 64 26 28 49 6 11
34 0 0 56 20 22 68 20 32 75 31 44 83 44 46
82 45 51 80 28 33 66 18 25 53 10 8 71 25 30
70 20 21 68 30 23 64 21 18 54 17 13 50 9 7
44 9 4 56 17 13 35 2 0 39 3 0 42 5 11
37 8 3 37 7 7 38 3 0 26 9 9 31 8 8
7 0 0 16 9 2 9 8 0 11 10 0 11 7 5
7 8 0 8 2 0 10 5 0 3 0 0 5 1 8
8 4 0 3 0 0 4 0 0 7 3 0 2 0 0
1 0 0 12 5 0 9 0 0 8 1 3 11 1 2
8 0 0 1 5 0 3 0 4 2 4 6 10 0 0
5 3 1 11 0 0 1 0 0 10 0 0 1 0 0
4 0 1 0 0 0 9 0 2 2 4 0 8 0 7
1 0 0 4 0 0 0 0 0 2 0 0 0 0 0
4 0 1 2 0 0 2 0 8 2 0 0 1 0 8
1 0 0 1 0 8 0 0 0 12 0 16 7 3 1
9 2 16 8 8 4 5 0 12 10 10 6 6 2 15
11 0 0 24 17 21 16 11 16 26 10 21 19 16 20
22 6 17 21 18 22 25 9 20 11 8 12 45 29 40
29 26 30 35 19 30 28 25 29 32 16 27 25 22 26
29 15 25 30 22 30 24 7 13 18 4 12 21 0 11
24 10 8 27 5 14 28 5 8 34 3 15 33 7 9
7 0 0 14 0 0 18 0 0 13 0 0 22 0 0
21 3 0 27 0 5 14 2 0 26 7 0 34 13 7
38 15 7 43 17 7 42 16 1 49 15 4 57 15 8
49 11 5 69 24 16 72 21 15 83 36 27 98 47 42
106 55 50 118 76 60 136 80 75 135 87 76 149 89 77
133 76 55 113 50 35 102 44 27 119 51 37 132 67 52
137 76 57 139 71 64 153 91 81 155 84 76 158 93 81
163 91 85 162 95 82 162 97 81 163 89 88 147 82 71
189 110 106 183 103 108 179 97 100 166 94 91 168 88 95
176 110 105 168 108 113 157 99 98 166 111 105 175 128 129
197 145 142 171 131 123 134 84 88 83 49 46 65 21 24
52 7 5 79 53 54 86 57 54 95 61 64 92 68 58
88 61 58 110 75 76 118 97 88 149 126 115 136 108 97
130 112 94 120 97 89 113 91 71 110 87 74 106 79 62
95 86 67 101 78 54 114 86 75 106 84 71 105 87 62
100 81 59 98 78 53 91 73 49 88 68 47 89 69 46
92 67 45 83 73 48 93 64 43 79 67 40 236 196 249
185 145 198 132 92 142 87 45 97 52 14 71 66 23 80
77 42 97 71 28 79 58 25 78 62 29 77 44 14 54
42 11 49 33 11 40 38 16 41 41 15 42 40 11 40
34 8 32 32 14 31 28 12 36 31 12 30 29 12 25
23 11 20 23 16 23 23 10 17 22 16 20 20 16 6
15 10 6 19 10 2 19 11 2 20 11 0 16 13 0
22 5 0 27 4 0 34 8 6 53 28 21 61 42 31
84 47 54 82 56 57 93 54 58 93 65 65 98 50 58
83 45 45 60 17 28 41 0 7 45 0 6 49 6 14
70 21 32 73 22 34 140 92 103 100 68 64 99 51 56
81 34 34 65 17 21 61 23 18 60 11 13 59 9 17
70 30 23 68 21 23 62 24 17 67 24 21 66 29 23
67 26 22 62 27 20 70 31 25 37 4 0 52 15 8
46 14 5 41 12 12 43 8 9 42 10 6 19 5 2
31 11 7 17 2 0 7 7 0 9 6 0 5 6 4
4 6 0 5 1 0 6 0 5 8 1 1 3 2 3
8 2 1 3 0 0 6 0 0 7 1 0 3 0 0
5 0 0 2 0 0 16 7 6 0 5 0 12 0 0
1 8 0 10 0 3 2 0 2 6 2 2 0 0 0
14 12 7 9 0 1 9 1 3 8 7 4 8 0 0
7 3 0 8 2 7 11 4 6 4 0 0 6 0 0
8 0 6 0 0 0 0 0 1 0 0 0 0 0 0
0 0 0 3 0 2 1 0 0 0 0 2 0 0 0
0 0 2 0 0 0 0 0 2 0 0 0 3 0 3
0 0 0 3 0 5 1 0 0 5 0 7 3 0 0
3 0 3 0 0 0 20 5 12 18 6 12 15 5 10
14 2 8 18 8 13 17 5 11 15 5 10 16 4 10
6 0 1 12 0 6 9 0 4 14 2 8 17 7 12
21 9 15 24 14 19 23 20 22 12 0 6 17 0 5
14 4 8 26 7 21 19 2 8 6 0 0 0 0 0
0 0 0 18 0 0 6 0 0 11 4 0 7 3 0
16 0 0 15 3 0 11 2 0 21 0 0 22 5 0
26 5 0 39 14 13 37 18 2 41 12 0 37 14 0
51 7 0 44 12 0 64 18 9 65 21 14 82 35 25
93 43 36 103 55 52 112 60 53 117 71 57 128 79 65
124 67 49 124 66 48 124 68 51 118 66 48 125 61 47
120 61 45 117 49 38 107 48 32 117 50 35 104 42 17
98 29 19 94 30 6 107 36 26 120 51 38 138 74 57
154 75 61 144 71 65 163 88 78 176 99 88 165 94 87
173 105 91 191 120 114 185 124 107 166 104 97 157 99 96
160 107 96 174 122 117 192 140 133 191 144 134 167 116 106
109 66 58 72 33 31 61 29 28 74 48 49 87 62 53
98 68 65 100 68 68 98 76 64 112 82 79 110 92 80
111 90 75 115 91 82 112 92 73 108 87 76 106 83 75
110 92 71 107 85 70 109 88 67 107 90 69 110 82 71
109 87 63 106 82 61 100 80 62 98 75 60 95 74 46
98 74 51 83 68 47 88 73 43 89 74 48 87 69 44
206 166 214 201 161 207 186 146 199 153 112 164 108 70 129
100 59 115 90 57 111 84 44 105 56 28 77 59 24 81
44 18 58 41 10 52 43 12 46 42 11 35 36 17 45
39 12 30 34 10 25 33 15 24 28 13 31 31 13 25
29 13 23 23 12 18 23 16 23 21 12 17 22 12 19
21 14 9 22 17 15 21 14 9 22 18 11 36 24 13
39 33 24 32 23 9 92 65 59 85 55 46 83 53 53
77 52 49 80 43 40 64 37 32 64 16 20 53 15 15
65 19 22 52 14 12 49 3 10 47 0 7 66 17 21
87 32 40 118 57 69 127 72 79 134 89 96 113 70 77
88 35 50 64 18 19 54 7 12 57 9 13 72 26 32
86 40 36 74 24 26 69 24 25 58 20 11 71 26 24
74 37 31 85 44 40 80 45 38 88 49 43 59 28 22
69 35 25 63 35 29 55 30 20 52 21 18 36 10 6
31 6 9 25 12 3 5 0 0 12 2 5 11 0 0
9 6 2 7 0 5 15 0 0 7 0 1 13 0 0
3 0 7 0 1 5 2 2 9 0 0 0 0 0 3
0 0 0 0 0 0 0 0 0 4 0 3 0 4 2
6 0 4 0 1 0 3 0 7 0 4 6 0 0 1
0 0 5 11 1 0 7 2 0 9 1 0 0 7 0
8 0 0 0 3 0 1 3 0 0 0 0 0 0 0
0 0 0 0 0 3 0 0 2 0 0 0 1 2 4
0 0 2 0 1 4 0 0 0 0 2 0 5 0 2
3 0 0 3 0 2 3 0 0 3 0 2 3 0 0
2 0 2 1 0 0 4 0 1 1 0 0 5 0 4
4 0 0 2 0 0 5 0 0 8 5 10 6 2 5
3 0 3 9 5 8 7 3 6 5 1 4 10 6 9
9 5 8 6 2 5 6 2 5 6 2 5 8 3 9
3 0 2 4 0 5 2 0 5 9 0 2 21 15 18
14 3 11 15 0 11 34 14 24 30 12 17 15 0 6
18 0 0 16 0 8 8 0 0 6 0 0 11 0 0
7 0 0 12 0 0 10 2 0 22 2 0 10 1 0
22 0 1 29 8 5 28 10 0 35 10 3 40 7 0
33 8 0 49 9 0 40 1 0 58 13 13 65 20 14
75 29 26 87 31 33 84 40 32 83 31 24 82 35 35
97 44 29 81 22 7 98 37 23 125 54 36 127 59 42
119 54 36 106 42 26 104 44 25 119 47 32 105 30 21
106 42 17 103 24 22 96 30 7 116 36 28 123 49 37
136 62 50 132 61 51 173 96 76 173 111 88 181 117 92
172 97 88 170 101 83 191 126 111 194 129 122 183 115 106
176 115 110 157 94 85 147 87 80 154 97 98 179 128 130
191 132 133 163 111 114 166 103 103 86 64 53 88 66 62
82 50 49 81 59 53 90 65 62 99 69 60 101 69 63
86 59 54 91 60 50 96 65 57 105 66 64 98 78 61
103 79 65 100 75 64 96 69 61 85 68 51 93 72 53
92 73 47 94 74 51 97 76 58 100 83 50 96 74 49
91 80 52 89 75 39 83 67 35 91 72 45 86 75 36
87 74 38 176 136 184 207 167 212 235 195 247 190 149 203
116 79 128 97 59 120 101 59 111 87 53 103 50 12 65
61 19 72 37 12 52 32 2 43 35 8 44 43 12 42
38 10 39 40 18 44 32 9 37 30 7 32 37 11 32
28 10 30 26 9 23 17 8 24 22 12 19 16 10 16
19 3 10 13 9 0 12 1 0 24 8 2 28 15 7
44 29 17 52 42 32 58 41 29 97 65 63 80 38 42
70 34 34 64 31 30 70 29 34 79 36 37 77 42 41
86 45 48 72 27 30 81 34 39 106 51 59 121 65 73
125 65 76 122 68 77 122 61 66 123 65 76 54 6 13
64 24 24 70 29 30 77 33 38 80 36 43 79 33 29
76 30 28 77 29 28 83 33 33 71 24 21 56 17 16
67 33 21 91 53 45 106 64 58 99 65 55 97 61 52
87 53 40 86 47 49 80 37 36 61 30 22 45 13 15
35 8 4 27 0 0 17 5 2 21 0 0 5 1 0
8 3 0 3 5 0 10 0 9 3 0 10 19 0 6
8 0 6 8 0 4 1 2 4 4 2 5 0 0 5
2 0 0 0 0 0 0 0 0 0 0 0 0 3 10
1 2 8 0 0 5 0 0 0 0 0 5 0 0 3
0 0 4 2 0 6 0 0 0 0 0 0 0 0 0
0 0 0 0 0 0 1 0 0 1 0 0 2 0 0
2 0 0 3 0 0 0 0 4 0 0 1 3 3 5
5 5 7 9 9 11 7 9 12 8 3 6 2 8 0
10 3 0 8 4 0 7 3 0 7 3 0 7 3 0
7 3 0 1 0 0 2 0 0 5 0 0 9 0 0
8 0 0 7 0 0 12 4 0 12 4 7 9 0 7
4 0 2 14 4 7 8 2 5 7 0 5 12 5 10
10 3 8 7 0 5 24 15 23 16 7 15 20 10 21
11 7 1 11 0 13 8 2 0 4 0 0 0 0 0
12 6 16 0 0 0 0 0 0 5 0 5 11 0 0
0 0 0 2 0 0 39 23 24 0 0 0 12 0 0
9 0 0 12 3 0 12 5 0 14 9 5 13 2 0
13 1 0 18 0 0 22 6 9 40 20 5 40 21 13
38 10 0 32 10 0 35 9 0 37 1 0 61 19 9
63 22 16 79 38 34 93 50 45 87 39 37 81 30 20
67 22 15 70 20 16 64 7 0 95 29 13 116 53 40
122 60 47 112 53 41 108 53 32 134 63 48 140 79 63
117 47 36 123 51 32 120 57 36 124 51 38 117 52 35
128 50 37 121 46 33 126 48 31 108 45 26 139 69 55
146 73 60 124 61 39 141 77 61 192 122 103 207 147 128
191 127 118 197 143 123 164 99 95 106 49 39 82 24 11
102 38 35 137 90 77 204 131 135 229 177 167 158 130 124
122 89 81 62 38 26 57 25 16 90 56 49 112 87 79
103 72 64 89 60 51 75 52 37 92 61 50 94 76 61
107 82 71 106 81 70 97 72 61 85 62 52 74 47 33
82 65 42 89 70 42 91 72 56 98 79 53 96 73 56
98 77 49 87 77 44 95 82 55 75 59 25 84 66 37
79 67 27 84 70 33 202 162 214 170 130 187 181 142 193
226 187 237 241 201 251 165 124 176 79 36 87 39 5 51
46 5 61 61 22 72 60 17 77 43 0 63 34 0 46
26 0 43 29 0 30 10 0 25 13 0 27 16 0 34
25 2 30 19 3 30 29 11 33 30 11 21 31 19 24
35 9 20 25 7 13 44 11 21 59 27 35 74 38 46
81 48 52 83 47 47 76 42 46 63 39 29 68 19 32
80 32 34 89 45 48 82 40 45 82 33 36 73 26 24
79 34 33 90 36 44 74 35 25 90 37 32 83 39 40
88 38 40 88 34 38 77 28 28 76 14 29 59 9 10
91 38 31 89 35 35 92 35 35 86 38 33 84 32 24
72 28 30 70 20 18 61 19 22 70 24 26 62 22 26
69 22 30 71 32 28 80 35 38 81 46 44 75 36 36
64 30 28 81 34 34 81 40 38 87 48 45 91 47 46
90 42 40 69 26 20 41 4 7 40 0 0 3 0 0
20 4 0 23 13 10 14 1 0 0 0 0 2 0 0
0 0 5 0 0 3 4 4 5 4 2 5 4 2 5
5 3 10 5 3 2 6 3 5 6 3 5 8 4 7
0 0 0 1 0 0 2 0 0 2 0 0 2 0 0
2 0 0 2 0 0 0 0 0 6 0 3 0 3 2
2 3 3 0 0 0 0 0 0 0 0 0 0 0 0
0 0 0 0 0 0 0 0 0 0 0 4 0 0 2
0 0 1 0 0 0 0 0 0 0 0 0 2 0 0
12 3 7 7 3 6 6 2 5 10 6 9 9 5 8
8 4 7 11 7 10 16 12 15 11 7 10 11 9 11
11 9 11 7 5 7 8 6 8 8 6 8 7 4 3
0 0 0 0 0 9 7 0 5 0 0 7 2 1 2
0 0 2 0 0 1 0 0 5 0 0 0 0 0 0
0 0 0 0 0 0 0 3 0 0 0 0 0 1 0
0 0 0 11 4 5 10 1 4 9 2 5 6 2 2
5 2 4 8 2 7 7 2 7 4 0 4 0 0 0
1 0 0 0 0 0 2 0 0 5 0 0 1 0 0
5 0 3 0 2 0 13 6 3 8 2 0 1 0 0
5 0 0 17 1 0 22 6 0 29 7 0 32 3 0
48 20 11 46 16 2 55 12 6 53 17 4 48 11 4
61 15 6 69 26 18 86 36 30 68 22 1 80 28 14
92 40 26 83 35 20 83 23 15 80 27 9 105 44 35
113 59 40 125 62 48 140 81 71 168 98 82 191 123 109
189 124 104 170 100 84 145 79 61 134 67 53 104 33 23
107 39 14 91 27 5 95 26 4 99 37 18 130 64 43
167 104 88 209 149 126 172 117 96 165 106 81 152 89 75
140 86 65 145 88 66 135 80 59 128 67 42 104 53 27
161 104 97 156 104 95 140 91 79 115 65 51 80 37 23
68 39 16 98 61 50 113 86 72 89 62 47 84 63 47
85 66 45 85 64 44 86 67 47 86 69 48 92 67 50
88 65 49 118 93 82 101 76 55 89 64 55 93 66 48
100 81 63 101 79 57 90 65 45 77 49 34 101 85 58
98 77 56 95 81 56 100 83 62 212 173 224 202 164 211
188 145 205 189 147 206 201 158 220 180 141 192 131 91 142
103 61 113 62 22 73 74 30 88 68 25 94 65 22 89
68 23 91 75 35 87 88 43 97 118 69 122 59 29 80
57 39 79 56 28 68 45 25 56 38 17 41 32 12 29
29 4 18 15 0 3 53 22 32 50 16 26 61 23 31
70 29 39 65 30 39 67 27 32 61 25 33 62 15 21
77 32 41 77 26 33 85 34 42 81 30 38 79 29 32
77 32 26 77 31 31 83 42 30 83 28 26 80 32 28
90 37 31 89 41 33 88 34 29 86 37 28 91 29 31
78 31 30 89 36 31 83 37 24 83 33 27 81 31 24
82 28 27 73 22 25 67 21 25 65 23 26 57 12 14
55 18 15 62 22 22 68 24 30 75 41 32 77 39 34
75 41 36 75 33 30 87 43 55 82 32 30 84 27 32
79 34 35 86 36 39 74 28 30 55 8 8 38 3 0
6 0 0 18 0 0 15 0 0 12 6 0 4 3 7
0 0 3 0 0 4 0 0 8 2 0 0 1 0 4
1 0 6 1 0 0 1 0 0 1 0 1 1 0 1
2 0 2 0 0 0 0 0 0 0 0 0 0 0 0
0 0 0 0 0 0 0 0 0 0 0 0 0 3 2
1 1 1 2 2 2 0 0 0 0 0 0 0 0 0
0 0 0 0 0 0 0 0 0 0 0 0 0 0 6
0 0 4 0 0 4 0 0 4 0 0 4 0 0 4
6 3 4 9 1 2 7 1 2 6 0 1 9 3 4
8 2 3 7 1 2 10 4 5 13 7 8 8 2 3
9 3 4 11 5 6 7 1 2 9 3 4 10 4 5
10 1 0 0 0 8 0 0 3 0 0 6 5 0 1
0 3 3 0 0 3 3 5 10 3 3 0 0 5 5
0 4 0 0 4 0 2 5 0 0 4 0 0 6 0
0 3 0 0 0 0 2 5 0 6 1 5 4 2 3
4 2 3 4 2 3 4 2 3 4 2 3 6 3 5
0 0 0 2 0 0 1 0 0 5 0 4 2 0 2
6 4 7 4 2 7 0 0 0 15 11 7 6 8 2
13 3 4 11 8 0 18 0 3 21 9 6 29 7 4
22 12 4 42 16 11 45 13 6 48 25 10 51 16 4
54 14 7 54 18 0 56 14 6 62 21 6 74 22 12
78 27 14 95 43 31 85 40 27 86 31 18 91 39 28
105 45 32 114 56 36 134 75 62 131 68 45 133 71 56
143 76 55 151 90 70 160 93 78 159 85 76 165 98 73
134 65 43 132 67 48 124 57 38 111 40 21 92 29 12
91 24 6 112 49 31 123 66 44 158 94 73 143 92 67
144 90 64 148 92 67 148 91 66 156 102 77 171 113 85
184 120 102 162 109 92 127 64 59 82 30 19 75 27 17
95 57 39 115 72 54 96 60 49 66 42 23 98 65 49
85 69 43 80 64 52 83 67 53 91 68 53 87 68 52
97 70 56 93 68 53 70 47 29 74 51 35 85 61 43
88 62 47 87 69 52 87 66 43 92 69 58 98 72 52
84 70 52 88 69 43 81 63 51 82 68 41 190 148 205
204 162 217 209 168 232 187 146 198 188 146 203 205 167 215
187 147 197 182 142 192 139 101 149 133 91 144 114 74 135
112 72 131 110 69 125 96 53 112 101 60 114 124 83 125
66 39 82 76 46 90 65 31 74 46 21 50 43 14 39
33 17 29 34 14 24 34 12 18 63 29 38 56 29 33
63 27 28 65 30 39 73 26 37 65 26 26 63 23 28
53 19 20 73 30 33 70 27 20 69 19 23 74 31 22
75 31 29 78 33 26 81 35 28 70 26 22 85 37 31
79 33 29 81 36 30 80 37 30 80 31 27 77 32 25
79 27 25 81 28 25 88 33 32 81 32 28 78 26 24
73 29 19 65 19 15 61 24 20 59 17 21 64 30 25
32 0 0 49 5 11 57 20 15 66 27 26 66 28 29
71 35 37 77 33 31 73 34 32 93 52 47 71 36 34
70 25 28 79 35 28 97 45 43 87 53 46 69 29 18
54 25 20 0 0 0 8 0 0 4 0 0 0 0 0
19 8 9 13 16 14 5 6 17 0 0 7 3 0 5
2 0 0 2 0 0 2 0 2 2 0 3 2 3 0
2 2 0 2 2 0 2 1 0 2 1 0 2 1 0
2 1 0 2 1 0 2 1 0 2 1 0 3 1 0
0 0 1 0 0 0 1 1 1 3 3 3 0 0 0
0 0 0 0 0 0 0 0 0 0 0 0 0 0 0
0 0 0 0 0 0 0 0 0 0 0 0 0 0 0
0 0 0 0 0 0 1 0 2 0 0 1 0 0 0
2 2 3 1 1 2 1 1 2 0 0 0 2 2 3
2 2 3 4 4 5 0 0 0 2 2 3 0 0 0
0 0 0 1 0 0 0 0 9 1 0 8 1 0 0
1 0 3 0 0 4 2 2 0 0 0 0 0 0 0
6 3 2 5 0 3 2 6 4 0 0 0 1 2 0
2 3 0 0 1 0 1 0 0 1 2 0 6 0 0
4 0 0 4 0 0 4 0 0 4 0 0 4 0 0
5 0 0 2 0 0 3 0 0 3 0 0 2 0 0
1 0 0 5 0 0 4 0 0 0 0 0 10 8 3
11 4 0 5 4 0 15 8 0 10 5 0 16 9 1
25 10 0 30 5 0 25 11 4 37 7 3 36 9 0
43 11 0 39 2 0 38 1 0 40 8 0 36 1 0
60 22 2 69 24 8 78 37 20 83 31 19 79 33 13
80 29 18 100 50 31 112 59 40 119 59 48 105 53 31
106 41 25 118 55 40 145 75 62 160 99 75 170 101 83
170 102 86 169 101 83 165 96 78 152 81 64 132 68 45
90 25 9 64 0 0 68 7 0 84 17 0 139 72 59
126 64 47 121 57 41 116 50 34 115 47 31 127 70 52
189 117 98 204 148 126 233 179 168 174 130 113 123 69 56
89 47 25 85 42 31 83 55 36 89 63 43 83 62 35
95 75 59 92 70 51 84 70 46 83 69 45 93 69 49
96 75 52 99 80 66 92 75 54 137 112 103 134 109 96
131 111 99 119 98 86 93 69 61 80 56 34 67 52 43
69 52 33 81 60 47 84 65 40 77 61 49 80 62 41
120 79 137 176 135 193 221 180 236 211 170 228 187 146 206
180 137 195 202 164 212 233 195 243 202 159 219 169 129 186
128 84 155 129 85 154 124 85 143 89 47 108 57 17 67
58 24 67 62 19 76 55 15 58 39 13 49 37 6 42
34 7 37 35 8 30 50 21 39 54 20 36 52 22 37
51 25 35 58 18 32 69 30 33 73 27 42 72 32 40
73 32 46 75 34 38 67 28 29 64 19 10 64 18 14
64 17 9 76 29 25 84 36 34 77 35 20 68 28 17
85 35 30 80 32 17 80 33 27 74 29 20 82 29 24
79 28 20 77 28 26 82 31 24 82 30 27 82 29 25
71 24 15 56 19 14 53 11 15 53 13 6 46 15 12
63 25 21 19 0 0 42 11 8 55 13 19 58 29 22
64 20 21 61 25 25 78 36 31 80 42 40 89 46 46
76 36 28 80 30 27 92 42 43 92 55 54 95 55 44
85 46 44 89 52 44 32 4 0 26 8 0 0 0 0
1 0 0 8 10 0 22 15 11 9 5 15 0 0 0
4 0 0 2 4 0 2 0 4 2 3 0 2 2 0
2 1 0 2 1 0 1 0 0 5 4 0 4 3 0
4 3 0 4 3 0 4 3 0 4 3 0 4 3 0
5 3 0 2 3 5 4 4 4 0 0 0 1 1 1
3 3 3 0 0 0 0 0 0 0 0 0 0 0 0
0 0 0 0 0 0 0 0 0 0 0 0 0 0 0
0 0 0 0 0 0 3 0 0 1 0 0 1 0 0
0 0 0 3 0 2 2 0 1 1 0 0 5 1 5
4 0 3 5 1 4 0 0 0 2 0 1 4 0 2
0 0 0 1 0 0 1 0 0 1 0 2 1 0 0
1 0 6 1 0 0 0 0 0 0 1 0 0 0 0
0 1 0 6 8 0 4 5 0 1 5 0 4 7 0
0 3 4 2 5 4 0 3 0 3 2 0 0 0 0
3 0 0 1 0 0 1 0 0 1 0 0 1 0 0
1 0 0 1 0 0 2 0 0 2 0 0 2 0 0
2 0 0 2 0 0 1 0 0 1 0 0 0 0 0
13 5 0 8 2 0 8 3 0 3 0 0 16 2 4
17 7 2 16 7 2 23 6 0 26 8 0 23 8 1
34 6 0 27 6 0 35 5 0 32 4 0 31 6 0
28 0 0 48 15 0 56 22 0 60 23 2 69 30 14
65 19 8 70 30 13 90 38 22 103 56 35 84 34 9
88 29 10 75 22 2 108 41 18 136 75 53 162 89 66
157 91 67 143 77 51 171 105 87 163 97 77 171 102 83
149 95 69 121 49 34 62 1 0 71 4 0 87 30 4
105 37 21 97 36 15 95 30 10 75 18 0 65 6 0
89 29 15 128 69 51 150 81 74 208 154 142 200 150 139
204 154 139 152 107 91 88 52 39 60 25 11 82 51 37
119 93 72 98 73 61 95 70 54 89 74 55 83 68 49
95 68 53 100 76 60 106 82 62 106 84 69 126 99 87
118 98 88 129 107 91 129 104 90 124 96 83 114 100 85
119 100 84 131 110 98 118 95 86 114 100 79 115 98 78
113 95 77 78 37 99 129 88 150 193 153 212 228 188 247
208 168 229 178 137 195 185 143 198 237 195 254 199 158 210
144 104 157 87 44 112 87 45 107 97 53 121 72 33 93
46 3 59 37 0 51 45 5 53 48 8 58 39 3 50
38 0 32 33 2 26 44 14 36 49 14 36 52 20 34
72 35 44 63 25 35 74 27 43 68 17 34 64 24 29
68 26 33 69 26 39 70 33 32 67 19 21 62 18 11
52 8 8 60 20 11 67 26 18 74 34 20 80 35 28
71 30 14 87 36 28 81 38 16 79 30 24 80 32 23
76 31 18 80 32 18 79 29 19 72 31 26 72 26 18
73 27 27 56 16 10 50 11 10 42 10 0 42 4 6
40 9 9 44 16 11 15 0 0 31 4 0 46 21 14
59 21 24 55 26 19 68 29 28 71 32 36 90 46 42
75 35 39 81 47 39 90 50 50 91 52 43 90 45 42
89 56 40 88 49 42 99 70 57 73 41 35 53 28 20
17 0 0 0 0 0 4 0 0 6 3 0 0 0 0
0 0 0 1 1 0 0 0 0 0 0 0 0 0 0
0 0 0 0 0 0 0 0 0 0 0 0 3 2 0
2 1 0 2 1 0 2 1 0 2 1 0 2 1 0
2 1 0 3 1 0 0 1 5 2 2 2 4 4 4
0 0 0 1 1 1 3 3 3 0 0 0 0 0 0
0 0 0 0 0 0 0 0 0 0 0 0 0 0 0
0 0 0 0 0 0 0 0 0 0 0 0 0 0 0
0 0 0 0 0 0 0 2 0 0 1 0 0 0 0
3 5 0 0 0 0 0 0 0 0 2 0 1 3 0
0 0 0 0 0 0 0 0 0 0 0 0 0 0 4
0 0 4 0 0 0 3 2 0 1 0 0 5 3 0
4 2 0 0 0 0 9 13 4 8 9 4 5 5 0
7 7 0 3 3 0 5 6 0 6 3 5 6 8 5
0 0 0 4 0 0 2 0 0 2 0 0 2 0 0
2 0 0 2 0 0 2 0 0 2 0 0 3 0 0
3 0 0 3 0 0 4 0 0 4 0 0 4 0 0
6 0 0 2 7 5 4 5 0 0 0 0 10 5 0
2 7 0 7 4 0 15 12 3 16 3 0 22 9 3
18 3 0 24 9 0 24 3 0 32 16 11 37 10 1
37 14 10 37 16 0 32 0 0 36 8 0 53 18 0
45 21 0 58 22 0 60 25 6 76 32 10 82 45 19
87 44 12 75 22 4 77 16 0 91 37 10 116 58 40
145 86 58 144 81 59 136 75 50 132 72 52 141 78 57
153 92 70 151 91 68 118 51 38 72 12 0 59 0 0
58 4 0 65 0 0 71 14 0 94 32 20 96 39 21
95 35 16 90 25 19 87 18 11 68 15 0 69 25 8
117 78 61 175 132 117 180 139 124 139 102 80 89 57 35
72 44 22 74 59 29 90 68 50 77 65 41 75 57 33
78 60 38 74 59 34 83 68 45 90 75 48 92 81 56
77 49 43 80 55 45 88 60 51 91 78 64 113 97 84
124 103 92 130 107 98 133 120 101 86 71 54 103 84 73
101 82 68 94 79 68 75 35 92 89 50 104 135 91 159
202 159 225 217 173 242 198 158 219 182 141 201 202 161 211
191 150 210 131 91 152 67 24 89 55 13 79 65 23 89
67 23 92 56 16 71 55 18 75 38 0 47 46 4 47
52 3 54 55 21 59 64 26 62 73 36 56 73 44 69
81 37 60 85 44 64 84 40 54 73 28 49 66 23 38
68 18 31 59 10 19 57 9 23 57 11 20 64 21 20
60 16 9 55 10 10 57 15 7 65 22 16 76 34 23
78 33 26 75 34 20 88 34 29 84 37 19 89 42 24
91 45 24 92 38 31 79 40 23 76 30 21 80 33 26
65 25 25 63 21 23 54 13 8 34 1 2 33 0 0
25 0 0 25 6 0 37 8 10 14 0 0 35 5 4
46 12 18 46 21 14 61 19 25 64 29 23 80 31 38
77 35 33 67 31 22 75 38 26 90 46 41 88 50 38
80 44 33 78 37 32 87 54 43 104 58 52 88 62 49
66 47 33 43 24 19 10 0 0 0 0 0 0 0 0
4 0 0 0 0 0 5 4 0 4 2 0 4 3 0
4 3 0 4 3 0 4 3 0 4 3 0 4 3 0
4 3 0 4 3 0 4 3 0 4 3 0 4 3 0
4 3 0 4 3 0 5 3 0 4 5 0 0 0 4
2 2 4 4 4 6 0 0 1 1 1 3 2 2 0
3 3 0 0 0 0 0 0 0 0 0 0 0 0 0
0 0 0 0 0 0 0 0 0 0 0 0 0 0 0
2 1 0 1 0 0 0 0 0 3 2 0 2 1 0
2 1 0 0 0 0 2 1 0 3 2 0 0 0 0
0 0 0 2 1 0 0 0 0 0 0 0 0 0 0
7 1 5 2 0 6 1 4 0 0 0 0 3 4 0
1 2 0 0 0 0 4 6 0 13 11 0 6 9 0
4 6 0 5 7 3 8 11 7 3 7 0 3 4 5
7 7 6 10 0 0 7 3 0 7 3 0 7 3 0
7 3 0 7 3 0 7 3 0 7 3 0 9 5 0
4 0 0 6 2 0 7 3 0 3 0 0 4 0 0
7 0 0 0 4 0 3 1 0 0 3 0 3 0 0
0 0 0 7 0 0 5 8 0 9 5 4 14 9 0
16 7 3 15 4 0 19 4 0 19 10 0 26 12 4
37 17 8 32 15 8 39 22 2 11 0 0 32 4 0
30 13 0 40 12 0 42 12 0 45 17 0 66 30 12
58 21 0 107 59 49 82 37 5 78 26 0 74 22 0
103 50 22 116 62 31 142 77 49 138 77 48 126 57 42
130 80 56 161 92 74 153 102 76 148 80 65 100 48 24
62 0 0 30 0 0 75 18 0 70 13 0 88 25 6
97 43 30 100 52 33 97 45 25 86 30 9 69 12 5
45 3 0 53 18 3 86 42 29 126 91 71 140 111 92
134 107 87 93 67 46 53 30 9 72 50 24 64 47 21
66 46 31 62 42 14 65 45 30 67 47 19 74 54 37
69 50 24 97 78 64 80 62 50 75 57 43 82 61 48
91 68 56 86 73 56 80 65 49 77 58 45 62 41 31
60 47 22 64 44 37 61 45 23 71 28 94 67 24 88
88 46 113 131 89 150 175 132 197 195 156 212 188 147 201
187 146 206 200 159 215 166 126 185 116 73 138 84 42 107
72 30 92 64 21 90 63 27 83 66 17 80 48 0 54
60 18 67 75 26 81 86 46 88 95 52 86 98 57 83
97 53 83 97 61 84 86 48 63 88 48 64 76 31 54
66 23 39 61 6 26 53 11 19 57 3 23 56 4 21
57 17 11 59 15 6 61 16 16 58 16 8 65 22 15
68 26 13 80 35 28 91 47 32 76 35 23 85 43 34
88 46 37 93 49 39 95 52 46 85 38 33 73 36 24
72 39 26 63 25 15 55 22 24 45 8 7 26 0 0
15 0 0 20 0 0 23 1 0 22 5 6 12 0 0
24 0 0 27 2 2 40 9 4 56 23 18 70 25 31
67 21 24 66 24 22 67 30 24 68 29 21 71 26 25
68 35 25 72 24 23 75 30 20 82 30 25 79 45 30
80 44 37 73 50 32 60 31 29 37 18 7 7 0 0
0 0 0 1 0 0 22 19 9 0 2 0 7 10 0
7 4 0 7 5 0 7 6 0 7 6 0 7 6 0
8 7 0 5 4 0 6 5 0 6 5 0 6 5 0
6 5 0 6 5 0 6 5 0 8 6 0 0 2 2
5 5 1 0 0 0 2 2 0 4 4 0 0 0 0
1 1 0 2 2 0 0 0 0 0 0 0 0 0 0
0 0 0 0 3 0 0 2 0 0 2 0 0 0 0
6 8 0 2 4 0 2 4 0 1 3 0 4 6 0
3 5 0 2 4 0 7 9 0 3 5 0 5 7 0
1 3 0 2 4 0 4 6 0 0 2 0 1 3 0
0 3 0 2 6 2 8 0 0 11 2 0 9 5 0
12 7 0 11 6 0 13 4 0 0 3 0 11 13 0
12 11 0 6 8 0 11 11 0 4 2 0 8 5 1
7 8 7 3 8 6 13 6 2 10 5 4 10 6 3
10 5 4 10 6 3 10 5 4 10 6 3 11 6 5
9 5 2 12 7 5 7 3 0 10 5 3 7 3 0
9 4 0 7 0 0 1 6 0 5 3 0 0 0 0
0 0 0 0 3 0 0 2 0 6 0 0 5 3 0
8 3 0 6 7 4 11 6 0 6 0 0 10 5 0
15 1 0 18 13 0 11 10 0 18 3 0 12 0 0
19 4 0 24 5 0 21 7 0 32 9 0 36 11 0
41 16 2 46 14 0 82 47 30 70 30 9 63 18 0
72 23 0 82 28 9 96 48 24 108 42 30 110 55 28
99 47 20 126 74 49 154 94 71 167 118 87 186 127 109
168 109 89 109 54 34 47 3 0 67 11 0 74 24 0
62 14 0 62 16 0 70 18 5 69 27 13 76 39 20
84 40 21 99 60 41 56 25 2 45 6 0 49 20 0
87 61 38 113 85 61 96 77 52 85 63 37 60 49 20
69 51 22 67 54 29 64 50 20 65 51 26 63 49 19
66 52 26 67 54 22 64 47 32 68 52 38 68 52 36
68 52 36 75 59 43 78 59 44 72 51 37 65 51 33
82 63 49 72 67 38 74 61 50 75 65 40 53 11 72
70 28 94 81 39 101 100 58 121 147 105 171 186 142 210
196 156 217 194 153 209 196 155 211 183 143 202 151 108 173
97 55 118 54 12 84 42 0 61 32 0 57 34 0 52
64 20 76 84 27 83 101 59 113 120 73 122 125 88 122
112 75 101 98 58 89 81 46 71 99 61 79 92 43 63
79 36 57 64 21 42 53 11 27 59 4 21 60 10 32
69 24 39 47 1 2 59 16 15 63 15 14 60 16 7
58 13 9 63 18 15 83 37 26 98 53 48 76 32 19
82 38 27 97 49 40 102 65 48 106 55 52 98 58 49
91 52 38 93 50 39 70 39 35 68 37 37 50 14 13
28 1 0 10 0 0 6 0 0 9 0 0 21 9 0
18 0 0 18 0 0 13 0 0 45 12 11 54 22 29
61 28 25 70 19 29 53 10 5 70 29 28 59 29 13
55 16 8 61 13 2 67 21 12 69 27 11 63 19 6
61 18 1 64 27 13 82 45 34 71 41 35 38 15 5
6 0 0 0 0 0 14 10 0 40 35 27 3 0 0
1 7 0 3 7 0 2 7 0 2 2 1 1 2 0
1 2 0 3 4 0 0 0 0 0 1 0 0 1 0
1 3 0 3 5 0 4 6 0 6 8 0 10 9 9
4 1 0 0 2 0 4 5 3 0 0 0 1 2 0
0 0 0 0 0 0 0 1 0 0 0 0 0 0 0
0 0 0 0 2 0 0 0 0 0 0 0 0 0 0
0 0 0 1 2 0 4 5 0 2 3 0 1 2 0
5 6 0 3 4 0 2 3 0 8 9 4 0 0 0
0 0 0 0 0 0 0 0 0 0 0 0 0 0 0
0 0 0 0 0 0 14 0 0 5 4 0 5 3 0
5 2 0 9 6 0 8 4 0 6 6 0 11 7 0
8 3 0 0 2 0 11 1 0 0 5 0 10 2 0
0 2 0 2 0 0 2 0 0 11 5 4 7 7 0
7 0 3 7 7 0 7 0 3 7 7 0 7 0 3
10 10 1 0 0 0 1 1 0 4 0 0 1 1 0
0 0 0 2 2 0 0 0 0 8 0 0 0 0 0
0 0 0 0 0 0 0 0 0 0 0 0 0 2 0
5 0 0 3 0 0 17 9 0 4 1 0 3 0 0
3 0 0 7 2 0 9 5 0 3 0 0 0 0 0
12 4 0 12 7 0 19 5 0 20 10 0 24 7 0
37 14 0 50 20 8 55 26 13 42 8 0 49 11 0
65 21 3 74 32 13 84 33 19 83 36 12 87 35 17
81 32 7 62 6 0 125 70 39 167 110 94 193 135 117
230 170 150 211 158 136 115 67 40 63 10 0 10 0 0
56 7 0 54 14 0 49 6 0 46 14 0 60 25 0
59 28 7 62 28 7 79 50 19 69 35 10 53 19 0
36 8 0 44 15 0 73 45 23 95 78 54 130 119 93
62 44 20 73 58 35 77 60 36 83 65 42 81 63 39
79 61 38 75 57 33 84 66 41 34 17 0 63 46 24
74 57 33 68 51 27 60 42 18 50 34 11 55 35 13
54 47 21 67 57 32 67 52 31 68 52 29 70 61 36
54 12 77 61 19 81 80 39 106 64 23 90 47 5 66
137 94 159 209 169 228 184 143 199 170 129 185 188 148 209
211 168 233 219 177 240 207 165 233 171 129 199 133 93 155
118 71 138 131 84 143 122 78 130 99 56 114 86 41 85
61 20 61 51 10 43 46 9 40 44 0 28 55 17 39
50 9 28 47 13 34 59 10 31 62 25 42 63 21 37
52 11 33 45 0 5 56 11 8 61 15 13 57 22 14
66 27 17 66 26 22 70 37 27 85 40 28 80 39 32
94 49 34 97 51 41 98 60 46 104 56 43 84 51 41
69 35 20 42 11 0 41 4 0 27 0 0 19 0 0
16 0 0 15 0 0 13 1 0 23 5 0 16 8 5
8 0 0 10 5 0 9 0 0 11 0 0 12 0 0
33 2 2 52 20 13 68 20 22 66 22 32 63 31 13
51 17 6 56 14 11 61 16 6 70 28 22 86 33 23
86 37 30 91 36 29 68 23 18 54 17 9 81 47 37
102 73 60 49 31 21 4 0 0 5 0 0 10 1 0
12 14 0 16 10 0 15 9 0 19 13 0 17 12 5
21 16 5 20 15 12 22 18 11 13 5 5 10 3 0
13 6 10 5 0 0 0 0 0 1 0 0 0 0 0
0 0 0 9 8 4 7 5 3 3 1 0 5 3 1
6 4 2 3 1 0 4 2 0 4 2 0 6 4 0
6 4 0 6 4 0 6 3 0 6 3 0 6 3 0
6 3 0 5 0 0 6 9 0 3 4 0 7 8 0
6 7 0 4 5 0 8 9 2 7 8 1 0 1 0
26 27 19 16 17 9 18 19 11 16 17 9 10 11 2
8 9 0 11 12 3 0 6 0 25 19 17 19 16 5
15 12 6 10 7 0 8 5 0 5 1 0 7 7 0
3 3 0 33 30 20 31 29 14 23 12 9 6 6 0
18 8 6 29 27 20 33 21 28 2 1 0 38 37 30
30 27 14 30 28 27 30 27 14 30 28 27 30 27 14
30 28 27 31 28 15 32 30 29 29 26 13 27 25 24
27 24 11 26 24 23 24 21 8 23 21 18 23 19 13
13 14 9 19 17 11 12 16 6 19 8 5 14 7 1
15 6 6 7 6 0 11 9 0 0 0 0 0 0 0
3 0 0 4 1 0 5 2 0 0 0 0 18 7 0
5 5 0 12 11 0 13 5 0 18 8 0 14 8 0
25 11 0 26 10 0 22 6 0 31 8 0 17 0 0
32 0 0 47 6 0 55 23 0 63 16 3 65 23 6
64 16 4 52 3 0 94 31 6 41 0 0 78 20 1
123 63 44 150 98 72 227 159 150 213 164 141 153 102 85
0 0 0 5 0 0 37 3 0 70 33 0 19 0 0
4 0 0 33 13 0 20 1 0 22 0 0 33 3 0
44 18 0 44 20 0 30 15 0 35 17 0 65 39 12
67 51 21 119 98 70 98 84 54 96 80 48 80 68 39
76 64 32 73 60 31 73 61 29 89 76 45 29 16 0
42 29 3 42 29 3 41 26 0 49 31 6 39 35 5
44 37 8 46 34 7 50 36 10 48 41 11 47 36 5
38 35 7 61 19 83 61 20 79 80 35 112 73 28 103
73 32 100 148 105 167 209 169 228 191 150 206 185 144 204
194 154 205 193 150 217 179 137 200 158 116 184 135 93 159
119 77 147 123 85 149 76 30 92 91 44 99 84 33 94
72 33 80 64 23 66 59 18 46 59 11 53 42 11 36
55 23 45 48 19 37 54 10 37 47 9 31 55 15 33
66 23 40 61 14 42 50 6 22 66 16 22 67 21 15
64 26 27 68 27 25 69 25 20 71 35 24 78 32 30
83 41 30 82 37 32 89 43 29 91 50 34 90 50 36
84 53 37 65 31 19 57 21 3 44 18 1 34 8 11
29 12 6 20 0 0 10 0 0 9 3 0 11 0 0
14 4 0 0 3 0 17 8 0 1 0 0 10 0 0
21 2 0 43 5 15 49 16 19 63 25 33 67 24 27
66 27 14 59 23 15 51 19 1 64 14 10 67 25 9
83 35 28 81 33 16 87 39 22 77 24 14 68 19 11
80 41 30 84 54 47 41 18 3 6 0 0 4 0 0
14 8 0 16 13 2 11 9 0 11 8 0 15 12 1
12 9 4 16 13 4 15 12 9 12 10 3 24 19 18
22 18 11 22 18 17 26 22 19 21 17 12 18 15 17
16 13 12 16 6 11 2 4 0 7 6 4 3 2 0
4 3 1 6 5 5 2 1 2 3 2 0 5 4 0
0 0 0 1 0 0 1 0 0 1 0 0 1 0 0
1 0 0 1 0 0 0 0 0 5 9 0 2 4 0
6 8 4 4 6 2 3 5 1 6 8 4 5 7 3
0 0 0 21 23 19 11 13 9 13 15 11 11 13 9
11 13 9 9 11 7 5 9 4 9 5 7 14 9 0
10 9 3 11 10 0 15 14 1 21 20 7 24 23 8
28 26 13 32 32 17 0 0 0 20 16 7 40 39 34
38 35 28 29 29 19 27 21 24 18 15 12 9 0 6
29 29 21 24 21 12 24 21 12 24 21 14 24 21 12
24 21 14 24 21 12 26 23 16 18 15 6 23 20 13
21 18 9 16 13 6 16 13 4 15 12 5 13 10 1
19 14 3 4 7 5 6 10 4 18 6 10 12 12 3
9 4 6 5 6 0 8 7 3 10 9 5 3 2 0
5 6 0 8 1 0 5 0 0 9 3 0 9 3 0
6 2 0 10 3 0 3 4 0 5 8 3 8 5 8
15 11 3 15 1 0 22 13 0 30 11 0 23 5 0
40 12 0 40 17 0 46 22 4 59 29 12 69 30 18
71 36 15 68 31 17 76 37 22 74 19 6 70 10 0
81 20 8 103 40 26 116 62 43 185 137 119 221 172 157
255 217 196 37 0 0 22 0 0 19 0 0 47 30 0
41 12 0 25 9 0 32 15 0 29 11 0 33 17 0
43 10 0 38 21 0 37 14 0 35 11 0 38 25 0
58 40 15 62 49 21 90 73 49 74 66 27 73 57 37
80 67 29 79 60 40 80 67 29 86 67 47 94 80 45
73 58 24 78 63 29 75 58 24 67 60 26 65 56 22
66 52 20 62 46 15 63 55 19 42 29 0 41 41 1
39 36 7 43 36 0 61 19 83 54 13 72 66 21 98
58 14 86 56 15 80 136 93 160 207 167 225 194 153 213
181 140 190 187 147 204 177 133 203 148 106 170 104 62 132
73 31 97 63 22 85 79 37 108 53 15 80 69 20 79
60 19 79 54 13 62 55 10 56 38 4 37 36 0 35
31 0 28 45 12 32 37 0 25 28 0 23 33 6 24
42 9 30 53 18 31 62 27 50 73 29 47 64 28 21
76 28 19 78 41 36 82 40 32 75 42 27 73 34 21
76 28 21 76 34 20 74 30 17 79 35 25 80 34 27
79 37 26 74 31 28 56 25 13 38 13 0 33 10 0
23 4 1 20 3 2 13 0 0 13 0 0 11 0 0
2 4 0 0 0 0 0 0 0 12 8 0 8 1 0
10 0 0 20 2 0 34 9 11 46 18 11 54 20 27
54 18 19 63 34 15 63 21 15 55 17 1 55 18 10
71 25 13 80 28 20 90 36 25 89 35 24 83 34 23
61 19 9 85 39 32 87 52 46 43 16 8 7 0 0
7 0 0 18 12 0 13 11 1 16 14 5 16 13 4
13 10 0 18 15 10 16 13 4 14 11 8 19 18 9
16 11 6 21 17 18 20 16 21 22 19 19 21 19 16
17 10 20 14 7 15 12 7 5 6 9 1 4 3 1
7 6 4 8 7 7 3 2 0 6 5 0 7 6 1
2 1 0 2 1 0 2 1 0 2 1 0 2 0 0
2 0 0 2 4 0 2 3 0 0 0 0 12 11 0
9 8 0 4 6 0 11 10 0 7 9 0 12 11 1
9 11 0 4 3 0 26 28 17 17 16 6 18 20 9
17 16 6 13 15 4 18 17 7 13 15 4 11 18 5
13 11 3 19 10 4 15 8 3 15 8 3 15 8 0
23 17 16 25 19 16 19 16 9 51 38 35 34 25 17
20 6 11 12 0 0 7 0 1 4 0 0 19 5 9
26 23 22 20 22 13 22 19 10 22 19 12 22 19 12
22 19 12 22 19 12 22 19 12 23 20 13 22 19 12
18 15 8 23 20 13 17 14 7 18 15 8 17 14 7
15 12 5 17 14 7 16 11 4 17 12 3 16 14 15
11 10 0 17 8 13 18 10 4 13 5 1 13 5 1
19 11 7 13 5 1 13 8 0 14 7 5 15 13 0
11 8 0 12 10 0 19 10 7 0 0 0 9 4 0
4 5 0 3 0 0 9 8 0 8 0 0 13 3 0
17 0 0 19 9 0 25 4 0 40 3 0 39 10 0
47 16 14 54 19 7 53 27 21 61 30 10 64 7 0
71 12 0 64 10 0 52 0 0 44 0 0 91 36 28
154 104 90 228 171 162 179 137 120 68 26 8 26 0 0
61 40 14 80 48 29 59 40 10 47 37 9 40 27 0
46 29 0 42 28 0 44 27 0 41 24 0 45 25 0
51 38 4 58 41 9 55 46 12 71 60 29 67 54 14
73 55 28 60 57 13 68 57 31 76 71 27 77 66 40
80 74 34 93 86 49 91 84 47 82 75 38 83 72 36
77 64 29 67 61 22 67 57 19 62 60 23 49 46 7
52 44 5 55 45 17 51 51 8 60 18 83 49 7 69
55 15 77 48 3 78 45 4 69 124 81 148 199 159 221
202 161 211 179 137 196 183 141 194 170 131 191 126 82 149
61 19 80 29 0 53 27 0 59 48 8 70 50 6 71
46 10 69 51 4 57 52 1 63 32 0 40 38 0 37
31 0 25 26 0 31 37 0 26 18 0 15 26 0 17
22 0 16 31 0 19 49 15 34 64 24 54 73 30 48
83 40 49 90 39 37 89 50 51 88 42 47 80 40 40
73 39 28 69 31 28 67 25 14 72 25 21 74 27 18
75 30 20 68 35 18 60 30 15 46 18 3 38 6 0
22 11 0 23 3 0 17 0 6 10 0 0 0 0 0
0 0 0 7 0 0 0 0 0 0 0 0 4 10 0
2 0 0 6 0 0 11 0 0 26 6 4 34 11 15
51 21 19 47 17 21 65 27 21 52 19 5 55 12 10
55 20 8 64 23 7 76 25 19 88 33 20 91 41 26
85 30 21 74 20 14 75 37 27 92 50 48 44 21 13
11 0 0 10 1 0 22 16 7 19 17 7 16 14 5
15 12 3 20 17 6 18 15 10 16 13 2 21 20 13
20 14 13 14 10 13 14 10 5 15 13 10 10 3 13
14 8 13 12 7 7 11 6 17 12 3 9 7 6 10
12 12 7 7 6 4 9 8 8 11 10 4 6 5 1
8 7 4 7 6 4 13 12 5 11 10 4 11 8 8
11 13 0 11 12 0 11 11 2 11 11 2 11 11 2
7 10 3 4 10 2 20 9 7 4 13 4 16 5 3
7 16 7 18 7 5 0 9 0 30 19 17 14 23 14
22 11 9 12 21 12 22 11 9 11 20 11 18 10 7
13 11 3 30 21 13 18 13 12 12 8 2 8 4 0
1 1 0 1 0 0 0 0 0 1 1 1 17 5 14
0 0 0 0 0 0 6 0 10 26 17 26 29 20 29
29 19 33 39 25 28 22 17 10 23 22 14 24 21 16
24 21 16 24 21 16 24 21 16 24 21 16 25 22 17
22 19 14 25 22 17 22 19 14 23 20 15 17 14 9
18 15 10 16 13 8 17 14 11 19 15 5 18 14 6
18 14 4 17 14 6 21 15 4 19 14 5 19 16 6
16 13 3 22 19 9 22 20 7 23 15 18 20 18 5
18 14 7 16 12 5 18 14 7 20 16 0 1 0 0
0 4 3 4 0 0 0 2 0 8 0 0 8 0 0
7 0 0 0 0 0 28 4 0 19 1 0 17 5 0
26 3 0 32 14 0 41 11 5 46 25 8 49 14 5
64 18 0 85 31 20 75 28 14 58 11 0 57 10 0
32 0 0 46 2 0 74 41 18 232 189 173 95 65 42
42 14 0 73 49 22 77 61 37 79 59 39 68 60 33
55 40 14 78 63 35 71 61 24 61 50 16 66 55 21
66 54 23 71 57 27 71 57 29 68 52 15 66 50 15
69 50 19 53 49 11 62 52 18 61 52 15 63 53 19
64 55 19 66 56 18 82 70 34 75 63 27 75 61 25
68 64 23 70 61 22 61 63 20 62 61 19 63 59 16
64 53 19 62 62 21 65 63 21 62 57 18 60 18 79
44 2 65 52 11 76 49 3 81 53 12 80 123 80 144
194 154 207 193 150 210 184 146 194 198 160 205 187 145 206
143 104 159 83 40 106 49 8 73 56 12 84 92 46 121
37 0 67 49 12 75 50 9 71 46 9 58 42 3 53
41 1 41 38 0 39 38 3 31 25 0 26 25 0 25
20 0 11 13 0 7 28 0 23 41 10 29 58 28 46
67 29 52 95 46 60 95 46 45 91 48 57 90 52 53
83 45 40 70 32 29 64 22 25 70 23 19 77 29 29
77 27 29 76 30 29 69 27 25 58 20 24 42 16 11
36 10 6 23 11 0 19 0 0 13 0 0 2 0 0
8 0 0 1 0 0 0 2 0 0 0 0 0 0 0
0 1 0 7 1 0 12 2 0 4 0 0 23 0 0
31 10 11 36 11 8 38 20 16 49 17 6 47 19 4
45 18 5 51 15 0 53 13 0 68 25 14 81 33 24
93 41 33 88 35 33 73 22 13 75 38 26 86 44 42
40 17 10 14 0 0 13 2 1 21 12 4 18 15 5
14 12 3 20 17 8 18 15 2 16 13 4 21 19 16
18 12 13 17 13 6 26 22 19 22 19 21 19 12 22
19 14 14 13 8 17 17 12 18 21 16 26 30 22 34
5 5 4 12 12 7 14 13 11 9 8 8 11 10 4
13 12 9 8 7 0 6 5 0 19 18 13 15 12 13
15 17 3 15 15 7 15 15 11 15 15 1 15 15 3
12 18 4 18 10 1 16 12 2 18 11 0 17 14 4
21 14 3 13 10 0 23 16 5 16 13 3 22 15 4
16 13 3 22 15 4 18 15 5 19 12 1 15 12 2
20 15 1 16 8 4 27 22 20 20 17 10 20 12 15
15 12 14 24 10 19 27 13 25 31 18 30 52 39 45
0 0 0 4 0 6 63 47 61 105 92 102 109 96 107
82 69 80 45 30 45 29 15 35 22 20 8 24 23 7
25 22 11 25 22 11 25 22 11 25 22 11 25 22 11
26 23 12 23 20 9 25 22 11 23 20 9 22 19 8
23 20 9 17 14 3 16 13 2 19 14 9 15 15 0
20 19 7 18 17 3 22 21 9 17 17 3 20 22 7
21 15 4 22 18 6 33 29 17 25 21 6 27 24 18
24 20 5 23 19 6 20 16 3 21 17 2 29 24 19
6 3 0 10 4 0 11 6 0 3 10 0 15 1 0
5 5 0 8 2 0 4 0 0 28 18 0 23 11 0
29 10 0 31 16 0 34 13 0 34 18 0 33 21 2
44 22 0 57 29 7 70 47 16 72 37 10 75 48 23
92 56 38 57 26 8 33 0 0 49 11 0 146 114 91
80 49 29 61 39 12 56 28 8 51 40 10 61 44 18
71 53 26 45 38 13 77 67 39 65 54 21 65 54 23
68 56 28 67 61 20 65 58 20 60 53 15 53 46 10
57 50 16 51 44 5 55 45 8 52 42 5 52 42 5
53 43 6 61 50 16 64 50 18 48 44 5 56 50 10
58 52 17 60 52 17 65 53 18 64 59 25 64 53 19
68 67 26 54 52 20 60 56 23 58 52 17 55 54 21
60 18 80 43 1 64 60 18 86 68 27 92 68 26 87
128 85 152 187 146 206 191 153 199 174 134 183 189 150 202
189 147 200 148 108 168 88 45 111 50 9 74 48 4 76
76 31 103 47 7 73 54 16 82 55 12 68 50 10 65
49 9 54 41 6 54 44 4 35 40 16 46 28 0 30
26 0 28 22 0 22 17 0 16 27 0 14 34 6 32
61 25 52 64 35 47 96 46 66 86 44 52 93 47 62
89 48 56 77 36 45 69 30 33 69 23 34 59 26 24
81 27 36 71 30 33 75 26 32 64 20 26 55 25 19
43 15 20 31 10 8 35 13 9 12 0 2 13 1 0
4 0 0 5 3 0 9 0 0 2 5 0 0 2 0
0 1 0 0 0 0 0 2 0 4 2 0 9 0 0
11 0 0 20 0 0 30 9 14 44 14 12 37 15 11
42 16 0 37 8 0 42 8 0 50 12 3 61 21 3
83 30 21 92 38 29 92 38 34 66 16 5 74 30 29
78 47 38 41 14 9 18 0 0 11 5 1 15 17 5
16 15 6 17 14 5 16 13 0 14 11 6 19 16 15
16 14 7 20 15 12 22 18 19 9 5 10 17 15 10
18 12 15 17 12 21 22 17 26 20 16 21 17 13 18
18 10 19 16 16 15 13 13 8 14 13 11 17 16 16
12 11 5 13 12 9 16 15 9 6 5 0 26 23 24
21 23 9 21 21 13 21 21 17 21 21 7 21 21 11
19 22 13 28 19 15 18 12 3 17 15 5 15 14 4
19 17 7 16 15 5 22 20 10 18 17 7 20 18 8
14 13 3 16 14 4 15 14 4 15 13 3 15 14 4
16 14 4 15 15 2 14 10 4 17 13 11 20 12 14
21 17 13 33 27 41 52 40 45 67 54 74 87 76 96
80 69 90 103 94 109 135 128 142 169 154 172 136 123 143
74 62 79 39 27 45 29 14 42 31 21 32 25 23 15
26 24 12 27 23 17 27 23 17 27 23 17 27 23 17
27 23 17 28 24 18 24 20 14 26 22 16 24 20 14
23 19 13 22 18 12 23 19 13 21 16 13 20 20 3
17 12 1 22 17 0 19 14 7 19 14 0 24 22 12
22 22 9 29 21 12 24 18 8 30 24 13 29 23 15
27 23 11 29 25 15 25 21 11 26 22 12 26 22 12
30 24 13 15 17 4 20 20 9 20 22 5 19 12 4
24 17 7 21 16 0 25 11 2 23 22 0 11 4 0
22 4 0 18 12 0 19 8 0 26 9 0 24 9 0
24 10 0 18 9 0 31 8 0 23 10 0 9 0 0
30 3 0 58 39 14 55 25 0 39 13 0 55 31 8
63 34 15 64 45 18 75 54 29 57 44 16 49 28 7
60 42 18 67 58 34 69 61 27 40 30 0 55 45 14
55 45 14 55 46 17 59 46 10 52 40 6 47 35 2
40 28 0 49 37 0 48 36 1 48 36 3 51 39 6
56 44 11 64 51 21 65 56 11 75 70 24 40 32 0
52 42 6 55 45 7 65 53 15 56 54 16 69 61 22
69 70 34 76 73 37 61 56 19 67 61 22 59 58 29
62 59 20 56 13 78 48 4 71 74 32 103 93 49 120
91 49 112 135 92 161 189 148 196 182 144 192 158 118 168
181 142 188 186 144 200 153 113 175 91 48 115 48 7 74
38 0 68 43 0 72 54 14 80 56 18 81 58 14 78
54 13 61 51 12 52 44 9 49 48 7 44 37 15 34
28 0 25 29 0 26 27 0 20 21 0 13 32 0 14
42 14 34 61 25 42 71 37 54 97 42 61 88 41 60
86 37 60 79 34 51 72 35 46 70 28 35 68 19 35
71 33 35 84 25 38 73 26 36 74 20 30 67 18 28
51 16 18 43 10 23 32 6 11 31 16 19 16 0 3
12 7 5 13 0 0 5 5 0 7 7 13 5 7 8
0 6 4 0 1 0 0 2 0 0 2 0 7 1 0
9 0 0 9 0 0 10 0 0 28 6 8 33 18 7
38 8 0 32 10 0 40 9 0 38 3 0 47 10 0
48 10 3 85 26 14 93 42 25 88 33 29 72 17 4
67 20 19 80 42 36 40 17 8 7 0 0 7 5 0
9 12 2 15 13 4 14 12 1 13 12 8 18 15 6
16 13 10 14 13 4 18 13 8 22 20 16 0 0 0
10 5 10 23 20 29 36 33 36 38 37 38 26 20 35
15 7 23 4 0 8 15 18 13 17 17 12 16 18 15
14 13 13 14 16 7 15 17 13 11 13 5 11 11 9
16 21 4 14 17 8 14 17 10 14 17 2 14 17 6
14 17 8 12 17 0 18 18 0 19 19 11 27 14 6
24 14 5 27 17 8 26 16 7 24 14 5 28 18 9
28 18 9 24 14 5 25 15 6 23 13 4 28 18 9
27 17 10 27 17 10 26 16 7 28 17 10 16 17 11
18 12 16 23 13 32 29 26 30 49 33 55 62 52 73
81 67 92 51 40 66 190 169 206 175 156 190 150 133 168
64 50 78 4 0 8 3 0 13 27 7 33 39 21 44
21 23 13 23 27 2 24 25 9 24 25 9 24 25 7
25 25 7 24 25 7 25 25 7 26 26 8 28 27 12
26 25 10 25 24 9 25 24 9 18 17 2 23 22 7
25 20 12 2 11 0 13 17 0 11 17 1 15 24 0
22 16 5 25 22 8 25 24 9 22 21 6 25 25 5
21 24 12 30 23 14 27 22 12 27 22 12 31 26 16
29 24 14 27 21 14 36 33 14 34 30 16 34 30 19
31 32 9 35 24 12 38 35 9 35 35 13 42 31 12
19 14 0 27 20 0 24 21 1 37 21 0 26 15 0
25 15 0 23 7 0 24 5 0 1 14 0 3 9 0
0 0 0 0 6 0 15 4 0 13 1 0 20 10 0
27 10 0 43 28 5 54 34 15 64 50 23 69 54 31
58 53 17 54 52 16 59 49 16 73 73 43 31 28 0
48 43 4 60 57 18 63 62 23 58 50 13 51 45 9
46 40 0 38 32 0 65 61 22 57 51 15 55 49 3
58 52 8 57 51 7 58 52 8 64 57 14 74 66 31
48 36 0 48 46 14 54 50 16 57 53 19 63 58 21
62 56 17 65 60 31 69 61 31 64 64 30 67 65 30
64 62 35 65 62 27 62 19 83 37 0 60 88 39 108
112 76 137 119 73 140 169 124 191 208 167 219 181 137 191
170 131 175 200 160 207 210 166 222 169 127 183 113 67 139
73 28 96 71 29 100 102 60 126 31 0 59 54 14 73
58 17 84 50 13 70 52 8 57 42 1 45 36 7 40
42 0 42 11 0 7 24 0 19 31 0 29 22 0 23
39 4 29 40 8 27 59 30 52 86 42 65 90 43 71
81 35 57 81 34 60 76 37 55 62 18 36 59 17 31
68 23 39 72 29 44 70 20 46 72 24 34 70 22 48
59 18 43 49 12 27 33 12 19 34 4 27 28 5 17
11 8 4 12 2 3 4 2 3 5 3 2 5 8 6
8 5 5 2 6 5 1 3 3 0 0 0 0 0 0
1 9 0 2 0 0 0 0 0 8 0 0 25 6 4
39 21 19 24 6 0 34 11 0 35 10 2 34 4 0
42 1 0 59 15 1 72 30 19 84 37 30 85 33 26
60 12 7 70 32 17 78 45 36 33 20 6 13 0 0
8 8 0 15 16 6 13 11 1 13 12 0 13 6 2
13 14 1 11 11 4 16 11 10 12 12 11 18 11 16
0 0 0 31 24 36 49 43 48 43 38 43 50 40 58
51 42 52 24 21 30 0 0 0 14 4 11 3 12 0
19 8 7 5 13 8 19 11 15 19 13 9 15 8 9
15 13 5 17 13 12 16 12 3 16 12 7 15 11 0
12 10 0 12 10 1 11 9 2 3 7 0 34 20 10
26 20 15 25 19 12 29 23 16 26 20 12 24 18 10
28 22 14 26 20 12 27 21 13 24 18 10 27 21 14
24 18 13 24 19 6 24 19 8 29 24 11 27 23 14
34 22 20 21 20 25 11 10 10 8 6 15 17 0 23
31 17 38 39 22 53 42 26 57 43 29 63 75 62 92
70 59 90 21 1 33 8 0 17 53 34 62 52 32 58
1 0 9 39 30 23 27 28 6 29 26 13 29 26 11
30 26 19 26 26 17 31 26 17 27 26 17 26 23 17
22 23 5 21 21 6 20 20 7 19 17 5 19 17 6
15 13 3 23 20 9 9 5 0 0 6 0 18 15 0
15 14 0 19 21 1 24 26 6 25 27 7 29 32 9
20 19 9 22 20 4 24 25 8 27 28 11 25 26 9
26 27 10 28 29 12 21 21 9 45 41 26 42 38 17
42 38 19 42 40 24 48 41 21 40 34 20 38 32 10
36 33 15 65 57 31 57 52 32 58 49 20 57 52 26
52 47 23 35 30 8 24 18 0 12 11 0 5 12 0
18 27 0 45 55 20 43 41 15 15 22 0 14 2 0
19 8 0 22 7 0 34 21 0 10 0 0 23 5 0
51 46 12 70 57 30 35 30 0 26 16 0 45 47 8
39 30 0 62 65 23 94 88 55 97 95 60 86 78 42
69 63 28 66 60 21 68 64 25 99 86 51 81 77 37
77 71 34 66 60 23 61 53 17 58 50 14 60 50 13
65 53 15 51 50 13 58 53 21 63 58 24 61 57 20
65 54 33 63 51 28 55 52 22 60 53 25 54 54 22
57 56 23 59 52 27 61 60 27 45 3 55 75 45 84
98 57 112 92 59 122 92 51 115 105 66 127 145 107 173
190 151 219 191 150 216 162 126 181 173 136 196 207 170 218
179 143 198 102 68 117 50 9 65 49 3 66 63 19 92
54 18 86 36 0 59 28 0 57 31 0 56 32 0 52
34 0 52 40 0 61 58 14 72 21 0 44 28 0 34
28 0 38 13 0 22 40 8 45 70 40 81 59 29 64
67 27 65 92 50 92 88 47 92 68 24 64 70 33 70
72 33 67 70 30 71 83 42 80 72 33 55 66 35 63
63 23 45 45 11 35 33 8 20 28 0 21 30 0 8
31 14 23 11 0 8 7 7 18 17 13 12 24 16 19
17 12 15 15 8 15 8 3 0 18 9 11 0 0 0
0 0 0 4 0 0 1 0 0 12 7 0 6 7 0
11 5 0 0 0 0 24 24 12 19 8 1 12 1 0
20 15 0 24 2 3 29 5 1 51 27 29 88 55 48
95 57 54 73 31 31 57 24 19 46 22 10 41 23 17
14 5 0 5 0 0 13 8 0 19 11 0 18 11 6
19 4 8 13 12 8 20 13 13 17 13 4 17 14 12
25 10 13 26 17 19 0 0 0 47 36 43 153 142 157
132 123 128 48 31 52 20 16 30 55 43 58 44 33 45
36 36 30 37 25 32 25 24 17 25 14 17 22 18 9
22 20 14 31 27 21 12 8 5 21 17 7 19 15 7
21 18 15 34 23 21 30 21 9 35 26 16 37 28 16
23 18 10 24 14 17 22 13 12 18 9 7 25 17 17
27 19 18 21 13 12 25 17 16 23 15 14 31 23 23
38 29 27 40 32 33 37 26 19 29 18 16 28 17 15
24 14 6 41 27 30 36 26 28 40 27 34 41 28 34
28 26 32 23 20 22 18 10 18 8 1 11 18 13 24
5 0 14 4 0 16 31 18 31 34 26 42 31 15 35
32 19 46 40 26 42 28 15 12 27 22 9 29 21 13
29 21 11 32 20 19 21 20 17 35 22 16 21 18 15
37 29 29 36 31 22 33 27 23 32 24 13 32 32 21
29 27 14 32 30 20 31 27 14 19 21 0 23 24 0
24 17 0 22 17 0 20 15 0 18 13 0 17 12 0
10 5 0 33 34 18 38 25 12 30 20 6 35 25 11
32 22 8 37 27 13 42 31 20 44 35 12 37 39 16
30 29 2 25 24 0 27 28 5 41 36 6 49 46 20
48 45 13 44 41 13 46 43 9 48 46 15 65 61 28
69 66 36 73 69 32 74 70 35 86 82 49 93 85 54
84 82 45 79 76 39 76 66 33 69 65 30 75 67 34
69 70 32 68 61 26 67 55 25 56 46 16 61 51 21
62 54 25 54 43 7 58 47 13 61 48 15 65 54 21
54 31 10 93 98 53 70 67 20 56 43 10 51 43 6
57 43 8 65 53 17 66 57 21 62 56 18 57 35 6
54 48 13 64 52 19 67 53 21 68 63 24 70 61 23
61 59 20 63 60 23 59 50 29 54 46 21 48 40 14
41 31 6 37 37 4 42 40 8 44 40 9 54 49 18
40 36 7 40 35 4 39 35 14 32 27 0 50 18 58
62 24 74 69 35 84 66 28 86 59 20 85 66 30 98
110 63 137 111 71 133 182 142 207 159 117 181 174 136 192
189 150 203 200 161 214 176 139 189 126 80 138 87 49 105
38 1 64 55 15 86 47 7 80 46 4 71 51 16 80
56 17 81 51 11 74 46 10 64 53 15 77 33 0 50
36 0 57 41 4 56 38 1 51 58 20 65 85 48 95
83 47 95 58 22 70 78 32 85 68 30 72 60 23 72
77 29 80 85 42 85 66 30 66 64 23 58 40 10 46
51 12 48 44 17 39 38 7 38 40 6 30 33 7 27
37 4 34 40 11 32 20 7 22 13 16 17 21 16 25
20 15 24 21 15 25 18 11 21 16 13 15 16 11 9
3 0 0 6 3 0 5 3 0 5 3 0 3 1 0
3 5 0 0 4 0 0 0 0 30 23 20 15 7 7
12 8 4 13 7 9 24 5 3 28 6 9 52 24 17
72 50 49 83 47 51 67 31 25 41 16 13 53 17 15
27 8 0 23 1 0 6 6 0 25 17 7 15 6 3
18 7 0 19 12 10 20 6 3 16 16 7 14 9 12
25 10 17 18 11 17 22 7 21 1 0 0 42 29 47
106 94 104 87 73 92 37 24 33 24 8 32 24 21 38
36 29 32 29 22 26 31 25 33 24 16 19 19 16 21
18 17 14 26 9 16 28 19 13 14 3 4 17 6 4
16 6 7 15 12 0 17 5 0 17 6 4 16 5 3
23 11 7 0 0 0 4 0 0 12 4 4 16 9 5
22 11 18 18 8 12 24 14 16 20 10 12 12 2 6
18 7 14 15 8 4 18 12 11 25 11 15 33 26 15
32 23 18 37 29 21 29 17 19 33 20 20 29 25 15
32 18 20 26 24 22 29 23 25 25 23 30 22 21 23
35 29 41 32 30 36 33 23 33 25 21 31 36 24 36
29 23 33 35 20 40 30 19 28 32 21 18 34 24 13
29 18 20 32 19 20 28 23 18 33 25 18 26 14 23
28 18 9 30 26 23 29 26 14 31 27 20 30 24 13
23 23 9 26 24 5 28 25 11 21 24 1 31 24 3
28 23 5 27 24 5 27 24 5 27 24 5 27 24 5
27 24 5 22 21 2 42 33 12 32 28 6 30 26 4
31 27 5 29 25 3 35 31 9 32 28 7 41 33 14
33 34 8 33 31 2 30 30 3 28 30 5 44 38 7
51 47 20 52 48 15 50 45 16 42 41 6 52 52 20
60 53 18 65 59 28 60 58 17 63 60 22 62 59 21
66 63 25 74 69 32 69 66 28 72 63 28 67 60 24
64 58 22 58 55 18 65 53 19 59 52 16 63 56 20
64 59 22 68 55 22 69 58 26 69 58 26 69 60 28
81 61 32 67 59 20 81 69 34 62 63 19 65 54 14
61 55 11 67 55 22 67 60 23 71 52 19 72 56 21
54 41 8 67 48 16 58 51 15 65 54 17 56 47 19
58 45 16 49 46 11 54 49 17 45 37 12 50 43 21
46 39 15 49 41 17 45 39 16 44 37 14 47 40 17
49 40 18 49 47 21 47 43 18 48 44 17 43 39 14
48 13 58 51 13 64 48 12 64 34 0 56 32 0 57
44 5 72 82 45 111 74 37 99 163 122 185 158 116 180
157 119 175 139 100 153 165 126 181 197 158 211 168 132 187
135 91 156 59 24 86 69 32 91 49 12 73 46 9 74
55 17 74 59 21 84 49 10 68 40 4 55 38 1 57
24 0 38 28 0 40 40 1 57 46 12 55 64 29 77
77 44 94 68 29 71 78 37 92 85 42 92 63 21 75
68 27 73 124 81 122 131 86 132 84 45 85 63 19 59
58 22 56 60 23 52 55 20 50 44 14 46 47 11 40
33 4 26 33 4 28 28 0 23 23 18 28 25 19 23
26 16 24 30 18 29 24 13 26 22 9 17 23 10 22
19 9 10 22 8 16 10 8 7 10 5 9 11 3 2
7 1 4 7 2 0 2 0 0 0 0 0 24 13 17
11 5 2 11 4 2 23 5 9 16 0 0 18 1 1
41 15 21 67 31 36 74 43 46 53 20 31 40 8 6
26 2 2 17 0 0 16 0 0 19 2 0 34 25 17
17 4 5 17 6 7 13 9 7 22 12 9 12 10 14
13 10 5 22 10 12 15 8 12 17 4 15 20 13 14
60 41 60 83 65 78 55 47 56 26 9 33 21 12 29
32 14 33 28 24 31 32 28 25 29 24 27 28 25 22
33 18 21 28 16 22 21 12 19 17 6 9 32 26 18
24 18 16 30 16 19 24 11 11 26 14 17 21 14 3
23 15 7 24 15 5 27 20 17 33 25 25 31 23 21
18 11 6 13 3 7 9 0 0 16 7 14 23 14 21
39 30 29 22 12 16 16 10 2 16 10 8 27 15 13
35 23 27 38 30 22 47 38 33 24 17 6 31 17 21
28 21 18 31 22 17 25 20 21 28 19 27 25 25 19
24 17 24 32 27 36 24 21 27 29 20 29 27 22 34
34 24 25 26 20 22 30 16 27 29 20 20 31 24 16
31 22 5 33 24 19 30 19 13 29 24 13 26 19 7
28 22 17 29 20 16 28 23 23 28 25 15 29 25 20
27 21 11 26 26 15 28 25 11 23 19 10 16 18 0
46 41 21 37 34 15 37 34 15 37 34 15 37 34 15
37 34 15 37 34 15 37 36 17 35 28 9 33 28 9
32 27 8 29 24 5 29 24 5 29 24 5 35 30 12
38 30 12 30 31 7 26 26 0 37 29 4 38 32 9
48 44 15 54 50 25 59 55 24 64 59 32 47 45 12
55 54 24 61 54 21 63 57 28 60 57 19 63 59 24
62 58 23 64 60 25 75 71 36 68 66 30 70 62 29
70 64 30 65 59 25 64 61 26 69 57 25 63 54 21
73 64 31 68 61 27 76 63 32 73 62 30 75 64 32
74 65 33 84 66 37 75 66 30 74 65 29 58 59 15
65 54 16 57 51 9 67 55 22 66 59 22 69 53 19
71 58 22 52 39 6 60 44 11 53 46 10 52 41 4
51 43 12 45 33 1 36 33 0 37 32 0 33 25 0
37 30 6 39 32 6 40 32 6 40 35 9 40 34 8
40 34 8 37 29 4 51 49 21 47 43 16 43 39 12
39 35 8 45 7 55 44 2 57 38 0 54 37 0 59
51 8 74 84 42 110 114 75 142 126 88 150 142 98 165
176 138 187 189 149 208 153 112 166 144 105 162 170 131 186
170 131 192 174 135 189 113 75 139 101 62 126 62 23 77
46 7 63 52 13 71 57 18 76 43 3 66 19 0 34
57 20 76 42 5 53 48 11 62 54 17 68 64 26 80
75 37 92 75 38 88 74 38 85 64 26 76 67 21 73
38 0 46 55 13 69 138 93 148 146 100 152 77 37 84
40 0 40 58 21 67 60 21 63 49 13 51 42 10 39
45 8 47 32 2 33 32 0 36 19 0 20 31 15 28
17 7 24 25 9 33 19 12 22 21 7 22 12 9 14
18 2 9 9 2 10 22 12 21 24 16 16 24 12 18
7 11 5 19 3 6 4 6 10 12 0 0 8 0 2
22 10 17 12 0 3 17 0 13 19 4 8 16 0 8
16 0 0 37 4 24 59 28 35 56 20 36 46 16 17
32 1 9 28 0 5 19 0 4 21 1 0 18 10 3
30 22 21 18 4 6 23 12 5 21 8 10 17 12 6
22 6 10 9 12 13 24 12 22 13 6 8 26 14 23
40 29 40 70 54 70 58 43 52 28 15 39 25 10 28
26 17 34 27 12 30 21 21 21 23 18 25 24 18 29
25 27 25 28 17 24 21 12 11 22 13 14 10 1 8
35 26 28 25 22 13 31 19 17 32 22 22 27 17 18
31 20 19 26 15 15 29 16 16 23 19 17 21 15 12
8 2 0 0 0 0 0 0 0 6 0 0 35 28 32
70 63 67 73 64 61 55 46 47 32 21 28 23 18 13
35 21 20 41 28 30 42 32 25 43 32 28 24 13 11
31 19 15 27 24 13 30 17 19 24 23 20 28 21 13
24 20 23 26 22 18 22 18 22 23 21 22 26 16 23
22 19 13 26 13 15 28 18 22 31 18 24 27 13 16
37 28 20 29 19 10 32 22 13 30 18 8 29 24 19
27 20 14 30 23 15 25 15 8 28 28 19 28 24 9
29 25 13 25 19 8 23 22 5 24 25 1 25 25 6
13 14 0 54 49 31 42 38 21 42 38 21 42 38 21
42 38 21 42 38 21 42 38 21 44 42 25 35 28 10
35 30 12 34 29 11 32 27 9 32 27 9 34 29 11
34 29 12 31 23 5 31 35 10 27 29 2 33 27 2
37 33 10 45 41 12 55 51 26 56 52 21 54 49 22
46 46 12 48 49 18 59 52 19 58 52 23 58 55 17
55 51 16 59 55 20 62 58 23 61 57 22 61 59 23
61 53 20 59 53 19 58 52 18 55 52 17 59 47 15
54 45 12 58 49 16 59 52 18 59 46 15 54 43 11
58 47 15 57 48 16 67 49 20 52 43 7 74 65 29
57 58 14 59 48 10 60 54 12 67 55 22 66 59 22
69 53 19 70 57 21 54 41 8 64 48 15 54 47 11
53 42 5 43 35 4 43 31 0 31 28 0 29 24 0
25 17 0 32 25 0 34 27 1 43 35 9 40 35 9
41 35 9 38 32 6 33 25 0 44 42 14 41 37 10
38 34 7 34 30 3 40 10 50 37 9 50 32 1 48
45 13 65 70 36 101 100 70 134 130 88 156 140 100 163
108 73 135 160 123 176 208 169 232 211 179 230 191 150 200
177 138 187 175 136 191 192 151 205 155 121 171 142 106 157
108 72 125 101 65 118 102 66 117 100 64 115 67 31 82
45 8 62 49 12 66 56 19 75 53 16 72 51 14 70
53 17 70 56 20 73 48 14 65 53 14 74 43 3 68
47 0 65 16 0 38 37 0 51 123 77 139 137 90 149
60 19 72 16 0 28 43 4 57 37 0 45 33 0 40
31 0 43 40 2 44 43 11 47 43 10 49 37 11 50
31 18 38 30 16 38 27 11 26 20 11 28 27 8 32
19 8 29 23 5 20 20 10 27 23 11 24 24 9 18
26 11 25 19 10 20 25 11 25 21 16 15 27 13 19
22 13 19 14 4 20 12 1 12 24 4 28 23 5 17
23 0 17 15 0 3 31 0 23 49 25 35 42 7 24
44 11 27 45 6 25 26 5 16 25 0 19 27 10 16
26 10 24 25 8 13 21 15 17 25 10 11 24 14 13
21 18 9 23 13 13 27 15 19 19 10 17 8 3 2
29 20 27 68 53 62 74 59 75 44 29 36 19 8 29
29 14 32 31 24 40 34 22 37 26 14 27 28 15 24
29 16 28 30 16 26 24 12 25 25 18 19 24 16 22
20 13 11 18 2 11 20 10 8 15 6 8 17 7 2
20 10 7 16 6 6 19 9 9 22 12 12 10 0 0
13 1 0 16 4 10 22 11 12 41 27 37 78 65 72
122 109 114 182 167 173 52 45 51 64 55 52 40 30 34
25 19 12 33 27 21 33 26 25 33 30 17 29 24 19
22 17 6 26 21 12 27 20 8 31 20 16 25 18 11
22 23 21 24 22 15 27 25 20 17 15 6 18 16 9
21 23 14 21 16 13 29 14 19 27 23 11 24 19 14
19 15 6 36 28 12 33 26 15 30 23 12 29 21 7
30 23 14 29 21 11 26 18 8 30 19 10 22 21 7
24 20 10 23 19 10 29 22 15 25 23 11 26 26 7
25 24 10 15 16 0 47 40 26 37 37 12 37 36 13
37 36 13 37 36 13 37 36 13 37 36 13 37 39 15
38 30 10 35 30 9 34 29 8 31 26 5 30 25 4
30 25 4 35 30 9 34 29 13 46 37 17 37 32 4
34 30 5 34 30 7 38 34 5 43 39 14 43 39 8
38 35 7 49 41 11 50 43 16 54 49 15 53 47 18
49 46 8 46 42 7 55 51 16 56 52 17 53 49 14
51 49 13 56 48 15 51 45 11 54 48 14 48 45 10
56 44 12 60 51 18 42 33 0 45 38 4 43 30 0
43 32 0 42 31 0 42 33 1 51 33 4 37 28 0
74 65 29 55 56 12 59 48 10 61 55 13 67 55 22
65 58 21 69 53 19 68 55 19 65 52 19 66 50 17
58 51 15 57 46 9 50 42 11 44 32 0 33 30 0
33 28 0 26 18 0 34 27 2 36 29 3 45 37 11
42 37 11 43 37 11 40 34 8 39 31 6 32 30 2
34 30 3 31 27 0 27 23 0 53 18 62 38 5 50
34 0 50 49 14 69 70 33 100 85 52 119 93 48 117
88 45 109 65 28 91 85 46 102 119 84 132 150 115 172
173 130 183 167 126 178 173 132 190 188 145 204 165 130 177
167 130 181 158 121 172 171 134 183 180 143 201 167 130 186
126 89 143 96 59 113 74 37 91 92 55 109 81 45 96
66 31 79 60 20 81 51 12 70 49 12 67 51 10 70
103 61 130 101 52 120 70 23 92 79 39 101 168 119 190
172 123 189 100 56 118 78 34 90 84 48 99 78 35 93
61 22 74 56 21 68 59 18 65 63 35 75 61 26 77
62 31 67 46 30 56 41 38 52 48 23 52 36 28 43
46 21 45 31 20 33 35 21 41 40 29 44 24 9 22
24 19 32 28 11 24 29 20 24 31 18 24 32 20 32
30 21 29 41 22 37 17 7 29 33 11 35 25 9 28
32 19 40 20 4 21 18 2 18 26 1 22 42 10 37
48 19 46 47 19 37 42 12 35 37 9 32 32 11 22
36 8 31 36 14 23 19 2 20 39 20 18 30 19 15
24 16 10 29 16 20 26 18 25 23 14 13 23 18 19
20 7 19 30 13 27 69 57 64 75 62 76 35 21 38
32 16 35 36 24 41 40 23 44 25 17 28 30 22 29
31 21 26 28 18 25 28 18 28 28 20 30 29 19 29
36 25 39 38 34 36 28 15 26 32 20 25 30 18 28
30 23 20 30 22 24 31 23 17 30 22 18 24 16 12
38 28 25 45 35 30 49 39 42 64 55 53 78 66 73
94 83 87 107 96 98 146 133 136 24 19 20 42 35 41
28 19 18 24 13 20 27 20 17 31 23 19 31 21 24
34 28 23 21 14 0 26 18 6 30 17 15 21 22 11
21 20 11 23 19 7 25 19 17 29 23 9 15 9 7
23 17 5 17 13 3 17 16 8 22 23 5 31 16 10
30 26 10 23 20 9 38 27 14 35 26 14 33 24 10
34 24 18 25 22 9 26 21 9 24 19 7 28 21 8
22 20 12 24 19 8 23 17 10 27 24 8 22 24 2
22 21 0 27 26 4 19 19 1 36 34 10 30 28 7
30 28 7 30 28 7 30 28 7 30 28 7 30 28 7
28 29 7 35 27 8 35 30 10 31 26 6 31 26 6
32 27 7 36 31 11 38 33 15 35 30 4 48 42 23
42 39 11 33 29 4 33 29 6 38 34 5 37 33 8
35 32 1 28 26 0 54 48 17 48 43 15 47 42 8
44 38 9 41 40 1 44 42 6 45 43 7 48 46 10
64 60 25 58 56 20 61 53 20 60 54 20 60 54 20
59 56 21 65 53 21 69 60 27 47 38 5 48 41 7
51 38 7 41 30 0 44 33 1 44 35 3 53 35 6
39 30 0 67 58 22 53 54 10 58 47 9 63 57 15
65 53 20 70 63 26 69 53 19 62 49 13 66 53 20
71 55 22 60 53 17 63 52 15 53 45 14 51 39 7
44 41 4 43 38 3 30 22 0 38 31 7 39 32 6
41 33 7 41 36 10 40 34 8 40 34 8 44 36 11
34 32 4 31 27 0 30 26 0 26 22 0 35 7 47
29 0 45 34 0 49 59 24 80 85 48 112 85 49 108
55 22 89 25 0 54 31 0 55 32 0 49 46 10 63
73 36 84 108 73 124 141 106 155 156 121 176 167 132 187
169 132 183 164 127 176 168 131 181 184 147 196 200 163 214
190 153 201 160 123 179 136 99 153 147 110 164 166 130 181
150 110 173 115 76 134 100 62 125 83 45 106 93 57 115
110 70 133 152 111 182 169 121 191 137 92 163 135 90 155
201 154 221 198 150 218 144 102 164 149 101 164 146 106 165
131 90 143 99 61 115 76 42 91 75 36 85 67 34 77
69 37 83 61 31 74 64 35 69 53 36 65 55 30 64
47 30 58 45 19 55 43 24 50 45 24 55 48 25 53
42 21 41 36 22 47 46 21 46 38 28 44 47 20 46
41 28 41 42 26 40 43 32 47 41 19 41 35 15 43
44 25 50 45 28 50 34 14 47 26 0 33 31 9 41
33 9 36 72 43 71 64 37 69 57 30 54 37 5 34
28 3 28 41 18 44 44 21 45 30 11 27 41 26 29
34 23 25 35 27 29 33 22 21 32 24 27 29 22 28
35 20 34 23 14 20 23 8 20 60 50 57 69 46 60
28 16 31 39 24 43 45 33 50 38 25 42 23 6 29
51 40 57 43 34 44 37 27 42 35 27 33 45 28 42
54 43 49 63 51 61 70 57 62 66 55 63 64 54 56
65 51 55 58 44 51 53 39 48 47 33 36 44 30 35
42 26 32 44 36 38 37 27 30 39 29 30 46 37 35
52 40 47 47 36 38 23 12 22 18 7 17 24 11 14
34 19 27 33 26 24 37 27 31 34 27 23 34 26 22
35 26 26 39 33 28 17 9 0 26 20 3 18 19 6
23 17 5 20 21 5 23 20 3 15 20 11 21 24 5
8 11 2 12 17 0 22 19 5 19 19 3 26 23 2
21 25 6 30 21 0 26 21 1 41 34 15 33 27 8
32 27 5 33 22 11 26 22 5 27 21 5 26 20 4
25 17 0 20 17 9 22 21 0 21 19 3 24 19 0
24 25 8 24 23 1 22 21 2 23 23 0 28 25 4
25 23 2 25 23 2 25 23 2 25 23 2 25 23 2
25 23 2 22 23 1 32 24 5 29 24 4 29 24 4
31 26 6 35 30 10 36 31 11 43 38 20 38 33 9
56 50 31 44 41 13 38 34 9 40 36 13 41 37 8
43 40 15 43 36 5 30 24 0 58 53 22 53 48 20
49 44 10 48 44 14 45 36 1 47 39 6 49 41 8
51 41 9 63 61 25 57 55 19 59 51 18 62 56 22
61 55 21 59 56 21 65 53 21 64 55 22 69 60 27
62 55 21 61 48 17 55 44 12 53 42 10 54 45 13
62 44 15 59 50 14 58 49 13 48 49 5 57 46 8
58 52 10 71 59 26 68 61 24 69 53 19 63 50 14
65 52 19 68 52 19 61 54 18 66 55 18 59 51 20
60 48 16 49 46 9 60 55 21 39 31 5 41 34 10
42 35 9 38 30 4 34 29 3 38 32 6 41 35 9
41 33 8 41 39 11 43 39 12 36 32 5 33 29 2
