P3
# Imagen de prueba damma (PPM color) para pruebas de OpenMP y Pthreads
8 8
255
255 0 0     200 50 0    150 100 0   100 150 0   50 200 0    0 255 0     0 200 50    0 150 100
0 100 150   0 50 200    0 0 255     50 0 200    100 0 150   150 0 100   200 0 50    255 0 0
200 200 0   150 150 0   100 100 0   50 50 0     0 50 50     0 100 100   0 150 150   0 200 200
255 255 255 200 200 200 150 150 150 100 100 100 50 50 50   0 0 0       50 50 50    100 100 100
100 50 20   150 75 30   200 100 40  250 125 50  200 100 40  150 75 30   100 50 20   50 25 10
10 50 100   20 75 150   30 100 200  40 125 250  30 100 200  20 75 150   10 50 100   5 25 50
50 200 50   75 220 75   100 240 100 125 255 125 100 240 100 75 220 75   50 200 50   25 180 25
220 50 220  180 40 180  140 30 140  100 20 100  60 10 60    100 20 100  140 30 140  180 40 180
